ncols        19
nrows        23
xllcorner    508536.404131802963
yllcorner    5265348.997906560078
cellsize     570.000000000000
NODATA_value -1
-1 -1 -1 -1 -1 -1 0 2 -1 -1 -1 0 12 6 72 67 67 73 55 
-1 -1 -1 -1 0 21 27 21 -1 0 12 48 73 77 81 64 78 71 62 
-1 -1 -1 0 64 90 61 0 0 28 67 62 79 82 81 68 77 58 68 
-1 -1 -1 10 69 58 33 11 49 66 59 66 50 72 69 66 75 48 68 
-1 -1 0 46 72 57 48 57 58 43 56 56 78 98 80 52 60 51 39 
26 33 18 73 64 62 80 63 53 50 43 67 77 68 76 47 71 36 50 
50 51 48 16 57 61 69 64 53 50 27 57 74 64 69 65 40 33 27 
50 76 59 33 44 71 67 52 62 56 43 58 66 54 54 68 46 24 41 
69 67 43 22 60 67 52 33 82 55 42 49 68 60 61 40 70 55 91 
38 60 72 51 52 39 53 46 57 56 58 47 67 44 60 56 50 55 55 
19 55 54 58 37 37 53 52 57 56 47 80 55 52 50 55 60 61 61 
33 48 63 60 58 39 35 61 59 64 82 68 64 57 47 22 58 59 61 
57 62 75 66 66 34 32 64 66 67 70 43 60 60 54 70 53 54 48 
54 73 65 68 72 56 53 38 73 25 72 76 70 51 51 54 44 42 46 
41 52 57 50 67 39 44 57 60 42 57 63 60 63 54 37 39 27 23 
36 53 47 69 58 39 62 57 76 78 64 92 78 61 61 43 50 39 20 
49 55 59 61 61 52 63 62 76 90 94 77 51 66 47 68 27 18 16 
76 65 24 54 55 58 68 68 85 87 90 86 61 62 66 94 42 56 85 
57 51 28 42 52 56 30 68 69 90 123 90 78 81 90 100 44 52 68 
61 61 67 37 34 58 56 70 76 108 95 77 67 78 75 63 85 83 102 
61 52 65 71 72 69 66 68 70 76 76 85 99 109 93 74 87 99 95 
69 44 53 59 57 61 36 52 86 96 91 125 141 129 110 65 67 79 109 
59 44 55 65 50 60 29 55 101 136 118 157 109 163 114 42 96 114 118 
