ncols        87
nrows        107
xllcorner    508541.817039101152
yllcorner    5265626.364124929532
cellsize     120.000000000000
NODATA_value 0
0 0 0 0 0 0 0 0 0 0 0 0 0 0 0 0 0 0 0 0 0 0 0 0 0 0 0 0 0 0 0 0 0 0 0 0 0 0 0 0 0 0 0 0 0 0 0 0 0 0 0 0 0 0 0 0 0 0 0 0 0 0 0 0 0 0 6 52 111 79 74 72 69 83 41 42 62 85 67 82 55 66 58 40 56 75 147 
0 0 0 0 0 0 0 0 0 0 0 0 0 0 0 0 0 0 0 0 0 0 0 0 0 0 0 0 0 0 0 0 0 0 0 0 0 0 0 0 0 0 0 0 0 0 0 0 0 0 0 0 0 0 0 0 0 0 0 0 0 0 0 0 0 22 60 60 50 71 97 78 75 69 56 22 44 95 73 49 61 69 56 78 82 65 67 
0 0 0 0 0 0 0 0 0 0 0 0 0 0 0 0 0 0 0 0 0 0 0 0 0 0 0 0 0 0 0 0 0 0 0 0 0 0 0 0 0 0 0 0 0 0 0 0 0 0 0 0 0 0 0 0 0 0 0 26 38 15 0 0 0 48 73 55 35 85 89 99 100 74 42 26 35 69 70 67 40 58 59 85 46 23 15 
0 0 0 0 0 0 0 0 0 0 0 0 0 0 0 0 0 0 0 0 0 0 0 0 0 0 0 0 0 0 0 0 0 0 0 0 0 0 0 0 0 0 0 0 0 0 0 0 0 0 0 0 0 0 0 0 0 0 16 104 55 19 16 0 0 10 70 51 83 84 84 83 67 38 55 68 85 90 57 68 56 89 119 51 36 27 63 
0 0 0 0 0 0 0 0 0 0 0 0 0 0 0 0 0 0 0 0 0 0 0 0 0 0 0 0 0 0 0 0 0 25 64 67 1 0 0 0 0 0 0 0 0 0 0 0 0 0 0 0 0 0 0 0 11 6 16 63 25 35 44 60 0 0 68 93 72 74 57 95 85 53 54 58 69 87 64 41 72 78 111 51 33 25 74 
0 0 0 0 0 0 0 0 0 0 0 0 0 0 0 0 0 0 0 0 0 0 0 0 0 0 0 0 0 0 0 2 45 54 64 61 0 0 0 0 0 0 0 0 0 0 0 0 0 0 0 0 0 26 51 47 73 44 57 58 81 42 70 91 8 9 77 61 6 73 96 73 43 53 56 44 60 68 55 40 68 56 89 47 26 19 87 
0 0 0 0 0 0 0 0 0 0 0 0 0 0 0 0 0 0 0 0 0 0 0 0 0 0 0 0 0 0 2 59 106 67 81 11 1 0 0 0 0 0 0 0 0 0 0 0 0 0 13 8 32 58 53 58 63 54 72 81 103 38 95 90 66 65 108 97 73 78 97 64 42 46 53 53 81 74 57 71 78 64 81 88 81 63 41 
0 0 0 0 0 0 0 0 0 0 0 0 0 0 0 0 0 0 0 0 0 0 0 0 0 0 19 25 12 25 14 46 46 68 31 0 0 0 0 0 0 0 0 0 0 0 0 0 0 0 41 45 19 67 47 101 58 63 65 73 80 57 80 82 58 40 98 94 88 36 91 61 43 44 44 61 79 83 75 88 73 44 74 70 62 75 93 
0 0 0 0 0 0 0 0 0 0 0 0 0 0 0 0 0 0 0 0 0 0 0 0 10 64 122 79 17 46 37 87 51 43 5 0 0 0 0 0 0 0 0 0 0 0 0 0 7 10 17 61 37 49 39 55 68 90 83 71 56 69 126 93 74 44 86 87 84 69 90 69 34 57 46 73 86 108 112 74 84 44 56 67 89 78 79 
0 0 0 0 0 0 0 0 0 0 0 0 0 0 0 0 0 0 0 0 0 0 31 21 81 104 107 85 48 27 52 80 35 10 0 0 0 0 0 0 0 0 0 0 0 0 0 38 80 27 25 71 67 85 73 36 45 82 94 97 78 64 82 89 78 79 84 106 73 101 123 65 74 41 86 67 72 92 156 86 90 32 49 72 93 67 38 
0 0 0 0 0 0 0 0 0 0 0 0 0 0 0 0 0 0 0 0 4 80 95 117 109 118 107 79 61 55 70 84 33 0 0 0 0 0 0 0 0 0 0 0 0 0 0 81 74 45 57 51 55 83 52 36 47 86 103 88 51 18 49 79 65 76 91 83 76 84 74 62 55 62 77 65 103 82 66 92 45 40 64 74 82 73 53 
0 0 0 0 0 0 0 0 0 0 0 0 0 0 0 0 0 0 0 0 44 116 118 116 114 111 103 89 66 75 57 49 5 0 0 0 0 0 0 0 0 0 0 0 0 0 28 81 68 42 32 86 57 63 53 38 34 69 81 83 25 56 71 94 63 59 98 80 65 79 64 62 61 63 77 84 76 59 79 56 48 42 39 68 72 80 99 
0 0 0 0 0 0 0 0 0 0 0 0 0 0 0 0 0 0 0 0 101 74 105 134 77 104 67 83 94 37 63 56 5 0 0 0 0 0 0 0 0 0 0 0 30 48 59 74 41 19 50 76 73 59 66 43 80 86 87 76 29 1 105 73 60 51 80 70 71 47 83 46 70 47 40 66 54 70 92 83 50 32 25 39 67 94 81 
0 0 0 0 0 0 0 0 0 0 0 0 0 0 0 0 0 0 0 71 112 69 61 98 48 111 79 103 79 114 102 40 0 0 0 0 0 0 0 0 0 0 10 46 48 86 96 99 41 10 28 82 51 52 56 48 65 98 114 75 49 43 84 55 61 86 80 73 80 68 60 78 60 81 67 74 92 71 87 61 48 16 16 29 62 60 87 
0 0 0 0 0 0 0 0 0 0 0 0 0 0 0 0 0 0 4 124 117 71 80 96 48 18 83 70 60 90 77 8 0 0 0 0 0 0 0 0 0 2 60 49 66 90 133 77 23 12 29 64 58 61 73 62 76 85 65 43 56 81 78 61 72 91 91 86 80 93 65 83 88 56 59 58 78 52 99 82 34 27 23 35 62 71 79 
0 0 0 0 0 0 0 0 0 0 0 0 0 0 0 0 0 0 37 91 99 66 52 47 65 63 81 71 86 54 37 1 0 0 0 0 0 0 2 2 16 31 66 46 82 49 37 80 20 10 25 73 67 68 52 86 74 80 97 30 9 69 75 52 61 86 77 53 63 61 58 37 37 73 68 66 67 112 84 82 44 22 48 64 51 80 86 
0 0 0 0 0 0 0 0 0 0 0 0 0 0 0 0 0 0 35 102 105 58 50 10 44 85 36 55 99 48 19 0 0 0 0 0 0 16 32 43 32 64 41 46 46 27 30 59 37 13 6 57 66 65 50 75 87 88 84 67 43 96 54 54 54 106 84 69 64 66 59 33 42 93 76 70 77 110 88 76 67 45 102 68 81 100 61 
0 0 0 0 0 0 0 0 0 0 0 0 0 0 0 0 0 8 77 107 116 56 38 13 99 49 26 78 75 51 8 0 0 0 0 0 0 71 101 60 27 36 31 23 44 57 58 41 24 5 26 72 69 72 62 53 84 31 57 15 49 103 57 65 55 79 98 68 74 33 57 67 64 55 77 58 56 94 93 74 71 63 86 72 83 60 35 
0 0 0 0 0 0 0 0 0 0 0 0 0 0 0 0 0 29 103 110 114 66 39 33 54 49 23 59 65 44 2 0 0 0 0 0 62 118 106 53 62 31 84 34 65 94 27 92 36 5 26 59 56 45 57 75 62 80 102 83 97 98 66 90 96 105 80 89 77 17 1 49 63 93 53 69 44 80 59 64 65 57 63 62 66 23 7 
0 0 0 0 0 0 0 0 0 0 0 0 0 0 0 0 0 68 89 82 72 67 121 63 55 55 41 47 51 36 1 0 0 2 17 32 120 120 85 38 54 35 40 14 23 27 19 8 18 17 22 49 56 35 29 39 55 69 55 107 56 82 118 134 98 98 58 63 90 72 65 60 68 44 81 29 36 40 64 58 16 33 17 51 74 48 71 
0 0 0 0 0 0 0 0 0 0 0 0 0 0 0 0 52 84 86 69 42 57 101 82 31 46 78 73 67 42 58 0 0 0 57 49 99 88 86 42 39 29 10 18 36 24 22 13 16 1 18 79 45 65 53 48 69 73 86 67 81 86 75 89 95 71 65 49 78 37 77 73 88 53 53 70 72 70 66 41 30 28 36 67 71 22 17 
0 0 0 0 0 0 0 0 0 0 0 0 0 0 0 12 100 84 100 80 55 60 63 43 80 64 43 99 71 48 32 45 12 0 64 57 86 85 68 29 39 29 11 26 27 7 16 51 28 33 22 70 65 66 43 73 59 44 74 69 73 80 76 72 85 47 57 80 78 53 109 118 33 69 92 73 45 42 69 55 27 19 38 50 72 67 40 
0 0 0 0 0 0 0 0 0 0 0 0 0 0 0 3 54 86 84 107 77 65 79 72 64 58 69 66 47 46 39 125 69 27 40 20 28 41 39 32 35 36 25 17 14 40 56 51 35 19 26 66 83 13 25 39 87 81 72 89 98 92 60 97 54 63 87 103 92 95 97 78 62 41 35 54 48 46 57 43 56 27 44 48 72 50 55 
0 0 0 0 0 0 0 0 0 0 0 0 0 13 60 80 37 72 95 93 94 74 68 27 60 50 41 71 81 64 60 102 75 65 60 27 23 38 35 34 26 9 8 19 20 25 56 26 23 27 46 70 69 68 73 48 80 106 81 69 82 74 72 65 60 36 62 102 71 49 78 114 41 65 30 35 45 97 100 56 45 44 28 59 28 68 134 
0 0 0 0 0 4 29 30 20 1 0 0 0 79 96 104 54 78 86 85 101 72 66 52 66 31 58 69 56 68 56 80 55 42 59 48 47 56 48 28 10 19 23 33 45 39 35 46 29 55 43 60 62 82 86 89 92 90 59 69 57 43 29 71 80 66 75 68 67 96 88 100 68 75 57 37 54 82 104 58 46 51 41 54 37 87 111 
0 0 0 1 39 46 31 54 69 13 0 0 0 102 102 98 86 120 68 64 96 54 58 37 68 64 62 62 61 47 74 47 82 30 53 69 72 58 48 48 60 24 51 40 42 31 38 47 54 43 35 61 86 86 58 50 59 62 54 70 56 80 62 69 72 56 100 87 73 45 63 53 79 78 26 30 30 131 98 55 58 46 80 71 55 56 63 
0 20 20 42 63 51 65 63 43 23 0 0 13 44 83 95 105 73 69 85 13 69 41 60 67 38 67 82 75 52 52 56 84 51 57 73 16 62 26 43 42 19 27 34 36 30 25 30 42 31 21 82 61 72 40 36 34 26 48 70 73 69 78 69 73 89 92 73 75 63 41 81 59 52 35 30 0 100 71 107 57 22 39 52 52 34 56 
71 82 80 78 39 64 39 46 47 19 0 0 32 51 45 48 57 50 52 59 16 53 52 43 45 45 61 71 84 49 50 60 68 69 65 46 38 59 45 55 28 29 47 42 44 39 56 41 42 23 25 89 102 79 56 30 23 50 69 72 74 73 8 77 108 74 43 76 77 69 55 41 68 74 40 34 51 102 69 73 52 4 16 3 17 29 38 
73 49 55 62 53 33 50 56 42 49 0 0 43 46 32 26 52 32 51 47 30 49 51 50 38 43 74 79 81 62 59 60 87 70 52 36 2 33 28 37 26 43 47 59 42 35 16 26 32 28 29 71 73 76 68 53 57 56 58 86 94 58 45 60 66 44 91 101 68 83 59 107 95 56 37 60 63 55 71 71 55 6 1 11 25 36 19 
65 57 49 55 52 3 47 49 47 24 0 13 69 71 47 40 37 40 45 107 109 95 50 48 52 63 73 73 100 83 80 40 72 79 67 51 55 33 62 74 9 44 60 50 40 52 19 57 43 37 35 22 25 22 38 50 67 106 56 64 87 66 60 36 102 109 97 110 64 62 70 70 75 51 60 60 72 68 67 48 60 33 13 3 12 27 29 
46 77 74 72 55 52 30 44 89 0 19 64 59 60 58 30 33 29 32 80 101 79 11 39 63 54 45 69 85 36 27 75 60 65 60 44 28 58 72 59 14 29 59 45 34 25 50 40 34 29 31 40 43 57 42 61 55 64 49 77 90 73 29 28 64 91 82 89 75 51 92 55 84 75 38 58 32 36 91 43 24 49 44 26 42 56 12 
56 63 48 49 58 40 35 68 75 56 71 99 40 50 43 28 22 46 29 19 106 90 39 31 30 69 63 77 60 48 89 85 57 75 83 71 88 65 58 40 10 49 47 47 44 50 28 22 25 42 41 29 28 15 21 31 49 48 53 89 86 69 107 67 84 72 69 71 71 71 105 57 71 82 66 66 68 96 52 51 45 65 37 34 52 45 105 
62 47 42 50 35 69 45 55 76 52 102 102 40 30 63 59 28 23 26 0 75 52 50 60 52 70 42 68 60 30 96 85 67 77 93 61 69 89 87 82 63 61 63 67 33 58 38 42 30 30 35 32 33 22 25 32 49 44 66 87 82 67 74 89 61 80 71 56 68 67 70 55 58 59 59 81 68 59 28 49 36 37 36 30 43 25 50 
53 66 44 65 77 71 63 60 72 122 116 63 43 73 45 29 41 15 7 52 65 45 65 44 64 64 66 50 87 90 119 56 101 62 89 80 71 73 88 78 74 72 46 63 48 51 64 26 40 34 57 15 41 28 31 38 77 48 56 79 107 72 66 61 34 61 57 64 57 68 79 80 61 63 76 63 59 55 32 28 26 30 36 47 43 28 36 
44 46 39 58 81 66 69 74 126 90 96 81 68 66 36 47 67 49 78 53 70 47 47 57 63 67 79 85 94 77 92 57 74 76 62 66 60 76 68 61 60 59 67 56 70 53 44 53 40 36 55 43 36 34 32 32 55 49 60 74 85 71 62 82 57 57 53 63 65 46 87 94 98 78 51 38 51 14 24 30 25 38 40 44 64 25 23 
51 52 34 36 48 58 72 66 67 105 78 71 60 73 34 58 49 36 48 30 54 51 48 52 62 60 68 87 100 57 73 43 54 53 52 53 66 55 56 51 72 54 59 49 61 62 63 54 69 62 66 34 26 23 49 42 58 75 49 53 56 69 72 53 57 52 60 46 51 41 69 98 106 54 60 42 19 34 50 58 57 27 26 19 21 19 15 
56 60 39 50 74 84 74 61 72 88 59 49 63 52 31 47 40 25 36 30 27 38 84 71 73 89 77 91 88 81 64 46 50 34 56 59 58 46 28 41 56 75 56 42 63 78 52 31 43 88 56 30 24 33 48 65 43 85 58 76 73 63 35 76 51 27 63 55 24 35 52 63 66 29 63 55 54 60 63 40 63 25 13 0 0 29 47 
53 53 57 90 79 75 76 86 93 87 70 67 51 47 36 15 21 30 38 27 31 43 63 76 83 91 75 72 17 80 72 47 44 34 60 79 67 64 58 78 66 73 82 62 53 52 27 37 52 56 25 24 26 31 50 64 41 58 76 73 58 52 92 77 58 47 63 40 30 31 39 63 43 24 62 96 52 87 70 50 86 29 16 0 11 103 100 
24 53 51 82 74 56 91 40 61 40 37 38 37 31 23 36 31 30 33 28 35 54 69 78 80 77 77 78 55 67 114 51 34 35 49 36 72 59 62 70 81 99 103 49 53 27 15 53 73 77 77 47 41 25 46 33 40 78 85 115 73 61 62 54 48 90 49 39 41 23 48 55 47 36 30 69 19 66 66 73 50 52 28 0 14 113 67 
59 69 77 75 91 49 64 51 56 57 60 41 29 31 29 30 34 31 31 50 75 76 64 82 78 53 55 83 66 52 50 80 56 70 49 47 59 68 121 73 81 147 119 71 69 37 22 43 48 7 27 30 38 41 35 37 74 99 104 67 66 78 81 67 58 60 39 46 90 80 57 43 48 45 47 35 64 52 80 97 56 35 26 0 0 102 130 
72 51 79 77 72 43 76 100 65 48 60 44 40 37 25 34 44 31 44 73 80 55 91 71 69 68 62 64 56 62 57 75 63 52 55 47 40 54 78 59 90 77 75 74 62 38 40 71 49 72 5 16 43 31 46 48 70 80 76 50 48 83 42 47 43 66 31 48 73 55 58 46 45 21 56 58 119 72 96 110 78 36 42 43 34 86 143 
58 59 68 75 80 61 61 66 86 63 47 43 39 21 22 27 29 40 74 72 57 51 76 98 55 32 72 52 50 65 46 50 54 50 54 51 37 60 73 87 92 106 80 80 63 25 61 39 66 12 44 54 42 31 57 61 24 38 90 42 46 57 68 73 46 71 73 77 63 73 60 58 22 32 42 34 99 43 56 74 55 24 41 60 73 93 57 
63 98 84 63 55 76 84 64 86 96 58 61 41 38 46 60 73 55 57 80 55 66 29 47 51 54 77 77 56 47 50 44 41 45 44 52 2 63 68 85 67 76 58 102 48 33 60 76 34 3 74 67 63 49 31 27 30 73 119 43 44 54 43 35 42 42 60 41 20 55 21 84 57 19 61 22 17 42 62 79 78 50 54 45 115 67 61 
61 77 34 25 38 62 88 50 63 93 77 76 74 47 62 85 97 62 62 52 46 32 33 31 52 67 22 41 41 51 61 54 34 41 49 65 31 59 89 73 46 60 49 58 66 70 57 41 83 61 63 78 86 42 25 19 27 52 75 70 51 61 53 51 47 54 63 39 21 40 6 79 55 29 45 45 46 59 75 31 73 65 39 97 100 98 69 
74 64 34 44 42 65 95 91 81 85 91 73 55 42 41 59 60 72 45 56 71 51 47 37 46 85 65 88 54 46 37 64 53 56 35 32 28 43 82 52 62 43 70 55 66 38 26 47 82 66 124 61 76 62 30 22 27 58 71 43 48 39 38 48 54 29 39 78 54 51 36 9 81 75 63 38 48 68 34 38 55 63 57 126 67 13 35 
77 38 34 20 15 36 66 80 88 89 102 92 78 44 39 59 48 50 49 61 77 49 71 62 62 57 63 37 45 51 56 66 65 39 44 32 17 54 63 52 55 53 88 69 60 24 37 70 50 77 65 57 71 35 28 29 28 36 64 64 106 62 39 33 35 56 61 57 49 85 52 30 28 51 62 85 49 56 11 26 19 64 46 75 105 103 20 
66 41 20 34 25 25 75 61 86 84 89 85 76 57 47 64 48 56 45 56 40 82 63 66 48 20 36 30 73 63 83 73 57 55 57 60 41 23 40 62 61 86 72 81 66 19 56 70 45 70 78 49 14 46 33 33 32 45 72 83 70 49 44 32 44 44 35 57 36 14 20 45 22 43 68 52 58 70 44 18 1 36 57 39 29 33 0 
59 38 52 30 31 36 44 54 69 61 68 99 62 58 48 41 58 53 53 51 54 66 67 50 51 29 34 24 54 42 47 82 89 24 43 72 72 52 45 79 61 78 32 55 74 16 64 52 47 64 23 60 44 35 36 38 57 69 87 77 71 46 27 37 34 40 37 54 39 34 33 54 51 45 67 84 91 68 73 21 32 59 99 48 54 24 70 
30 32 29 19 32 30 52 73 91 41 38 70 59 48 55 43 42 46 43 40 54 51 10 60 42 29 27 39 75 42 30 62 23 22 33 31 57 63 67 78 99 53 42 67 58 13 31 49 60 35 12 33 55 45 46 51 79 70 83 68 67 54 41 50 31 26 32 55 52 60 7 12 60 63 71 91 58 38 40 23 56 56 99 59 61 71 50 
33 35 51 37 29 48 65 94 49 27 40 42 65 58 74 65 63 48 75 48 50 18 30 56 43 34 29 38 32 26 54 68 36 55 53 56 47 51 57 56 72 87 97 37 39 24 29 85 47 14 19 27 4 82 89 73 57 80 105 72 0 63 3 0 31 39 85 57 85 77 24 8 17 85 90 116 105 74 49 55 88 49 54 38 66 66 90 
47 37 48 34 27 43 65 53 61 43 36 54 67 99 67 29 53 83 70 45 45 33 38 53 54 13 14 23 30 34 48 49 49 30 33 74 73 73 45 57 42 55 58 53 52 55 68 90 22 4 28 77 60 67 100 109 82 105 71 61 42 40 9 9 96 73 55 75 45 41 17 29 38 63 83 87 73 74 49 41 69 50 54 41 79 61 75 
48 37 30 29 36 48 53 62 44 42 52 62 86 91 73 53 76 71 41 50 45 48 63 75 53 34 43 44 28 45 57 71 52 32 20 55 85 83 51 49 45 32 34 66 90 103 88 90 52 55 40 72 76 59 81 62 72 72 78 53 86 52 47 59 57 70 74 60 0 0 69 58 31 49 6 56 96 74 55 14 17 39 46 13 113 56 39 
38 36 47 26 30 25 40 51 38 36 57 45 42 8 22 58 74 52 57 39 47 58 67 58 22 63 78 53 22 61 57 73 66 38 34 63 21 80 52 65 33 55 90 56 99 85 102 72 112 72 92 71 107 63 64 59 81 71 54 80 66 77 75 49 76 67 60 48 0 1 39 8 0 0 18 84 81 90 77 57 84 46 47 18 43 65 54 
31 33 32 25 24 28 61 39 35 37 50 59 85 53 49 76 71 54 40 42 55 92 61 20 53 59 57 49 55 52 78 13 96 36 58 58 28 45 84 43 81 71 69 72 66 60 77 84 92 94 63 87 68 70 40 51 86 57 36 71 52 91 51 38 53 53 53 31 0 35 0 0 0 0 5 26 46 114 115 87 99 73 53 23 57 71 74 
31 36 47 23 34 41 78 33 44 40 61 60 79 56 64 73 66 58 50 44 43 77 72 74 74 72 41 57 37 46 43 56 47 99 69 19 54 43 31 62 57 64 86 42 62 73 76 75 79 76 63 74 62 50 48 55 58 62 56 69 48 41 29 23 25 21 47 58 48 80 35 31 0 0 0 19 16 70 96 128 58 79 66 55 68 66 64 
32 36 29 23 37 60 75 37 54 27 80 62 66 70 62 51 83 60 54 71 44 37 83 64 24 9 29 15 21 31 12 19 58 60 67 53 81 65 30 102 49 6 58 70 67 109 66 67 58 25 71 70 58 79 99 72 96 53 68 47 37 48 58 71 28 34 62 60 72 51 60 46 36 22 0 52 20 9 26 98 69 68 71 74 77 47 82 
38 36 20 36 66 37 52 43 44 59 108 67 68 62 47 36 62 90 57 52 50 58 51 86 63 2 46 62 45 37 27 21 45 24 67 29 31 38 61 66 70 1 27 48 50 58 59 56 68 53 77 82 63 53 58 50 60 58 60 50 54 69 73 52 32 54 51 58 62 62 57 76 37 84 68 0 0 0 16 59 60 42 60 64 70 65 61 
39 29 32 65 65 62 40 56 36 69 88 101 53 76 61 60 49 69 38 61 75 53 71 63 93 118 55 66 16 48 51 44 41 48 72 14 0 107 80 77 71 34 57 64 66 41 58 60 62 69 93 51 89 61 46 71 40 56 72 58 58 60 69 26 41 67 34 53 83 79 58 58 63 96 54 23 0 0 0 71 66 26 70 74 66 66 29 
27 22 33 71 76 41 59 97 70 103 89 80 62 87 70 65 83 91 66 54 38 51 63 44 65 51 54 57 50 80 62 54 63 39 4 0 26 85 59 61 70 40 69 106 75 79 81 59 90 58 64 83 32 77 44 63 64 78 71 68 70 65 65 20 54 36 23 62 54 56 50 54 88 84 56 48 9 106 60 73 40 35 72 73 58 55 33 
32 21 67 64 60 61 48 59 78 49 85 94 63 64 61 84 80 55 66 60 86 111 89 53 38 82 53 17 8 47 51 11 28 25 18 28 76 55 58 100 82 111 106 45 53 55 72 26 128 46 83 54 59 54 44 36 58 55 44 57 57 55 52 28 56 24 19 61 43 50 48 77 103 89 29 76 70 64 81 62 54 26 45 64 62 52 85 
42 62 69 75 50 56 48 52 84 62 90 79 54 67 53 68 72 55 67 83 59 28 87 87 42 97 12 14 2 0 17 49 31 23 0 56 50 58 46 32 53 103 66 81 61 37 71 59 70 38 42 48 51 50 48 38 44 56 78 40 34 57 86 63 58 11 29 38 46 55 62 66 80 107 94 74 66 66 83 74 63 49 24 39 69 63 36 
47 65 64 59 63 75 76 50 46 41 64 56 51 72 64 61 62 36 42 102 44 42 16 90 45 59 75 59 66 51 83 35 12 70 42 64 26 43 53 58 71 59 63 87 58 54 75 71 32 61 82 68 73 59 54 45 62 57 42 66 53 56 70 84 19 23 25 44 38 41 59 87 60 101 79 60 52 38 50 82 45 28 41 51 31 66 46 
63 74 63 37 68 99 41 89 90 66 64 98 64 85 41 52 56 89 148 107 58 54 85 106 10 40 65 80 71 58 74 2 68 61 1 26 92 34 30 65 72 70 68 63 62 78 41 65 7 67 66 71 79 103 79 67 65 77 56 71 78 60 65 56 25 29 30 50 52 46 59 41 45 76 58 75 59 29 47 107 65 39 36 43 26 40 71 
70 88 40 41 54 70 76 101 35 63 72 34 62 48 49 53 82 57 93 44 63 63 76 76 15 74 62 64 46 66 31 2 35 75 16 33 81 60 79 84 52 88 57 58 41 45 38 58 14 57 64 84 81 86 62 75 80 59 69 95 70 55 55 79 56 34 45 55 49 63 54 37 42 73 41 66 59 35 31 43 41 48 49 26 56 18 54 
74 62 15 39 56 68 76 74 64 86 51 77 60 48 67 31 25 70 72 63 86 15 70 73 63 60 37 82 69 63 54 51 58 68 44 74 92 74 37 25 44 59 42 41 40 54 37 40 44 89 78 98 88 91 66 107 63 68 70 63 67 46 48 24 22 40 47 45 63 62 61 29 46 67 49 34 50 35 29 31 39 33 52 35 68 97 77 
75 32 36 49 65 68 62 67 38 36 63 62 48 60 67 59 106 69 80 59 42 19 42 65 60 64 46 71 41 34 41 43 81 68 71 47 59 51 54 62 89 95 51 66 49 37 49 69 60 64 113 88 70 52 63 85 76 61 61 56 66 50 55 41 47 42 45 71 58 61 43 58 34 67 66 53 47 31 37 32 39 26 33 42 60 65 34 
46 33 62 61 60 70 81 69 34 33 53 76 92 54 44 38 26 146 19 45 34 41 76 87 67 67 62 59 59 35 60 83 71 55 58 45 57 52 55 69 47 91 43 61 37 51 38 69 62 88 74 90 100 47 64 57 75 57 41 47 52 65 44 40 81 60 82 58 47 95 64 43 58 64 70 55 52 49 32 25 49 33 30 36 40 30 29 
49 42 66 51 55 56 73 70 63 65 43 57 88 84 120 36 21 37 42 40 71 97 81 90 41 54 65 49 55 62 41 64 78 58 65 54 76 75 55 60 71 68 91 96 34 37 43 54 70 76 83 93 78 70 40 35 29 37 26 30 47 42 51 86 106 115 58 51 62 75 63 67 54 52 57 62 67 32 33 47 33 41 35 35 39 44 47 
53 77 71 51 59 51 80 65 63 42 47 63 70 99 58 70 0 44 54 58 83 80 47 65 33 30 37 34 36 27 64 80 55 87 73 44 53 55 53 71 33 79 86 78 45 74 84 84 53 72 70 102 85 105 68 59 53 35 23 19 22 43 53 47 57 57 40 53 35 55 59 60 62 50 55 67 65 32 33 28 20 28 33 37 28 48 55 
38 40 48 65 56 51 57 59 60 30 74 44 53 66 54 67 39 63 80 65 66 51 54 71 41 44 63 25 32 37 65 17 63 108 73 84 75 58 38 43 37 70 37 41 64 69 66 67 60 30 40 50 81 53 63 59 42 28 35 50 44 48 52 59 56 84 61 64 53 86 66 45 35 23 23 27 30 17 28 25 8 28 41 72 41 48 45 
40 42 44 61 53 67 54 48 62 58 43 62 47 109 102 63 57 87 70 64 53 81 67 56 56 57 55 55 60 44 33 39 75 59 63 59 47 84 38 31 64 34 36 55 59 67 83 72 49 50 45 50 45 67 38 28 29 49 38 81 87 70 57 59 60 47 70 62 58 72 64 40 26 55 26 23 26 29 25 9 19 56 67 60 57 43 44 
64 39 56 63 62 54 57 43 69 40 35 1 10 94 12 81 80 75 76 43 48 52 33 48 51 71 43 58 33 45 32 32 49 0 0 31 79 63 45 64 68 97 77 77 85 68 65 61 58 30 45 99 88 91 51 33 40 77 72 89 71 65 43 47 71 61 61 51 49 74 58 50 47 35 27 46 50 58 48 33 72 76 52 33 58 53 60 
66 55 52 40 51 53 42 47 66 36 55 103 92 10 53 77 63 86 60 63 46 30 43 49 55 81 71 42 44 48 38 33 20 1 0 66 22 61 91 73 77 71 79 80 66 85 72 59 9 22 60 86 75 79 125 115 95 81 103 71 85 64 71 79 64 50 58 74 58 62 54 69 40 37 46 29 36 58 66 57 64 60 46 32 51 56 45 
40 45 53 43 54 42 79 62 65 82 94 47 1 20 56 77 133 53 47 37 37 28 39 49 58 64 66 31 25 61 64 57 61 1 51 58 61 81 74 67 78 67 101 89 89 87 102 91 46 56 78 84 85 115 102 130 115 100 83 98 75 64 67 57 56 57 52 55 37 73 72 62 35 39 28 42 38 37 57 62 58 84 60 37 60 53 40 
36 48 38 59 55 111 45 61 67 67 23 31 43 0 25 91 65 28 71 95 36 23 27 61 64 67 79 58 78 73 62 98 17 32 65 70 62 67 73 64 79 56 71 57 43 91 68 58 105 90 85 86 94 88 105 150 97 103 77 105 61 84 55 57 78 66 49 53 35 87 64 53 44 35 33 34 29 51 47 42 54 55 53 45 48 39 69 
39 55 54 54 64 94 46 32 33 30 56 87 45 31 72 85 82 55 64 60 69 23 34 50 68 61 49 84 54 62 75 57 46 64 66 68 84 84 90 67 55 82 108 65 63 29 16 33 28 83 76 77 89 95 109 82 113 87 85 78 87 87 52 37 63 51 37 41 42 67 43 57 55 36 30 35 43 74 60 38 40 49 41 54 52 41 52 
54 36 54 54 52 64 35 58 46 67 82 28 47 82 53 25 21 56 38 81 56 32 38 36 69 61 60 84 33 57 70 48 56 44 40 60 81 58 69 75 64 74 98 23 20 14 8 9 39 120 87 61 81 102 120 100 82 71 44 61 77 71 47 18 20 19 20 32 38 40 37 38 41 35 37 49 54 33 28 40 42 47 48 41 54 52 51 
60 42 56 97 82 45 64 86 54 50 54 23 77 74 49 42 54 53 44 77 43 49 50 37 62 57 66 86 42 63 44 48 56 33 33 60 53 69 65 101 73 65 93 24 40 3 6 0 2 117 92 70 87 107 80 73 89 55 58 53 64 62 68 57 36 20 17 34 38 46 41 45 48 42 42 39 22 30 24 35 46 43 56 52 56 59 69 
65 53 59 33 73 73 76 46 54 96 9 51 60 63 63 48 59 68 40 67 59 40 35 80 73 65 67 73 53 40 47 69 47 52 67 62 65 60 75 72 92 75 76 46 0 11 30 11 80 147 139 127 91 102 95 67 74 49 36 83 47 75 58 80 31 31 24 47 59 47 50 43 56 46 30 35 31 23 28 28 44 54 45 62 52 42 47 
34 52 55 56 70 48 58 18 74 64 42 88 115 69 45 30 71 54 40 59 67 33 69 70 53 43 29 63 84 38 118 76 58 68 77 67 98 70 72 86 70 78 63 63 83 8 23 101 53 89 86 95 119 85 93 62 51 79 91 81 90 34 36 67 62 72 46 63 49 48 47 45 54 85 47 26 38 33 26 29 34 34 36 35 33 27 37 
116 61 71 106 70 78 57 85 35 58 58 82 56 65 58 51 48 82 62 57 71 88 68 69 97 42 48 86 37 49 107 104 80 56 54 30 32 96 77 70 85 75 57 102 88 63 84 87 97 88 92 127 116 85 61 63 54 73 92 99 46 67 82 75 58 58 52 57 38 45 40 47 84 82 95 29 53 52 33 33 36 39 39 58 34 53 49 
71 70 70 61 67 99 65 75 42 29 18 46 76 78 54 67 23 59 46 70 62 65 87 64 72 80 58 73 119 60 97 134 143 85 56 68 71 82 72 83 84 104 86 110 92 77 86 78 92 71 118 116 117 120 65 74 61 97 72 60 5 91 91 69 48 65 59 60 46 32 47 47 99 79 78 30 29 29 31 36 39 35 50 67 37 39 204 
62 74 81 79 56 59 84 100 1 34 52 35 51 52 76 66 39 61 27 24 25 59 71 52 92 37 76 61 136 55 126 100 79 79 66 71 67 64 77 81 107 116 123 98 101 98 71 100 78 88 127 102 101 96 69 47 77 59 81 75 43 32 0 0 43 61 68 33 50 102 76 74 107 91 125 51 28 38 36 67 49 66 86 55 18 21 36 
66 82 89 51 101 65 76 117 38 95 61 111 65 54 62 37 55 55 61 8 10 69 60 64 52 84 88 27 87 22 60 75 62 50 54 77 62 65 67 81 91 83 114 123 104 110 66 73 150 96 77 84 117 101 107 88 61 68 92 92 96 97 82 87 73 67 72 69 89 101 92 110 107 106 119 64 36 61 78 98 59 70 61 40 27 28 31 
56 31 62 97 82 66 72 90 75 48 38 86 10 1 21 42 46 27 54 40 26 67 54 63 56 99 26 0 30 0 6 82 81 45 63 109 96 90 40 31 49 77 108 87 107 53 69 82 77 74 83 90 116 100 59 29 41 59 41 78 87 91 96 73 79 61 76 53 94 88 84 117 116 103 134 56 77 61 72 56 56 62 64 79 30 55 58 
55 90 47 64 52 28 73 78 32 51 74 55 12 3 52 83 6 68 66 5 20 61 30 74 84 32 55 25 37 0 0 80 64 102 64 64 100 79 32 46 62 75 80 83 80 65 100 108 95 112 119 94 67 98 89 62 28 50 5 32 7 42 77 48 53 85 65 60 74 108 107 112 101 88 73 59 99 62 55 60 57 68 57 78 60 71 53 
38 64 33 48 67 31 65 50 80 78 68 62 10 3 35 41 21 45 68 59 53 65 55 82 66 35 39 57 12 0 0 35 59 98 95 49 70 88 68 44 57 114 95 80 69 84 92 122 117 113 123 28 99 88 104 86 71 0 7 46 25 29 32 25 46 69 82 84 95 126 90 110 109 124 103 97 67 57 34 32 32 42 26 75 57 70 65 
59 62 61 52 80 52 55 37 56 81 60 66 83 58 41 6 42 68 61 45 51 72 127 59 83 43 2 36 0 0 0 0 39 48 90 90 87 79 81 79 70 95 84 76 66 81 113 184 156 118 82 53 77 100 86 82 84 0 32 55 101 58 47 44 40 65 62 70 105 78 75 75 184 150 105 85 109 59 40 39 64 49 34 60 76 87 131 
97 51 57 41 30 73 40 32 46 75 66 109 70 80 77 40 47 62 63 51 49 27 82 54 27 22 85 52 34 58 39 0 33 25 94 72 58 52 81 69 66 74 55 62 86 81 87 130 147 104 96 47 25 92 81 77 81 94 77 82 87 67 83 31 27 65 81 118 89 133 86 105 81 126 104 121 67 56 46 38 66 46 39 90 54 74 58 
89 67 53 39 17 53 24 13 68 32 28 45 25 22 60 29 59 90 62 71 52 70 63 70 54 13 91 122 115 99 50 19 0 34 70 71 61 58 85 64 79 78 29 70 83 85 120 195 161 111 89 61 53 93 86 77 82 83 81 83 88 79 76 42 41 46 40 11 33 101 75 114 82 77 94 89 73 52 57 30 35 39 47 44 70 83 104 
81 50 62 60 33 93 13 42 45 60 45 28 69 44 67 63 40 54 39 44 54 46 35 60 59 96 36 61 79 57 45 70 0 45 68 84 57 74 60 63 72 34 36 94 101 93 87 104 104 101 97 40 37 128 88 72 108 67 87 79 88 75 85 33 28 0 10 2 80 110 100 59 80 122 87 97 76 50 75 62 49 47 41 52 87 77 40 
74 29 38 56 104 43 65 47 79 70 48 27 61 67 46 82 58 48 28 35 65 47 36 63 51 63 40 68 56 38 39 55 0 121 99 68 37 61 58 75 34 66 70 67 77 113 104 152 143 104 86 57 47 107 80 85 95 78 88 64 78 103 93 59 19 7 51 59 93 102 91 44 61 117 76 46 56 59 81 87 59 81 27 6 8 48 82 
89 66 62 67 67 76 39 59 39 40 57 79 75 97 59 75 37 44 38 43 58 33 47 70 46 59 48 44 23 21 9 56 10 103 84 69 89 59 63 67 47 51 63 78 96 175 238 145 135 90 119 114 78 87 91 68 102 86 44 26 72 87 71 76 76 63 83 82 90 73 89 65 71 43 19 62 71 57 68 71 88 58 50 73 48 114 94 
40 52 68 57 53 97 27 67 70 50 74 82 98 106 62 9 51 50 43 50 68 56 54 47 52 35 56 50 38 18 41 78 87 58 55 66 66 50 41 65 59 76 76 118 92 113 131 99 133 114 153 101 112 79 82 81 67 56 72 84 56 68 92 71 85 77 51 67 82 95 71 60 60 55 73 78 70 66 113 189 169 107 86 82 92 113 64 
83 27 51 90 85 60 38 63 64 57 55 93 48 81 76 87 64 41 54 31 83 53 55 61 60 56 45 51 52 53 60 56 56 57 61 62 59 63 86 29 42 82 77 57 86 115 103 122 82 82 102 75 80 100 75 53 0 10 92 101 85 71 138 78 58 102 92 59 90 87 69 67 70 54 52 74 97 92 119 133 132 111 135 84 185 101 180 
62 68 61 87 84 43 26 46 75 64 61 70 66 94 93 39 50 43 25 63 75 75 107 95 65 63 68 68 10 40 64 67 28 40 48 64 89 72 64 57 65 60 52 51 60 70 61 60 68 92 97 82 84 77 32 15 75 97 78 127 88 117 94 74 88 90 101 69 63 70 79 93 68 70 71 80 83 105 145 108 101 77 139 75 137 124 104 
69 71 66 82 74 63 61 46 38 59 70 69 58 66 62 66 73 41 37 54 60 73 119 101 56 44 55 60 41 73 85 45 31 55 65 68 68 68 62 65 51 74 66 73 74 76 73 81 77 57 61 79 67 60 63 64 51 61 63 56 83 83 88 77 76 71 68 59 75 89 117 93 15 45 73 72 85 88 55 45 32 66 160 66 63 23 19 
43 31 67 78 72 80 70 35 10 28 64 60 84 127 85 80 64 95 58 63 76 81 90 73 89 78 52 64 50 55 50 37 40 73 64 63 60 96 49 52 51 54 67 69 78 73 63 64 78 63 64 74 73 72 78 69 76 83 75 64 101 103 104 85 93 78 86 69 109 98 86 88 41 58 98 72 80 82 36 21 36 73 95 99 37 44 88 
31 47 68 73 46 32 38 37 18 50 58 72 65 63 53 69 47 69 60 54 32 54 52 72 102 63 68 57 71 61 51 63 57 85 56 65 64 66 35 58 68 77 75 102 101 83 51 45 58 36 48 89 106 109 108 111 108 107 109 107 129 154 136 156 121 111 81 69 109 117 138 97 94 43 80 59 51 65 80 61 93 74 74 41 69 69 88 
84 94 60 68 58 61 55 45 11 23 60 87 70 74 66 55 38 61 93 21 49 49 82 88 75 63 92 75 53 34 36 21 59 72 62 62 72 28 32 80 88 97 95 96 99 77 51 30 26 9 17 90 112 111 159 160 124 161 181 189 186 176 174 216 189 139 102 91 96 133 100 120 46 55 78 67 48 72 59 54 89 65 51 33 41 41 102 
74 67 82 83 66 35 22 31 21 23 44 81 82 80 40 43 36 46 73 59 45 54 46 98 84 70 62 57 15 23 23 40 67 36 61 59 53 28 62 87 83 100 104 97 88 48 27 28 9 23 30 140 105 170 180 157 164 209 182 183 193 150 159 155 153 142 127 111 163 108 124 72 51 65 94 61 51 50 62 51 73 90 85 61 85 82 152 
68 62 98 92 61 31 22 65 19 37 57 31 73 85 47 60 44 43 43 45 48 79 97 76 64 95 68 49 25 38 35 37 56 49 63 49 70 34 30 93 83 81 124 82 79 45 19 7 22 22 32 133 163 175 183 197 213 192 179 191 165 143 105 156 171 128 112 74 126 95 86 83 65 64 78 70 85 65 66 61 85 105 83 101 137 92 116 
28 98 91 90 35 21 33 37 28 24 31 5 46 89 97 120 56 38 78 61 57 99 31 10 84 100 58 58 34 31 37 31 26 25 13 48 66 54 31 35 39 26 36 57 13 14 20 52 12 67 16 57 33 79 53 72 65 147 28 59 132 147 108 100 136 161 68 30 93 134 123 53 75 57 84 1 70 69 72 71 101 91 90 75 95 117 69 
23 163 106 69 39 24 42 39 25 25 15 12 62 69 62 89 57 50 39 61 67 74 29 6 69 70 46 59 40 21 22 23 34 23 22 35 96 69 39 31 39 49 62 89 15 52 21 51 31 58 13 7 20 110 56 59 43 72 38 38 80 145 122 121 80 23 17 44 91 87 96 80 69 71 45 0 34 89 92 100 77 67 101 85 49 26 66 
15 109 92 80 42 26 49 17 17 27 47 1 11 32 65 67 55 66 59 56 86 56 27 57 56 37 66 36 33 21 19 29 28 23 42 32 58 30 48 78 41 34 47 70 43 39 50 42 4 15 71 104 140 90 50 45 68 50 99 96 109 129 135 142 88 86 67 135 123 91 68 65 57 76 29 9 60 85 99 89 73 86 86 66 46 131 180 
43 76 102 96 59 73 35 15 21 124 97 3 69 57 68 57 50 70 76 86 80 40 28 39 46 58 54 53 34 34 18 22 24 41 22 70 45 33 44 38 26 49 37 51 61 14 63 46 18 2 55 115 133 192 68 112 99 126 90 128 92 96 115 190 221 158 152 106 67 93 94 48 56 67 0 39 58 90 100 79 88 84 74 107 99 80 38 
66 122 76 86 96 23 36 23 43 73 130 20 61 86 54 61 40 82 58 42 50 44 33 25 57 67 77 66 39 30 24 25 17 31 28 65 55 33 16 15 25 41 47 99 39 29 10 14 0 0 38 119 80 137 91 124 131 126 91 81 81 83 146 141 211 105 151 120 91 73 49 84 95 9 6 58 73 76 17 90 133 46 100 102 122 95 130 
