ncols        87
nrows        107
xllcorner    508536.404131802963
yllcorner    5265618.997906560078
cellsize     120.000000000000
NODATA_value -1
-1 -1 -1 -1 -1 -1 -1 -1 -1 -1 -1 -1 -1 -1 -1 -1 -1 -1 -1 -1 -1 -1 -1 -1 -1 -1 -1 -1 -1 -1 -1 -1 -1 -1 -1 -1 -1 -1 -1 -1 -1 -1 -1 -1 -1 -1 -1 -1 -1 -1 -1 -1 -1 -1 -1 -1 -1 -1 -1 -1 -1 -1 -1 -1 -1 -1 0 30 85 96 48 107 81 79 53 17 31 87 69 82 58 79 95 77 54 72 71 
-1 -1 -1 -1 -1 -1 -1 -1 -1 -1 -1 -1 -1 -1 -1 -1 -1 -1 -1 -1 -1 -1 -1 -1 -1 -1 -1 -1 -1 -1 -1 -1 -1 -1 -1 -1 -1 -1 -1 -1 -1 -1 -1 -1 -1 -1 -1 -1 -1 -1 -1 -1 -1 -1 -1 -1 -1 -1 -1 -1 -1 -1 -1 -1 -1 0 42 65 99 67 82 91 85 75 67 31 44 85 85 51 48 64 94 73 86 70 44 
-1 -1 -1 -1 -1 -1 -1 -1 -1 -1 -1 -1 -1 -1 -1 -1 -1 -1 -1 -1 -1 -1 -1 -1 -1 -1 -1 -1 -1 -1 -1 -1 -1 -1 -1 -1 -1 -1 -1 -1 -1 -1 -1 -1 -1 -1 -1 -1 -1 -1 -1 -1 -1 -1 -1 -1 -1 -1 0 15 30 6 9 0 0 15 69 65 30 49 114 99 99 87 49 27 28 87 89 79 41 73 79 90 66 45 53 
-1 -1 -1 -1 -1 -1 -1 -1 -1 -1 -1 -1 -1 -1 -1 -1 -1 -1 -1 -1 -1 -1 -1 -1 -1 -1 -1 -1 -1 -1 -1 -1 -1 -1 -1 -1 -1 -1 -1 -1 -1 -1 -1 -1 -1 -1 -1 -1 -1 -1 -1 -1 -1 -1 -1 -1 -1 0 0 94 62 29 17 0 0 0 111 59 83 88 90 88 75 46 49 64 80 72 90 73 41 91 103 74 50 45 46 
-1 -1 -1 -1 -1 -1 -1 -1 -1 -1 -1 -1 -1 -1 -1 -1 -1 -1 -1 -1 -1 -1 -1 -1 -1 -1 -1 -1 -1 -1 -1 -1 -1 13 55 65 1 -1 -1 -1 -1 -1 -1 -1 -1 -1 -1 -1 -1 -1 -1 -1 -1 -1 -1 0 0 6 2 52 28 30 27 41 11 0 60 72 83 90 46 93 87 56 47 73 68 81 81 57 41 79 106 64 30 46 27 
-1 -1 -1 -1 -1 -1 -1 -1 -1 -1 -1 -1 -1 -1 -1 -1 -1 -1 -1 -1 -1 -1 -1 -1 -1 -1 -1 -1 -1 -1 -1 0 22 57 68 65 0 -1 -1 -1 -1 -1 -1 -1 -1 -1 -1 -1 -1 -1 -1 -1 0 7 48 60 67 53 56 60 68 72 40 83 14 0 70 72 89 53 92 75 52 55 59 70 63 77 49 48 71 58 81 84 34 36 28 
-1 -1 -1 -1 -1 -1 -1 -1 -1 -1 -1 -1 -1 -1 -1 -1 -1 -1 -1 -1 -1 -1 -1 -1 -1 -1 -1 -1 0 0 0 31 87 63 77 12 0 -1 -1 -1 -1 -1 -1 -1 -1 -1 -1 -1 -1 -1 -1 6 22 57 54 53 69 53 86 81 92 79 65 98 52 50 73 90 94 67 109 71 66 40 66 63 94 64 36 75 69 71 60 93 88 80 45 
-1 -1 -1 -1 -1 -1 -1 -1 -1 -1 -1 -1 -1 -1 -1 -1 -1 -1 -1 -1 -1 -1 -1 -1 -1 -1 1 22 17 15 22 39 14 73 36 0 -1 -1 -1 -1 -1 -1 -1 -1 -1 -1 -1 -1 -1 0 19 57 14 46 42 90 62 62 75 82 85 69 77 94 65 43 82 86 85 45 62 87 45 76 65 77 77 80 64 95 75 59 61 89 64 76 81 
-1 -1 -1 -1 -1 -1 -1 -1 -1 -1 -1 -1 -1 -1 -1 -1 -1 -1 -1 -1 -1 -1 -1 -1 0 52 116 90 18 45 57 50 71 40 10 -1 -1 -1 -1 -1 -1 -1 -1 -1 -1 -1 -1 -1 3 16 23 65 49 50 53 76 61 85 80 82 38 70 97 99 82 47 94 85 91 73 79 82 40 78 50 63 75 102 125 90 77 59 65 71 83 75 66 
-1 -1 -1 -1 -1 -1 -1 -1 -1 -1 -1 -1 -1 -1 -1 -1 -1 -1 -1 -1 -1 0 25 19 69 106 112 77 45 19 27 75 55 16 0 -1 -1 -1 -1 -1 -1 -1 -1 -1 -1 -1 -1 28 91 17 7 50 72 81 71 53 31 93 87 90 99 50 95 81 90 66 88 96 81 95 113 90 50 53 99 80 79 81 141 105 72 74 85 65 91 83 45 
-1 -1 -1 -1 -1 -1 -1 -1 -1 -1 -1 -1 -1 -1 -1 -1 -1 -1 -1 -1 0 64 86 116 115 124 107 86 87 83 64 86 49 0 -1 -1 -1 -1 -1 -1 -1 -1 -1 -1 -1 0 4 67 91 46 13 38 68 87 76 36 44 80 111 91 62 30 45 50 88 69 97 93 83 84 94 65 54 72 78 68 78 97 78 78 59 62 79 73 84 65 99 
-1 -1 -1 -1 -1 -1 -1 -1 -1 -1 -1 -1 -1 -1 -1 -1 -1 -1 -1 0 38 105 118 109 119 100 100 83 103 98 83 51 24 0 -1 -1 -1 -1 -1 -1 -1 -1 -1 -1 0 0 28 69 63 58 26 57 75 73 54 45 34 43 98 68 53 57 56 92 73 61 98 98 81 75 77 69 61 76 74 75 69 83 71 72 64 66 38 65 71 75 95 
-1 -1 -1 -1 -1 -1 -1 -1 -1 -1 -1 -1 -1 -1 -1 -1 -1 -1 -1 0 86 75 82 146 70 88 73 83 91 50 73 68 18 -1 -1 -1 -1 -1 -1 -1 -1 -1 -1 0 6 52 47 78 71 77 82 86 86 69 80 58 67 84 91 91 33 13 121 79 66 53 71 74 68 61 85 48 42 53 78 59 70 51 83 93 93 45 17 43 53 57 88 
-1 -1 -1 -1 -1 -1 -1 -1 -1 -1 -1 -1 -1 -1 -1 -1 -1 -1 0 47 114 79 71 91 41 110 85 100 67 75 97 63 3 -1 -1 -1 -1 -1 -1 -1 -1 -1 6 36 69 79 98 102 89 77 78 82 79 39 65 49 63 77 110 103 53 60 102 56 50 72 81 87 78 95 62 76 71 72 66 72 85 70 92 76 64 27 21 53 38 62 44 
-1 -1 -1 -1 -1 -1 -1 -1 -1 -1 -1 -1 -1 -1 -1 -1 -1 -1 0 113 124 75 81 118 47 23 85 79 58 115 113 18 0 -1 -1 -1 -1 -1 -1 -1 -1 0 47 81 67 85 115 97 68 58 75 80 54 34 65 65 92 77 84 71 40 44 57 54 59 109 81 97 91 88 68 89 97 52 49 46 88 70 83 69 66 53 23 27 41 58 107 
-1 -1 -1 -1 -1 -1 -1 -1 -1 -1 -1 -1 -1 -1 -1 -1 -1 -1 33 84 93 67 43 43 47 57 76 74 93 79 35 8 -1 -1 -1 -1 -1 -1 1 2 10 24 75 74 63 69 62 82 69 68 59 58 70 64 70 72 82 70 103 31 14 57 68 72 49 77 78 73 61 56 49 56 41 76 70 69 59 71 45 79 61 17 14 32 44 67 82 
-1 -1 -1 -1 -1 -1 -1 -1 -1 -1 -1 -1 -1 -1 -1 -1 -1 -1 29 92 108 80 0 0 23 73 61 66 95 63 36 -1 -1 -1 -1 0 0 3 28 44 95 52 80 98 79 48 43 54 67 65 50 53 65 62 48 56 85 63 103 83 17 74 72 56 47 73 79 78 48 38 52 43 63 54 78 73 61 91 96 81 71 47 37 20 71 82 84 
-1 -1 -1 -1 -1 -1 -1 -1 -1 -1 -1 -1 -1 -1 -1 -1 -1 2 71 107 111 51 7 5 94 52 13 63 64 59 19 -1 -1 -1 -1 0 0 94 100 83 72 59 44 86 61 38 52 28 64 42 38 64 69 65 70 53 85 39 68 28 41 99 58 56 55 81 90 86 69 12 68 72 78 57 73 75 78 86 100 76 75 60 40 82 64 72 34 
-1 -1 -1 -1 -1 -1 -1 -1 -1 -1 -1 -1 -1 -1 -1 -1 -1 15 89 106 122 42 19 37 63 58 53 51 68 84 14 -1 -1 -1 0 0 44 129 104 103 63 48 73 67 42 50 56 42 55 53 39 57 61 47 55 84 72 65 83 85 86 88 77 65 86 101 87 87 92 31 0 36 93 63 60 71 57 51 88 76 83 46 47 62 73 74 0 
-1 -1 -1 -1 -1 -1 -1 -1 -1 -1 -1 -1 -1 -1 -1 -1 0 67 87 91 74 78 105 76 73 55 52 58 45 66 6 0 -1 0 19 24 112 117 96 71 49 58 48 53 34 68 74 38 47 49 44 64 66 32 22 58 49 75 42 83 81 73 90 124 121 88 57 72 79 102 71 59 68 43 58 44 40 30 64 87 118 84 60 41 50 57 3 
-1 -1 -1 -1 -1 -1 -1 -1 -1 -1 -1 -1 -1 -1 -1 0 47 90 80 73 46 44 88 78 31 43 60 67 49 63 83 13 0 0 47 47 92 93 85 71 61 64 37 44 22 53 46 41 107 89 57 72 54 56 68 64 58 80 68 81 75 73 91 99 86 65 62 49 81 88 61 73 68 63 36 77 74 73 72 65 29 48 47 40 36 48 26 
-1 -1 -1 -1 -1 -1 -1 -1 -1 -1 -1 -1 -1 -1 -1 8 83 80 92 83 59 43 63 44 33 58 73 82 76 55 56 41 13 0 57 62 47 94 76 57 80 52 62 56 19 38 34 46 33 65 38 88 60 71 49 71 68 63 48 69 69 79 85 79 66 78 78 80 76 67 97 62 26 42 69 79 58 36 62 84 43 39 39 36 72 55 29 
-1 -1 -1 -1 -1 -1 -1 -1 -1 -1 -1 -1 -1 -1 0 5 51 70 86 113 60 61 69 79 55 45 67 77 42 55 42 99 102 23 44 83 75 61 53 75 57 49 32 16 22 68 33 33 59 46 31 53 85 36 20 59 65 106 70 76 104 105 59 85 53 72 91 92 97 104 96 104 62 29 30 51 36 23 65 42 52 32 29 58 53 50 73 
-1 -1 -1 -1 -1 -1 -1 -1 -1 -1 -1 -1 -1 11 50 44 31 67 86 93 94 78 64 37 54 60 46 63 81 77 67 79 91 64 62 39 69 52 40 41 66 24 12 29 39 42 75 62 46 28 36 69 67 62 66 54 58 104 92 66 90 82 88 85 65 56 76 88 83 48 57 97 51 54 36 10 39 58 115 61 42 52 40 60 66 62 45 
-1 -1 -1 -1 -1 0 25 26 13 0 -1 -1 0 78 92 71 75 79 90 83 106 72 68 49 84 39 50 57 46 92 80 76 73 59 76 66 85 80 69 42 56 46 37 66 46 36 53 41 33 34 27 57 65 66 82 73 94 95 96 74 81 19 40 74 70 71 71 49 77 87 79 105 50 84 55 10 24 92 109 72 43 50 31 40 49 84 104 
-1 -1 -1 -1 15 46 36 58 62 13 0 0 0 83 107 99 82 116 88 89 127 43 43 31 62 71 57 78 65 136 95 71 79 47 36 46 66 61 64 63 68 48 43 35 59 38 39 39 24 35 48 45 79 63 94 68 73 79 74 77 103 90 79 63 71 64 81 78 66 53 46 75 50 76 41 15 31 114 121 52 48 58 47 42 43 65 74 
0 2 17 46 60 46 45 44 36 24 0 0 0 54 79 90 91 76 67 94 50 72 56 66 75 48 57 83 97 106 78 77 70 65 73 80 44 75 46 62 63 59 27 42 47 48 58 57 40 56 54 84 49 71 66 64 52 34 74 75 76 87 65 59 83 67 80 108 67 111 53 42 65 72 43 17 15 56 79 91 57 29 37 33 54 21 0 
65 79 51 92 46 38 32 28 23 29 0 0 27 55 54 60 35 52 69 92 42 59 22 51 41 48 67 66 74 77 70 53 69 67 66 68 58 76 68 78 52 48 24 26 44 66 92 65 55 17 16 54 56 76 62 60 47 59 46 73 72 64 79 69 108 92 78 61 99 56 64 40 65 54 48 22 31 123 69 98 48 24 11 20 21 28 7 
68 61 65 64 47 28 48 45 32 51 0 0 31 42 27 5 1 0 87 51 39 49 67 48 45 45 62 68 86 78 96 63 64 76 73 43 37 56 45 61 64 48 22 35 56 70 61 68 75 38 52 36 46 65 70 61 75 80 58 73 101 53 51 70 53 48 54 89 80 62 65 100 92 79 21 57 73 50 48 77 38 14 0 13 38 27 13 
51 40 34 74 74 32 60 53 52 29 0 2 62 44 41 11 3 0 40 106 76 92 49 61 43 57 61 87 100 90 70 56 37 81 58 50 59 57 48 88 67 44 38 27 43 48 40 58 39 38 12 30 34 42 38 116 77 96 57 53 88 78 60 38 98 85 78 92 121 52 47 56 97 114 69 52 56 22 25 47 20 13 17 27 39 46 14 
31 44 60 56 52 33 53 39 81 12 15 75 76 35 21 1 3 2 43 85 103 77 21 24 62 68 58 66 92 62 23 71 58 73 59 55 39 58 67 70 22 24 41 61 40 44 75 58 19 9 15 13 23 50 48 76 56 95 60 82 99 78 44 38 56 115 75 83 76 64 56 55 45 63 58 76 37 15 79 27 22 40 64 60 31 59 42 
44 69 40 52 43 46 26 60 58 59 73 88 46 33 51 3 8 13 13 15 72 74 32 45 64 68 65 73 62 37 47 90 65 56 95 70 73 57 65 53 32 24 31 25 44 71 65 62 15 10 21 11 38 25 35 98 72 51 56 67 84 68 69 66 50 70 88 76 70 67 63 59 61 66 55 63 74 98 68 28 31 34 45 42 30 36 42 
61 40 20 28 36 52 47 56 81 59 99 112 34 36 71 0 0 9 36 0 59 52 56 62 63 44 38 58 61 61 93 93 72 53 85 65 71 92 72 77 64 53 61 65 44 50 45 39 11 8 19 31 31 41 51 106 55 62 48 77 73 79 74 103 54 66 71 53 54 67 64 42 58 47 58 51 73 73 4 0 0 31 26 46 26 18 11 
69 65 40 71 100 82 61 71 86 112 103 46 40 53 39 0 28 37 7 53 62 50 56 53 57 40 62 62 100 78 121 61 91 56 60 62 67 72 76 58 71 57 47 43 57 49 63 44 20 13 28 41 17 40 71 72 86 60 53 80 105 76 65 76 22 59 78 57 55 63 64 77 62 53 60 83 41 64 10 0 0 8 17 18 14 16 38 
44 40 17 52 73 59 73 68 100 100 95 58 40 25 38 42 62 72 81 29 69 46 63 53 45 58 75 89 84 73 89 67 62 69 63 64 62 55 60 59 45 61 47 51 52 43 46 53 46 13 26 43 26 50 66 82 92 69 59 40 76 76 67 74 68 49 51 57 56 49 87 114 100 98 60 82 34 17 20 18 4 16 20 15 34 18 33 
44 42 34 32 52 58 76 60 47 99 82 63 54 39 40 55 44 25 30 5 25 57 47 52 56 63 66 87 109 99 80 45 35 54 47 58 57 51 59 59 69 59 48 52 56 79 65 65 39 78 59 39 25 48 63 56 73 57 58 59 74 74 64 74 60 16 55 62 73 34 52 88 88 51 51 48 32 59 55 46 56 28 36 24 20 0 20 
22 47 60 60 80 85 88 63 66 81 50 44 68 55 27 34 32 21 12 0 0 57 67 71 74 78 79 88 71 85 65 36 29 38 22 65 53 45 57 54 77 72 56 53 70 79 55 42 43 59 76 25 51 57 57 61 44 63 55 77 60 49 32 66 55 23 52 61 37 16 71 78 64 55 35 69 42 62 79 43 92 39 29 5 0 21 55 
22 34 45 96 73 68 70 90 87 80 70 52 57 49 32 19 13 13 2 0 20 56 68 72 86 87 84 74 21 43 70 64 40 17 19 50 54 59 55 75 62 73 84 65 50 51 25 17 52 64 38 16 51 49 49 65 37 32 81 114 73 32 81 61 58 39 59 40 66 17 52 40 55 40 42 74 61 54 73 37 62 49 91 12 0 65 156 
63 61 53 78 85 57 74 44 68 45 37 31 35 27 28 49 14 0 0 1 22 43 76 82 79 79 82 74 62 58 84 87 43 35 32 31 52 52 66 71 68 116 91 54 57 49 27 83 90 45 58 48 67 71 60 35 47 73 78 93 68 77 70 50 54 69 64 40 44 32 35 39 62 39 32 75 37 73 50 64 60 90 77 7 0 86 156 
54 70 74 76 86 47 68 42 67 58 58 57 27 36 22 3 21 8 2 56 61 69 65 78 77 86 52 80 71 54 33 64 65 25 31 38 33 48 121 77 82 127 75 51 56 31 40 60 74 22 21 37 39 39 52 51 69 116 113 71 87 86 76 82 48 59 52 10 102 82 45 38 44 66 21 34 62 59 38 110 79 90 89 13 0 53 136 
82 57 75 71 79 47 67 104 60 42 58 41 32 40 17 25 21 7 18 63 83 56 87 78 71 62 54 49 93 40 41 65 52 28 28 41 30 41 60 88 101 78 48 90 65 37 46 89 43 59 26 28 54 36 36 44 66 80 64 69 53 71 47 69 50 59 57 44 155 66 38 51 27 35 31 71 96 62 85 122 97 47 74 67 53 53 156 
54 69 75 72 71 75 60 59 83 75 50 45 41 15 27 15 20 15 32 76 50 56 67 85 46 37 86 27 40 39 34 62 60 35 25 26 17 28 59 50 77 150 71 55 50 21 70 34 47 49 19 33 43 34 47 75 45 30 118 49 35 78 71 55 43 117 70 61 63 52 52 53 26 41 44 29 52 55 63 61 96 85 32 32 74 91 93 
56 88 81 53 55 56 100 63 77 101 56 62 53 53 38 58 61 62 33 72 58 51 21 30 52 53 57 96 42 36 66 48 41 21 24 37 49 34 70 80 72 52 38 72 85 33 55 62 43 59 39 53 38 49 47 27 41 71 107 63 42 53 49 48 44 30 89 36 35 46 48 91 73 25 34 30 13 15 120 54 108 58 50 30 101 61 91 
70 78 16 23 36 48 99 59 57 83 86 72 76 54 56 75 100 67 50 55 47 47 25 16 25 65 19 49 33 41 53 51 35 31 18 59 47 48 79 58 46 43 70 50 75 57 48 38 77 51 88 96 82 66 18 37 47 40 95 79 72 45 73 51 41 58 72 58 35 60 44 59 46 61 31 20 16 55 46 66 55 68 42 86 93 108 85 
72 57 20 19 21 20 80 77 76 91 80 75 46 45 36 59 57 65 49 71 65 53 55 38 33 80 58 65 62 48 47 12 52 39 43 51 37 40 80 46 51 52 54 56 67 46 36 54 62 65 88 71 64 62 39 57 51 44 64 61 50 38 26 46 58 46 89 52 52 57 47 50 33 42 67 54 28 64 84 23 10 37 45 84 101 33 0 
72 46 20 14 17 15 46 84 89 100 93 95 91 45 29 46 37 42 39 51 57 56 66 60 53 50 50 30 53 65 67 64 44 47 67 70 49 55 39 63 63 50 80 58 80 55 60 63 49 72 94 47 80 29 47 50 52 50 71 64 60 50 41 33 40 34 47 112 41 59 46 67 31 46 81 91 66 64 42 28 5 42 22 41 69 103 104 
62 49 17 19 21 5 49 53 72 74 93 92 76 58 34 52 36 57 27 11 48 89 60 58 49 1 4 7 39 55 61 80 70 56 47 50 51 21 41 45 60 80 79 80 42 39 57 98 45 77 55 57 26 21 59 48 48 50 100 80 78 50 34 44 13 79 70 108 82 29 13 83 41 50 62 68 75 79 35 43 17 13 37 49 30 17 48 
56 30 24 16 19 20 28 57 69 63 60 92 74 57 47 98 43 56 9 48 47 76 40 57 35 19 20 15 35 42 63 76 84 46 47 53 65 50 66 60 40 45 17 38 26 49 53 50 43 41 35 39 21 27 59 48 81 70 75 79 79 52 52 29 38 38 6 95 62 46 24 81 56 67 61 91 91 68 56 36 15 44 95 67 45 39 37 
27 37 27 30 44 31 63 78 82 44 51 71 62 53 59 71 34 64 27 62 38 55 23 36 40 14 17 14 69 45 47 74 63 66 42 39 38 45 59 65 86 67 47 51 50 35 24 45 57 55 56 37 23 28 59 84 65 71 73 71 54 43 30 29 48 36 68 75 68 52 32 12 88 79 83 77 60 106 43 21 46 52 91 62 56 68 102 
20 22 7 3 15 65 53 85 51 38 35 38 64 64 81 56 41 67 82 54 19 14 19 21 55 26 27 54 46 28 45 44 36 53 34 52 57 48 20 22 60 103 63 37 27 30 48 65 60 52 45 44 27 30 55 65 57 67 104 81 20 18 15 0 43 54 76 51 80 73 57 18 22 68 92 106 104 101 34 29 81 65 62 71 57 69 75 
12 32 0 7 11 48 70 55 57 37 34 39 64 111 67 73 50 83 53 17 22 21 21 41 35 27 26 26 22 44 43 65 95 60 41 75 80 72 35 23 34 42 51 81 61 75 74 73 38 38 32 35 58 74 50 99 103 82 123 78 80 23 33 2 60 65 66 80 57 43 18 33 35 50 73 66 71 77 65 34 41 66 49 59 41 65 87 
19 19 7 3 35 60 60 58 43 17 11 33 78 78 65 47 67 82 32 24 36 50 65 83 69 59 58 50 4 40 59 57 58 9 16 61 72 87 66 75 35 28 26 65 79 75 93 79 61 53 44 49 78 78 56 92 83 71 76 57 57 59 73 58 54 55 83 77 4 0 31 58 31 30 19 12 87 74 79 12 6 47 50 42 40 99 31 
30 10 2 11 30 36 78 45 27 5 12 95 36 1 23 47 84 50 19 23 29 55 66 70 48 76 61 52 23 47 44 62 69 40 43 74 11 49 52 75 24 67 62 87 106 69 65 79 87 108 85 84 122 78 67 65 72 61 63 61 74 81 66 84 78 73 69 58 12 0 51 6 0 0 5 53 108 84 79 53 88 62 59 33 25 47 94 
44 33 18 6 58 87 62 44 26 3 20 76 93 74 33 68 66 57 38 41 33 113 56 56 69 49 58 54 47 72 53 63 60 61 57 53 45 42 83 56 65 81 87 55 54 67 61 79 69 102 67 69 71 70 59 84 72 65 63 62 68 59 56 48 66 58 41 35 0 0 36 0 0 0 0 44 24 63 119 86 92 79 54 35 34 59 60 
48 34 23 40 79 59 85 51 23 25 47 102 80 66 81 75 66 64 32 37 35 58 87 62 71 58 33 58 25 50 28 69 73 105 65 19 69 46 38 58 71 55 54 41 66 63 62 71 85 87 62 70 73 56 74 60 66 63 65 56 62 70 30 43 60 36 60 57 26 92 36 31 0 0 0 2 28 56 102 116 65 81 68 55 67 70 54 
14 16 23 62 78 52 71 31 44 28 86 82 61 79 59 57 76 62 60 70 57 58 74 62 31 10 13 35 35 25 20 6 24 60 98 62 85 59 38 115 50 18 65 39 68 83 54 64 57 34 56 70 67 74 61 74 71 66 49 91 46 34 49 77 50 41 59 65 52 44 64 84 34 22 0 22 22 12 29 84 80 66 71 76 67 62 30 
16 35 45 50 62 48 40 47 31 73 124 68 64 65 49 75 66 84 63 55 71 74 51 78 35 6 50 67 27 46 21 33 42 41 124 35 26 25 32 122 85 1 37 55 90 98 58 54 55 80 68 76 81 52 87 55 59 60 94 98 79 61 53 75 56 53 62 65 64 78 66 72 73 35 91 10 11 0 0 56 43 46 43 64 65 74 57 
26 39 41 65 64 62 43 42 59 92 80 92 52 72 61 74 59 68 44 63 58 45 71 63 105 56 46 53 18 62 50 45 50 19 86 25 0 108 91 62 74 39 43 66 63 68 58 57 55 67 73 63 73 60 71 59 67 60 89 75 47 74 59 47 50 59 45 45 75 89 53 28 95 82 71 51 0 0 0 43 66 30 16 74 63 80 36 
17 52 71 69 75 47 53 82 56 92 101 85 62 86 76 70 84 79 62 36 31 55 85 50 60 63 77 63 48 59 70 52 46 47 4 0 26 102 55 90 58 56 59 67 74 91 77 53 69 78 50 88 53 70 48 41 45 66 86 64 69 58 58 66 58 52 66 59 66 61 57 56 85 91 54 52 33 68 62 69 30 40 44 48 79 36 15 
44 66 82 80 40 64 83 49 70 42 78 101 56 77 63 82 76 69 60 68 95 74 110 48 36 88 70 25 9 34 48 43 35 23 18 17 75 60 59 106 78 111 108 45 27 58 68 39 80 54 70 84 32 43 64 29 52 64 70 42 70 70 63 85 72 56 19 51 36 27 50 67 96 96 39 61 93 52 80 60 48 25 30 55 62 63 49 
68 58 75 56 47 61 49 59 89 66 70 80 47 73 52 74 49 40 84 63 65 18 76 86 55 66 28 31 4 0 31 37 20 23 0 26 70 73 57 34 59 87 75 74 76 62 73 78 70 81 72 85 54 59 18 4 35 22 70 33 43 49 77 66 69 43 55 66 57 34 70 64 75 95 81 69 75 82 59 95 63 29 92 89 76 59 33 
53 63 60 64 66 66 90 82 74 72 77 75 52 71 61 62 53 68 72 113 51 36 16 99 62 71 111 41 74 50 71 58 12 77 42 76 43 56 53 49 70 59 64 72 70 43 52 60 55 71 67 87 53 54 34 13 12 54 40 42 69 62 66 68 70 49 23 62 47 38 52 66 64 55 79 68 45 44 24 92 27 65 56 51 44 54 48 
57 72 64 36 65 109 64 53 98 71 61 109 53 83 50 44 77 67 136 97 62 47 87 107 28 39 72 84 63 60 63 45 57 45 1 19 76 47 35 60 54 86 65 55 43 61 36 70 43 45 61 67 59 98 76 48 55 77 61 61 66 58 51 73 68 65 29 30 73 58 67 73 40 75 65 57 64 50 33 76 82 38 21 62 31 28 49 
63 93 43 33 57 76 74 88 50 63 69 45 70 59 33 40 92 65 86 38 63 64 79 65 11 43 60 64 94 41 54 44 45 42 18 23 16 67 53 57 53 97 23 9 18 25 2 56 56 58 64 61 85 91 63 56 74 48 62 68 65 72 60 63 58 10 11 23 67 61 63 54 43 45 61 61 67 70 71 12 30 40 16 64 67 28 23 
82 58 18 35 52 67 65 79 78 79 54 62 70 89 75 46 41 43 93 87 77 32 112 46 81 86 54 75 77 67 37 46 70 63 44 35 31 58 51 37 49 69 34 20 5 16 0 46 33 71 75 100 92 94 62 97 40 48 54 113 74 47 61 38 47 23 22 14 80 66 35 36 42 61 59 44 72 37 1 6 23 40 24 33 63 103 14 
70 35 32 51 64 69 58 68 69 70 63 60 55 63 34 51 90 61 74 48 50 45 50 88 60 63 48 61 66 33 56 31 67 66 65 61 54 50 52 81 92 69 97 78 10 0 0 58 61 72 87 77 77 55 55 53 75 52 73 61 53 87 58 73 50 39 42 62 53 49 53 50 47 32 50 57 79 43 8 8 37 73 29 38 50 101 20 
54 29 71 48 58 69 79 79 66 66 49 52 84 32 39 44 35 119 21 40 39 45 74 91 74 66 61 40 64 58 67 87 66 77 62 65 53 52 57 61 57 90 107 51 13 0 0 22 58 79 79 79 111 46 67 87 66 62 79 66 63 43 115 56 80 59 61 61 59 21 63 51 51 58 32 36 51 57 12 69 41 15 16 10 13 0 8 
54 39 50 52 51 43 76 58 58 61 48 56 63 88 91 50 19 34 39 41 70 92 72 81 62 47 65 46 72 66 45 52 48 79 56 65 75 75 54 56 98 105 69 24 19 1 0 27 69 69 83 98 71 70 82 96 27 25 29 44 62 60 61 70 108 97 89 49 55 54 67 34 29 73 52 45 61 41 58 40 55 20 4 8 5 4 11 
35 65 59 48 43 42 61 42 48 49 34 50 63 77 45 66 0 33 49 63 61 60 69 31 18 5 26 30 38 24 27 30 48 79 51 61 55 54 59 70 130 99 33 33 41 65 77 70 54 57 40 93 67 106 66 67 96 37 61 67 30 63 60 36 54 60 61 50 48 47 53 39 42 57 70 58 69 59 48 36 28 7 13 27 9 1 4 
63 23 28 33 34 55 47 36 42 40 57 43 53 62 44 75 50 67 74 68 43 51 42 82 9 28 40 16 48 4 19 31 40 84 61 67 63 73 54 72 61 30 29 44 22 66 66 68 47 18 35 50 64 72 87 49 41 65 63 87 77 71 56 39 35 49 41 67 56 49 78 31 28 17 6 45 53 61 16 23 11 22 45 48 21 18 53 
24 2 32 39 37 72 49 37 52 62 46 76 56 131 70 58 57 97 60 65 55 75 72 47 55 36 55 54 52 45 42 51 68 84 59 54 49 73 59 39 42 21 20 35 57 67 76 74 22 28 54 44 40 55 51 26 4 51 68 61 86 65 54 69 44 40 47 59 48 67 67 33 48 36 0 1 11 36 27 31 7 42 54 62 49 64 45 
32 17 32 27 41 48 61 36 55 37 10 28 7 76 33 61 66 75 79 72 64 60 65 72 41 35 30 27 40 21 23 39 57 60 51 47 81 56 46 25 53 64 61 76 80 64 64 62 39 31 27 95 97 88 69 50 22 51 77 116 62 71 55 54 59 83 66 66 69 59 64 53 33 57 24 35 30 59 51 27 63 74 48 46 53 48 25 
34 43 40 33 31 53 74 60 63 50 59 99 84 8 49 60 64 80 62 49 74 52 57 75 38 44 33 46 15 19 16 14 71 53 67 56 21 32 70 65 72 66 67 73 69 81 70 55 11 4 55 76 88 81 93 119 97 76 75 78 64 76 44 52 64 62 60 64 68 59 75 62 67 56 68 24 17 44 64 63 66 54 51 38 42 40 16 
30 34 28 43 55 56 89 73 60 81 93 61 0 15 59 72 99 39 46 20 47 43 65 73 41 46 47 31 23 57 41 15 69 46 43 53 57 66 65 78 86 84 96 81 79 83 93 74 57 26 85 86 89 95 101 88 111 99 88 65 66 55 76 42 53 55 78 46 26 54 82 65 47 18 32 20 49 28 35 60 56 56 33 20 67 28 14 
22 42 24 57 48 113 55 34 67 47 38 23 60 0 18 81 41 42 67 78 54 48 55 63 32 42 32 43 46 70 64 107 60 47 59 65 58 59 66 76 97 97 96 67 80 80 88 69 95 85 77 82 91 94 104 132 114 93 88 110 60 72 66 39 57 89 93 45 36 89 63 47 49 21 31 20 64 45 42 53 58 44 25 22 15 10 27 
23 29 37 31 68 82 46 27 16 49 26 64 61 22 50 62 54 51 42 51 62 41 58 76 48 53 29 37 51 65 60 75 41 62 61 66 76 61 67 61 77 120 104 87 68 99 83 73 75 82 76 84 77 80 89 92 105 87 74 78 58 88 44 35 78 86 49 67 66 66 33 34 37 37 78 84 80 44 60 37 43 37 18 23 0 22 28 
50 11 27 24 30 30 64 79 34 28 67 41 58 83 63 62 49 57 30 67 48 48 61 48 57 32 37 57 33 55 57 62 64 46 46 58 79 52 63 77 65 117 98 97 95 84 84 93 89 90 101 98 81 100 116 78 87 79 58 39 85 76 63 68 88 73 58 59 46 59 51 25 14 16 80 116 47 15 7 14 23 28 16 36 11 14 16 
57 40 30 49 62 60 84 63 55 47 63 15 70 77 59 51 58 57 66 46 47 63 51 52 58 41 41 70 44 54 58 51 47 30 35 56 62 58 60 89 74 64 92 73 95 86 93 86 85 109 91 68 74 93 99 61 75 22 26 20 52 59 63 93 74 80 74 47 10 44 69 12 19 35 67 82 59 7 6 4 40 21 19 20 16 26 44 
31 13 54 47 63 69 60 46 56 55 7 47 61 63 63 54 84 49 61 47 47 62 68 79 71 59 57 70 53 50 36 69 52 46 61 64 62 67 61 79 93 87 75 116 86 82 90 97 122 98 167 154 102 77 94 85 31 42 35 29 25 100 74 66 41 54 65 68 53 48 43 18 27 89 110 96 85 54 10 4 11 16 22 25 41 20 7 
51 74 57 53 71 39 75 51 51 63 31 58 123 70 63 58 66 65 74 61 83 61 78 68 61 48 29 38 110 45 113 70 54 79 76 74 91 67 68 76 73 72 60 94 85 117 95 115 51 42 92 85 113 89 62 40 39 40 51 14 61 78 64 64 74 63 53 59 50 51 14 3 74 108 134 111 71 41 3 4 21 12 7 10 9 2 9 
91 71 59 115 60 86 62 34 21 68 66 85 79 63 72 92 53 70 56 69 58 64 71 59 87 35 40 61 42 65 62 115 96 58 54 72 73 79 74 67 82 76 53 86 88 68 77 88 96 85 76 97 121 106 50 37 51 67 29 57 85 87 59 78 32 43 59 58 67 36 12 1 79 104 121 106 104 37 0 6 22 8 7 23 23 7 9 
117 69 80 73 51 98 80 62 37 22 28 41 60 76 61 69 54 63 28 44 65 61 67 67 73 59 31 53 85 73 65 114 130 75 65 67 64 80 71 85 92 83 79 100 83 67 88 72 92 74 100 98 122 118 63 3 16 66 27 59 86 61 73 67 70 57 53 48 87 29 35 17 82 87 86 115 72 43 1 3 39 8 17 55 74 97 76 
67 80 82 82 46 54 91 91 27 21 59 37 73 51 45 70 48 56 28 42 59 53 67 58 69 40 51 55 125 89 114 119 83 77 54 66 51 63 78 102 108 126 102 90 102 98 75 107 79 61 121 94 109 100 67 42 18 1 6 63 56 48 39 38 65 67 59 58 62 51 57 69 92 90 112 95 30 80 25 29 36 19 62 55 83 124 165 
69 73 80 80 118 48 42 56 38 82 66 103 48 26 57 55 52 53 54 59 58 65 50 45 53 68 99 46 78 38 39 84 56 50 52 78 55 64 78 133 87 81 108 111 94 91 73 71 136 103 65 89 88 108 88 85 51 57 76 92 60 59 42 61 68 64 59 59 79 62 86 86 108 107 109 92 68 61 24 17 43 42 69 54 67 107 74 
62 41 81 88 80 67 55 103 64 43 53 69 7 2 36 36 29 21 53 77 61 57 36 40 46 93 43 5 28 0 0 48 74 47 58 111 81 83 59 70 68 63 89 97 91 59 68 79 75 66 73 81 124 96 132 141 150 29 130 62 66 88 61 83 63 61 74 71 65 88 84 81 140 102 148 80 105 33 20 32 39 66 45 35 98 87 53 
88 92 71 68 71 28 54 78 49 54 52 48 6 2 43 63 49 47 41 50 55 67 30 58 59 58 75 17 37 0 0 53 69 118 54 83 96 63 30 36 49 90 70 82 80 68 102 109 94 102 133 100 112 82 110 84 122 83 132 57 76 79 79 68 62 67 79 76 64 105 106 99 104 93 80 53 100 50 21 29 19 65 33 52 56 109 74 
44 68 39 65 61 27 66 55 101 63 84 62 12 0 40 50 39 37 67 72 53 58 53 64 66 54 39 62 17 0 0 19 76 99 104 47 69 91 52 27 49 94 82 84 70 91 84 117 110 103 138 106 117 90 80 103 102 80 97 73 76 79 74 95 88 71 86 85 81 120 112 117 106 104 146 85 67 43 25 10 24 25 22 45 66 58 48 
28 50 52 60 67 33 79 29 64 77 65 64 96 47 46 0 26 36 37 55 37 61 92 50 69 47 3 30 0 0 0 0 9 51 78 90 52 49 86 40 69 89 86 82 62 78 92 150 150 131 144 115 88 75 81 90 94 79 71 62 67 82 89 68 84 83 92 82 82 128 72 96 178 178 112 75 83 64 9 8 37 51 12 52 61 72 38 
68 38 47 41 35 76 81 40 48 66 68 93 77 78 88 38 53 35 45 40 36 19 58 49 33 44 56 62 32 53 55 0 0 23 99 86 66 55 63 74 69 78 92 73 85 77 86 123 147 70 126 153 119 81 81 76 73 80 73 72 88 64 70 71 62 75 83 108 102 94 123 125 72 79 115 72 69 66 11 8 51 49 37 73 65 50 63 
83 46 74 63 53 63 22 13 79 80 50 69 23 30 65 37 51 89 26 45 19 46 74 66 57 35 78 129 111 111 77 22 6 17 74 72 67 43 89 56 44 114 80 97 78 84 120 156 127 121 124 99 127 98 81 78 74 76 75 75 76 71 64 116 96 114 97 72 50 96 75 109 89 60 85 62 67 60 62 60 49 52 58 70 62 70 94 
49 61 60 71 52 102 60 40 54 41 67 35 67 47 85 67 30 37 30 37 37 42 27 48 53 92 37 68 74 54 47 66 16 40 58 79 88 65 57 51 75 94 109 89 97 91 96 114 121 109 59 104 47 66 87 74 95 78 85 92 46 113 99 83 142 53 62 52 49 91 89 60 80 70 49 57 62 68 75 67 89 48 78 57 81 61 74 
71 44 30 50 104 53 58 59 43 60 56 40 61 59 64 99 76 42 25 27 25 24 28 31 37 58 66 43 40 61 39 65 11 129 98 87 39 77 57 79 85 93 85 68 75 110 95 154 122 101 48 118 58 101 74 73 93 81 84 68 56 102 131 51 68 40 77 42 54 83 83 55 56 64 64 61 82 62 75 70 69 74 43 9 16 15 111 
84 80 55 48 79 71 23 81 44 41 57 75 61 67 65 63 50 29 31 34 43 20 36 38 41 61 55 64 77 71 70 43 23 102 74 76 60 60 51 65 117 85 77 86 118 175 295 166 111 91 98 124 120 123 76 91 78 74 47 35 57 69 66 73 111 68 52 92 100 68 96 67 72 69 64 50 74 53 59 66 73 71 44 64 57 73 77 
36 39 55 41 68 100 31 77 65 72 47 90 53 93 58 16 62 44 31 15 50 36 38 22 53 49 59 60 66 71 56 72 75 58 53 60 66 50 58 97 69 76 82 116 91 100 157 115 102 87 108 101 129 92 69 78 60 56 68 76 55 55 78 68 79 58 71 56 76 94 69 67 57 51 52 91 69 68 82 137 162 109 103 95 113 117 124 
61 43 68 111 86 75 36 89 71 76 55 71 49 64 63 87 54 36 33 21 49 47 61 56 66 74 64 84 55 53 63 54 54 61 62 59 65 63 60 56 96 73 68 53 52 75 54 79 82 86 84 94 65 53 62 59 7 0 64 96 90 75 104 81 79 76 98 57 104 77 63 78 73 57 53 66 118 74 107 136 123 124 135 163 147 161 171 
62 43 63 83 85 41 113 56 37 63 56 74 72 95 102 24 59 45 17 57 53 75 112 98 68 62 61 76 45 58 63 62 86 76 69 60 82 52 53 62 68 53 50 53 65 71 54 60 62 85 76 82 80 79 31 43 68 112 70 75 116 97 106 63 80 84 78 129 96 92 88 83 74 76 63 78 81 91 144 125 118 155 164 131 148 163 68 
70 60 51 57 72 78 47 28 53 54 60 76 60 72 68 60 42 33 50 42 39 73 115 101 61 60 56 56 80 53 76 78 72 62 73 70 61 70 76 64 62 66 69 78 74 65 71 78 71 66 59 68 73 56 76 61 58 50 59 50 70 75 77 101 72 80 69 72 97 117 101 90 72 72 61 94 79 109 138 127 175 133 156 115 101 117 129 
44 17 73 75 65 62 60 53 48 53 59 65 47 92 86 79 55 47 67 63 59 81 129 69 93 70 85 84 50 59 46 64 92 82 55 65 73 74 66 75 76 75 66 77 71 87 72 72 87 79 68 75 69 71 84 82 84 81 81 61 103 101 109 96 84 77 86 86 105 104 72 95 77 70 66 82 67 91 84 58 79 64 90 71 117 75 97 
52 71 68 61 44 30 24 54 56 39 45 58 51 78 70 67 43 53 100 39 33 67 86 76 97 65 77 57 61 63 64 73 93 89 53 96 52 59 69 84 77 76 79 93 100 90 71 94 69 78 92 87 113 113 117 117 107 111 102 100 131 155 146 149 134 142 94 80 88 114 83 100 86 47 77 57 54 53 62 57 86 51 60 83 59 59 61 
76 55 39 59 50 68 47 78 47 56 48 69 79 77 58 52 83 60 58 44 73 24 41 100 65 37 61 72 43 60 71 24 62 67 63 59 66 73 81 71 86 93 93 99 88 90 66 63 62 72 85 85 102 112 124 131 140 122 153 144 177 164 140 158 177 189 137 90 85 88 91 102 60 48 87 65 48 64 57 48 49 61 57 49 74 62 54 
62 71 105 97 57 45 23 54 63 44 53 67 70 62 45 43 39 43 74 84 74 50 52 96 85 55 73 82 43 56 84 79 63 45 50 45 52 80 66 88 75 105 98 89 87 63 66 72 67 70 82 108 96 136 137 121 145 143 159 153 153 135 115 129 137 114 159 127 116 87 83 103 55 64 85 79 61 53 65 52 58 72 71 88 79 105 99 
79 65 80 64 62 31 19 51 75 41 62 17 58 59 60 63 35 39 53 42 63 72 65 84 48 65 133 74 26 34 45 23 18 33 52 62 73 53 82 74 91 85 98 94 87 91 64 71 61 80 87 117 90 150 135 148 174 162 171 199 168 139 102 140 117 97 113 115 102 134 99 78 60 69 78 73 96 72 64 66 70 73 73 74 90 105 122 
73 77 75 67 59 28 63 71 66 28 37 27 44 70 76 106 56 37 89 66 63 77 24 26 44 116 56 61 17 29 48 0 22 17 58 48 65 62 53 114 82 124 76 107 102 109 74 69 87 86 118 62 89 109 103 140 148 192 105 85 115 110 159 100 152 112 117 92 83 114 89 69 64 66 96 7 26 68 70 73 83 83 68 69 91 110 136 
19 71 78 75 58 42 53 56 38 37 25 10 26 82 74 64 42 31 65 73 85 53 18 26 42 58 41 58 18 48 42 8 0 8 27 65 95 39 54 87 76 103 92 96 82 102 142 102 70 98 91 98 105 96 142 120 127 115 120 114 136 135 155 141 143 104 103 111 157 117 109 66 104 63 59 0 31 78 94 105 65 75 74 73 82 125 100 
20 80 59 62 69 33 46 34 31 61 75 19 21 54 65 67 40 53 67 85 83 17 19 36 59 39 68 41 11 71 54 5 0 17 14 82 63 57 52 85 161 92 148 144 121 112 147 101 130 120 138 146 135 126 152 150 159 134 162 145 107 123 125 121 156 171 156 161 107 136 55 49 55 62 51 3 49 81 104 100 101 81 91 84 103 106 158 
19 81 75 78 50 30 48 39 45 67 56 10 60 65 57 64 91 73 79 66 110 24 29 79 85 65 65 49 27 43 69 8 11 34 47 83 40 60 60 68 135 111 85 140 208 123 120 156 91 88 118 126 117 157 164 167 182 132 104 114 100 83 116 209 229 200 147 161 100 109 88 67 55 77 0 28 62 85 111 126 133 118 107 103 120 119 91 
43 114 63 71 35 49 73 58 35 41 61 37 49 65 72 56 79 57 62 14 47 18 31 33 84 69 76 64 3 12 64 25 4 31 34 70 97 66 55 94 169 90 106 189 136 97 179 157 165 119 96 94 95 130 96 113 217 105 79 79 79 71 119 79 239 178 134 157 117 112 75 84 63 47 0 55 53 88 57 84 175 128 167 123 120 106 88 
