ncols        19
nrows        23
xllcorner    508541.817039101152
yllcorner    5265356.364124929532
cellsize     570.000000000000
NODATA_value 0
0 0 0 0 0 0 0 4 0 0 0 0 15 9 73 62 65 65 51 
0 0 0 0 0 24 33 21 0 0 15 50 70 81 78 53 79 64 58 
0 0 0 0 69 90 54 0 0 30 55 57 75 79 76 64 74 51 82 
0 0 0 13 75 59 24 11 40 57 36 66 51 76 69 63 76 61 59 
0 0 0 50 74 59 43 53 38 26 35 54 79 102 76 57 54 46 51 
28 40 20 74 57 60 63 50 34 37 48 64 65 66 76 52 71 40 57 
57 50 53 35 63 60 68 64 52 42 34 40 72 65 74 66 55 33 42 
55 78 68 39 50 73 69 62 63 58 46 42 67 56 54 65 51 27 57 
67 67 41 38 65 66 58 50 85 54 40 43 63 55 58 41 69 41 113 
44 68 71 58 55 50 58 43 62 54 60 37 69 44 45 50 45 63 54 
36 53 60 57 46 38 48 51 64 56 41 76 63 52 44 55 58 59 68 
33 45 58 61 57 39 38 48 56 72 86 61 56 48 45 23 62 60 64 
51 58 74 64 69 25 31 59 63 64 59 53 58 46 52 71 55 51 54 
55 68 62 70 71 54 51 40 68 50 64 81 63 45 55 55 45 43 46 
52 59 66 50 77 48 54 58 53 64 66 57 45 65 59 46 32 42 46 
51 59 44 78 42 60 64 56 76 68 66 96 83 58 57 42 51 52 52 
61 60 59 53 54 61 65 59 76 35 86 84 67 47 43 48 35 45 47 
71 69 32 54 51 64 71 71 80 91 97 80 65 65 69 88 54 51 64 
55 43 33 56 60 54 31 70 71 88 105 80 56 54 82 103 53 57 80 
62 61 73 42 52 53 44 69 59 108 102 80 72 67 78 67 89 77 95 
66 49 67 71 70 66 51 65 62 73 66 83 105 109 92 68 71 78 61 
74 33 58 61 57 60 33 47 60 51 42 114 134 121 96 61 70 83 98 
80 37 62 58 54 53 25 42 39 47 46 110 98 151 97 43 79 89 105 
