ncols         19
nrows         23
xllcorner         508562.3384261879
yllcorner         5265326.272683421
cellsize         570.0
NODATA_value         -9999.0
-9.999000000000000000e+03 -9.999000000000000000e+03 -9.999000000000000000e+03 -9.999000000000000000e+03 -9.999000000000000000e+03 -9.999000000000000000e+03 -9.999000000000000000e+03 -9.999000000000000000e+03 -9.999000000000000000e+03 -9.999000000000000000e+03 -9.999000000000000000e+03 -9.999000000000000000e+03 -9.999000000000000000e+03 -9.999000000000000000e+03 -9.999000000000000000e+03 -9.999000000000000000e+03 -9.999000000000000000e+03 -9.999000000000000000e+03 -9.999000000000000000e+03
-9.999000000000000000e+03 -9.998999203862227660e+03 -9.998999195000000327e+03 -9.998999170566969042e+03 -9.998999027864480013e+03 -9.998998948892363842e+03 -9.998998861438032691e+03 -9.998998773207580598e+03 -9.998998674523645604e+03 -9.998998554122988935e+03 -9.708967384152005252e+03 -3.820454391961592137e+03 7.218500060125760065e+00 -4.490787739140172263e+00 3.860368720482001237e+01 1.006812294744061091e+02 8.745452084154190686e+01 4.298629023650873648e+01 -9.999000000000000000e+03
-9.999000000000000000e+03 -9.998998981561544497e+03 -9.998998641005677200e+03 -9.998998624999998356e+03 -9.998998600641096345e+03 -9.998998453311214689e+03 -9.998998377599928062e+03 -9.998998297447811638e+03 -9.998998210597172147e+03 -9.996527747716132581e+03 -3.525598498250617467e+03 9.821608791475981093e+01 3.504873826037981388e+01 7.065626841895370269e+00 6.384247907857890425e+01 1.294815520169179877e+02 8.600669284812289561e+01 8.976507932478502028e+01 -9.999000000000000000e+03
-9.999000000000000000e+03 -9.998998742553607372e+03 -9.998998412759799976e+03 -9.998998085773655475e+03 -9.998998050600992428e+03 -9.998998044985906745e+03 -9.998997925470432165e+03 -9.998997804604839985e+03 -9.990974660875293921e+03 -2.943229628754048463e+03 9.314113589208953670e+01 7.149900835091908391e+01 5.757614497336555104e+01 1.301482242548837398e+01 1.190213891311908725e+02 1.495999185378507548e+02 1.141867485426575541e+02 1.108958510307056429e+02 -9.999000000000000000e+03
-9.999000000000000000e+03 -9.998998575898383933e+03 -9.998998169558877635e+03 -9.998997833593359246e+03 -9.998997560703719500e+03 -9.998997539068637707e+03 -9.998997465069380269e+03 -9.998997359286162464e+03 -3.973043963503285340e+03 1.126636585453272517e+02 1.183532739276879937e+02 8.966100166663412097e+01 1.865035873851820014e+01 2.651262344374396207e+01 1.009361317188341332e+02 1.598649797535166215e+02 1.484203947669107606e+02 1.326278478474395968e+02 -9.999000000000000000e+03
-9.999000000000000000e+03 -6.359615276939683099e+03 -5.943717265455261440e+03 -9.136582695274313664e+03 -9.998997355069646801e+03 -9.998997106797583911e+03 -9.998996884081612734e+03 -5.647647884581718245e+03 9.996565863191798940e+01 1.384138678940281864e+02 1.496962112694455982e+02 1.109373247026001224e+02 2.818586546556849370e+01 1.321263236969248283e+02 1.639654137119228210e+02 1.570337326876378370e+02 1.522282400244457392e+02 1.384207842428996287e+02 -9.999000000000000000e+03
-9.999000000000000000e+03 7.880650131997459340e+00 4.432310239188139711e+00 6.544202039215842603e+01 -4.364968641896870395e+03 -9.905650072424197788e+03 -6.465358575463455963e+03 7.012415828740554957e+01 1.068692358342137254e+02 1.487750417167290493e+02 1.675871061179805395e+02 1.251795812169819868e+02 3.396234591135682734e+01 1.359508687131713600e+02 1.571217588661540390e+02 1.495623843539162294e+02 1.516696384536569724e+02 1.297543200138771624e+02 -9.999000000000000000e+03
-9.999000000000000000e+03 1.080183055429402117e+01 6.075956272225212729e+01 8.855574647898849605e+01 7.650904234220188016e+01 4.602419780773621483e+01 4.100577359600720229e+01 7.526699829509988149e+01 1.281910209254088500e+02 1.593709378390059044e+02 1.630281204968345037e+02 9.540413923593237655e+01 4.187081471018944256e+01 1.160986814104179388e+02 1.383525437207277378e+02 1.365170075733700799e+02 1.437666142847493234e+02 1.200049576866927197e+02 -9.999000000000000000e+03
-9.999000000000000000e+03 2.264266093029388927e+01 1.033453206237008004e+02 1.037328634018259379e+02 6.551162360227044701e+01 5.713406543567726459e+01 6.474033860181926059e+01 1.057530061425410679e+02 1.414746515050628943e+02 1.593461431329429558e+02 1.602109447957198540e+02 1.324192272456594424e+02 4.884374721174896905e+01 8.038758255963882959e+01 1.085109847220461461e+02 1.227436047452602423e+02 1.378537111892353551e+02 1.178748178658104422e+02 -9.999000000000000000e+03
-9.999000000000000000e+03 3.477674170783348018e+01 8.905633003312253493e+01 1.164873817288424505e+02 7.791954131472265033e+01 1.201077942297593637e+02 9.017682767175652714e+01 1.265790608848204926e+02 1.419947107376050326e+02 1.452244472610187245e+02 1.544451485513515365e+02 1.351243203613744583e+02 5.515551290192667722e+01 7.554899843652343350e+01 9.586036749836956972e+01 1.386616774112488599e+02 1.297105786554718918e+02 1.145392735561599835e+02 -9.999000000000000000e+03
-9.999000000000000000e+03 4.926136602659890684e+01 1.131966962254453222e+02 9.010000657787423961e+01 9.680346333742070897e+01 1.311212617544125862e+02 1.226212423090588715e+02 1.356050419367796849e+02 1.338232967906917565e+02 9.511667699277350607e+01 8.662748619992119359e+01 7.496777261980207641e+01 6.771902737009234841e+01 1.291816012969496228e+02 1.191382066639723121e+02 1.248741653560883123e+02 1.278808775602418706e+02 1.146972996918165109e+02 -9.999000000000000000e+03
-9.999000000000000000e+03 6.120156293867962916e+01 1.184091720108135348e+02 1.051007051468822482e+02 1.208162872757190485e+02 1.399875778388760637e+02 1.370709733707697069e+02 1.202753697895837206e+02 1.066982862140069557e+02 9.866804546319794156e+01 8.472848446707271819e+01 1.513219632597741224e+02 1.496711787273970344e+02 1.549280480121981327e+02 1.211124414325672376e+02 1.130283969562248529e+02 1.097307304418611125e+02 9.795243263492776009e+01 -9.999000000000000000e+03
-9.999000000000000000e+03 1.346697787678591567e+02 1.263022751104491448e+02 1.404896211697985677e+02 1.388667616267040330e+02 1.265439633915462423e+02 1.221748728474784258e+02 1.209092811784408781e+02 1.384882117356424658e+02 1.766699306820863171e+02 2.044685767452168932e+02 2.336369876413554323e+02 2.018415724592857430e+02 1.716957814936679085e+02 1.416569624847176385e+02 1.249815612352732614e+02 1.128260695622149825e+02 8.795568500814506763e+01 -9.999000000000000000e+03
-9.999000000000000000e+03 1.448387435835343240e+02 1.330365972517345199e+02 1.440029972788729822e+02 1.299867961916664854e+02 1.279034060220961919e+02 1.259657694565875516e+02 1.411558193534640111e+02 2.050997756474741038e+02 2.371731223894024367e+02 2.782162173418317366e+02 3.365268258435918938e+02 2.860397243170604042e+02 1.991578034005557356e+02 1.501361366821346905e+02 1.551885820215341596e+02 1.442545791895010154e+02 1.335053769522869800e+02 -9.999000000000000000e+03
-9.999000000000000000e+03 1.613842327667253755e+02 1.444594192915617441e+02 1.313544349317948274e+02 1.307457824829523361e+02 1.556025667456803774e+02 1.642859746910829699e+02 1.911231529264987614e+02 2.362801448232916357e+02 2.184282719390508873e+02 2.704730535431115754e+02 2.835443108198849131e+02 2.590362717686369933e+02 2.056592043414613329e+02 1.735444901215532809e+02 1.593514100420537716e+02 1.083040084765003002e+02 8.197532227802011562e+01 -9.999000000000000000e+03
-9.999000000000000000e+03 1.514725133327462174e+02 1.343196599756432192e+02 1.327622449224338084e+02 1.743766982801984113e+02 1.767646812642415455e+02 1.794953583119555560e+02 1.929370887385202309e+02 2.061147276495188692e+02 2.404453789932630627e+02 2.853874062303000301e+02 3.681800439922579358e+02 3.397207407982702989e+02 3.005400208819705767e+02 1.715613469413108589e+02 1.293749473727389159e+02 1.073808545805487711e+02 1.117453255207722123e+02 -9.999000000000000000e+03
-9.999000000000000000e+03 1.489487480341195749e+02 1.336522375760038415e+02 1.413520289687784555e+02 1.734239354964687152e+02 1.793275932401087971e+02 1.829320567966762212e+02 1.891959975278767843e+02 2.834365217379819342e+02 3.147293180581149272e+02 3.309856081878696159e+02 3.718738979266992146e+02 3.278250016370218987e+02 2.528579642488451498e+02 2.020409385770761048e+02 2.781253441228093379e+02 2.449152560318275107e+02 2.134551606701960225e+02 -9.999000000000000000e+03
-9.999000000000000000e+03 1.386946402737484902e+02 1.353178426698946168e+02 1.404100978526678034e+02 1.755043275913274670e+02 1.802260001988679221e+02 1.828057576865726901e+02 2.266043620864509762e+02 2.971055354007492042e+02 2.943224642479815429e+02 3.438636432549450319e+02 3.750050495090614504e+02 3.427251439886054527e+02 2.374677697934161529e+02 2.330473260933042638e+02 3.390736095156421470e+02 2.717654056248211418e+02 2.922160858135376884e+02 -9.999000000000000000e+03
-9.999000000000000000e+03 1.614235888480737628e+02 1.391978707096441212e+02 1.534410869390389109e+02 1.685905346211380333e+02 1.864874967315822119e+02 1.825601527308733694e+02 1.934128680550080048e+02 2.395681327134802814e+02 2.950658450477384918e+02 4.355417406651362171e+02 3.309608147443338453e+02 2.610186661537153441e+02 2.884372162001423021e+02 3.130620780077283030e+02 2.779236655439798938e+02 2.590965062028643615e+02 2.626700945077080860e+02 -9.999000000000000000e+03
-9.999000000000000000e+03 1.689665319453873451e+02 1.425281486747415158e+02 1.563707236565154801e+02 1.844949564709976926e+02 1.957164558783204313e+02 1.804373802500739430e+02 1.852297310626046283e+02 2.574243576930840618e+02 3.186730371312280568e+02 3.710119175648258647e+02 2.663206400558207747e+02 2.410557893860382421e+02 2.625195156879247520e+02 2.419493116233338696e+02 2.176954185249961427e+02 2.229638790117780900e+02 2.373213360640060330e+02 -9.999000000000000000e+03
-9.999000000000000000e+03 1.702072676179554662e+02 1.482106643405452360e+02 1.568765018167217136e+02 1.733031097058729699e+02 1.695392183501299712e+02 1.740064843089287194e+02 1.925042731417150037e+02 2.111509506014331237e+02 2.280692157810561298e+02 2.390588775631815963e+02 2.410557693860382358e+02 2.919700310575890967e+02 3.183560192201095447e+02 2.726040316983384173e+02 2.034197404177521946e+02 2.742929332880068500e+02 2.673062047873937672e+02 -9.999000000000000000e+03
-9.999000000000000000e+03 1.705009165934283430e+02 1.482106843405452423e+02 1.563134128288057241e+02 1.594762133391791110e+02 1.646899229654339081e+02 2.238935411550702952e+02 2.023350938530971348e+02 2.914238024190661349e+02 3.942960996535388745e+02 4.542280680472384233e+02 4.605943633757258340e+02 4.723855773595626601e+02 4.837586840615351775e+02 3.793380283499930670e+02 1.872144784005816689e+02 1.985869257822971008e+02 2.396642239711241587e+02 -9.999000000000000000e+03
-9.999000000000000000e+03 -9.999000000000000000e+03 -9.999000000000000000e+03 -9.999000000000000000e+03 -9.999000000000000000e+03 -9.999000000000000000e+03 -9.999000000000000000e+03 -9.999000000000000000e+03 -9.999000000000000000e+03 -9.999000000000000000e+03 -9.999000000000000000e+03 -9.999000000000000000e+03 -9.999000000000000000e+03 -9.999000000000000000e+03 -9.999000000000000000e+03 -9.999000000000000000e+03 -9.999000000000000000e+03 -9.999000000000000000e+03 -9.999000000000000000e+03
