ncols        87
nrows        107
xllcorner    508562.338426190021
yllcorner    5265596.272683399729
cellsize     120.000000000000
NODATA_value -9999
0.0 0 0 0 0 0 0 0 0 0 0 0 0 0 0 0 0 0 0 0 0 0 0 0 0 0 0 0 0 0 0 0 0 0 0 0 0 0 0 0 0 0 0 0 0 0 0 0 0 0 0 0 0 0 0 0 0 0 0 0 0 0 0 0 0 0 0 0 0 0 0 0 0 0 0 0 0 0 0 0 0 0 0 0 0 0 0 
0 0 0 0 0 0 0 0 0 0 0 0 0 0 0 0 0 0 0 0 0 0 0 0 0 0 0 0 0 0 0 0 0 0 0 0 0 0 0 0 0 0 0 0 0 0 0 0 0 0 0 0 0 0 0 0 0 0 0 0 0 0 0 0 0 0 0 0 0 0 0 0 0 0 0 0 0 0 0 0 0 0 0 0 0 0 0 
0 0 0 0 0 0 0 0 0 0 0 0 0 0 0 0 0 0 0 0 0 0 0 0 0 0 0 0 0 0 0 0 0 0 0 0 0 0 0 0 0 0 0 0 0 0 0 0 0 0 0 0 0 0 0 0 0 0 0 0 0 0 0 0 0 0 0 0 0 0 0 0 0 0 0 0 0 0 0 0 0 0 0 0 0 0 0 
0 0 0 0 0 0 0 0 0 0 0 0 0 0 0 0 0 0 0 0 0 0 0 0 0 0 0 0 0 0 0 0 0 0 0 0 0 0 0 0 0 0 0 0 0 0 0 0 0 0 0 0 0 0 0 0 0 0 0 0 0 0 0 0 0 0 0.0046944441273808479309 0.0031296294182538986206 0.0023472220636904239655 0 0 0 0 0 0 0 0 0 0 0 0 0 0 0 0 0 0 
0 0 0 0 0 0 0 0 0 0 0 0 0 0 0 0 0 0 0 0 0 0 0 0 0 0 0 0 0 0 0 0 0 0 0 0 0 0 0 0 0 0 0 0 0 0 0 0 0 0 0 0 0 0 0 0 0 0 0 0 0 0 0 0 0 0 0.0046944441273808479309 0 0 0 0 0 0 0 0 0 0 0 0 0 0 0 0 0 0 0 0 
0 0 0 0 0 0 0 0 0 0 0 0 0 0 0 0 0 0 0 0 0 0 0 0 0 0 0 0 0 0 0 0 0 0 0 0 0 0 0 0 0 0 0 0 0 0 0 0 0 0 0 0 0 0 0 0 0 0 0 0 0 0 0 0.003755555255338549614 0 0 0 0 0 0 0 0 0 0 0 0 0 0 0 0 0 0 0 0 0 0 0 
0 0 0 0 0 0 0 0 0 0 0 0 0 0 0 0 0 0 0 0 0 0 0 0 0 0 0 0 0 0 0 0 0 0 0 0 0 0 0 0 0 0 0 0 0 0 0 0 0 0 0 0 0 0 0 0 0 0 0 0 0 0 0 0 0 0 0.0031296294182538986206 0 0.0070416661910712718964 0 0 0 0 0 0 0 0 0 0 0 0 0 0 0 0 0 0 
0 0 0 0 0 0 0 0 0 0 0 0 0 0 0 0 0 0 0 0 0 0 0 0 0 0 0 0 0 0 0 0 0 0 0 0 0 0 0 0 0 0 0 0 0 0 0 0 0 0 0 0 0 0 0 0 0 0 0 0 0 0 0 0 0.0031296294182538986206 0 0 0 0 0 0 0 0 0 0 0 0 0 0 0 0 0 0 0 0 0 0 
0 0 0 0 0 0 0 0 0 0 0 0 0 0 0 0 0 0 0 0 0 0 0 0 0 0 0 0 0 0 0 0 0 0 0 0 0 0 0 0 0 0 0 0 0 0 0 0 0 0 0 0 0 0 0 0 0 0 0 0 0 0 0 0 0 0 0 0 0 0 0 0 0 0 0 0 0 0 0 0 0 0 0 0 0 0 0 
0 0 0 0 0 0 0 0 0 0 0 0 0 0 0 0 0 0 0 0 0 0 0 0 0 0 0 0 0 0 0 0 0 0 0 0 0 0 0 0 0 0 0 0 0 0 0 0 0 0 0 0 0 0 0 0 0 0 0 0 0 0 0.0031296294182538986206 0 0 0 0 0 0 0 0 0 0 0 0 0 0 0 0 0 0 0 0 0 0 0 0 
0 0 0 0 0 0 0 0 0 0 0 0 0 0 0 0 0 0 0 0 0 0 0 0 0 0 0 0 0 0 0 0 0 0 0 0 0 0 0 0 0 0 0 0 0 0 0 0 0 0 0 0 0 0 0 0 0 0 0 0 0 0 0 0 0 0.002682539401575922966 0 0 0.002682539401575922966 0 0 0 0 0 0 0 0 0 0 0 0 0 0 0 0 0 0 
0 0 0 0 0 0 0 0 0 0 0 0 0 0 0 0 0 0 0 0 0 0 0 0 0 0 0 0 0 0 0 0 0 0 0 0 0 0 0 0 0 0 0 0 0 0 0 0 0 0 0 0 0 0 0 0 0 0 0 0 0 0 0 0 0 0 0 0 0 0 0 0 0 0 0 0 0 0 0 0 0 0 0 0 0 0 0 
0 0 0 0 0 0 0 0 0 0 0 0 0 0 0 0 0 0 0 0 0 0 0 0 0 0 0 0 0 0 0 0 0 0 0 0 0 0 0 0 0 0 0 0 0 0 0 0 0 0 0 0 0 0 0 0 0 0 0 0 0 0 0 0 0 0 0 0 0 0 0 0 0 0 0 0 0 0 0 0 0 0 0 0 0 0 0 
0 0 0 0 0 0 0 0 0 0 0 0 0 0 0 0 0 0 0 0 0 0 0 0 0 0 0 0 0 0 0 0 0 0 0 0 0 0 0 0 0 0 0 0 0 0 0 0 0 0 0 0 0 0 0 0 0 0 0 0 0 0 0 0 0 0 0 0 0 0 0 0 0 0 0 0 0 0 0 0 0 0 0 0 0 0 0 
0 0 0 0 0 0 0 0 0 0 0 0 0 0 0 0 0 0 0 0 0 0 0 0 0 0 0 0 0 0 0 0 0 0 0 0 0 0 0 0 0 0 0 0 0 0 0 0 0 0 0 0 0 0 0 0 0 0 0 0 0 0.0046944441273808479309 0 0 0 0 0 0 0 0 0 0 0 0 0 0 0 0 0 0 0 0 0 0 0 0 0 
0 0 0 0 0 0 0 0 0 0 0 0 0 0 0 0 0 0 0 0 0 0 0 0 0 0 0 0 0 0 0 0 0 0 0 0 0 0 0 0 0 0 0 0 0 0 0 0 0 0 0 0 0 0 0 0 0 0 0 0.0046944441273808479309 0.0046944441273808479309 0.0046944441273808479309 0 0 0 0 0 0 0 0 0 0 0 0 0 0 0 0 0 0 0 0 0 0 0 0 0 
0 0 0 0 0 0 0 0 0 0 0 0 0 0 0 0 0 0 0 0 0 0 0 0 0 0 0 0 0 0 0 0 0 0 0 0 0 0 0 0 0 0 0 0 0 0 0 0 0 0 0 0 0 0 0 0 0 0 0 0 0 0.0046944441273808479309 0 0 0 0 0 0 0 0 0 0 0 0 0 0 0 0 0 0 0 0 0 0 0 0 0 
0 0 0 0 0 0 0 0 0 0 0 0 0 0 0 0 0 0 0 0 0 0 0 0 0 0 0 0 0 0 0 0 0 0 0 0 0 0 0 0 0 0 0 0 0 0 0 0 0 0 0 0 0 0 0 0 0 0 0 0 0.003755555255338549614 0 0 0 0 0 0 0 0 0 0 0 0 0 0 0 0 0 0 0 0 0 0 0 0 0 0 
0 0 0 0 0 0 0 0 0 0 0 0 0 0 0 0 0 0 0 0 0 0 0 0 0 0 0 0 0 0 0 0 0 0 0 0 0 0 0 0 0 0 0 0 0 0 0 0 0 0 0 0 0 0 0 0 0 0 0 0.0023472220636904239655 0 0 0 0 0 0 0 0 0 0 0.003755555255338549614 0 0 0 0 0 0 0 0 0 0 0 0 0 0 0 0 
0 0 0 0 0 0 0 0 0 0 0 0 0 0 0 0 0 0 0 0 0 0 0 0 0 0 0 0 0 0 0 0 0 0 0 0 0 0 0 0 0 0 0 0 0 0 0 0 0 0 0 0 0 0 0 0 0 0 0.0083456784486770629883 0 0 0 0 0 0 0 0 0 0 0 0.0057777771726250648499 0.0062592588365077972412 0 0 0 0 0 0 0 0 0 0 0 0 0 0 0 
0 0 0 0 0 0 0 0 0 0 0 0 0 0 0 0 0 0 0 0 0 0 0 0 0 0 0 0 0 0 0 0 0 0 0 0 0 0 0 0 0 0 0 0 0 0 0 0 0 0 0 0 0 0 0 0 0 0.003755555255338549614 0 0 0 0 0 0 0 0 0 0 0 0.0023472220636904239655 0 0.0062592588365077972412 0 0 0 0 0 0 0 0 0 0 0 0 0 0 0 
0 0 0 0 0 0 0 0 0 0 0 0 0 0 0 0 0 0 0 0 0 0 0 0 0 0 0 0 0 0 0 0 0 0 0 0 0 0 0 0 0 0 0 0 0 0 0 0 0 0 0 0 0 0 0 0 0 0 0 0 0 0 0 0 0 0 0 0 0 0 0 0.0046944441273808479309 0 0 0 0 0 0 0 0 0 0 0 0 0 0 0 
0 0 0 0 0 0 0 0 0 0 0 0 0 0 0 0 0 0 0 0 0 0 0 0 0 0 0 0 0 0 0 0 0 0 0 0 0 0 0 0 0 0 0 0 0 0 0 0 0 0 0 0 0 0 0 0 0 0.0023472220636904239655 0 0 0 0 0.0023472220636904239655 0.0041728392243385314941 0 0 0.0023472220636904239655 0.0023472220636904239655 0.0083456784486770629883 0.0041728392243385314941 0.0023472220636904239655 0 0 0 0 0 0 0 0 0 0 0 0 0 0 0 0 
0 0 0 0 0 0 0 0 0 0 0 0 0 0 0 0 0 0 0 0 0 0 0 0 0 0 0 0 0 0 0 0 0 0 0 0 0 0 0 0 0 0 0 0 0 0 0 0 0 0 0 0 0 0 0 0 0 0 0 0 0 0.0046944441273808479309 0.0083456784486770629883 0.003755555255338549614 0 0.0075111105106770992279 0.0062592588365077972412 0.0031296294182538986206 0.0062592588365077972412 0.0031296294182538986206 0 0.0031296294182538986206 0 0 0 0 0 0 0 0 0 0 0 0 0 0 0 
0 0 0 0 0 0 0 0 0 0 0 0 0 0 0 0 0 0 0 0 0 0 0 0 0 0 0 0 0 0 0 0 0 0 0 0 0 0 0 0 0 0 0 0 0 0 0 0 0 0 0 0 0 0 0.0023472220636904239655 0 0 0 0 0 0 0.0062592588365077972412 0.0025037035811692476273 0 0.0046944441273808479309 0.0028888885863125324249 0.0031296294182538986206 0.0031296294182538986206 0.0062592588365077972412 0.0031296294182538986206 0.0028888885863125324249 0.002682539401575922966 0.0031296294182538986206 0.0023472220636904239655 0 0 0 0 0 0 0 0 0 0 0 0 0 
0 0 0 0 0 0 0 0 0 0 0 0 0 0 0 0 0 0 0 0 0 0 0 0 0 0 0 0 0 0 0 0 0 0 0 0 0 0 0 0 0 0 0 0 0 0 0 0 0 0 0 0 0 0 0 0 0 0 0 0 0 0.0046944441273808479309 0 0 0.0023472220636904239655 0 0.0023472220636904239655 0 0 0 0.005365078803151845932 0.0031296294182538986206 0.0046944441273808479309 0.0046944441273808479309 0 0 0 0.0031296294182538986206 0 0 0 0 0 0 0 0 0 
0 0 0 0 0 0 0 0 0 0 0 0 0 0 0 0 0 0 0 0 0 0 0 0 0 0 0 0 0 0 0 0 0 0 0 0 0 0 0 0 0 0 0 0 0 0 0 0 0 0 0 0 0 0 0 0 0 0 0 0 0.0031296294182538986206 0 0.0046944441273808479309 0 0.0031296294182538986206 0 0 0 0 0 0 0 0 0 0.0023472220636904239655 0 0 0 0 0 0 0 0 0 0 0 0 
0 0 0 0 0 0 0 0 0 0 0 0 0 0 0 0 0 0 0 0 0 0 0 0 0 0 0 0 0 0 0 0 0 0 0 0 0 0 0 0 0 0 0 0 0 0 0 0 0 0 0 0 0 0 0 0 0 0 0 0 0 0 0 0.0075111105106770992279 0.0031296294182538986206 0.0031296294182538986206 0.0031296294182538986206 0.0041728392243385314941 0.0041728392243385314941 0 0.0025037035811692476273 0.002682539401575922966 0.0028888885863125324249 0.0046944441273808479309 0 0 0 0 0 0 0 0 0 0 0 0 0 
0 0 0 0 0 0 0 0 0 0 0 0 0 0 0 0 0 0 0 0 0 0 0 0 0 0 0 0 0 0 0 0 0 0 0 0 0 0 0 0 0 0 0 0 0 0 0 0 0 0 0 0 0 0 0 0 0 0 0 0 0 0 0.0023472220636904239655 0 0 0 0 0 0 0 0 0 0 0 0 0 0 0 0 0 0 0 0 0 0 0 0 
0 0 0 0 0 0 0 0 0 0 0 0 0 0 0 0 0 0 0 0 0 0 0 0 0 0 0 0 0 0 0 0 0 0 0 0 0 0 0 0 0 0 0 0 0 0 0 0 0 0 0 0 0 0 0 0 0 0 0 0 0 0.0023472220636904239655 0.0023472220636904239655 0.0046944441273808479309 0 0 0 0 0 0 0 0 0 0 0 0 0 0 0 0 0 0 0 0 0 0 0 
0 0 0 0 0 0 0 0 0 0 0 0 0 0 0 0 0 0 0 0 0 0 0 0 0 0 0 0 0 0 0 0 0 0 0 0 0 0 0 0 0 0 0 0 0 0 0 0 0 0 0 0 0 0 0 0 0 0 0 0 0 0 0.0023472220636904239655 0.0046944441273808479309 0 0 0 0 0 0 0 0 0 0 0 0 0 0 0 0 0 0 0 0 0 0 0 
0 0 0 0 0 0 0 0 0 0 0 0 0 0 0 0 0 0 0 0 0 0 0 0 0 0 0 0 0 0 0 0 0 0 0 0 0 0 0 0 0 0 0 0 0 0 0 0 0 0 0 0 0 0 0 0 0 0 0 0 0 0 0 0 0 0 0 0 0 0 0 0 0 0 0.0025037035811692476273 0 0 0 0 0 0 0 0 0 0 0 0 
0 0 0 0 0 0 0 0 0 0 0 0 0 0 0 0 0 0 0 0 0 0 0 0 0 0 0 0 0 0 0 0 0 0 0 0 0 0 0 0 0 0 0 0 0 0 0 0 0 0 0 0 0 0 0 0 0 0 0 0 0 0 0 0 0.0031296294182538986206 0.0028888885863125324249 0.002682539401575922966 0.0028888885863125324249 0 0 0 0 0 0 0 0.003755555255338549614 0 0 0 0 0 0 0 0 0 0 0 
0 0 0 0 0 0 0 0 0 0 0 0 0 0 0 0 0 0 0 0 0 0 0 0 0 0 0 0 0 0 0 0 0 0 0 0 0 0 0 0 0 0 0 0 0 0 0 0 0 0 0 0 0.0023472220636904239655 0.0023472220636904239655 0 0 0 0 0 0 0 0 0 0.0028888885863125324249 0.0041728392243385314941 0.0023472220636904239655 0.003755555255338549614 0.0028888885863125324249 0 0 0 0 0 0 0.0023472220636904239655 0.0075111105106770992279 0 0 0 0 0 0 0 0 0 0 0 
0 0 0 0 0 0 0 0 0 0 0 0 0 0 0 0 0 0 0 0 0 0 0 0 0 0 0 0 0 0 0 0 0 0 0 0 0 0 0 0 0 0 0 0 0 0 0 0 0 0 0 0 0 0 0 0 0 0 0 0 0 0 0 0.0023472220636904239655 0.0046944441273808479309 0.0023472220636904239655 0.0046944441273808479309 0.0023472220636904239655 0 0 0 0 0 0 0 0.0046944441273808479309 0.0046944441273808479309 0 0 0 0 0 0 0 0 0 0 
0 0 0 0 0 0 0 0 0 0 0 0 0 0 0 0 0 0 0 0 0 0 0 0 0 0 0 0 0 0 0 0 0 0 0 0 0 0 0 0 0 0 0 0 0 0 0 0 0 0 0.0023472220636904239655 0 0 0 0 0 0 0 0 0 0 0.0031296294182538986206 0 0 0.0023472220636904239655 0 0 0 0 0 0 0 0 0 0.0031296294182538986206 0.0031296294182538986206 0 0 0 0 0 0 0 0 0 0 0 
0 0 0 0 0 0 0 0 0 0 0 0 0 0 0 0 0 0 0 0 0 0 0 0 0 0 0 0 0 0 0 0 0 0 0 0 0 0 0 0 0 0 0 0 0 0 0 0 0.0031296294182538986206 0.0023472220636904239655 0 0 0 0 0 0 0 0 0 0 0 0 0 0.0028888885863125324249 0 0 0 0 0 0 0 0 0 0 0.0025037035811692476273 0.005365078803151845932 0.0046944441273808479309 0 0 0 0 0 0 0 0 0 0 
0 0 0 0 0 0 0 0 0 0 0 0 0 0 0 0 0 0 0 0 0 0 0 0 0 0 0 0 0 0 0 0 0 0 0 0 0 0 0 0 0 0 0 0 0 0 0 0 0.0062592588365077972412 0 0.0062592588365077972412 0 0 0 0 0 0 0 0 0.0031296294182538986206 0 0.0046944441273808479309 0 0 0 0 0 0 0 0.0023472220636904239655 0 0 0 0 0.0023472220636904239655 0.0046944441273808479309 0 0 0 0 0 0 0 0 0 0 0 
0 0 0 0 0 0 0 0 0 0 0 0 0 0 0 0 0 0 0 0 0 0 0 0 0 0 0 0 0 0 0 0 0 0 0 0 0 0 0 0 0 0 0 0 0 0 0.005365078803151845932 0.0075111105106770992279 0 0 0 0 0 0 0 0 0 0 0.0025037035811692476273 0 0 0 0 0.0023472220636904239655 0 0 0 0 0 0 0 0 0 0 0 0 0 0 0 0 0 0 0 0 0 0 0 
0 0 0 0 0 0 0 0 0 0 0 0 0 0 0 0 0 0 0 0 0 0 0 0 0 0 0 0 0 0 0 0 0 0 0 0 0 0 0 0 0 0 0 0 0 0 0 0.0023472220636904239655 0 0 0 0 0 0 0 0 0 0 0 0 0 0.0031296294182538986206 0 0.0023472220636904239655 0.002682539401575922966 0 0.0031296294182538986206 0 0 0 0 0 0 0 0.002682539401575922966 0.0031296294182538986206 0.0023472220636904239655 0 0 0 0 0 0 0 0 0 0 
0 0 0 0 0 0 0 0 0 0 0 0 0 0 0 0 0 0 0 0 0 0 0 0 0 0 0 0 0 0 0 0 0 0 0 0 0 0 0 0 0 0 0 0.0023472220636904239655 0 0.0031296294182538986206 0.0031296294182538986206 0 0 0 0 0 0 0 0 0 0 0 0 0 0 0.0031296294182538986206 0.002682539401575922966 0.0023472220636904239655 0.002682539401575922966 0.0046944441273808479309 0 0.0023472220636904239655 0 0 0 0 0 0 0.0023472220636904239655 0.0062592588365077972412 0.0031296294182538986206 0.0023472220636904239655 0 0 0 0 0 0 0 0 0 
0 0 0 0 0 0 0 0 0 0 0 0 0 0 0 0 0 0 0 0 0 0 0 0 0 0 0 0 0 0 0 0 0 0 0 0 0 0 0 0 0 0 0 0.0023472220636904239655 0 0.0025037035811692476273 0.0031296294182538986206 0.002682539401575922966 0 0 0 0 0 0 0 0.0025037035811692476273 0 0 0 0 0 0 0 0 0 0.0025037035811692476273 0 0 0 0 0 0 0 0 0 0 0 0.0028888885863125324249 0 0 0 0 0 0 0 0 0 
0 0 0 0 0 0 0 0 0 0 0 0 0 0 0 0 0 0 0 0 0 0 0 0 0 0 0 0 0 0 0 0 0 0 0 0 0 0 0 0 0 0 0 0.0031296294182538986206 0 0 0 0 0 0 0 0 0 0 0 0 0 0 0 0 0 0 0 0 0 0 0 0 0 0 0 0 0.0031296294182538986206 0.0023472220636904239655 0 0.0046944441273808479309 0 0 0 0 0 0 0 0 0 0 0 
0 0 0 0 0 0 0 0 0 0 0 0 0 0 0 0 0 0 0 0 0 0 0 0 0 0 0 0 0 0 0 0 0 0 0 0 0 0 0 0 0 0 0.0031296294182538986206 0.0050074071623384952545 0 0 0 0 0 0 0 0 0 0 0 0 0 0 0 0 0 0 0 0 0 0 0 0 0 0 0 0 0 0.0031296294182538986206 0 0.0023472220636904239655 0 0 0 0 0 0 0 0 0 0 0 
0 0 0 0 0 0 0 0 0 0 0 0 0 0 0 0 0 0 0 0 0 0 0 0 0 0 0 0 0 0 0 0 0 0 0 0 0 0 0 0.0023472220636904239655 0.0023472220636904239655 0 0 0.0031296294182538986206 0 0 0 0 0 0 0 0 0 0 0 0 0 0 0 0 0 0 0 0 0 0 0 0 0 0 0 0 0 0 0 0.0023472220636904239655 0 0 0 0 0 0 0 0 0 0 0 
0 0 0 0 0 0 0 0 0 0 0 0 0 0 0 0 0 0 0 0 0 0 0 0 0 0 0 0 0 0 0 0 0 0 0 0 0 0 0 0.0046944441273808479309 0.0023472220636904239655 0.0023472220636904239655 0 0.003755555255338549614 0 0 0 0 0 0 0 0 0 0 0 0 0 0 0 0 0 0 0 0 0 0 0 0 0.0023472220636904239655 0 0.003755555255338549614 0 0 0 0 0.0023472220636904239655 0 0 0 0 0 0 0 0 0 0 0 
0 0 0 0 0 0 0 0 0 0 0 0 0 0 0 0 0 0 0 0 0 0 0 0 0 0 0 0 0 0 0 0 0 0 0 0 0 0 0.0023472220636904239655 0.0031296294182538986206 0.0023472220636904239655 0 0 0.0041728392243385314941 0.0023472220636904239655 0 0 0 0 0 0 0 0 0 0 0 0 0 0 0 0 0 0 0 0 0 0 0 0.0023472220636904239655 0.0028888885863125324249 0.0041728392243385314941 0 0 0 0 0.0023472220636904239655 0 0 0 0 0 0 0 0 0 0 0 
0 0 0 0 0 0 0 0 0 0 0 0 0 0 0 0 0 0 0 0 0 0 0 0 0 0 0 0 0 0 0 0 0 0 0 0 0 0.0023472220636904239655 0.0031296294182538986206 0.0023472220636904239655 0 0.0046944441273808479309 0 0.0023472220636904239655 0 0 0 0 0 0 0 0 0 0 0 0 0 0 0 0 0 0 0 0 0 0 0 0 0.0023472220636904239655 0.0046944441273808479309 0 0 0 0 0 0.0023472220636904239655 0.0023472220636904239655 0 0 0 0 0 0 0 0 0 0 
0 0 0 0 0 0 0 0 0 0 0 0 0 0 0 0 0 0 0 0 0 0 0 0 0 0 0 0 0 0 0 0 0 0 0 0 0 0 0.0023472220636904239655 0.0023472220636904239655 0 0 0 0.0031296294182538986206 0 0 0 0 0 0 0 0 0 0 0 0 0 0 0 0 0 0 0 0 0 0 0.0023472220636904239655 0 0 0 0.0023472220636904239655 0 0.0023472220636904239655 0 0.0023472220636904239655 0.0070416661910712718964 0.0023472220636904239655 0.0023472220636904239655 0 0 0 0 0 0 0 0 0 
0 0 0 0 0 0 0 0 0 0 0 0 0 0 0 0 0 0 0 0 0 0 0 0 0 0 0 0 0 0 0 0 0 0 0 0 0 0 0.003755555255338549614 0 0.0075111105106770992279 0.0046944441273808479309 0.0031296294182538986206 0.002682539401575922966 0.0023472220636904239655 0 0 0 0 0 0 0 0 0 0 0.002682539401575922966 0.0031296294182538986206 0.0075111105106770992279 0 0 0.0046944441273808479309 0 0.002682539401575922966 0.0023472220636904239655 0.0075111105106770992279 0 0.0023472220636904239655 0.0046944441273808479309 0 0 0.0023472220636904239655 0.0023472220636904239655 0 0.0046944441273808479309 0.0046944441273808479309 0.0023472220636904239655 0.0023472220636904239655 0 0 0 0 0 0 0 0 0 0 
0 0 0 0 0 0 0 0 0 0 0 0 0 0 0 0 0 0 0 0 0 0 0 0 0 0 0 0 0 0 0 0 0 0 0 0 0 0 0.003755555255338549614 0.0093888882547616958618 0.013412697240710258484 0.0046944441273808479309 0 0.0046944441273808479309 0.0023472220636904239655 0 0 0 0 0 0 0 0 0 0.0062592588365077972412 0 0 0 0 0.003755555255338549614 0 0 0.002682539401575922966 0 0 0 0.0023472220636904239655 0.0023472220636904239655 0 0 0 0 0.0070416661910712718964 0.0070416661910712718964 0 0.0023472220636904239655 0.0023472220636904239655 0 0 0 0 0 0 0 0 0 0 
0 0 0 0 0 0 0 0 0 0 0 0 0 0 0 0 0 0 0 0 0 0 0 0 0 0 0 0 0 0 0 0 0 0 0.0023472220636904239655 0.0046944441273808479309 0.0046944441273808479309 0.003755555255338549614 0 0.016430554911494255066 0.027540739625692367554 0 0.002682539401575922966 0.0041728392243385314941 0 0 0 0 0 0 0 0 0 0 0 0 0.002682539401575922966 0 0 0 0.0031296294182538986206 0.003755555255338549614 0.0031296294182538986206 0.0031296294182538986206 0 0.0046944441273808479309 0 0 0.0023472220636904239655 0.0023472220636904239655 0.0023472220636904239655 0.0023472220636904239655 0.0046944441273808479309 0.0023472220636904239655 0.0070416661910712718964 0.0046944441273808479309 0.0046944441273808479309 0 0 0 0 0 0 0 0 0 0 
0 0 0 0 0 0 0 0 0 0 0 0 0 0 0 0 0 0 0 0 0 0 0 0 0 0 0 0 0 0 0 0.0023472220636904239655 0 0.0025037035811692476273 0.0023472220636904239655 0.0083456784486770629883 0 0 0 0.012518517673015594482 0.037555553019046783447 0.002682539401575922966 0 0 0 0 0 0 0 0 0 0.002682539401575922966 0 0.0028888885863125324249 0.0057777771726250648499 0 0 0.0028888885863125324249 0.0031296294182538986206 0 0.0031296294182538986206 0.002682539401575922966 0.0031296294182538986206 0.0031296294182538986206 0.0046944441273808479309 0.0023472220636904239655 0.0023472220636904239655 0 0 0 0 0 0 0 0.0023472220636904239655 0.0093888882547616958618 0.0023472220636904239655 0.0046944441273808479309 0.0023472220636904239655 0 0 0 0 0 0 0 0 
0 0 0 0 0 0 0 0 0 0 0 0 0 0 0 0 0 0 0 0 0 0 0 0 0 0 0 0 0 0 0 0.0025037035811692476273 0 0.0028888885863125324249 0.0057777771726250648499 0.0050074071623384952545 0.012518517673015594482 0.005365078803151845932 0.01173610985279083252 0.025819443166255950928 0.016691356897354125977 0 0 0 0 0 0 0 0 0 0 0 0 0 0 0.0028888885863125324249 0.0075111105106770992279 0 0.0041728392243385314941 0 0 0 0 0 0 0 0 0 0 0 0 0 0 0 0 0.014083332382142543793 0.0070416661910712718964 0.0070416661910712718964 0 0 0 0 0 0 0 0 0 
0 0 0 0 0 0 0 0 0 0 0 0 0 0 0 0 0 0 0 0 0 0 0 0 0 0 0.0023472220636904239655 0 0 0.002682539401575922966 0.0093888882547616958618 0.018777776509523391724 0.014083332382142543793 0.003755555255338549614 0.014083332382142543793 0.012518517673015594482 0.0093888882547616958618 0.0046944441273808479309 0.018777776509523391724 0.014083332382142543793 0.011266665533185005188 0 0 0 0 0 0 0 0 0 0 0 0 0 0 0 0.0031296294182538986206 0 0.0023472220636904239655 0 0.0046944441273808479309 0 0 0 0 0 0 0 0.0023472220636904239655 0 0 0 0 0 0 0.01173610985279083252 0.0070416661910712718964 0.0093888882547616958618 0.0023472220636904239655 0.0023472220636904239655 0 0 0 0 0 0 0 
0 0 0 0 0 0 0 0 0 0 0 0 0 0 0 0 0 0 0 0 0 0 0 0 0 0.0028888885863125324249 0.0023472220636904239655 0.0093888882547616958618 0.0041728392243385314941 0.0031296294182538986206 0.028166664764285087585 0.018777776509523391724 0.024142855778336524963 0.017525924369692802429 0.012518517673015594482 0.0062592588365077972412 0 0.0046944441273808479309 0.0086666662245988845825 0.0062592588365077972412 0.0031296294182538986206 0 0 0 0 0 0 0 0 0.0031296294182538986206 0 0.0046944441273808479309 0.0023472220636904239655 0.0031296294182538986206 0.0075111105106770992279 0.0062592588365077972412 0.0046944441273808479309 0.003755555255338549614 0.0031296294182538986206 0 0 0 0 0 0 0 0 0.0023472220636904239655 0 0.0023472220636904239655 0 0.0093888882547616958618 0 0 0 0.0046944441273808479309 0.0093888882547616958618 0.01173610985279083252 0 0.0093888882547616958618 0 0 0 0 0 0 0 
0 0 0 0 0 0 0 0 0 0 0 0 0 0 0 0 0 0 0 0 0 0 0 0 0.0023472220636904239655 0 0 0.005365078803151845932 0.0083456784486770629883 0 0.012518517673015594482 0.030513886362314224243 0.028166664764285087585 0.025037035346031188965 0.022533331066370010376 0 0 0.0046944441273808479309 0.0083456784486770629883 0.012518517673015594482 0.0086666662245988845825 0 0 0 0 0 0 0.0046944441273808479309 0 0.0070416661910712718964 0 0 0.0075111105106770992279 0.0093888882547616958618 0.0115555543452501297 0.0023472220636904239655 0.0046944441273808479309 0 0 0 0 0 0 0 0 0 0 0 0.0023472220636904239655 0.0046944441273808479309 0.0093888882547616958618 0 0.0070416661910712718964 0 0.0023472220636904239655 0 0 0 0 0.0070416661910712718964 0.0023472220636904239655 0 0 0 0 0 0 
0 0 0 0 0 0 0 0 0 0 0 0 0 0 0 0 0 0 0 0 0 0 0 0 0.0025037035811692476273 0 0.0062592588365077972412 0.0075111105106770992279 0.0041728392243385314941 0.0025037035811692476273 0 0.012518517673015594482 0.015648147091269493103 0.012518517673015594482 0.021907405927777290344 0 0 0.014083332382142543793 0.012518517673015594482 0.015648147091269493103 0.020222220569849014282 0 0 0 0 0 0 0 0 0.0046944441273808479309 0.0057777771726250648499 0.013412697240710258484 0.016095237806439399719 0.0062592588365077972412 0.0050074071623384952545 0.0028888885863125324249 0.0075111105106770992279 0.0028888885863125324249 0 0 0 0 0 0 0 0 0 0 0.0023472220636904239655 0 0 0 0 0.0023472220636904239655 0.0093888882547616958618 0 0 0 0 0.0093888882547616958618 0.0023472220636904239655 0 0 0 0 0 0 
0 0 0 0 0 0 0 0 0 0 0 0 0 0 0 0 0 0 0 0 0 0 0 0.0031296294182538986206 0.003755555255338549614 0.0075111105106770992279 0 0.0031296294182538986206 0.0031296294182538986206 0.0041728392243385314941 0.0083456784486770629883 0.0093888882547616958618 0.0062592588365077972412 0 0 0 0.0062592588365077972412 0.011266665533185005188 0.016430554911494255066 0.0093888882547616958618 0.0115555543452501297 0 0 0 0 0 0 0 0 0 0.0023472220636904239655 0 0 0 0 0 0 0 0 0 0 0 0 0 0 0 0 0 0.0046944441273808479309 0.0023472220636904239655 0 0 0 0 0.0070416661910712718964 0.0023472220636904239655 0 0.0046944441273808479309 0.0070416661910712718964 0.0023472220636904239655 0 0 0 0 0 0 0 
0 0 0 0 0 0 0 0 0 0 0 0 0 0 0 0 0 0 0 0 0 0 0.0031296294182538986206 0.0046944441273808479309 0.0075111105106770992279 0.0062592588365077972412 0.0031296294182538986206 0.0031296294182538986206 0.002682539401575922966 0.015022221021354198456 0.002682539401575922966 0.003755555255338549614 0.0062592588365077972412 0 0 0.0031296294182538986206 0.0093888882547616958618 0.018777776509523391724 0.023472219705581665039 0.014083332382142543793 0.014083332382142543793 0 0 0.003755555255338549614 0 0 0 0 0 0 0 0 0 0 0 0 0 0 0 0 0 0 0 0 0 0 0 0 0.0023472220636904239655 0.0023472220636904239655 0 0.0023472220636904239655 0.0023472220636904239655 0 0.0023472220636904239655 0.0070416661910712718964 0.0046944441273808479309 0.0046944441273808479309 0 0.0023472220636904239655 0 0 0 0 0 0 0 
0 0 0 0 0 0 0 0 0 0 0 0 0 0 0 0 0 0 0 0 0.0031296294182538986206 0.0025037035811692476273 0 0.0023472220636904239655 0.012518517673015594482 0.0041728392243385314941 0.0057777771726250648499 0 0.0041728392243385314941 0.003755555255338549614 0 0.012518517673015594482 0.0080476189032196998596 0 0 0.0086666662245988845825 0.023472219705581665039 0.016430554911494255066 0.014083332382142543793 0 0 0 0 0 0 0 0 0 0 0 0 0 0 0 0 0 0 0 0 0 0 0 0 0 0 0 0 0.0023472220636904239655 0.0023472220636904239655 0.0023472220636904239655 0 0 0 0 0.0023472220636904239655 0 0.0070416661910712718964 0.0023472220636904239655 0 0 0 0 0 0 0 0 0 
0 0 0 0 0 0 0 0 0 0 0 0 0 0 0 0 0 0.0023472220636904239655 0 0.0023472220636904239655 0.0031296294182538986206 0 0 0 0 0 0 0 0 0.0031296294182538986206 0 0.0057777771726250648499 0.0093888882547616958618 0.0083456784486770629883 0 0.014083332382142543793 0.023472219705581665039 0.022533331066370010376 0.0031296294182538986206 0.0031296294182538986206 0.0023472220636904239655 0 0 0 0.0023472220636904239655 0 0 0 0 0 0 0 0 0 0 0 0 0 0 0 0 0 0 0 0 0 0 0.0023472220636904239655 0.0023472220636904239655 0.0023472220636904239655 0 0 0 0 0.0023472220636904239655 0.0023472220636904239655 0.0093888882547616958618 0 0 0 0 0 0 0 0 0 0 
0 0 0 0 0 0 0 0 0 0 0 0 0 0 0 0 0 0 0 0 0 0.0023472220636904239655 0 0.0031296294182538986206 0.0041728392243385314941 0 0.0023472220636904239655 0 0.0031296294182538986206 0.0062592588365077972412 0 0.0093888882547616958618 0.0070416661910712718964 0.0086666662245988845825 0.015022221021354198456 0.015648147091269493103 0 0 0.0041728392243385314941 0.0031296294182538986206 0 0 0 0 0 0 0 0 0 0 0 0 0 0 0 0 0 0 0 0 0 0 0 0 0 0 0 0 0.0070416661910712718964 0 0 0.0023472220636904239655 0.0023472220636904239655 0.0023472220636904239655 0.0023472220636904239655 0.0023472220636904239655 0.0023472220636904239655 0 0 0 0 0 0 0 0 0 0 
0 0 0 0 0 0 0 0 0 0 0 0 0 0 0 0 0.0023472220636904239655 0 0 0 0 0.0023472220636904239655 0 0 0 0 0.0050074071623384952545 0.002682539401575922966 0 0 0.0093888882547616958618 0.011266665533185005188 0.0062592588365077972412 0.003755555255338549614 0.018777776509523391724 0.012518517673015594482 0 0.002682539401575922966 0.0023472220636904239655 0 0 0 0 0 0 0 0 0 0.0031296294182538986206 0 0 0 0 0 0 0 0 0 0 0 0 0 0 0 0 0 0 0 0.0023472220636904239655 0 0.0023472220636904239655 0.0023472220636904239655 0.0023472220636904239655 0 0.0023472220636904239655 0 0.0023472220636904239655 0 0 0 0 0 0 0 0 0 0 
0 0 0 0 0 0 0 0 0 0 0 0 0 0 0 0 0 0 0 0 0 0 0 0 0.002682539401575922966 0.0031296294182538986206 0.0031296294182538986206 0 0 0 0 0 0.0046944441273808479309 0.0062592588365077972412 0 0 0.0093888882547616958618 0.0046944441273808479309 0.0080476189032196998596 0 0 0 0 0 0 0 0 0 0 0 0 0 0 0 0 0 0 0 0 0 0 0 0 0 0 0 0 0 0.0046944441273808479309 0.0023472220636904239655 0 0.0023472220636904239655 0.0023472220636904239655 0.0046944441273808479309 0.0023472220636904239655 0.0023472220636904239655 0.0023472220636904239655 0 0 0 0 0 0 0 0 0 0 
0 0 0 0 0 0 0 0 0 0 0 0 0 0 0 0.0023472220636904239655 0.0028888885863125324249 0 0 0 0.0041728392243385314941 0.0062592588365077972412 0.002682539401575922966 0.0023472220636904239655 0.0023472220636904239655 0 0.0041728392243385314941 0 0 0 0 0 0 0 0.0041728392243385314941 0.0046944441273808479309 0.0023472220636904239655 0 0 0 0 0 0 0 0 0 0 0 0 0 0 0 0 0 0 0 0 0 0 0 0 0 0 0 0 0 0 0 0 0 0.0023472220636904239655 0 0 0 0 0 0 0 0 0 0 0 0 0 0 0 0 
0 0 0 0 0 0 0 0 0 0 0 0.0025037035811692476273 0 0 0.0023472220636904239655 0.0093888882547616958618 0 0 0 0.0031296294182538986206 0 0 0 0 0 0 0 0 0 0 0 0.0023472220636904239655 0.0046944441273808479309 0.0062592588365077972412 0.0083456784486770629883 0 0.0046944441273808479309 0 0 0 0 0 0 0 0 0 0 0 0 0 0 0 0 0 0 0 0 0 0 0 0 0 0 0 0.0023472220636904239655 0 0.0023472220636904239655 0 0.0046944441273808479309 0.0046944441273808479309 0 0 0 0 0 0 0 0 0 0 0 0 0 0 0 0 0 
0 0 0 0 0 0 0 0 0 0.0023472220636904239655 0 0.0041728392243385314941 0 0.0023472220636904239655 0 0.0031296294182538986206 0 0 0 0 0 0.0041728392243385314941 0 0.0041728392243385314941 0 0.0023472220636904239655 0 0 0 0.0031296294182538986206 0.0041728392243385314941 0.0031296294182538986206 0.0031296294182538986206 0.0028888885863125324249 0.0046944441273808479309 0 0.0031296294182538986206 0 0 0 0 0 0 0 0 0 0 0 0 0 0 0 0 0 0 0 0 0 0 0 0 0 0 0 0 0 0 0 0.0046944441273808479309 0 0 0 0 0 0 0 0 0 0 0 0 0 0 0 0 0 0 
0 0 0 0 0 0 0 0 0 0 0.0023472220636904239655 0 0 0.002682539401575922966 0 0 0.0023472220636904239655 0 0 0 0 0.0031296294182538986206 0 0.0023472220636904239655 0 0 0 0 0 0 0 0 0 0 0 0 0 0 0 0 0 0 0 0 0 0 0 0 0 0 0 0 0 0 0 0 0 0 0 0 0.0023472220636904239655 0 0 0 0 0 0 0.0023472220636904239655 0.0046944441273808479309 0 0 0 0 0 0 0 0 0 0 0 0 0 0 0 0 0 0 
0 0 0 0 0 0 0 0 0 0 0.0023472220636904239655 0.002682539401575922966 0.0046944441273808479309 0 0 0 0 0 0 0 0 0.002682539401575922966 0.0062592588365077972412 0.0023472220636904239655 0 0 0 0 0 0 0 0 0 0 0 0 0 0 0 0 0 0 0 0 0 0 0 0 0 0 0 0 0 0 0 0 0 0 0 0 0 0 0 0 0 0 0 0 0 0 0 0 0 0 0 0 0 0 0 0 0 0 0 0 0 0 0 
0 0 0 0 0 0 0 0 0.0023472220636904239655 0 0.0031296294182538986206 0.0041728392243385314941 0.003755555255338549614 0.0046944441273808479309 0 0 0 0 0 0 0 0 0.0023472220636904239655 0.0023472220636904239655 0 0 0 0 0 0 0 0 0 0 0 0 0 0 0 0 0 0 0 0 0 0 0 0 0 0 0 0 0 0 0 0 0 0 0 0 0 0 0 0 0 0 0 0 0 0 0 0 0 0 0 0 0 0 0 0 0 0 0 0 0 0 0 
0 0 0 0 0 0 0 0 0.0023472220636904239655 0.0023472220636904239655 0.0023472220636904239655 0 0.0046944441273808479309 0 0.0031296294182538986206 0.0023472220636904239655 0 0 0 0 0 0 0 0 0 0 0 0 0 0 0 0 0 0 0 0 0 0 0 0 0 0 0 0 0 0 0 0 0 0 0 0 0 0 0 0 0 0 0 0 0 0 0 0 0 0 0 0 0 0 0 0 0 0 0 0 0 0 0 0 0 0 0 0 0 0 0 
0 0 0 0 0 0 0 0.0023472220636904239655 0.0023472220636904239655 0.0031296294182538986206 0.0023472220636904239655 0 0 0 0.0031296294182538986206 0 0 0 0.0023472220636904239655 0 0 0 0 0 0 0 0 0 0 0 0 0 0 0 0 0 0 0 0 0 0 0 0 0 0 0 0 0 0 0 0 0 0 0 0 0 0 0 0 0 0 0 0 0 0 0 0 0 0 0 0 0 0 0 0 0 0 0 0 0 0 0 0 0 0 0 0 
0 0 0 0 0 0 0.0093888882547616958618 0.0046944441273808479309 0 0 0 0.0023472220636904239655 0.0046944441273808479309 0.0031296294182538986206 0 0.0046944441273808479309 0 0 0 0 0 0 0 0 0 0 0 0 0 0 0 0 0 0 0 0 0 0 0 0 0 0 0 0 0 0 0 0 0 0 0 0 0 0 0 0 0 0 0 0 0 0 0 0 0 0 0 0 0 0 0 0 0 0 0 0 0 0 0 0 0 0 0 0 0 0 0 
0 0 0 0 0 0 0.0046944441273808479309 0.0031296294182538986206 0 0.0046944441273808479309 0.0046944441273808479309 0 0 0 0 0.0023472220636904239655 0 0 0.0031296294182538986206 0.0075111105106770992279 0 0 0 0 0 0 0 0 0 0 0 0 0 0 0 0 0 0 0 0 0 0 0 0 0 0 0 0 0 0 0 0 0 0 0 0 0 0 0 0 0 0 0 0 0 0 0 0 0 0 0 0 0 0 0 0 0 0 0 0 0 0 0 0 0 0 0 
0 0 0 0 0 0 0.0057777771726250648499 0 0 0.0028888885863125324249 0.0031296294182538986206 0 0 0 0.0023472220636904239655 0 0.0025037035811692476273 0 0 0.0062592588365077972412 0 0 0 0 0 0 0 0 0 0 0 0 0 0 0 0 0 0 0 0 0 0 0 0 0 0 0 0 0 0 0 0 0 0 0 0 0 0 0 0 0 0 0 0 0 0 0 0 0 0 0 0 0 0 0 0 0 0 0 0 0 0 0 0 0 0 0 
0 0 0 0 0 0 0.0031296294182538986206 0 0 0.0023472220636904239655 0 0.0023472220636904239655 0 0 0.0046944441273808479309 0 0 0.0046944441273808479309 0.0046944441273808479309 0.0031296294182538986206 0 0 0 0 0 0 0 0 0 0 0 0 0 0 0 0 0 0 0 0 0 0 0 0 0 0 0 0 0 0 0 0 0 0 0 0 0 0 0 0 0 0 0 0 0 0 0 0 0 0 0 0 0 0 0 0 0 0 0 0 0 0 0 0 0 0 0 
0 0 0 0 0 0.0023472220636904239655 0 0 0 0.0041728392243385314941 0 0.0023472220636904239655 0 0 0 0 0 0 0 0.0075111105106770992279 0.0046944441273808479309 0 0 0 0 0 0 0 0 0 0 0 0 0 0 0 0 0 0 0 0 0 0 0 0 0 0 0 0 0 0 0 0 0 0 0 0 0 0 0 0 0 0 0 0 0 0 0 0 0 0 0 0 0 0 0 0 0 0 0 0 0 0 0 0 0 0 
0 0 0 0 0 0.0023472220636904239655 0.002682539401575922966 0 0.0031296294182538986206 0 0 0 0 0 0 0 0.003755555255338549614 0 0 0.003755555255338549614 0.0023472220636904239655 0 0 0 0 0 0 0 0 0 0 0 0 0 0 0 0 0 0 0 0 0 0 0 0 0 0 0 0 0 0 0 0 0 0 0 0 0 0 0 0 0 0 0 0 0 0 0 0 0 0 0 0 0 0 0 0 0 0 0 0 0 0 0 0 0 0 
0 0 0 0 0 0.0023472220636904239655 0 0.0046944441273808479309 0 0 0 0 0 0 0 0 0 0.0023472220636904239655 0 0.002682539401575922966 0 0 0 0 0 0 0 0 0 0 0 0 0 0 0 0 0 0 0 0 0 0 0 0 0 0 0 0 0 0 0 0 0 0 0 0 0 0 0 0 0 0 0 0 0 0 0 0 0 0 0 0 0 0 0 0 0 0 0 0 0 0 0 0 0 0 0 
0 0 0 0 0 0 0 0.0093888882547616958618 0 0 0 0 0 0.0023472220636904239655 0 0 0 0 0 0 0 0 0 0 0 0 0 0 0 0 0 0 0 0 0 0 0 0 0 0 0 0 0 0 0 0 0 0 0 0 0 0 0 0 0 0 0 0 0 0 0 0 0 0 0 0 0 0 0 0 0 0 0 0 0 0 0 0 0 0 0 0 0 0 0 0 0 
0 0 0 0 0 0 0.0023472220636904239655 0 0 0 0 0 0 0.0023472220636904239655 0.0031296294182538986206 0 0.0031296294182538986206 0 0 0 0 0 0 0 0 0 0 0 0 0 0 0 0 0 0 0 0 0 0 0 0 0 0 0 0 0 0 0 0 0 0 0 0 0 0 0 0 0 0 0 0 0 0 0 0 0 0 0 0 0 0 0 0 0 0 0 0 0 0 0 0 0 0 0 0 0 0 
0 0 0 0 0 0 0 0 0 0 0 0.003755555255338549614 0 0.0023472220636904239655 0 0 0.0023472220636904239655 0 0 0 0 0 0 0 0 0 0 0 0 0 0 0 0 0 0 0 0 0 0 0 0 0 0 0 0 0 0 0 0 0 0 0 0 0 0 0 0 0 0 0 0 0 0 0 0 0 0 0 0 0 0 0 0 0 0 0 0 0 0 0 0 0 0 0 0 0 0 
0 0 0 0 0 0 0.002682539401575922966 0 0 0.0062592588365077972412 0 0 0.0046944441273808479309 0 0 0.0046944441273808479309 0.0023472220636904239655 0 0 0 0 0 0 0 0 0 0 0 0 0 0 0 0 0 0 0 0 0 0 0 0 0 0 0 0 0 0 0 0 0 0 0 0 0 0 0 0 0 0 0 0 0 0 0 0 0 0 0 0 0 0 0 0 0 0 0 0 0 0 0 0 0 0 0 0 0 0 
0 0 0 0 0 0 0.002682539401575922966 0 0 0.0075111105106770992279 0 0 0 0 0 0 0 0 0 0 0 0 0 0 0 0.003755555255338549614 0.002682539401575922966 0 0 0 0 0 0 0 0 0 0 0 0 0 0 0 0 0 0 0 0 0 0 0 0 0 0 0 0 0 0 0 0 0 0 0 0 0 0 0 0 0 0 0 0 0 0 0 0 0 0 0 0 0 0 0 0 0 0 0 0 
0 0 0 0 0 0.0070416661910712718964 0 0.0031296294182538986206 0.0046944441273808479309 0 0 0 0.0023472220636904239655 0 0 0 0 0 0 0 0 0 0 0 0 0 0 0 0 0 0 0 0 0 0 0 0 0 0 0 0 0 0 0 0 0 0 0 0 0 0 0 0 0 0 0 0 0 0 0 0 0 0 0 0 0 0 0 0 0 0 0 0 0 0 0 0 0 0 0 0 0 0 0 0 0 0 
0 0 0 0 0.0046944441273808479309 0.0031296294182538986206 0 0 0 0 0 0 0 0 0 0 0 0 0 0 0 0 0 0 0.0028888885863125324249 0 0 0 0 0 0 0 0 0 0 0 0 0 0 0 0 0 0 0 0 0 0 0 0 0 0 0 0 0 0 0 0 0 0 0 0 0 0 0 0 0 0 0 0 0 0 0 0 0 0 0 0 0 0 0 0 0 0 0 0 0 0 
0 0 0 0 0.0023472220636904239655 0 0.0025037035811692476273 0 0.002682539401575922966 0 0 0.0025037035811692476273 0.0031296294182538986206 0.0046944441273808479309 0 0 0 0 0 0 0 0 0 0.0023472220636904239655 0.0062592588365077972412 0 0 0 0 0 0 0 0 0 0 0 0 0 0 0 0 0 0 0 0 0 0 0 0 0 0 0 0 0 0 0 0 0 0 0 0 0 0 0 0 0 0 0 0 0 0 0 0 0 0 0 0 0 0 0 0 0 0 0 0 0 0 
0 0 0 0 0 0 0 0 0.0062592588365077972412 0 0.0023472220636904239655 0 0.0023472220636904239655 0 0.0062592588365077972412 0 0.005365078803151845932 0 0 0 0 0.003755555255338549614 0 0 0.005365078803151845932 0 0 0 0 0 0 0 0 0 0 0 0 0 0 0 0 0 0 0 0 0 0 0 0 0 0 0 0 0 0 0 0 0 0 0 0 0 0 0 0 0 0 0 0 0 0 0 0 0 0 0 0 0 0 0 0 0 0 0 0 0 0 
0 0 0 0 0 0 0 0 0.0023472220636904239655 0.0031296294182538986206 0.0031296294182538986206 0 0 0.0080476189032196998596 0.0025037035811692476273 0 0.0062592588365077972412 0.0093888882547616958618 0 0 0 0 0 0 0 0 0 0 0 0 0 0 0 0 0 0 0 0 0 0 0 0 0 0 0 0 0 0 0 0 0 0 0 0 0 0 0 0 0 0 0 0 0 0 0 0 0 0 0 0 0 0 0 0 0 0 0 0 0 0 0 0 0 0 0 0 0 
0 0 0 0 0 0 0 0.002682539401575922966 0.0023472220636904239655 0 0.0023472220636904239655 0.0031296294182538986206 0 0.0075111105106770992279 0 0 0.0050074071623384952545 0 0 0 0 0 0 0.0023472220636904239655 0 0 0 0 0 0 0 0 0 0 0 0 0 0 0 0 0 0 0 0 0 0 0 0 0 0 0 0 0 0 0 0 0 0 0 0 0 0 0 0 0 0 0 0 0 0 0 0 0 0 0 0 0 0 0 0 0 0 0 0 0 0 0 
0 0 0 0 0 0 0 0 0.0023472220636904239655 0 0.0023472220636904239655 0 0 0 0 0 0.0028888885863125324249 0 0 0 0 0 0 0 0 0 0 0 0 0 0 0 0 0 0 0 0 0 0 0 0 0 0 0 0 0 0 0 0 0 0 0 0 0 0 0 0 0 0 0 0 0 0 0 0 0 0 0 0 0 0 0 0 0 0 0 0 0 0 0 0 0 0 0 0 0 0 
0 0 0 0 0 0 0 0 0 0 0.0046944441273808479309 0 0 0.0093888882547616958618 0.0031296294182538986206 0 0.0031296294182538986206 0 0 0 0 0 0 0 0 0 0 0 0 0 0 0 0 0 0 0 0 0 0 0 0 0 0 0 0 0 0 0 0 0 0 0 0 0 0 0 0 0 0 0 0 0 0 0 0 0 0 0 0 0 0 0 0 0 0 0 0 0 0 0 0 0 0 0 0 0 0 
0 0 0 0 0 0 0 0 0.0062592588365077972412 0.005365078803151845932 0.0046944441273808479309 0 0.0093888882547616958618 0 0 0 0.0075111105106770992279 0 0 0 0 0 0 0 0 0 0 0 0 0 0 0 0 0 0 0 0 0 0 0 0 0 0 0 0 0 0 0 0 0 0 0 0 0 0 0 0 0 0 0 0 0 0 0 0 0 0 0 0 0 0 0 0 0 0 0 0 0 0 0 0 0 0 0 0 0 0 
0 0 0 0 0 0 0 0 0 0 0 0 0.0046944441273808479309 0 0 0.0023472220636904239655 0 0.0023472220636904239655 0.003755555255338549614 0.0028888885863125324249 0 0 0 0 0 0 0 0 0 0 0 0 0 0 0 0 0 0 0 0 0 0 0 0 0 0 0 0 0 0 0 0 0 0 0 0 0 0 0 0 0 0 0 0 0 0 0 0 0 0 0 0 0 0 0 0 0 0 0 0 0 0 0 0 0 0 0 
0 0 0 0 0 0 0 0.002682539401575922966 0 0 0 0.0031296294182538986206 0 0 0 0 0 0 0.0046944441273808479309 0 0 0 0 0 0 0 0 0 0 0 0 0 0 0 0 0 0 0 0 0 0 0 0 0 0 0 0 0 0 0 0 0 0 0 0 0 0 0 0 0 0 0 0 0 0 0 0 0 0 0 0 0 0 0 0 0 0 0 0 0 0 0 0 0 0 0 0 
0 0 0 0 0 0 0 0 0.003755555255338549614 0 0 0 0 0 0 0 0 0.003755555255338549614 0 0.0057777771726250648499 0 0 0 0 0 0 0 0 0 0 0 0 0 0 0 0 0 0 0 0 0 0 0 0 0 0 0 0 0 0 0 0 0 0 0 0 0 0 0 0 0 0 0 0 0 0 0 0 0 0 0 0 0 0 0 0 0 0 0 0 0 0 0 0 0 0 0 
0 0 0 0 0 0 0 0 0 0 0 0 0 0 0 0 0 0 0.0023472220636904239655 0 0 0 0 0 0 0 0 0 0 0 0 0 0 0 0 0 0 0 0 0 0 0 0 0 0 0 0 0 0 0 0 0 0 0 0 0 0 0 0 0 0 0 0 0 0 0 0 0 0 0 0 0 0 0 0 0 0 0 0 0 0 0 0 0 0 0 0 
0 0 0 0 0 0 0 0 0 0 0 0 0 0 0.0031296294182538986206 0 0.002682539401575922966 0 0 0 0 0 0 0 0 0 0 0 0 0 0 0 0 0 0 0 0 0 0 0 0 0 0 0 0 0 0 0 0 0 0 0 0 0 0 0 0 0 0 0 0 0 0 0 0 0 0 0 0 0 0 0 0 0 0 0 0 0 0 0 0 0 0 0 0 0 0 
0 0 0 0 0 0 0 0 0 0 0 0 0 0 0 0 0 0 0 0 0 0 0 0 0 0 0 0 0 0 0 0 0 0 0 0 0 0 0 0 0 0 0 0 0 0 0 0 0 0 0 0 0 0 0 0 0 0 0 0 0 0 0 0 0 0 0 0 0 0 0 0 0 0 0 0 0 0 0 0 0 0 0 0 0 0 0 
0 0 0 0 0 0 0 0 0 0 0 0 0 0 0 0.0031296294182538986206 0 0 0 0 0 0 0 0 0 0 0 0 0 0 0 0 0 0 0 0 0 0 0 0 0 0 0 0 0 0 0 0 0 0 0 0 0 0 0 0 0 0 0 0 0 0 0 0 0 0 0 0 0 0 0 0 0 0 0 0 0 0 0 0 0 0 0 0 0 0 0 
0 0 0 0 0 0 0 0 0 0 0 0 0 0 0 0 0 0 0 0 0 0 0 0 0 0 0 0 0 0 0 0 0 0 0 0 0 0 0 0 0 0 0 0 0 0 0 0 0 0 0 0 0 0 0 0 0 0 0 0 0 0 0 0 0 0 0 0 0 0 0 0 0 0 0 0 0 0 0 0 0 0 0 0 0 0 0 
0 0 0 0 0 0 0 0 0 0 0 0 0 0 0 0 0 0 0 0 0 0 0 0 0 0 0 0 0 0 0 0 0 0 0 0 0 0 0 0 0 0 0 0 0 0 0 0 0 0 0 0 0 0 0 0 0 0 0 0 0 0 0 0 0 0 0 0 0 0 0 0 0 0 0 0 0 0 0 0 0 0 0 0 0 0 0 
0 0 0 0 0 0 0 0 0 0 0 0 0 0 0 0 0 0 0 0 0 0 0 0 0 0 0 0 0 0 0 0 0 0 0 0 0 0 0 0 0 0 0 0 0 0 0 0 0 0 0 0 0 0 0 0 0 0 0 0 0 0 0 0 0 0 0 0 0 0 0 0 0 0 0 0 0 0 0 0 0 0 0 0 0 0 0 
0 0 0 0 0 0 0 0 0 0 0 0 0 0 0 0 0 0 0 0 0 0 0 0 0 0 0 0 0 0 0 0 0 0 0 0 0 0 0 0 0 0 0 0 0 0 0 0 0 0 0 0 0 0 0 0 0 0 0 0 0 0 0 0 0 0 0 0 0 0 0 0 0 0 0 0 0 0 0 0 0 0 0 0 0 0 0 
0 0 0 0 0 0 0 0 0 0 0 0 0 0 0 0 0 0 0 0 0 0 0 0 0 0 0 0 0 0 0 0 0 0 0 0 0 0 0 0 0 0 0 0 0 0 0 0 0 0 0 0 0 0 0 0 0 0 0 0 0 0 0 0 0 0 0 0 0 0 0 0 0 0 0 0 0 0 0 0 0 0 0 0 0 0 0 
0 0 0 0 0 0 0 0 0 0 0 0 0 0 0 0 0 0 0 0 0 0 0 0 0 0 0 0 0 0 0 0 0 0 0 0 0 0 0 0 0 0 0 0 0 0 0 0 0 0 0 0 0 0 0 0 0 0 0 0 0 0 0 0 0 0 0 0 0 0 0 0 0 0 0 0 0 0 0 0 0 0 0 0 0 0 0 
