ncols        87
nrows        107
xllcorner    508544.901900000055
yllcorner    5265621.078099999577
cellsize     120.000000000000
1.0 1 1 1 1 1 1 1 1 1 1 1 1 1 1 1 1 1 1 1 1 1 1 1 1 1 1 1 1 1 1 1 1 1 1 1 1 1 1 1 1 1 1 1 1 1 1 1 1 1 1 1 1 1 1 1 1 1 1 1 1 1 1 1 1 1 1 0.8671875 0.94093751907348632812 0.91031247377395629883 0.92281246185302734375 0.99374997615814208984 0.95625001192092895508 0.99374997615814208984 0.93812501430511474609 0.93531250953674316406 0.95062500238418579102 0.90125000476837158203 0.94718748331069946289 0.95687496662139892578 0.98750001192092895508 0.98124998807907104492 1 0.98124998807907104492 0.99374997615814208984 1 1 
1 1 1 1 1 1 1 1 1 1 1 1 1 1 1 1 1 1 1 1 1 1 1 1 1 1 1 1 1 1 1 1 1 1 1 1 1 1 1 1 1 1 1 1 1 1 1 1 1 1 1 1 1 1 1 1 1 1 1 1 1 1 1 1 1 0.97218751907348632812 0.96593749523162841797 0.84156250953674316406 0.87968748807907104492 0.81499999761581420898 1 0.97843748331069946289 0.98124998807907104492 0.94437497854232788086 1 1 0.92281246185302734375 1 1 1 0.95625001192092895508 0.95968747138977050781 1 1 0.99374997615814208984 1 1 
1 1 1 1 1 1 1 1 1 1 1 1 1 1 1 1 1 1 1 1 1 1 1 1 1 1 1 1 1 1 1 1 1 1 1 1 1 1 1 1 1 1 1 1 1 1 1 1 1 1 1 1 1 1 1 1 1 1 1 0.95343750715255737305 0.93187499046325683594 0.91031247377395629883 1 0.95968747138977050781 0.78192305564880371094 0.90611112117767333984 0.90541666746139526367 0.92384612560272216797 0.9074999690055847168 0.89499998092651367188 0.98750001192092895508 1 1 1 1 1 0.85812497138977050781 0.99374997615814208984 1 0.97843748331069946289 0.91031247377395629883 1 1 1 1 0.97843748331069946289 0.83875000476837158203 
1 1 1 1 1 1 1 1 1 1 1 1 1 1 1 1 1 1 1 1 1 1 1 1 1 1 1 1 1 1 1 1 1 1 1 1 1 1 1 1 1 1 1 1 1 1 1 1 1 1 1 1 1 1 1 1 1 1 0.94437497854232788086 0.95687496662139892578 0.87343746423721313477 0.72812497615814208984 0.75749999284744262695 0.87906247377395629883 1 1 0.92843747138977050781 0.97500002384185791016 0.91593748331069946289 0.97500002384185791016 0.92281246185302734375 1 1 1 0.98750001192092895508 0.97500002384185791016 0.98124998807907104492 1 1 0.99374997615814208984 0.97218751907348632812 1 1 1 0.99374997615814208984 0.99374997615814208984 0.91374999284744262695 
1 1 1 1 1 1 1 1 1 1 1 1 1 1 1 1 1 1 1 1 1 1 1 1 1 1 1 1 1 1 1 1 1 1 0.98124998807907104492 0.97218751907348632812 0.95968747138977050781 1 1 1 1 1 1 1 1 1 1 1 1 1 1 1 1 1 1 1 0.93812501430511474609 0.95968747138977050781 0.88593751192092895508 0.83875000476837158203 0.78031247854232788086 0.84906250238418579102 0.84843748807907104492 0.98461538553237915039 1 1 0.96249997615814208984 1 0.95343750715255737305 0.97500002384185791016 0.92281246185302734375 0.95343750715255737305 0.97500002384185791016 0.96875 0.98750001192092895508 1 1 1 1 1 0.96593749523162841797 1 1 0.99374997615814208984 0.95968747138977050781 0.95968747138977050781 0.82749998569488525391 
1 1 1 1 1 1 1 1 1 1 1 1 1 1 1 1 1 1 1 1 1 1 1 1 1 1 1 1 1 1 1 1 0.95062500238418579102 0.93187499046325683594 0.88531249761581420898 0.96249997615814208984 0.99374997615814208984 1 1 1 1 1 1 1 1 1 1 1 1 1 1 1 1 0.97218751907348632812 0.79281246662139892578 0.87968748807907104492 0.95625001192092895508 0.85812497138977050781 0.95968747138977050781 0.91374999284744262695 0.89499998092651367188 0.89499998092651367188 0.89499998092651367188 0.99000000953674316406 1 1 0.95458334684371948242 1 1 0.8762499690055847168 0.91374999284744262695 0.98124998807907104492 1 1 1 1 1 1 1 1 1 1 1 1 0.97218751907348632812 0.92906248569488525391 0.89999997615814208984 
1 1 1 1 1 1 1 1 1 1 1 1 1 1 1 1 1 1 1 1 1 1 1 1 1 1 1 1 1 0.83875000476837158203 0.73374998569488525391 0.87000000476837158203 0.95343750715255737305 0.91031247377395629883 0.76218748092651367188 0.91656249761581420898 1 1 1 1 1 1 1 1 1 1 1 1 1 1 1 1 0.76437497138977050781 0.90687501430511474609 0.98750001192092895508 0.99374997615814208984 1 0.97218751907348632812 0.97843748331069946289 1 0.95343750715255737305 0.93531250953674316406 0.90406250953674316406 1 0.95687496662139892578 1 1 1 0.98124998807907104492 0.90406250953674316406 0.92281246185302734375 0.97500002384185791016 1 1 1 1 1 1 1 1 1 1 1 1 1 0.97218751907348632812 0.97500002384185791016 
1 1 1 1 1 1 1 1 1 1 1 1 1 1 1 1 1 1 1 1 1 1 1 1 1 1 1 0.93187499046325683594 0.70937496423721313477 0.60437500476837158203 0.72531247138977050781 0.76218748092651367188 0.74968749284744262695 0.92843747138977050781 0.97500002384185791016 1 1 1 1 1 1 1 1 1 1 1 1 1 1 1 0.88593751192092895508 0.83312499523162841797 0.89218747615814208984 0.95968747138977050781 1 1 1 0.99374997615814208984 1 1 0.91937500238418579102 0.96549999713897705078 0.96923077106475830078 1 1 0.95055556297302246094 1 1 0.97692304849624633789 0.80874997377395629883 0.92906248569488525391 0.97500002384185791016 1 1 1 1 1 1 1 1 1 1 1 1 1 1 1 
1 1 1 1 1 1 1 1 1 1 1 1 1 1 1 1 1 1 1 1 1 1 1 1 1 1 0.99374997615814208984 0.85750001668930053711 0.57656246423721313477 0.88874995708465576172 0.77187496423721313477 0.85468745231628417969 0.83031249046325683594 0.80750000476837158203 1 1 1 1 1 1 1 1 1 1 1 1 1 1 0.97843748331069946289 0.80187499523162841797 0.65999996662139892578 0.97500002384185791016 0.95343750715255737305 0.89156246185302734375 0.78312498331069946289 0.91374999284744262695 1 0.95968747138977050781 1 1 0.88874995708465576172 0.97218751907348632812 1 1 1 0.97843748331069946289 1 1 1 0.94093751907348632812 1 0.96875 1 0.95687496662139892578 0.96875 0.99374997615814208984 0.99374997615814208984 0.95968747138977050781 0.99374997615814208984 1 1 1 1 1 1 1 1 
1 1 1 1 1 1 1 1 1 1 1 1 1 1 1 1 1 1 1 1 1 1 0.99374997615814208984 0.95968747138977050781 0.99374997615814208984 0.92218750715255737305 0.98124998807907104492 0.94437497854232788086 0.86437499523162841797 0.66062498092651367188 0.65093749761581420898 0.87343746423721313477 0.71906250715255737305 0.71499997377395629883 1 1 1 1 1 1 1 1 1 1 1 1 1 0.93531250953674316406 0.97500002384185791016 0.92906248569488525391 0.99374997615814208984 1 1 1 1 1 1 1 1 1 0.98124998807907104492 0.98124998807907104492 1 1 1 1 1 1 0.9923076629638671875 0.94093751907348632812 0.99374997615814208984 0.98124998807907104492 1 0.95062500238418579102 0.91031247377395629883 0.98750001192092895508 0.97500002384185791016 0.95625001192092895508 0.98124998807907104492 0.98750001192092895508 0.99374997615814208984 1 1 1 1 1 1 
1 1 1 1 1 1 1 1 1 1 1 1 1 1 1 1 1 1 1 1 0.99374997615814208984 0.98124998807907104492 0.98750001192092895508 0.99374997615814208984 0.95625001192092895508 0.98750001192092895508 1 1 0.95062500238418579102 0.88531249761581420898 0.78093749284744262695 0.96593749523162841797 0.72874999046325683594 0.88875001668930053711 1 1 1 1 1 1 1 1 1 1 1 1 0.91031247377395629883 0.83312499523162841797 0.95625001192092895508 0.97843748331069946289 0.97843748331069946289 0.97843748331069946289 1 1 1 1 1 1 1 1 0.96821427345275878906 0.94999998807907104492 1 1 1 1 1 1 0.95714282989501953125 0.99374997615814208984 0.96249997615814208984 1 1 0.96593749523162841797 0.8762499690055847168 0.97218751907348632812 0.98124998807907104492 0.90343749523162841797 0.99374997615814208984 0.99374997615814208984 1 1 0.99374997615814208984 1 1 1 1 
1 1 1 1 1 1 1 1 1 1 1 1 1 1 1 1 1 1 1 0.97843748331069946289 0.86656248569488525391 0.97500002384185791016 0.98124998807907104492 0.95343750715255737305 0.94093751907348632812 1 1 1 0.89218747615814208984 0.85468745231628417969 0.92281246185302734375 0.75031244754791259766 0.74968749284744262695 1 1 1 1 1 1 1 1 1 1 1 0.99374997615814208984 0.78374999761581420898 0.81156247854232788086 0.93187499046325683594 1 1 0.94375002384185791016 1 1 1 1 1 1 1 1 0.99374997615814208984 0.85624998807907104492 0.74687498807907104492 1 1 1 1 1 1 0.98571425676345825195 0.95968747138977050781 0.95625001192092895508 0.99374997615814208984 1 0.99374997615814208984 0.92843747138977050781 0.94718748331069946289 0.87000000476837158203 0.9375 0.95625001192092895508 0.98124998807907104492 1 1 1 1 1 1 1 
1 1 1 1 1 1 1 1 1 1 1 1 1 1 1 1 1 1 1 0.87343746423721313477 0.94999998807907104492 0.93124997615814208984 0.96875 0.96875 0.94999998807907104492 1 1 1 0.80874997377395629883 0.94999998807907104492 0.78031247854232788086 0.80250000953674316406 0.97843748331069946289 1 1 1 1 1 1 1 1 1 1 0.95968747138977050781 0.73656249046325683594 0.82687497138977050781 0.99374997615814208984 1 1 1 1 1 1 1 1 1 1 1 1 0.99374997615814208984 0.91374999284744262695 0.68562495708465576172 0.98666667938232421875 1 1 1 1 1 1 0.96593749523162841797 0.98124998807907104492 0.89499998092651367188 0.85812497138977050781 0.92281246185302734375 0.75468748807907104492 0.98750001192092895508 0.85187500715255737305 0.97500002384185791016 0.95343750715255737305 0.98750001192092895508 1 1 1 1 1 1 1 
1 1 1 1 1 1 1 1 1 1 1 1 1 1 1 1 1 1 0.99374997615814208984 0.94718748331069946289 0.99374997615814208984 0.96249997615814208984 1 0.98750001192092895508 0.97500002384185791016 0.99374997615814208984 1 0.98124998807907104492 0.97500002384185791016 1 0.93187499046325683594 0.85187500715255737305 1 1 1 1 1 1 1 1 1 1 0.97218751907348632812 0.78093749284744262695 0.88875001668930053711 1 1 1 1 1 1 1 1 1 1 1 1 1 1 1 0.82124996185302734375 0.88187497854232788086 1 1 1 1 1 1 1 0.91656249761581420898 0.99374997615814208984 0.97218751907348632812 0.99374997615814208984 1 1 0.97218751907348632812 0.94093751907348632812 0.95343750715255737305 0.95625001192092895508 1 1 1 1 1 1 1 1 
1 1 1 1 1 1 1 1 1 1 1 1 1 1 1 1 1 1 1 1 1 0.92843747138977050781 1 0.97843748331069946289 0.96875 1 0.98750001192092895508 0.88874995708465576172 0.98750001192092895508 0.9074999690055847168 0.91031247377395629883 0.93812501430511474609 1 1 1 1 1 1 1 1 1 0.89781248569488525391 0.88249999284744262695 0.91312497854232788086 1 1 1 1 1 1 1 1 1 1 1 1 1 1 1 0.95062500238418579102 0.78125 0.92499995231628417969 0.95550000667572021484 1 1 1 1 1 0.99374997615814208984 0.96249997615814208984 0.95968747138977050781 0.93531250953674316406 1 1 1 0.96593749523162841797 0.92843747138977050781 0.88531249761581420898 0.93812501430511474609 1 1 1 1 1 1 1 1 
1 1 1 1 1 1 1 1 1 1 1 1 1 1 1 1 1 1 0.98750001192092895508 1 1 0.96875 0.95062500238418579102 0.99374997615814208984 0.95343750715255737305 0.94093751907348632812 0.92843747138977050781 0.97500002384185791016 1 0.90125000476837158203 0.95343750715255737305 0.97843748331069946289 1 1 1 1 1 1 0.91937500238418579102 0.81718748807907104492 0.70875000953674316406 0.8449999690055847168 0.99374997615814208984 1 1 1 1 1 1 1 1 1 1 1 0.99374997615814208984 0.97218751907348632812 1 0.99374997615814208984 0.99374997615814208984 1 0.98750001192092895508 0.83312499523162841797 1 1 1 1 1 1 0.93812501430511474609 0.91937500238418579102 0.97843748331069946289 0.79281246662139892578 0.97218751907348632812 1 0.98750001192092895508 0.96593749523162841797 0.95968747138977050781 1 0.97500002384185791016 1 1 1 1 1 1 1 1 
1 1 1 1 1 1 1 1 1 1 1 1 1 1 1 1 1 1 0.91656249761581420898 0.95625001192092895508 0.96249997615814208984 0.98124998807907104492 0.92562496662139892578 0.94437497854232788086 0.87343746423721313477 0.8756249547004699707 0.75312495231628417969 0.98124998807907104492 0.98750001192092895508 0.81156247854232788086 0.87343746423721313477 1 1 1 1 1 0.87906247377395629883 0.80124998092651367188 0.88874995708465576172 0.82343751192092895508 0.90343749523162841797 0.97500002384185791016 0.97843748331069946289 0.91312497854232788086 0.97843748331069946289 1 1 1 1 1 1 1 1 1 1 1 0.99374997615814208984 1 1 1 1 0.9375 1 1 1 1 1 1 0.93187499046325683594 0.95687496662139892578 0.97218751907348632812 0.91937500238418579102 0.95968747138977050781 0.99374997615814208984 1 1 0.90406250953674316406 0.97500002384185791016 1 1 1 1 1 1 1 1 1 
1 1 1 1 1 1 1 1 1 1 1 1 1 1 1 1 1 0.98750001192092895508 0.98750001192092895508 0.97500002384185791016 1 1 0.91374999284744262695 0.90125000476837158203 0.93468749523162841797 0.88531249761581420898 0.72531247138977050781 0.99374997615814208984 0.92562496662139892578 0.88874995708465576172 0.95687496662139892578 1 1 1 1 0.59781247377395629883 0.89781248569488525391 0.98124998807907104492 1 1 1 0.93468749523162841797 0.95343750715255737305 0.95968747138977050781 1 1 1 1 1 1 1 1 1 1 1 1 1 0.94437497854232788086 0.95687496662139892578 0.85166662931442260742 0.86649996042251586914 1 1 1 1 1 1 1 0.94437497854232788086 0.80833333730697631836 0.95343750715255737305 0.89218747615814208984 0.95062500238418579102 0.95968747138977050781 0.95968747138977050781 0.98124998807907104492 0.91937500238418579102 0.98750001192092895508 0.98750001192092895508 1 1 1 1 1 1 1 1 
1 1 1 1 1 1 1 1 1 1 1 1 1 1 1 1 1 0.98124998807907104492 0.99374997615814208984 0.99374997615814208984 1 1 0.93531250953674316406 0.94437497854232788086 0.95625001192092895508 0.85812497138977050781 0.89218747615814208984 0.98750001192092895508 0.91656249761581420898 0.89218747615814208984 1 1 1 1 0.69906246662139892578 0.8359375 0.89781248569488525391 0.95968747138977050781 1 1 1 0.96875 1 1 1 1 1 0.93812501430511474609 0.95343750715255737305 0.94093751907348632812 0.95625001192092895508 0.97500002384185791016 0.94093751907348632812 0.88593751192092895508 0.85812497138977050781 0.95343750715255737305 0.95968747138977050781 0.93468749523162841797 0.90076923370361328125 0.91656249761581420898 1 1 1 1 1 1 1 1 0.95687496662139892578 0.78208333253860473633 0.72849994897842407227 0.71249997615814208984 0.96366667747497558594 0.85187500715255737305 0.96593749523162841797 0.95968747138977050781 0.96593749523162841797 0.99374997615814208984 0.99374997615814208984 0.97500002384185791016 0.91031247377395629883 0.8046875 0.91937500238418579102 0.97843748331069946289 0.93531250953674316406 0.87062501907348632812 0.80250000953674316406 
1 1 1 1 1 1 1 1 1 1 1 1 1 1 1 1 1 0.98750001192092895508 0.98124998807907104492 0.98124998807907104492 0.98124998807907104492 0.94718748331069946289 0.96875 0.92843747138977050781 0.73781245946884155273 0.89218747615814208984 0.89499998092651367188 0.94437497854232788086 0.92281246185302734375 0.98750001192092895508 1 1 1 0.93187499046325683594 0.88249999284744262695 0.98124998807907104492 1 1 1 0.93812501430511474609 1 0.95625001192092895508 0.99374997615814208984 0.99374997615814208984 1 1 1 0.92906248569488525391 1 1 0.99374997615814208984 0.97218751907348632812 0.95343750715255737305 0.95687496662139892578 0.87000000476837158203 0.95968747138977050781 0.93812501430511474609 0.93812501430511474609 0.96166664361953735352 1 1 1 1 1 1 1 1 1 1 1 0.90499997138977050781 0.79416662454605102539 0.77576923370361328125 0.87343746423721313477 0.98750001192092895508 0.97500002384185791016 0.92281246185302734375 1 1 0.9074999690055847168 0.70937496423721313477 0.67750000953674316406 0.703125 0.95687496662139892578 0.91374999284744262695 0.8059374690055847168 0.91374999284744262695 
1 1 1 1 1 1 1 1 1 1 1 1 1 1 1 1 0.93812501430511474609 0.97843748331069946289 0.98750001192092895508 0.98750001192092895508 0.96875 0.95062500238418579102 0.99374997615814208984 0.91937500238418579102 0.765625 0.97843748331069946289 0.91656249761581420898 1 0.93812501430511474609 0.98750001192092895508 1 1 0.87968748807907104492 0.68437498807907104492 1 0.99374997615814208984 1 1 1 1 0.97843748331069946289 0.95343750715255737305 1 0.92562496662139892578 0.96875 0.90406250953674316406 0.88531249761581420898 0.85750001668930053711 1 1 1 0.97843748331069946289 0.75937497615814208984 0.95968747138977050781 0.9074999690055847168 1 0.97500002384185791016 0.9699999690055847168 1 1 1 1 1 1 1 1 1 1 1 1 0.97218751907348632812 0.87208330631256103516 0.94678568840026855469 0.84281247854232788086 0.85187500715255737305 0.97218751907348632812 0.94437497854232788086 1 0.99374997615814208984 0.92281246185302734375 0.73031246662139892578 0.79281246662139892578 0.86437499523162841797 1 0.97843748331069946289 0.97843748331069946289 0.97500002384185791016 
1 1 1 1 1 1 1 1 1 1 1 1 1 1 1 1 1 1 1 1 1 1 0.96875 0.96593749523162841797 0.95687496662139892578 1 0.88593751192092895508 0.99374997615814208984 0.84562498331069946289 0.93187499046325683594 0.98750001192092895508 0.99374997615814208984 0.83312499523162841797 0.55187499523162841797 0.89499998092651367188 1 1 1 1 0.99374997615814208984 1 0.96249997615814208984 0.99374997615814208984 1 1 1 0.88531249761581420898 1 1 1 1 0.99374997615814208984 0.96875 0.93812501430511474609 1 1 0.97500002384185791016 0.97692304849624633789 1 1 1 1 0.97699999809265136719 1 1 1 1 1 1 1 1 0.95687496662139892578 0.69041663408279418945 0.8671875 0.87343746423721313477 0.98000001907348632812 0.89649999141693115234 0.84906250238418579102 0.88593751192092895508 0.83031249046325683594 0.64468747377395629883 0.61624997854232788086 0.77406251430511474609 0.89156252145767211914 0.80874997377395629883 0.89218747615814208984 0.91374999284744262695 
1 1 1 1 1 1 1 1 1 1 1 1 1 1 1 1 1 1 1 1 1 1 0.96249997615814208984 0.98750001192092895508 1 0.76156246662139892578 0.8671875 0.91374999284744262695 0.92281246185302734375 0.93812501430511474609 0.8053124547004699707 0.91312497854232788086 0.74624997377395629883 0.87562501430511474609 0.98750001192092895508 1 0.95625001192092895508 0.96875 1 1 0.99374997615814208984 0.99374997615814208984 1 1 1 1 0.90125000476837158203 0.99374997615814208984 1 1 1 0.97843748331069946289 0.93187499046325683594 0.80531251430511474609 0.765625 0.94718748331069946289 0.98124998807907104492 0.97218751907348632812 1 1 1 1 0.91031247377395629883 0.93333333730697631836 1 1 0.97843748331069946289 0.99374997615814208984 0.98888885974884033203 0.96166664361953735352 0.98750001192092895508 0.67874997854232788086 0.54307687282562255859 0.78531247377395629883 1 1 1 1 1 0.97843748331069946289 1 0.87906247377395629883 0.85468751192092895508 1 0.87062501907348632812 0.95062500238418579102 0.71624994277954101562 
1 1 1 1 1 1 1 1 1 1 1 1 1 0.95968747138977050781 1 1 1 1 1 1 1 0.98750001192092895508 0.94999998807907104492 0.88874995708465576172 0.98750001192092895508 0.8671875 0.8671875 0.94437497854232788086 0.98750001192092895508 1 0.97218751907348632812 0.96593749523162841797 0.83875000476837158203 0.93812501430511474609 0.94718748331069946289 0.94718748331069946289 1 0.95343750715255737305 0.90125000476837158203 0.93468749523162841797 0.96249997615814208984 0.99374997615814208984 1 1 1 0.95968747138977050781 0.90406250953674316406 0.95343750715255737305 1 1 1 0.97843748331069946289 0.96593749523162841797 0.98124998807907104492 0.94375002384185791016 1 1 1 1 1 1 0.95687496662139892578 1 0.94999998807907104492 0.98461538553237915039 0.95550000667572021484 1 0.99166667461395263672 0.93791663646697998047 0.91750001907348632812 0.99166667461395263672 0.97124999761581420898 0.87076920270919799805 0.92583334445953369141 1 1 1 1 1 1 1 1 0.74968749284744262695 1 0.89218747615814208984 0.85468751192092895508 0.89999997615814208984 
1 1 1 1 1 1 1 1 1 1 1 1 1 1 1 1 1 1 1 1 1 0.95625001192092895508 0.96875 1 1 0.75656247138977050781 0.95968747138977050781 0.86374998092651367188 0.99374997615814208984 1 0.99374997615814208984 1 0.9074999690055847168 0.87906247377395629883 0.8359375 1 1 1 0.99374997615814208984 0.93531250953674316406 1 1 1 1 1 0.95968747138977050781 0.96875 1 1 1 1 1 0.99374997615814208984 0.87000000476837158203 1 1 1 1 1 1 1 0.88499999046325683594 0.89766663312911987305 0.96666663885116577148 0.98750001192092895508 0.85884612798690795898 0.82291662693023681641 0.90916663408279418945 0.74874997138977050781 0.88874995708465576172 0.90076923370361328125 0.93250000476837158203 0.88041663169860839844 0.91656249761581420898 0.97843748331069946289 1 1 1 1 1 1 0.95687496662139892578 0.78718745708465576172 1 1 0.98750001192092895508 0.89999997615814208984 
1 1 1 1 1 0.99374997615814208984 0.91937500238418579102 1 0.99374997615814208984 0.93187499046325683594 1 1 1 1 1 1 1 1 0.95687496662139892578 0.97218751907348632812 0.89499998092651367188 0.98750001192092895508 0.85187500715255737305 0.95062500238418579102 0.93812501430511474609 0.81156247854232788086 1 0.94437497854232788086 1 1 1 0.98750001192092895508 0.96875 0.89499998092651367188 0.83312499523162841797 1 0.91374999284744262695 0.98750001192092895508 0.91374999284744262695 0.89218747615814208984 0.91374999284744262695 0.97218751907348632812 1 1 1 0.91937500238418579102 0.92562496662139892578 1 1 1 1 1 1 0.97843748331069946289 1 1 1 1 1 1 1 0.96593749523162841797 1 0.92857140302658081055 1 1 0.93531250953674316406 1 0.99285715818405151367 1 0.94678568840026855469 0.91374999284744262695 1 0.91374999284744262695 0.87062501907348632812 1 1 1 1 1 1 0.87062501907348632812 0.97843748331069946289 1 0.99374997615814208984 0.99374997615814208984 0.89999997615814208984 
1 1 1 1 0.98750001192092895508 0.91312497854232788086 0.88875001668930053711 1 0.95625001192092895508 0.99374997615814208984 1 1 1 1 1 1 1 0.97500002384185791016 0.88874995708465576172 0.98124998807907104492 0.91031247377395629883 0.95968747138977050781 0.80531251430511474609 0.89499998092651367188 0.70937496423721313477 0.76843750476837158203 0.93531250953674316406 0.99374997615814208984 1 1 1 0.98750001192092895508 0.94999998807907104492 0.94437497854232788086 0.95062500238418579102 0.97843748331069946289 0.71625000238418579102 0.91374999284744262695 0.74124997854232788086 0.86437499523162841797 0.72812497615814208984 1 1 1 1 1 0.94718748331069946289 1 1 1 1 1 1 1 1 1 1 1 1 1 1 1 0.99374997615814208984 0.84333330392837524414 0.87208330631256103516 0.94999998807907104492 0.92958331108093261719 0.95999997854232788086 0.94269227981567382812 0.9583333134651184082 0.94269227981567382812 0.9699999690055847168 0.85666668415069580078 0.87968748807907104492 0.93531250953674316406 1 1 1 1 1 1 0.78437495231628417969 0.99374997615814208984 0.91031247377395629883 0.86093747615814208984 1 0.92499995231628417969 
1 0.99374997615814208984 0.91312497854232788086 0.98750001192092895508 0.91031247377395629883 1 0.9074999690055847168 0.96875 0.89499998092651367188 1 1 1 1 1 1 1 0.92906248569488525391 0.97500002384185791016 1 1 0.74687498807907104492 0.99374997615814208984 0.89781248569488525391 0.92218750715255737305 0.82124996185302734375 0.9074999690055847168 0.95062500238418579102 1 1 0.97218751907348632812 0.91656249761581420898 0.66624999046325683594 0.95343750715255737305 0.99374997615814208984 1 0.80531251430511474609 0.81499999761581420898 0.84281247854232788086 0.75656247138977050781 0.84906250238418579102 0.72531247138977050781 1 1 1 1 0.95968747138977050781 0.96875 0.93531250953674316406 1 1 1 1 1 1 1 1 1 1 1 1 1 1 0.92333334684371948242 0.89649999141693115234 0.99166667461395263672 0.99166667461395263672 0.94624996185302734375 0.95055556297302246094 0.98888885974884033203 0.84791666269302368164 1 0.83714282512664794922 0.97346150875091552734 0.88593751192092895508 0.91374999284744262695 1 1 1 1 1 1 0.81156247854232788086 0.453125 0.43218749761581420898 0.71843749284744262695 1 0.91374999284744262695 
1 0.99374997615814208984 0.9074999690055847168 0.93531250953674316406 0.85812497138977050781 0.97843748331069946289 0.95687496662139892578 0.98124998807907104492 0.95625001192092895508 1 1 1 1 0.96249997615814208984 0.92281246185302734375 0.91374999284744262695 0.96593749523162841797 1 0.96593749523162841797 0.99374997615814208984 0.93531250953674316406 1 0.95062500238418579102 0.85187500715255737305 0.85187500715255737305 1 0.97843748331069946289 0.99374997615814208984 1 0.99374997615814208984 0.92281246185302734375 0.66562497615814208984 0.97843748331069946289 1 0.97843748331069946289 0.79968750476837158203 0.91374999284744262695 0.87343746423721313477 0.74124997854232788086 0.95687496662139892578 0.92281246185302734375 0.97843748331069946289 1 1 0.97843748331069946289 1 1 0.99374997615814208984 1 1 1 1 1 1 1 1 1 1 1 1 1 1 0.95062500238418579102 0.96666663885116577148 0.94366663694381713867 0.99166667461395263672 0.94624996185302734375 0.99333333969116210938 1 0.97843748331069946289 1 1 1 1 0.88499999046325683594 1 1 1 1 1 1 0.7121874690055847168 0.31281247735023498535 0.51906245946884155273 0.77406251430511474609 0.98750001192092895508 1 
0.98750001192092895508 0.97218751907348632812 0.92562496662139892578 0.91656249761581420898 0.98124998807907104492 1 0.95687496662139892578 0.87343746423721313477 0.99374997615814208984 1 1 0.98750001192092895508 0.94718748331069946289 0.95968747138977050781 0.94718748331069946289 1 1 1 1 1 1 1 0.83937495946884155273 0.89499998092651367188 0.93812501430511474609 0.94718748331069946289 0.98124998807907104492 0.98750001192092895508 1 0.99374997615814208984 0.91656249761581420898 0.78999996185302734375 0.88593751192092895508 0.95687496662139892578 0.86437499523162841797 0.95687496662139892578 0.82124996185302734375 0.66062498092651367188 0.90125000476837158203 0.97843748331069946289 0.73781245946884155273 0.99374997615814208984 1 1 1 0.97218751907348632812 0.96875 0.97218751907348632812 1 1 1 1 1 1 1 1 1 1 1 1 1 0.97843748331069946289 0.81499999761581420898 0.88874995708465576172 0.97500002384185791016 0.9583333134651184082 0.94999998807907104492 0.97692304849624633789 1 1 1 1 1 1 0.94733333587646484375 1 1 1 1 1 1 0.67468750476837158203 0.21437498927116394043 0.85406249761581420898 0.86937499046325683594 0.96249997615814208984 1 
0.97843748331069946289 0.86437499523162841797 0.93187499046325683594 0.96249997615814208984 0.95687496662139892578 0.95687496662139892578 0.93812501430511474609 1 1 1 1 0.98750001192092895508 0.96875 0.98750001192092895508 0.95343750715255737305 1 1 1 1 1 1 1 0.79968750476837158203 0.89499998092651367188 1 0.99374997615814208984 0.97218751907348632812 1 1 0.93531250953674316406 0.86437499523162841797 0.97218751907348632812 0.92562496662139892578 0.89499998092651367188 0.97843748331069946289 0.78999996185302734375 0.78718745708465576172 0.87062501907348632812 1 0.95687496662139892578 0.70093744993209838867 0.89218747615814208984 1 1 1 0.97843748331069946289 0.95625001192092895508 0.95968747138977050781 1 1 1 1 1 1 1 1 1 1 1 1 1 1 0.91374999284744262695 0.83312499523162841797 0.92607140541076660156 1 0.96875 0.99374997615814208984 1 1 1 1 1 1 1 1 1 1 1 1 1 0.95968747138977050781 0.85750001668930053711 0.97218751907348632812 0.99374997615814208984 1 1 
1 0.93531250953674316406 0.95625001192092895508 0.91656249761581420898 0.95687496662139892578 0.93531250953674316406 1 0.99374997615814208984 1 1 0.94437497854232788086 0.96249997615814208984 0.93812501430511474609 0.80874997377395629883 0.92906248569488525391 1 1 1 1 1 1 1 1 0.93531250953674316406 1 1 1 1 1 0.83312499523162841797 0.82406246662139892578 1 0.98750001192092895508 0.95625001192092895508 0.98124998807907104492 1 1 1 1 0.76218748092651367188 0.64749997854232788086 1 1 1 1 1 0.97500002384185791016 0.97843748331069946289 1 1 1 1 1 1 1 1 1 1 1 1 1 1 1 1 1 1 0.99000000953674316406 1 1 1 1 1 1 1 1 0.9714285731315612793 1 1 1 1 1 1 1 1 1 1 1 
0.94437497854232788086 0.89781248569488525391 0.94718748331069946289 0.95687496662139892578 0.97500002384185791016 0.97500002384185791016 0.94718748331069946289 0.97500002384185791016 0.94999998807907104492 0.96249997615814208984 0.91031247377395629883 0.99374997615814208984 0.78437495231628417969 0.84281247854232788086 0.99374997615814208984 1 1 1 1 1 1 0.99374997615814208984 1 0.97218751907348632812 1 1 1 0.98750001192092895508 0.94999998807907104492 0.88249999284744262695 0.91374999284744262695 0.99374997615814208984 1 1 0.96875 0.98750001192092895508 1 1 1 1 1 1 0.97843748331069946289 0.98750001192092895508 0.93531250953674316406 0.95687496662139892578 0.96249997615814208984 0.97843748331069946289 1 1 1 1 1 1 1 1 1 1 1 1 1 1 1 0.97777777910232543945 0.94166666269302368164 0.93846154212951660156 0.9714285731315612793 0.9923076629638671875 1 1 1 1 1 1 1 0.93549996614456176758 1 1 1 1 1 1 1 1 1 1 1 
0.96593749523162841797 0.96593749523162841797 0.87906247377395629883 0.97500002384185791016 0.96249997615814208984 1 1 1 0.96249997615814208984 1 1 1 0.85812497138977050781 0.97218751907348632812 0.98750001192092895508 1 1 1 1 1 1 1 0.95968747138977050781 0.91031247377395629883 0.96249997615814208984 0.94999998807907104492 0.94999998807907104492 0.94999998807907104492 1 0.92562496662139892578 0.98750001192092895508 1 1 1 1 0.97500002384185791016 0.94718748331069946289 0.96875 0.95625001192092895508 0.98750001192092895508 1 1 0.89156252145767211914 0.98750001192092895508 0.97843748331069946289 0.99374997615814208984 0.93187499046325683594 0.93812501430511474609 1 1 1 1 0.99374997615814208984 1 1 1 1 1 1 1 1 1 0.97777777910232543945 0.96923077106475830078 0.97777777910232543945 0.95625001192092895508 0.9699999690055847168 0.97346150875091552734 1 1 1 1 1 1 0.98750001192092895508 1 0.95687496662139892578 1 1 1 1 1 1 1 1 1 1 
1 0.82749998569488525391 0.78937500715255737305 0.99374997615814208984 1 1 1 0.97218751907348632812 0.97500002384185791016 1 1 1 1 1 1 1 1 1 1 1 1 0.97218751907348632812 1 0.94718748331069946289 0.87906247377395629883 0.96249997615814208984 0.97500002384185791016 1 1 0.83031249046325683594 0.99374997615814208984 1 1 0.99374997615814208984 1 1 1 0.99374997615814208984 0.98750001192092895508 0.92499995231628417969 0.93468749523162841797 0.94093751907348632812 0.97218751907348632812 0.97218751907348632812 0.98750001192092895508 0.97843748331069946289 0.94718748331069946289 0.99374997615814208984 1 1 1 1 1 1 1 1 1 1 1 1 1 1 0.99374997615814208984 0.98750001192092895508 0.99374997615814208984 0.96249997615814208984 0.91937500238418579102 0.97843748331069946289 1 1 1 1 1 1 1 0.95687496662139892578 0.87062501907348632812 0.58857142925262451172 1 1 1 1 1 1 1 1 1 
1 0.93531250953674316406 0.93187499046325683594 0.99374997615814208984 1 1 1 0.96593749523162841797 0.94999998807907104492 1 1 1 1 1 1 1 1 1 1 1 1 1 0.96249997615814208984 0.94093751907348632812 0.93468749523162841797 0.98750001192092895508 0.99374997615814208984 0.99374997615814208984 0.99374997615814208984 0.88249999284744262695 1 1 1 1 1 0.93812501430511474609 0.97218751907348632812 0.99374997615814208984 0.94374996423721313477 0.99374997615814208984 1 0.99374997615814208984 0.92562496662139892578 0.91656249761581420898 0.96875 0.94093751907348632812 0.96249997615814208984 0.96666663885116577148 0.99285715818405151367 1 0.93812501430511474609 0.94437497854232788086 1 1 1 1 1 1 1 1 1 1 1 0.99000000953674316406 0.96593749523162841797 1 1 1 1 1 1 1 1 1 1 0.86000001430511474609 0.75812500715255737305 0.75249999761581420898 0.91937500238418579102 0.96875 0.82687497138977050781 0.97843748331069946289 1 1 1 1 1 
0.91374999284744262695 0.98750001192092895508 0.88874995708465576172 0.99374997615814208984 1 1 1 0.94718748331069946289 0.98124998807907104492 1 1 1 1 1 1 1 1 1 1 1 1 1 1 1 1 0.97843748331069946289 1 1 0.87343746423721313477 0.92906248569488525391 1 1 1 1 1 1 1 0.98750001192092895508 0.92843747138977050781 0.99374997615814208984 1 0.97843748331069946289 1 1 0.93812501430511474609 0.99374997615814208984 0.99000000953674316406 0.84562498331069946289 0.88499999046325683594 0.99374997615814208984 0.9923076629638671875 0.99000000953674316406 1 1 1 1 1 1 1 1 1 0.99374997615814208984 0.97500002384185791016 0.92038458585739135742 1 1 1 1 1 1 1 1 1 1 0.99333333969116210938 1 0.94437497854232788086 0.84906250238418579102 0.97843748331069946289 0.93187499046325683594 0.95687496662139892578 1 1 1 1 1 1 
0.97843748331069946289 0.95968747138977050781 0.99374997615814208984 1 1 1 0.97843748331069946289 0.84562498331069946289 0.96593749523162841797 1 1 1 1 1 1 1 1 1 1 1 1 1 1 1 1 1 0.98750001192092895508 0.98750001192092895508 0.78374999761581420898 0.90125000476837158203 1 1 1 1 1 1 1 0.96249997615814208984 0.99374997615814208984 1 1 1 0.99374997615814208984 0.99374997615814208984 0.95343750715255737305 0.97124999761581420898 0.84281247854232788086 0.81499999761581420898 1 0.96593749523162841797 0.88499999046325683594 0.84562498331069946289 1 1 1 1 1 1 1 1 1 0.81499999761581420898 0.92843747138977050781 0.96249997615814208984 0.9583333134651184082 1 1 1 1 0.94437497854232788086 1 1 1 1 0.97843748331069946289 0.91374999284744262695 0.97500002384185791016 0.79874998331069946289 0.97843748331069946289 0.95687496662139892578 0.95687496662139892578 1 1 1 1 1 1 
0.93187499046325683594 1 1 1 1 1 0.97843748331069946289 0.98750001192092895508 0.98124998807907104492 1 1 1 1 1 1 1 1 1 1 1 1 1 1 1 1 1 0.98750001192092895508 0.98750001192092895508 0.98750001192092895508 0.95343750715255737305 1 1 0.99374997615814208984 0.98750001192092895508 1 0.99374997615814208984 0.99374997615814208984 0.94093751907348632812 1 1 1 1 1 1 1 0.94249999523162841797 0.82035714387893676758 0.89649999141693115234 0.92958331108093261719 0.88416665792465209961 0.91722220182418823242 0.98124998807907104492 1 1 1 1 1 1 1 1 0.9923076629638671875 0.98000001907348632812 0.97218751907348632812 0.97843748331069946289 0.94624996185302734375 0.96666663885116577148 0.92214286327362060547 0.96923077106475830078 0.9583333134651184082 0.92583334445953369141 0.91750001907348632812 0.93187499046325683594 1 1 1 0.84821426868438720703 0.66249996423721313477 0.79884612560272216797 0.79968750476837158203 0.87343746423721313477 0.99374997615814208984 0.97843748331069946289 1 1 1 1 1 
0.98750001192092895508 1 1 1 1 1 0.97843748331069946289 0.95343750715255737305 0.98750001192092895508 1 1 1 1 1 1 1 1 1 1 1 1 1 1 1 1 0.97843748331069946289 0.92906248569488525391 1 0.93531250953674316406 0.95687496662139892578 1 0.95625001192092895508 0.96875 0.96249997615814208984 1 1 1 1 0.98750001192092895508 0.97843748331069946289 0.99374997615814208984 0.99374997615814208984 0.98124998807907104492 0.98750001192092895508 0.99374997615814208984 0.96549999713897705078 0.9375 0.95687496662139892578 1 1 1 1 1 1 1 1 1 1 1 1 1 1 1 0.97843748331069946289 0.97857141494750976562 0.99000000953674316406 0.99166667461395263672 0.9292857050895690918 1 1 1 1 0.91178572177886962891 1 1 0.87666666507720947266 0.89499998092651367188 0.96593749523162841797 0.87062501907348632812 0.96593749523162841797 0.91656249761581420898 1 1 1 1 1 1 
1 1 1 1 1 1 1 0.98750001192092895508 0.97218751907348632812 1 1 1 1 1 1 1 1 1 1 1 1 1 1 1 1 0.95062500238418579102 0.91656249761581420898 0.95687496662139892578 0.81093746423721313477 0.97843748331069946289 0.98124998807907104492 0.98750001192092895508 1 0.89437496662139892578 0.93468749523162841797 1 1 1 0.97843748331069946289 0.93187499046325683594 0.97218751907348632812 0.99374997615814208984 0.97500002384185791016 0.97500002384185791016 1 1 0.91291666030883789062 0.94249999523162841797 1 1 1 1 1 1 1 1 1 1 1 1 1 0.9629166722297668457 0.96821427345275878906 1 0.95392858982086181641 0.78437495231628417969 0.98333334922790527344 0.97843748331069946289 1 1 1 1 1 0.91374999284744262695 0.95687496662139892578 1 0.91374999284744262695 0.92906248569488525391 0.90125000476837158203 0.93531250953674316406 1 1 1 1 1 1 1 
1 1 1 1 1 1 1 0.99374997615814208984 1 1 1 1 1 1 1 1 1 1 1 1 1 1 1 1 1 0.91374999284744262695 0.88531249761581420898 0.8762499690055847168 0.79968750476837158203 0.97500002384185791016 0.96875 1 1 0.95968747138977050781 0.96249997615814208984 1 1 1 0.99374997615814208984 0.96875 1 0.99000000953674316406 0.95550000667572021484 0.96593749523162841797 0.99374997615814208984 0.85833334922790527344 0.90541666746139526367 0.76642858982086181641 1 1 1 1 1 1 1 0.99333333969116210938 1 1 1 1 1 1 1 0.99374997615814208984 1 0.97699999809265136719 1 1 1 1 1 1 1 0.9074999690055847168 0.83124995231628417969 0.87999999523162841797 0.72892856597900390625 0.68423074483871459961 0.79624998569488525391 0.85187500715255737305 0.84562498331069946289 1 1 1 1 1 1 
1 1 1 1 1 1 1 1 1 1 1 1 1 1 1 1 1 1 1 1 1 1 1 1 1 1 0.8762499690055847168 0.95687496662139892578 0.89218747615814208984 1 1 1 0.87062501907348632812 0.91374999284744262695 0.91656249761581420898 1 1 1 0.99374997615814208984 0.96875 1 0.98750001192092895508 0.93187499046325683594 0.99166667461395263672 1 1 1 1 1 1 1 1 1 1 1 1 1 1 1 1 1 1 1 1 1 1 1 1 1 1 1 1 0.99166667461395263672 1 0.93791663646697998047 0.95687496662139892578 0.73156249523162841797 0.91312497854232788086 0.95687496662139892578 0.90406250953674316406 0.88187497854232788086 1 1 1 1 1 1 
1 1 1 1 1 1 1 1 1 1 1 1 1 1 1 1 1 1 1 1 1 1 1 0.99374997615814208984 0.99374997615814208984 1 0.64749997854232788086 0.87343746423721313477 0.8671875 1 1 0.99374997615814208984 0.87281250953674316406 0.83031249046325683594 0.89437496662139892578 1 1 1 1 0.95343750715255737305 0.84055554866790771484 0.98750001192092895508 0.95458334684371948242 0.98000001907348632812 1 1 0.97843748331069946289 1 1 1 1 1 1 1 1 1 1 1 1 1 1 1 1 1 1 1 1 1 1 1 1 1 1 0.99166667461395263672 0.92958331108093261719 0.88593751192092895508 0.86093747615814208984 0.97843748331069946289 0.765625 0.8762499690055847168 0.88593751192092895508 1 1 1 1 1 1 
1 1 1 1 1 1 1 1 1 1 1 1 1 1 1 1 1 1 1 1 1 1 1 1 1 1 0.96875 0.86093747615814208984 0.95687496662139892578 1 1 1 1 1 1 1 1 1 0.95968747138977050781 0.81781250238418579102 0.84281247854232788086 0.88874995708465576172 0.98333334922790527344 0.93416666984558105469 1 1 1 1 1 1 1 1 1 1 1 1 1 1 1 1 1 1 1 1 1 1 1 1 1 1 1 1 1 0.94999998807907104492 0.96549999713897705078 0.89218747615814208984 0.93187499046325683594 1 0.91374999284744262695 0.9074999690055847168 0.74968749284744262695 1 1 1 1 1 1 
1 1 1 1 1 1 1 1 1 1 1 1 1 1 1 1 1 1 1 1 1 1 1 0.98750001192092895508 0.95343750715255737305 0.96875 0.95625001192092895508 0.74124997854232788086 1 1 1 1 0.91374999284744262695 1 0.99374997615814208984 1 1 0.97843748331069946289 0.87343746423721313477 0.96249997615814208984 0.94093751907348632812 0.93187499046325683594 0.75937497615814208984 0.91100001335144042969 1 1 1 1 1 1 1 1 1 1 1 1 1 1 1 1 1 1 1 1 1 1 1 0.97843748331069946289 0.91656249761581420898 0.99285715818405151367 1 1 1 1 1 0.98750001192092895508 0.99374997615814208984 1 0.90125000476837158203 0.97843748331069946289 0.64468747377395629883 0.8671875 1 1 1 1 0.97500002384185791016 
1 1 1 1 1 1 1 1 1 1 1 1 1 1 1 1 1 1 1 1 1 1 1 0.99374997615814208984 0.95625001192092895508 1 0.87062501907348632812 0.93531250953674316406 0.93812501430511474609 1 0.95968747138977050781 1 0.85187500715255737305 0.97218751907348632812 0.95687496662139892578 1 0.91656249761581420898 0.66343748569488525391 0.91374999284744262695 0.84791666269302368164 0.99374997615814208984 0.97843748331069946289 0.97500002384185791016 0.98888885974884033203 0.97218751907348632812 1 1 1 1 1 1 1 1 1 1 1 1 1 1 1 1 1 1 1 1 1 1 1 1 0.94269227981567382812 0.75777775049209594727 1 1 0.98750001192092895508 0.96875 0.94093751907348632812 0.92562496662139892578 0.96249997615814208984 0.95343750715255737305 0.95687496662139892578 0.93531250953674316406 0.80250000953674316406 0.87968748807907104492 0.97500002384185791016 1 1 1 
0.99374997615814208984 1 1 1 1 1 1 1 1 1 1 1 1 1 1 1 1 1 1 1 0.99374997615814208984 1 1 0.98750001192092895508 0.96875 1 0.87062501907348632812 1 1 1 0.97843748331069946289 1 0.84281247854232788086 0.94437497854232788086 0.83031249046325683594 0.97843748331069946289 1 0.96593749523162841797 0.90916663408279418945 0.90406250953674316406 1 0.82749998569488525391 0.80687499046325683594 0.98124998807907104492 0.97843748331069946289 1 1 1 1 1 1 1 1 1 1 1 1 1 1 1 1 1 1 1 1 1 1 1 0.88593751192092895508 0.90406250953674316406 0.90687501430511474609 0.98750001192092895508 1 1 0.99374997615814208984 0.98750001192092895508 0.98750001192092895508 0.95343750715255737305 0.95968747138977050781 0.89499998092651367188 0.88249999284744262695 0.86093747615814208984 1 0.97843748331069946289 0.91656249761581420898 0.91656249761581420898 0.94999998807907104492 
1 1 1 1 1 1 1 1 1 1 1 1 1 1 1 1 1 1 1 1 0.97843748331069946289 1 1 1 1 1 0.87062501907348632812 1 0.99374997615814208984 0.84906250238418579102 0.99374997615814208984 1 0.86437499523162841797 0.93812501430511474609 0.84906250238418579102 0.6609999537467956543 1 1 0.98750001192092895508 0.94437497854232788086 1 0.88499999046325683594 0.98333334922790527344 0.96666663885116577148 0.95062500238418579102 0.93531250953674316406 1 1 1 1 1 1 1 1 1 1 1 0.99374997615814208984 1 1 0.94692307710647583008 1 1 1 1 1 1 1 1 0.95968747138977050781 0.97218751907348632812 0.97843748331069946289 0.99374997615814208984 0.91656249761581420898 0.94437497854232788086 0.94999998807907104492 0.96875 0.96249997615814208984 0.83031249046325683594 0.81437498331069946289 0.78999996185302734375 0.97843748331069946289 1 1 1 1 1 
1 1 1 1 1 1 1 1 1 1 1 1 1 1 1 1 1 1 1 1 1 1 1 1 0.98750001192092895508 0.80812501907348632812 0.62812501192092895508 0.88593751192092895508 0.97218751907348632812 1 1 1 0.89781248569488525391 0.92906248569488525391 1 1 1 1 1 1 0.99000000953674316406 0.94093751907348632812 0.94999998807907104492 0.86178570985794067383 0.88593751192092895508 1 1 1 1 1 1 1 1 1 1 1 0.99166667461395263672 1 0.91937500238418579102 0.97500002384185791016 0.78437495231628417969 0.90687501430511474609 0.94357144832611083984 0.83031249046325683594 0.86650002002716064453 0.94375002384185791016 0.98750001192092895508 0.95968747138977050781 0.92906248569488525391 0.96875 0.95687496662139892578 0.80874997377395629883 0.99374997615814208984 0.87968748807907104492 0.97218751907348632812 1 0.99374997615814208984 0.9074999690055847168 1 0.93531250953674316406 0.85187500715255737305 1 1 1 1 1 1 
1 1 1 1 1 1 1 1 1 1 1 1 1 1 1 1 0.99374997615814208984 1 1 1 1 1 1 1 0.97843748331069946289 0.72812497615814208984 0.90125000476837158203 0.83656251430511474609 0.95625001192092895508 0.95062500238418579102 0.99374997615814208984 1 0.92562496662139892578 0.98124998807907104492 1 1 1 1 1 0.95687496662139892578 0.92214286327362060547 0.90687501430511474609 0.94437497854232788086 0.98750001192092895508 0.90125000476837158203 1 1 1 1 1 1 1 1 1 0.66249996423721313477 0.98000001907348632812 0.9583333134651184082 1 1 0.99000000953674316406 0.92535710334777832031 0.90687501430511474609 0.84821426868438720703 0.82199996709823608398 0.96593749523162841797 0.91374999284744262695 0.95968747138977050781 0.92562496662139892578 0.95687496662139892578 0.94437497854232788086 0.73374998569488525391 0.58843749761581420898 0.671875 0.72812497615814208984 0.84906250238418579102 0.87343746423721313477 0.79343748092651367188 0.86374998092651367188 0.97843748331069946289 0.8671875 0.92906248569488525391 1 1 1 0.99374997615814208984 0.97218751907348632812 0.94999998807907104492 
1 1 1 1 1 1 1 1 1 1 1 1 1 0.95687496662139892578 0.97218751907348632812 1 1 1 1 1 1 0.95687496662139892578 0.99374997615814208984 1 0.97843748331069946289 0.97843748331069946289 0.8359375 0.81437498331069946289 0.81437498331069946289 0.88874995708465576172 0.97218751907348632812 0.97218751907348632812 0.97500002384185791016 0.97500002384185791016 1 1 0.96593749523162841797 1 1 0.87343746423721313477 0.72333329916000366211 0.96549999713897705078 1 0.88999998569488525391 0.98750001192092895508 1 1 1 1 1 1 1 1 1 0.98461538553237915039 0.95807689428329467773 1 0.99374997615814208984 1 0.88875001668930053711 0.92583334445953369141 0.9154999852180480957 0.88874995708465576172 0.94249999523162841797 0.82406246662139892578 0.94718748331069946289 0.98750001192092895508 1 1 0.99374997615814208984 0.98124998807907104492 1 0.81156247854232788086 0.98124998807907104492 0.81437498331069946289 0.93187499046325683594 0.88875001668930053711 0.85812497138977050781 0.85187500715255737305 0.74968749284744262695 0.95687496662139892578 1 1 1 0.98750001192092895508 0.96875 0.92499995231628417969 
1 1 1 1 1 1 1 1 1 1 1 0.97843748331069946289 0.88875001668930053711 0.7746874690055847168 0.79968750476837158203 1 1 1 1 1 1 1 1 1 0.97500002384185791016 0.97843748331069946289 0.78656250238418579102 0.9375 0.8449999690055847168 0.99374997615814208984 1 1 0.93250000476837158203 1 0.97218751907348632812 0.90111112594604492188 0.68562495708465576172 0.86833333969116210938 0.98888885974884033203 0.81916666030883789062 0.63374996185302734375 0.87999999523162841797 1 1 1 1 1 1 1 1 1 1 1 1 0.97346150875091552734 0.99333333969116210938 0.93187499046325683594 0.93923074007034301758 1 0.96923077106475830078 0.96666663885116577148 0.93964284658432006836 0.79874998331069946289 0.86833333969116210938 0.93468749523162841797 0.96249997615814208984 0.96875 1 1 0.98124998807907104492 0.88531249761581420898 0.97843748331069946289 1 1 0.95687496662139892578 0.91656249761581420898 0.95968747138977050781 0.94718748331069946289 0.80250000953674316406 0.91656249761581420898 0.95343750715255737305 1 1 1 0.95062500238418579102 0.87968748807907104492 0.88874995708465576172 
1 1 1 1 1 1 1 1 1 1 1 1 0.93187499046325683594 0.91656249761581420898 0.85812497138977050781 1 1 1 1 1 1 0.98750001192092895508 0.93187499046325683594 0.94093751907348632812 0.8762499690055847168 0.9340000152587890625 0.83124995231628417969 0.96821427345275878906 0.98750001192092895508 1 1 1 0.93187499046325683594 0.97346150875091552734 0.97346150875091552734 0.72699999809265136719 0.75333333015441894531 0.78857141733169555664 0.94718748331069946289 0.70999997854232788086 0.74777776002883911133 1 1 1 1 1 1 1 1 1 1 1 1 1 0.88499999046325683594 0.94692307710647583008 0.93549996614456176758 1 1 0.92433333396911621094 0.92549997568130493164 0.94999998807907104492 0.73166662454605102539 0.93153846263885498047 1 0.98750001192092895508 0.98750001192092895508 0.98124998807907104492 0.99374997615814208984 1 1 1 1 1 1 0.78999996185302734375 0.75312495231628417969 0.89781248569488525391 0.97843748331069946289 0.92843747138977050781 0.92562496662139892578 1 1 1 1 0.92906248569488525391 0.91374999284744262695 
1 1 1 1 1 1 1 0.99374997615814208984 1 0.99374997615814208984 0.95062500238418579102 0.88249999284744262695 0.96249997615814208984 0.91031247377395629883 0.92281246185302734375 1 1 1 1 1 1 0.96593749523162841797 0.79281246662139892578 0.99374997615814208984 0.97500002384185791016 0.92583334445953369141 0.87000000476837158203 0.8762499690055847168 0.92499995231628417969 0.93642854690551757812 0.89437496662139892578 0.87650001049041748047 0.85812497138977050781 1 0.94437497854232788086 0.82749998569488525391 0.83031249046325683594 0.91374999284744262695 0.68949997425079345703 0.72874999046325683594 0.87650001049041748047 1 1 1 1 1 1 1 1 1 1 0.97843748331069946289 1 1 1 0.98124998807907104492 0.96666663885116577148 1 1 0.99285715818405151367 0.87062501907348632812 0.88875001668930053711 1 1 1 1 1 0.96249997615814208984 1 0.99374997615814208984 1 1 1 1 1 0.90125000476837158203 0.75656247138977050781 0.86093747615814208984 0.88249999284744262695 0.99374997615814208984 0.94093751907348632812 1 1 1 1 0.9375 0.88874995708465576172 
1 1 1 1 1 1 1 1 0.98750001192092895508 1 1 0.87968748807907104492 0.98750001192092895508 0.93531250953674316406 0.97843748331069946289 0.99374997615814208984 0.99374997615814208984 1 1 0.94375002384185791016 1 0.97843748331069946289 0.97843748331069946289 1 0.85749995708465576172 0.60461533069610595703 0.85406249761581420898 1 0.87388885021209716797 0.92124998569488525391 0.69124996662139892578 0.65499997138977050781 0.6724999547004699707 0.65499997138977050781 0.79416662454605102539 0.89708334207534790039 1 0.88874995708465576172 0.78769230842590332031 0.93791663646697998047 0.84333330392837524414 0.69874995946884155273 1 1 1 1 1 1 1 0.9629166722297668457 0.97777777910232543945 1 1 0.9629166722297668457 1 0.93416666984558105469 0.80250000953674316406 0.90100002288818359375 0.70791661739349365234 0.95555555820465087891 0.94249999523162841797 1 1 1 1 1 1 1 0.96875 0.90343749523162841797 0.96249997615814208984 0.84906250238418579102 1 0.95968747138977050781 1 0.95343750715255737305 0.72531247138977050781 0.81781250238418579102 0.97218751907348632812 0.96593749523162841797 0.95625001192092895508 1 1 1 1 0.97843748331069946289 0.82749998569488525391 
1 1 1 1 1 1 1 0.95062500238418579102 0.93187499046325683594 0.90406250953674316406 0.96875 0.88531249761581420898 0.97843748331069946289 0.99374997615814208984 0.95968747138977050781 0.94437497854232788086 0.97218751907348632812 1 1 1 1 0.95687496662139892578 0.96593749523162841797 0.95687496662139892578 0.86093747615814208984 0.78374999761581420898 0.92218750715255737305 0.97857141494750976562 0.84055554866790771484 0.98000001907348632812 0.88499999046325683594 0.703125 0.66624999046325683594 0.6933333277702331543 0.84133332967758178711 1 1 1 0.81333333253860473633 0.84791666269302368164 0.93153846263885498047 0.31624999642372131348 0.94437497854232788086 1 1 1 1 1 1 0.92281246185302734375 1 0.90916663408279418945 0.92100000381469726562 0.76999998092651367188 0.85538458824157714844 0.95625001192092895508 0.92499995231628417969 0.91961538791656494141 0.86653846502304077148 0.98666667938232421875 1 1 1 1 1 1 1 0.99374997615814208984 0.98750001192092895508 0.94093751907348632812 0.99374997615814208984 0.87000000476837158203 0.8671875 0.88187497854232788086 0.88249999284744262695 0.99374997615814208984 1 1 1 0.90406250953674316406 0.96249997615814208984 1 1 1 1 1 1 
1 1 1 1 1 1 1 0.93812501430511474609 0.78718745708465576172 0.89218747615814208984 0.86937499046325683594 0.94093751907348632812 0.99374997615814208984 0.98124998807907104492 0.95968747138977050781 0.89437496662139892578 0.89156246185302734375 0.95968747138977050781 0.82968747615814208984 0.8449999690055847168 0.88875001668930053711 0.86437499523162841797 0.90464287996292114258 0.93791663646697998047 0.99333333969116210938 0.98461538553237915039 0.98333334922790527344 0.99000000953674316406 0.65499997138977050781 1 1 0.80833333730697631836 0.89249998331069946289 0.68222218751907348633 0.78583329916000366211 0.97843748331069946289 1 0.78437495231628417969 0.82444441318511962891 0.88499999046325683594 0.87846153974533081055 0.67678570747375488281 0.98750001192092895508 1 1 1 1 1 0.97333329916000366211 0.87343746423721313477 0.8973076939582824707 0.81642854213714599609 0.78142857551574707031 0.80624997615814208984 0.96366667747497558594 1 0.99000000953674316406 1 1 0.96923077106475830078 0.96666663885116577148 1 1 1 1 1 1 1 0.98750001192092895508 0.96875 1 1 0.92562496662139892578 0.96875 0.8449999690055847168 0.90687501430511474609 1 1 1 0.91937500238418579102 0.96875 1 1 1 1 1 1 
1 1 1 1 1 0.95687496662139892578 0.9074999690055847168 0.95687496662139892578 0.97218751907348632812 0.92562496662139892578 0.97500002384185791016 0.99374997615814208984 0.96875 0.96875 0.82124996185302734375 0.92906248569488525391 0.98124998807907104492 0.92500001192092895508 0.98124998807907104492 0.96593749523162841797 0.8671875 0.85833328962326049805 0.80250000953674316406 0.97500002384185791016 0.94550001621246337891 0.98666667938232421875 1 0.96666663885116577148 0.99166667461395263672 0.88499999046325683594 0.95055556297302246094 0.94999998807907104492 0.8183333277702331543 0.97333329916000366211 0.98750001192092895508 1 1 0.76749998331069946289 0.7349999547004699707 0.70416665077209472656 0.70384615659713745117 0.77749997377395629883 1 1 1 0.98750001192092895508 0.98000001907348632812 0.83958333730697631836 1 1 0.95687496662139892578 1 0.99000000953674316406 1 1 1 0.97843748331069946289 0.9923076629638671875 1 1 0.99374997615814208984 1 1 1 1 1 1 1 0.99374997615814208984 0.97500002384185791016 1 1 0.98750001192092895508 0.97500002384185791016 0.89156246185302734375 0.82406246662139892578 1 0.99374997615814208984 1 0.98750001192092895508 0.90687501430511474609 1 1 1 1 1 1 
1 1 1 1 0.99374997615814208984 0.87968748807907104492 0.77187496423721313477 0.94718748331069946289 0.85812497138977050781 0.765625 0.99374997615814208984 1 1 1 0.85812497138977050781 0.99374997615814208984 0.99374997615814208984 0.93531250953674316406 0.99374997615814208984 0.98750001192092895508 1 0.97500002384185791016 0.93791663646697998047 0.97218751907348632812 0.90099996328353881836 0.96666663885116577148 0.82666665315628051758 0.87666666507720947266 0.94999998807907104492 0.86199998855590820312 0.7567856907844543457 0.70849996805191040039 0.83958333730697631836 0.92499995231628417969 1 1 0.90062499046325683594 0.71906250715255737305 0.82406246662139892578 0.97500002384185791016 0.77187496423721313477 0.94999998807907104492 0.92583334445953369141 0.94550001621246337891 0.81499999761581420898 0.98750001192092895508 1 1 1 1 0.99000000953674316406 1 1 1 1 1 1 1 1 1 1 1 1 1 1 1 1 0.95343750715255737305 0.95687496662139892578 0.85468751192092895508 1 1 0.99374997615814208984 0.96875 0.8671875 0.92562496662139892578 0.97500002384185791016 0.85187500715255737305 0.92562496662139892578 0.95343750715255737305 1 1 1 1 1 1 1 
1 1 1 1 0.93531250953674316406 0.91937500238418579102 0.87062501907348632812 0.8059374690055847168 0.97843748331069946289 0.82749998569488525391 1 1 1 0.97843748331069946289 0.91374999284744262695 0.99374997615814208984 0.99374997615814208984 1 0.99374997615814208984 1 1 0.70933330059051513672 0.9699999690055847168 0.99374997615814208984 0.74777776002883911133 0.93944442272186279297 0.71923077106475830078 0.69812500476837158203 0.48611110448837280273 0.50499999523162841797 0.5625 0.88041663169860839844 0.70749998092651367188 0.99166667461395263672 1 0.96576923131942749023 0.74968749284744262695 0.75031244754791259766 0.66687494516372680664 0.76166665554046630859 0.84708333015441894531 0.94678568840026855469 1 1 1 1 1 1 1 1 1 1 1 1 1 1 1 1 1 1 1 1 1 1 1 1 1 0.96593749523162841797 0.9074999690055847168 0.94437497854232788086 1 1 1 0.99374997615814208984 0.94374996423721313477 0.95625001192092895508 0.89781248569488525391 0.97843748331069946289 1 1 1 1 1 1 1 1 1 
1 1 1 1 1 1 0.97843748331069946289 0.97843748331069946289 1 1 1 1 1 1 0.99374997615814208984 0.89499998092651367188 0.95687496662139892578 0.93531250953674316406 1 1 0.9629166722297668457 0.72812497615814208984 0.67874997854232788086 0.66499996185302734375 0.78299999237060546875 0.7527777552604675293 0.86277776956558227539 0.8762499690055847168 0.89307689666748046875 0.78499996662139892578 0.74199998378753662109 0.67730766534805297852 0.62937498092651367188 0.88999998569488525391 0.95055556297302246094 0.8762499690055847168 0.73156249523162841797 0.64949995279312133789 0.89249998331069946289 0.94625002145767211914 0.96249997615814208984 1 1 1 1 1 0.98571425676345825195 1 1 1 1 1 1 1 1 1 1 1 1 1 1 1 1 1 1 1 1 0.84281247854232788086 0.87062501907348632812 0.93812501430511474609 1 1 1 1 0.97500002384185791016 0.95062500238418579102 0.82625001668930053711 1 1 1 1 1 1 1 1 1 1 
1 1 1 1 1 1 0.95687496662139892578 0.84906250238418579102 1 1 0.98750001192092895508 0.99374997615814208984 1 0.93812501430511474609 0.96593749523162841797 0.90687501430511474609 0.95062500238418579102 1 1 1 0.89781248569488525391 0.85124999284744262695 0.88531249761581420898 0.84791666269302368164 0.92833334207534790039 0.73666667938232421875 0.93812501430511474609 0.96549999713897705078 0.97124999761581420898 1 1 0.74874997138977050781 0.71625000238418579102 0.69269227981567382812 0.68933331966400146484 0.57916665077209472656 0.77187496423721313477 0.79416662454605102539 0.78611111640930175781 0.96666663885116577148 0.98124998807907104492 1 1 1 1 1 1 1 1 1 1 1 1 1 1 1 1 1 1 1 1 1 1 1 1 1 1 0.87343746423721313477 0.95968747138977050781 1 1 0.99374997615814208984 0.99374997615814208984 1 0.90125000476837158203 0.95625001192092895508 0.94718748331069946289 1 1 1 1 1 1 1 1 1 1 
1 1 1 1 1 1 0.97218751907348632812 0.98124998807907104492 0.98124998807907104492 0.97843748331069946289 0.92906248569488525391 1 0.99374997615814208984 0.93187499046325683594 0.91031247377395629883 0.96666663885116577148 0.96593749523162841797 1 1 0.90549999475479125977 1 0.9074999690055847168 1 0.95055556297302246094 0.68399995565414428711 0.98888885974884033203 1 0.95392858982086181641 0.95555555820465087891 0.94166666269302368164 0.88041663169860839844 0.65950000286102294922 0.67541664838790893555 0.87650001049041748047 0.61949998140335083008 0.69833332300186157227 0.98333334922790527344 0.95714282989501953125 0.96249997615814208984 0.92958331108093261719 1 1 1 1 1 1 1 1 0.99166667461395263672 1 1 1 1 1 1 1 1 1 1 1 1 1 1 1 1 1 1 0.86437499523162841797 0.97843748331069946289 1 1 0.95687496662139892578 0.92906248569488525391 0.95343750715255737305 0.96875 0.98750001192092895508 0.95343750715255737305 1 1 1 1 1 1 1 1 1 1 
1 1 1 1 1 1 0.95687496662139892578 0.93812501430511474609 0.95625001192092895508 0.96875 0.96249997615814208984 0.96875 0.96875 0.95968747138977050781 0.93999999761581420898 0.68562495708465576172 0.93187499046325683594 0.84562498331069946289 0.82062494754791259766 1 0.99285715818405151367 0.68562495708465576172 1 0.8762499690055847168 0.99285715818405151367 0.94999998807907104492 0.94624996185302734375 0.98750001192092895508 1 1 1 0.94678568840026855469 0.87062501907348632812 0.83124995231628417969 1 0.9375 0.98750001192092895508 0.96249997615814208984 0.9714285731315612793 0.98750001192092895508 1 1 1 1 1 1 1 1 1 1 1 1 1 1 1 1 1 1 1 1 1 1 1 1 1 1 1 0.95687496662139892578 1 1 0.93812501430511474609 0.93812501430511474609 0.89499998092651367188 0.93187499046325683594 0.98750001192092895508 0.98124998807907104492 0.97843748331069946289 1 1 1 1 1 1 1 1 1 1 
1 1 1 1 1 1 1 0.96875 0.93812501430511474609 0.95343750715255737305 1 1 1 0.97843748331069946289 0.96576923131942749023 0.93531250953674316406 0.9042307734489440918 0.9583333134651184082 0.96821427345275878906 0.79111111164093017578 0.86277776956558227539 0.88499999046325683594 0.95071429014205932617 0.99374997615814208984 1 1 0.88999998569488525391 0.97124999761581420898 1 1 0.97346150875091552734 0.88416665792465209961 0.96666663885116577148 0.98666667938232421875 0.96166664361953735352 0.96593749523162841797 1 1 1 1 1 1 1 1 1 1 1 1 1 1 1 1 1 1 1 1 1 1 1 1 1 1 1 1 1 1 1 1 1 0.95625001192092895508 0.87343746423721313477 0.77406251430511474609 0.83312499523162841797 0.89218747615814208984 0.87968748807907104492 0.95687496662139892578 1 1 1 1 1 1 1 1 1 1 1 
1 1 1 1 1 1 1 0.97500002384185791016 0.96593749523162841797 0.93187499046325683594 0.95062500238418579102 0.98666667938232421875 1 1 0.95062500238418579102 0.94624996185302734375 0.87076920270919799805 0.94999998807907104492 1 1 1 1 1 1 0.95555555820465087891 0.97333329916000366211 0.97346150875091552734 0.93550002574920654297 1 1 1 0.92281246185302734375 0.93187499046325683594 0.93791663646697998047 0.98888885974884033203 0.95687496662139892578 0.97843748331069946289 1 1 1 1 1 1 1 1 1 1 1 1 1 1 1 1 1 1 1 1 1 1 1 1 1 1 1 1 1 1 1 0.93531250953674316406 0.90125000476837158203 1 1 1 1 1 1 1 1 1 1 1 1 1 1 1 1 1 
1 1 1 1 1 1 1 0.98750001192092895508 0.97843748331069946289 0.95687496662139892578 0.97843748331069946289 0.92333334684371948242 1 0.97843748331069946289 0.95055556297302246094 0.82291662693023681641 0.87968748807907104492 1 1 1 1 1 0.97500002384185791016 0.96666663885116577148 1 0.95968747138977050781 1 1 1 1 0.96166664361953735352 0.94999998807907104492 0.99166667461395263672 0.94692307710647583008 0.99374997615814208984 1 1 0.96549999713897705078 1 1 1 1 1 1 1 1 1 1 1 1 1 1 1 1 1 1 1 1 1 1 1 1 1 1 1 1 1 1 0.89499998092651367188 0.80250000953674316406 1 1 1 1 1 1 1 1 1 1 1 1 1 1 1 1 1 
1 1 1 1 1 1 1 1 1 0.99374997615814208984 1 1 1 0.99285715818405151367 0.89708334207534790039 0.90916663408279418945 1 1 1 1 1 0.99166667461395263672 0.82749998569488525391 0.99374997615814208984 1 1 1 1 1 1 0.93812501430511474609 1 1 1 0.99374997615814208984 1 1 1 1 1 1 1 1 1 1 1 1 1 1 1 1 1 1 1 1 1 1 1 1 1 1 1 1 1 1 0.98750001192092895508 0.97500002384185791016 0.96875 0.93468749523162841797 0.83656251430511474609 1 1 1 1 1 1 1 1 1 1 1 1 1 1 1 1 1 
1 1 1 1 1 1 1 1 1 0.99374997615814208984 0.97843748331069946289 0.99285715818405151367 0.78999996185302734375 0.94999998807907104492 0.93333333730697631836 0.99374997615814208984 1 1 1 1 1 0.96821427345275878906 0.79041665792465209961 0.98750001192092895508 1 1 1 1 1 1 0.95343750715255737305 1 1 1 1 1 1 1 1 1 1 1 1 1 1 1 1 1 1 1 1 1 1 1 1 1 1 1 1 1 1 1 1 1 1 1 1 1 1 0.87062501907348632812 1 1 1 1 1 1 1 1 1 1 1 1 1 1 1 1 1 
1 1 1 1 1 1 0.97843748331069946289 1 0.97843748331069946289 0.92333334684371948242 0.97124999761581420898 1 0.86650002002716064453 0.89437496662139892578 1 1 1 1 1 1 1 0.98750001192092895508 0.95343750715255737305 0.97218751907348632812 1 1 1 1 1 1 0.84666663408279418945 1 1 1 1 1 1 1 1 1 1 1 1 1 1 1 1 1 1 1 1 1 1 1 1 1 1 1 1 1 1 1 1 1 1 1 1 0.99374997615814208984 0.98124998807907104492 0.94093751907348632812 1 1 1 1 1 1 1 1 1 1 1 1 1 1 1 1 1 
1 1 1 1 1 1 1 0.88874995708465576172 0.99374997615814208984 0.95062500238418579102 0.89499998092651367188 0.84218746423721313477 0.55374997854232788086 0.79562497138977050781 0.76166665554046630859 1 1 1 1 1 1 1 1 1 1 1 1 1 1 1 1 0.85624998807907104492 1 1 1 1 1 1 1 1 1 1 1 1 1 1 1 1 1 1 1 1 1 1 1 1 1 1 1 1 1 1 1 1 1 1 1 1 0.97843748331069946289 0.96875 1 1 1 1 1 1 1 1 1 1 1 1 1 1 1 1 1 
1 1 1 1 1 1 1 0.89781248569488525391 0.97500002384185791016 0.96666663885116577148 0.87000000476837158203 0.89307689666748046875 0.88187497854232788086 0.82999998331069946289 0.92583334445953369141 1 1 1 1 1 1 1 1 1 1 1 1 1 1 1 1 0.97124999761581420898 1 1 1 1 1 1 1 1 1 1 1 1 1 1 1 1 1 1 1 1 1 1 1 1 1 1 1 1 1 1 1 1 1 1 1 0.99374997615814208984 0.98750001192092895508 0.91312497854232788086 1 1 1 1 1 1 1 1 1 1 1 1 1 1 1 1 1 
1 1 1 1 1 1 0.98750001192092895508 0.93187499046325683594 0.89437496662139892578 0.90687501430511474609 1 0.83875000476837158203 0.78999996185302734375 0.99166667461395263672 1 1 1 1 1 1 1 1 1 1 1 1 1 1 1 1 1 1 0.97500002384185791016 1 1 1 1 1 1 1 1 1 1 1 1 1 1 1 1 1 1 1 1 1 1 1 1 1 1 1 1 1 1 1 1 1 1 0.97218751907348632812 0.98124998807907104492 0.94999998807907104492 0.99374997615814208984 1 1 1 1 1 1 1 1 1 1 1 1 1 1 1 1 
1 1 1 1 0.98124998807907104492 0.99374997615814208984 0.77187496423721313477 0.69124996662139892578 0.75937497615814208984 1 0.64812499284744262695 0.84649997949600219727 0.69812500476837158203 0.94624996185302734375 0.94437497854232788086 0.96875 0.94999998807907104492 0.9375 0.96666663885116577148 0.79199999570846557617 0.90142858028411865234 1 1 1 1 1 1 1 1 1 1 1 0.95625001192092895508 1 1 1 1 1 1 1 1 1 1 1 1 1 1 1 1 1 1 1 1 1 1 1 1 1 0.93812501430511474609 1 1 1 1 1 1 1 1 1 0.99374997615814208984 0.92281246185302734375 1 1 1 1 1 1 1 1 1 1 1 1 1 1 1 1 1 
1 1 1 1 1 0.95343750715255737305 0.72269231081008911133 0.98571425676345825195 1 0.97346150875091552734 0.97124999761581420898 0.88416665792465209961 0.88041663169860839844 1 1 0.98124998807907104492 0.98666667938232421875 1 0.92583334445953369141 0.9629166722297668457 0.96593749523162841797 1 1 1 1 1 1 1 1 1 1 1 0.93812501430511474609 1 1 1 1 1 1 1 1 1 1 1 1 1 1 1 1 1 1 1 1 1 1 1 1 1 1 1 1 1 1 1 1 1 1 1 1 0.98750001192092895508 1 1 1 1 1 1 1 1 1 1 1 1 1 1 1 1 1 
1 1 1 1 0.83031249046325683594 0.94718748331069946289 0.76999998092651367188 0.94999998807907104492 1 0.99374997615814208984 0.93187499046325683594 0.95968747138977050781 1 1 1 1 0.97218751907348632812 0.99374997615814208984 0.78437495231628417969 0.97124999761581420898 1 1 1 1 1 1 1 1 1 1 1 1 0.95343750715255737305 1 1 1 1 1 1 1 1 1 1 1 1 1 1 1 1 1 1 1 1 1 1 1 1 1 1 1 1 1 1 1 1 1 1 1 1 1 1 1 1 1 1 1 1 1 1 1 1 1 1 1 1 1 1 
1 1 0.95062500238418579102 0.86437499523162841797 0.95687496662139892578 0.97843748331069946289 1 1 1 0.97777777910232543945 0.95343750715255737305 0.99374997615814208984 1 1 1 0.97843748331069946289 0.97218751907348632812 1 0.82749998569488525391 0.92066663503646850586 0.98750001192092895508 1 1 1 1 1 1 1 1 1 0.9923076629638671875 0.99374997615814208984 0.94093751907348632812 1 1 1 1 1 1 1 1 1 1 1 1 1 1 1 1 1 1 1 1 1 1 1 1 1 1 1 1 1 1 1 1 1 1 1 1 1 1 1 1 1 1 1 1 1 1 1 1 1 1 1 1 1 1 
1 0.9074999690055847168 0.86437499523162841797 0.93531250953674316406 0.97843748331069946289 0.99374997615814208984 1 1 1 0.96666663885116577148 1 1 1 1 1 1 1 1 1 0.99000000953674316406 0.96875 1 1 1 1 1 1 1 1 0.96428573131561279297 0.99000000953674316406 0.95343750715255737305 0.94437497854232788086 0.97500002384185791016 1 1 1 1 1 1 1 1 1 1 1 1 1 1 1 1 1 1 1 1 1 1 1 1 1 1 1 1 1 1 1 1 1 1 1 1 1 1 1 1 1 1 1 1 1 1 1 1 1 1 1 1 1 
0.9074999690055847168 0.97843748331069946289 0.85750001668930053711 0.9074999690055847168 0.98750001192092895508 1 1 0.83312499523162841797 0.91374999284744262695 0.99166667461395263672 1 1 1 1 1 1 1 1 1 0.99285715818405151367 0.94437497854232788086 1 1 1 1 1 1 1 0.97857141494750976562 0.9699999690055847168 1 1 1 0.96875 1 1 1 1 1 1 1 1 1 1 1 1 1 1 1 1 1 1 1 1 1 1 1 1 1 1 1 1 1 1 1 1 1 1 1 1 1 1 1 1 1 1 1 1 1 1 1 1 1 1 1 1 1 
0.99374997615814208984 1 0.92218750715255737305 0.97500002384185791016 1 1 1 0.8762499690055847168 0.91374999284744262695 0.97124999761581420898 1 1 1 1 1 1 1 1 1 1 1 1 1 1 1 1 1 1 0.94624996185302734375 1 1 1 1 0.94093751907348632812 1 1 1 1 1 1 1 1 1 1 1 1 1 1 1 1 1 1 1 1 1 1 1 1 1 1 1 1 1 1 1 1 1 1 1 1 1 1 1 1 1 1 1 1 1 1 1 1 1 1 1 1 1 
0.99374997615814208984 1 0.93187499046325683594 0.92281246185302734375 0.84218746423721313477 0.95343750715255737305 1 0.98750001192092895508 0.84562498331069946289 0.77375000715255737305 1 1 1 0.99374997615814208984 1 1 0.99166667461395263672 1 1 1 1 1 1 1 1 1 1 1 0.92958331108093261719 0.99374997615814208984 1 1 0.96249997615814208984 0.99374997615814208984 1 1 1 1 1 1 1 1 1 1 1 1 1 1 1 1 1 1 1 1 1 1 1 1 1 1 1 1 1 1 1 1 1 1 1 1 1 1 1 1 1 1 1 1 1 1 1 1 1 1 1 1 1 
0.95687496662139892578 1 0.97500002384185791016 0.93812501430511474609 0.84843748807907104492 0.92843747138977050781 0.98666667938232421875 0.94999998807907104492 0.97535711526870727539 0.97124999761581420898 1 1 0.92214286327362060547 0.93531250953674316406 1 1 0.95968747138977050781 1 1 1 1 1 1 1 1 1 1 1 0.88615381717681884766 1 1 0.93812501430511474609 0.90062499046325683594 1 1 1 1 1 1 1 1 1 1 1 1 1 1 1 1 1 1 1 1 1 1 1 1 1 1 1 1 1 1 1 1 1 1 1 1 1 1 1 1 1 1 1 1 1 1 1 1 1 1 1 1 1 1 
0.99374997615814208984 0.98750001192092895508 0.96249997615814208984 0.98750001192092895508 1 0.96249997615814208984 0.99285715818405151367 0.8762499690055847168 0.91374999284744262695 1 1 1 0.95687496662139892578 0.92500001192092895508 1 0.95968747138977050781 0.95687496662139892578 1 1 1 1 1 1 1 1 1 1 1 0.94437497854232788086 1 1 0.94718748331069946289 0.99374997615814208984 1 1 1 1 1 1 1 1 1 1 1 1 1 1 1 1 1 1 1 1 1 1 1 1 1 1 1 1 1 1 1 1 1 1 1 1 1 1 1 1 1 1 1 1 1 1 1 1 1 1 1 1 1 1 
0.98124998807907104492 0.92562496662139892578 0.97218751907348632812 1 0.97843748331069946289 0.97843748331069946289 0.95071429014205932617 0.80250000953674316406 0.90687501430511474609 0.93099999427795410156 0.95687496662139892578 1 0.62187498807907104492 0.58562499284744262695 1 1 1 1 1 1 1 1 1 1 0.97843748331069946289 0.99000000953674316406 0.79571425914764404297 0.50874996185302734375 0.97218751907348632812 1 1 0.91656249761581420898 0.83468747138977050781 1 1 1 1 1 1 1 1 1 1 1 1 1 1 1 1 1 1 1 0.97843748331069946289 1 1 1 1 1 1 1 1 1 1 1 1 1 1 1 1 1 1 1 1 1 1 1 1 1 1 1 1 1 1 1 1 1 1 
0.92906248569488525391 0.91656249761581420898 0.97218751907348632812 0.97843748331069946289 0.94437497854232788086 0.97218751907348632812 1 0.91750001907348632812 0.90687501430511474609 0.76807689666748046875 0.99374997615814208984 0.78692305088043212891 0.5168749690055847168 0.69849997758865356445 1 1 1 1 1 1 1 1 1 1 1 0.92038458585739135742 0.59531247615814208984 0.61406248807907104492 0.93531250953674316406 1 1 0.84906250238418579102 0.85468751192092895508 0.95968747138977050781 0.99374997615814208984 1 1 1 1 1 1 1 1 1 1 1 1 1 1 1 1 1 0.97843748331069946289 1 1 1 1 1 1 1 1 1 1 1 1 1 1 1 1 1 1 1 1 1 1 1 1 1 1 1 1 1 1 1 1 1 1 
0.8671875 0.95062500238418579102 1 0.99374997615814208984 0.98750001192092895508 0.93416666984558105469 1 0.84791666269302368164 0.99000000953674316406 1 0.91750001907348632812 0.88499999046325683594 0.65249997377395629883 0.66624999046325683594 1 1 1 1 1 1 1 1 1 1 0.9923076629638671875 0.79343748092651367188 0.66906249523162841797 0.84843748807907104492 1 1 1 0.98750001192092895508 0.72749996185302734375 0.95343750715255737305 1 1 1 1 1 1 1 1 1 1 1 1 1 1 1 1 1 1 1 1 1 1 1 1 1 1 1 1 1 1 1 1 1 1 1 1 1 1 1 1 1 1 1 1 1 1 1 1 1 1 1 1 1 
0.91656249761581420898 1 0.97843748331069946289 0.93531250953674316406 0.88593751192092895508 0.99166667461395263672 0.97033333778381347656 0.74500000476837158203 0.93571430444717407227 1 0.99166667461395263672 0.94366663694381713867 0.97124999761581420898 0.91937500238418579102 1 1 1 0.98000001907348632812 1 1 1 1 1 0.99374997615814208984 0.88041663169860839844 0.65718746185302734375 0.7434374690055847168 0.93812501430511474609 1 1 1 1 0.89218747615814208984 0.84562498331069946289 0.99374997615814208984 1 1 1 1 1 1 1 1 1 1 1 1 1 1 1 1 1 0.97843748331069946289 1 1 1 1 1 1 1 1 1 1 1 1 1 1 1 1 1 1 1 1 1 1 1 1 1 1 1 1 1 1 1 1 1 1 
0.83656251430511474609 0.84281247854232788086 0.87062501907348632812 0.7349999547004699707 0.80874997377395629883 0.93812501430511474609 0.95550000667572021484 0.67916661500930786133 0.85624998807907104492 0.96549999713897705078 0.89218747615814208984 0.90916663408279418945 1 0.98750001192092895508 0.93416666984558105469 1 0.97535711526870727539 0.97500002384185791016 1 1 1 0.96549999713897705078 0.97843748331069946289 1 0.89428567886352539062 0.65437495708465576172 0.73781245946884155273 0.93187499046325683594 0.95062500238418579102 0.90406250953674316406 0.89781248569488525391 1 1 0.78718745708465576172 0.98750001192092895508 1 1 1 0.99374997615814208984 0.99374997615814208984 0.99374997615814208984 1 1 1 1 1 1 1 1 1 1 1 1 1 1 1 1 1 1 1 1 1 1 1 1 1 1 1 1 1 1 1 1 1 1 1 1 1 1 1 1 1 1 1 1 1 1 
0.93812501430511474609 0.99374997615814208984 1 0.91031247377395629883 1 1 0.91222220659255981445 0.70937496423721313477 0.94093751907348632812 0.82749998569488525391 0.85624998807907104492 0.73166662454605102539 0.97843748331069946289 0.77821427583694458008 0.91399997472763061523 1 0.90541666746139526367 0.91937500238418579102 1 1 1 1 1 1 0.95458334684371948242 0.87968748807907104492 0.85468745231628417969 0.81718748807907104492 0.85187500715255737305 0.89156246185302734375 0.8053124547004699707 0.97843748331069946289 1 0.75249999761581420898 0.97218751907348632812 0.98124998807907104492 1 1 1 0.99374997615814208984 0.99374997615814208984 1 1 1 1 1 1 1 1 1 1 1 1 1 1 1 1 1 1 1 1 1 1 1 1 1 1 1 1 1 1 1 1 1 1 1 1 1 1 1 1 1 1 1 1 1 1 
0.94437497854232788086 1 1 0.88874995708465576172 0.95687496662139892578 1 0.94733333587646484375 0.9253571629524230957 0.84906250238418579102 0.8673076629638671875 0.99374997615814208984 0.63749998807907104492 1 0.93099999427795410156 0.82884615659713745117 0.88499999046325683594 0.93699997663497924805 0.99285715818405151367 1 1 1 0.97033333778381347656 0.95071429014205932617 1 0.99374997615814208984 0.98750001192092895508 0.9074999690055847168 0.91312497854232788086 0.80874997377395629883 0.84562498331069946289 0.74124997854232788086 0.84906250238418579102 1 0.95062500238418579102 0.92843747138977050781 1 0.99374997615814208984 1 1 0.98750001192092895508 1 1 1 1 1 1 1 1 1 1 1 1 1 1 1 1 1 1 1 1 1 1 1 1 1 1 1 1 1 1 1 1 1 1 1 1 1 1 1 1 1 1 1 1 1 1 1 
0.83656251430511474609 0.97843748331069946289 1 0.88874995708465576172 0.97218751907348632812 1 0.97333329916000366211 0.9714285731315612793 1 1 0.98750001192092895508 0.88874995708465576172 1 1 0.97124999761581420898 0.87906247377395629883 0.97692304849624633789 0.97843748331069946289 1 1 1 1 1 1 1 0.99374997615814208984 0.99374997615814208984 0.96249997615814208984 0.99374997615814208984 1 0.93531250953674316406 0.9074999690055847168 1 1 0.99374997615814208984 0.95625001192092895508 0.95062500238418579102 1 1 1 1 1 1 1 1 1 1 1 1 1 1 1 1 1 1 1 1 1 1 1 1 1 1 1 1 1 1 1 1 1 1 1 1 1 1 1 1 1 1 1 1 1 1 1 1 1 1 
0.79624998569488525391 0.95968747138977050781 1 0.87343746423721313477 0.98124998807907104492 1 0.97777777910232543945 0.97500002384185791016 1 1 1 0.7527777552604675293 1 1 1 0.95343750715255737305 0.97124999761581420898 0.97218751907348632812 1 1 1 1 1 1 1 1 0.95687496662139892578 0.95625001192092895508 0.99374997615814208984 1 0.92906248569488525391 0.87343746423721313477 1 1 1 1 0.89218747615814208984 1 1 1 1 1 1 1 1 1 1 1 1 1 1 1 1 1 1 1 1 1 1 1 1 1 1 1 1 1 1 1 1 1 1 1 1 1 1 1 1 1 1 1 1 1 1 1 1 1 1 
0.7746874690055847168 0.91031247377395629883 1 0.95062500238418579102 0.96875 1 1 0.96249997615814208984 0.99166667461395263672 0.96821427345275878906 0.92906248569488525391 0.94624996185302734375 0.98750001192092895508 1 0.94999998807907104492 0.90687501430511474609 0.86549997329711914062 1 1 1 1 1 1 1 1 1 0.98750001192092895508 0.91937500238418579102 1 1 0.94437497854232788086 0.94093751907348632812 0.9074999690055847168 0.93812501430511474609 1 1 0.91374999284744262695 1 1 1 1 1 1 1 1 1 1 1 1 1 1 1 1 1 1 1 1 1 1 1 1 1 1 1 1 1 1 1 1 1 1 1 1 1 1 1 1 1 1 1 1 1 1 1 1 1 1 
0.97843748331069946289 0.83656251430511474609 0.98124998807907104492 0.91312497854232788086 0.99374997615814208984 1 1 0.95687496662139892578 0.99285715818405151367 0.99000000953674316406 1 1 1 1 1 0.95687496662139892578 0.92833334207534790039 1 1 0.9923076629638671875 1 1 1 1 0.97843748331069946289 0.96593749523162841797 0.93468749523162841797 0.92843747138977050781 1 1 1 1 1 0.99374997615814208984 0.94999998807907104492 0.99374997615814208984 0.98750001192092895508 0.98750001192092895508 1 1 1 1 1 1 1 1 1 1 1 1 1 1 1 1 1 1 1 1 1 1 1 1 1 1 1 1 1 1 1 1 1 1 1 1 1 1 1 1 1 1 1 1 1 1 1 1 1 
0.94718748331069946289 0.96249997615814208984 1 0.93468749523162841797 0.99374997615814208984 1 0.98333334922790527344 0.97535711526870727539 0.98750001192092895508 1 1 1 1 1 1 1 0.92833334207534790039 0.92549997568130493164 0.91937500238418579102 0.94624996185302734375 0.99374997615814208984 1 1 1 1 0.99374997615814208984 0.97500002384185791016 1 1 1 1 1 1 1 1 0.96249997615814208984 0.98124998807907104492 0.97500002384185791016 1 1 1 1 1 1 1 1 1 1 1 1 1 1 1 1 1 1 1 1 1 1 1 1 1 1 1 1 1 1 1 1 1 1 1 1 1 1 1 1 1 1 1 1 1 1 1 1 1 
0.92281246185302734375 1 0.99374997615814208984 0.91937500238418579102 0.95687496662139892578 1 1 1 1 1 1 1 1 1 1 1 0.98750001192092895508 0.98000001907348632812 0.94550001621246337891 0.98461538553237915039 1 1 1 1 1 0.91031247377395629883 0.98750001192092895508 0.99374997615814208984 1 1 1 1 1 1 1 1 0.97500002384185791016 0.95343750715255737305 1 1 1 1 1 1 1 1 1 1 1 1 1 1 1 1 1 1 1 1 1 1 1 1 1 1 1 1 1 1 1 1 1 1 1 1 1 1 1 1 1 1 1 1 1 1 1 1 1 
0.94437497854232788086 0.98750001192092895508 0.94999998807907104492 0.95062500238418579102 1 1 1 1 1 1 1 1 1 1 1 1 0.95700001716613769531 0.99285715818405151367 1 1 1 1 1 1 1 1 0.97843748331069946289 0.99374997615814208984 1 1 1 1 1 1 1 1 1 0.86031252145767211914 1 1 1 1 1 1 1 1 1 1 1 1 1 1 1 1 1 1 1 1 1 1 1 1 1 1 1 1 1 1 1 1 1 1 1 1 1 1 1 1 1 1 1 1 1 1 1 1 1 
0.8671875 0.96875 0.97843748331069946289 1 1 0.99374997615814208984 0.98571425676345825195 0.99166667461395263672 1 1 1 1 1 1 1 1 0.99285715818405151367 0.92499995231628417969 0.98750001192092895508 1 0.98750001192092895508 0.97218751907348632812 1 1 1 1 1 1 1 1 1 1 1 1 1 1 0.97843748331069946289 0.97500002384185791016 1 1 1 1 1 1 1 1 1 1 1 1 1 1 1 1 1 1 1 1 1 1 1 1 1 1 1 1 1 1 1 1 1 1 1 1 1 1 1 1 1 1 1 1 1 1 1 1 1 
1 1 1 1 1 1 1 1 1 1 1 1 1 1 0.99166667461395263672 0.86000001430511474609 0.92958331108093261719 0.90687501430511474609 0.99166667461395263672 0.95700001716613769531 0.96249997615814208984 0.97500002384185791016 1 0.98750001192092895508 1 1 1 1 1 1 1 1 1 1 1 1 0.8762499690055847168 0.99374997615814208984 1 1 1 1 1 1 1 1 1 1 1 1 1 1 1 1 1 1 1 1 1 1 1 1 1 1 1 1 1 1 1 1 1 1 1 1 1 1 1 1 1 1 1 1 1 1 1 1 1 
1 1 1 1 1 1 1 1 1 1 1 1 1 1 0.96549999713897705078 0.90541666746139526367 0.97124999761581420898 0.95714282989501953125 1 1 0.99374997615814208984 1 1 1 1 1 0.99374997615814208984 0.98750001192092895508 1 1 1 1 1 1 1 1 0.92843747138977050781 1 1 1 1 1 1 1 1 1 1 1 1 1 1 1 1 1 1 1 1 1 1 1 1 1 1 1 1 1 1 1 1 1 1 1 1 1 1 1 1 1 1 1 1 1 1 1 1 1 1 
0.97843748331069946289 1 1 1 1 1 1 1 1 1 1 1 1 1 1 1 1 0.93187499046325683594 0.92906248569488525391 0.94718748331069946289 0.95062500238418579102 1 1 1 1 1 0.99374997615814208984 1 1 1 1 1 1 1 1 1 0.97500002384185791016 1 1 1 1 1 1 1 1 1 1 1 1 1 1 1 1 1 1 1 1 1 1 1 1 1 1 1 0.99374997615814208984 1 1 1 1 1 1 1 1 1 1 1 1 1 1 1 1 1 1 1 1 1 1 
1 1 1 1 1 1 1 1 1 1 1 1 1 1 1 1 0.97218751907348632812 0.96249997615814208984 1 1 1 1 1 1 1 1 0.95968747138977050781 1 1 1 1 1 1 1 1 0.94718748331069946289 0.97500002384185791016 1 1 1 1 1 1 1 1 1 1 1 1 1 1 1 1 1 1 1 1 1 1 1 1 0.97218751907348632812 0.97843748331069946289 0.97843748331069946289 1 1 1 1 1 1 1 1 1 1 1 0.91937500238418579102 0.93812501430511474609 1 1 1 1 1 1 1 1 1 1 
1 1 1 1 1 1 1 1 1 1 1 1 1 1 1 1 0.93124997615814208984 0.8762499690055847168 1 1 1 1 1 1 1 1 1 1 1 1 1 1 1 1 1 0.94999998807907104492 1 1 1 1 1 1 1 1 1 1 1 1 1 0.95968747138977050781 1 1 1 1 1 1 1 1 1 1 1 1 1 1 0.97843748331069946289 1 1 1 1 1 1 1 1 1 1 0.95968747138977050781 1 1 1 1 1 1 1 1 1 1 1 
1 1 1 1 1 1 1 1 1 1 1 1 1 1 0.99374997615814208984 0.99374997615814208984 0.93531250953674316406 0.97218751907348632812 0.99374997615814208984 1 1 1 1 1 1 1 0.98750001192092895508 1 1 1 1 1 1 1 0.97500002384185791016 0.98124998807907104492 1 1 1 1 1 1 1 1 1 1 1 1 1 1 1 1 1 1 1 1 1 0.97843748331069946289 1 1 1 1 1 1 1 1 1 1 1 1 1 1 1 1 1 1 1 1 1 1 1 1 1 1 1 1 1 
1 1 1 1 1 1 1 1 1 1 1 1 1 1 1 1 1 0.97218751907348632812 0.92906248569488525391 1 0.97843748331069946289 1 1 1 1 1 0.97843748331069946289 1 1 1 1 1 1 0.99374997615814208984 0.96875 1 1 1 1 1 1 1 1 1 1 1 1 1 1 1 1 1 1 1 1 1 1 1 1 1 1 1 1 1 1 1 1 1 1 1 1 1 1 1 1 1 1 1 1 1 1 1 1 1 1 1 1 
1 1 1 1 1 1 1 1 1 1 1 1 1 0.98750001192092895508 1 1 0.95687496662139892578 0.94437497854232788086 1 1 0.91937500238418579102 1 1 1 1 1 1 1 1 1 1 1 1 0.97500002384185791016 1 1 1 1 1 1 1 1 1 1 1 1 1 1 1 1 1 1 1 1 1 1 1 1 1 1 1 1 1 1 1 1 1 1 1 1 1 1 1 1 1 1 1 1 1 1 1 1 0.95687496662139892578 1 1 1 1 
