ncols        87
nrows        107
xllcorner    508562.338426187926
yllcorner    5265596.272683421150
cellsize     120.000000000000
NODATA_value -9999
11 11 11 11 11 11 11 11 11 11 11 11 11 11 11 11 11 11 11 11 11 11 11 11 11 11 11 11 11 11 11 11 11 11 11 11 11 11 11 11 11 11 11 11 11 11 11 11 11 11 11 11 11 11 11 11 11 11 11 11 11 11 11 11 11 11 31 22 21 42 43 42 43 6 43 42 43 43 21 6 6 43 43 43 43 43 43 
11 11 11 11 11 11 11 11 11 11 11 11 11 11 11 11 11 11 11 11 11 11 11 11 11 11 11 11 11 11 11 11 11 11 11 11 11 11 11 11 11 11 11 11 11 11 11 11 11 11 11 11 11 11 11 11 11 11 11 11 11 11 11 11 11 31 31 21 22 22 6 43 6 6 7 6 43 43 6 7 21 42 42 42 43 43 42 
11 11 11 11 11 11 11 11 11 11 11 11 11 11 11 11 11 11 11 11 11 11 11 11 11 11 11 11 11 11 11 11 11 11 11 11 11 11 11 11 11 11 11 11 11 11 11 11 11 11 11 11 11 11 11 11 11 11 11 11 42 31 31 11 31 21 42 42 43 43 6 7 7 7 43 43 22 43 43 7 43 43 6 43 7 52 52 
11 11 11 11 11 11 11 11 11 11 11 11 11 11 11 11 11 11 11 11 11 11 11 11 11 11 11 11 11 11 11 11 11 11 11 11 11 11 11 11 11 11 11 11 11 11 11 11 11 11 11 11 11 11 11 11 11 11 71 42 42 22 24 90 31 42 43 42 43 43 43 7 9 43 43 43 43 43 42 43 43 43 43 7 7 52 52 
11 11 11 11 11 11 11 11 11 11 11 11 11 11 11 11 11 11 11 11 11 11 11 11 11 11 11 11 11 11 11 11 11 31 31 42 31 11 11 11 11 11 11 11 11 11 11 11 11 11 11 11 11 11 11 11 31 11 22 24 22 22 21 42 90 90 21 42 43 43 43 9 6 43 43 6 43 43 42 43 7 6 5 7 6 52 22 
11 11 11 11 11 11 11 11 11 11 11 11 11 11 11 11 11 11 11 11 11 11 11 11 11 11 11 11 11 11 11 31 31 42 21 43 31 11 11 11 11 11 11 11 11 11 11 11 11 11 11 11 11 11 31 22 21 22 42 42 42 43 42 42 90 90 42 42 42 43 43 5 7 7 43 5 43 43 42 42 6 7 43 43 52 52 21 
11 11 11 11 11 11 11 11 11 11 11 11 11 11 11 11 11 11 11 11 11 11 11 11 11 11 11 11 31 31 31 43 42 42 22 31 31 11 11 11 11 11 11 11 11 11 11 11 11 11 11 11 24 21 42 42 42 42 43 42 42 42 42 42 90 90 42 42 42 42 42 43 43 7 43 7 7 42 42 6 7 7 43 42 43 52 43 
11 11 11 11 11 11 11 11 11 11 11 11 11 11 11 11 11 11 11 11 11 11 11 11 11 11 11 11 31 22 22 22 22 21 31 11 11 11 11 11 11 11 11 11 11 11 11 11 11 11 22 22 22 43 42 42 42 42 7 6 42 42 42 6 90 42 42 42 42 22 7 7 43 42 43 7 7 42 42 7 7 5 6 7 6 9 5 
11 11 11 11 11 11 11 11 11 11 11 11 11 11 11 11 11 11 11 11 11 11 11 11 31 42 42 42 22 6 22 21 22 21 31 11 11 11 11 11 11 11 11 11 11 11 11 11 31 22 22 42 42 42 23 42 42 42 42 6 22 42 42 43 90 90 42 43 43 43 43 43 43 7 42 42 7 42 42 42 42 43 6 6 52 42 43 
11 11 11 11 11 11 11 11 11 11 11 11 11 11 11 11 11 11 11 11 11 11 11 42 43 21 42 42 22 22 22 42 22 22 11 11 11 11 11 11 11 11 11 11 11 11 11 31 42 43 6 43 42 42 43 42 42 42 42 43 42 42 42 43 43 81 42 42 42 21 42 7 43 43 42 7 7 21 42 42 52 6 6 43 52 52 9 
11 11 11 11 11 11 11 11 11 11 11 11 11 11 11 11 11 11 11 11 31 42 42 42 21 42 42 71 42 43 22 42 22 11 11 11 11 11 11 11 11 11 11 11 11 11 31 22 43 7 43 43 42 43 42 42 42 43 42 43 42 71 43 43 6 81 42 43 43 43 21 7 7 43 43 42 42 21 7 42 8 52 52 43 52 52 5 
11 11 11 11 11 11 11 11 11 11 11 11 11 11 11 11 11 11 11 31 42 42 42 42 21 42 42 42 42 21 42 22 22 11 11 11 11 11 11 11 11 11 11 11 11 31 22 42 42 42 42 43 43 42 42 42 42 42 42 43 22 22 7 43 43 90 42 42 43 43 21 42 43 7 21 42 21 21 21 8 7 42 52 52 52 52 6 
11 11 11 11 11 11 11 11 11 11 11 11 11 11 11 11 11 11 11 31 21 21 42 42 21 42 42 42 22 21 22 22 31 11 11 11 11 11 11 11 11 11 11 31 23 42 42 42 42 6 6 7 43 43 43 42 42 42 42 43 22 22 42 43 90 90 43 42 43 7 42 42 22 43 23 42 22 7 43 43 6 42 42 42 42 43 71 
11 11 11 11 11 11 11 11 11 11 11 11 11 11 11 11 11 11 31 42 42 42 42 42 42 42 42 42 42 90 42 22 11 11 11 11 11 11 11 11 11 11 31 22 42 42 42 42 6 7 6 43 43 42 43 42 43 42 42 42 22 21 42 43 6 42 42 42 42 42 42 42 42 7 42 7 7 42 21 7 7 42 42 42 52 42 42 
11 11 11 11 11 11 11 11 11 11 11 11 11 11 11 11 11 11 31 42 42 42 42 42 42 42 42 42 7 42 42 31 11 11 11 11 11 11 11 11 11 31 7 42 42 42 42 42 42 42 7 43 43 42 42 42 43 43 43 43 42 21 42 7 43 42 42 42 42 42 42 42 42 7 7 43 21 42 42 7 42 42 42 42 42 42 8 
11 11 11 11 11 11 11 11 11 11 11 11 11 11 11 11 11 11 42 42 42 42 42 71 42 21 21 42 6 43 71 11 11 11 11 11 11 11 11 31 23 43 43 42 42 42 42 7 42 43 42 52 52 52 42 42 42 43 42 31 52 42 8 6 43 42 42 6 43 42 42 23 52 42 7 43 7 42 42 7 42 42 42 42 43 42 6 
11 11 11 11 11 11 11 11 11 11 11 11 11 11 11 11 11 11 42 21 42 42 43 71 22 21 22 42 90 22 71 11 11 11 11 11 11 31 31 22 42 42 42 52 42 42 52 7 7 42 42 52 52 52 52 71 43 7 42 42 43 43 6 6 5 42 42 42 43 42 42 52 42 7 7 42 21 42 7 43 42 52 52 52 42 7 43 
11 11 11 11 11 11 11 11 11 11 11 11 11 11 11 11 11 31 42 42 42 42 42 42 21 21 22 6 43 22 11 11 11 11 11 24 42 43 42 43 42 21 42 52 6 52 52 52 42 42 42 52 52 52 52 43 43 43 43 43 43 42 6 43 7 42 42 42 43 42 42 42 42 42 42 42 21 43 7 42 42 42 52 52 42 42 42 
11 11 11 11 11 11 11 11 11 11 11 11 11 11 11 11 11 42 42 42 42 42 42 42 21 22 22 42 7 43 11 11 11 11 23 31 42 42 42 52 42 52 52 52 42 52 52 52 42 42 21 42 21 22 22 43 43 43 43 42 6 5 43 43 42 42 43 42 42 22 22 22 42 42 42 42 42 42 7 42 42 23 42 42 7 22 22 
11 11 11 11 11 11 11 11 11 11 11 11 11 11 11 11 11 42 42 42 42 21 42 21 22 42 52 31 6 31 31 31 31 31 43 42 42 42 42 52 52 52 52 52 52 52 52 52 42 42 42 52 42 71 21 43 43 43 43 42 43 6 43 42 42 42 7 43 43 42 22 22 22 22 42 90 90 43 7 7 23 23 23 42 42 22 42 
11 11 11 11 11 11 11 11 11 11 11 11 11 11 11 11 42 42 42 42 42 42 42 21 22 42 6 43 6 90 90 90 22 23 42 42 42 42 42 52 42 52 52 52 52 52 52 52 42 42 42 42 22 42 22 52 43 42 42 8 90 42 42 42 42 7 7 7 43 42 42 22 42 22 22 42 42 42 7 43 23 23 22 42 42 42 42 
11 11 11 11 11 11 11 11 11 11 11 11 11 11 11 42 42 42 42 42 42 42 42 42 42 42 22 6 43 90 90 43 22 24 42 42 42 42 42 42 42 52 52 52 52 52 52 52 42 42 71 42 7 42 90 43 43 43 42 43 42 42 42 42 43 42 7 42 43 42 42 42 23 42 22 42 22 22 22 22 22 23 23 42 22 42 42 
11 11 11 11 11 11 11 11 11 11 11 11 11 11 31 11 42 42 42 42 42 42 42 43 42 22 22 43 43 43 22 43 43 31 42 42 21 42 42 42 42 43 7 42 42 42 42 42 42 42 42 42 42 22 22 42 42 43 42 43 42 42 43 21 7 43 42 42 42 42 42 22 22 24 42 42 7 7 42 42 42 42 42 42 42 42 22 
11 11 11 11 11 11 11 11 11 11 11 11 11 31 42 42 42 42 42 42 42 42 21 22 43 43 43 43 42 6 71 43 42 42 21 21 6 42 22 21 42 42 42 42 42 42 42 52 42 42 42 42 42 42 42 42 42 42 42 43 43 43 7 42 42 7 42 42 42 42 42 42 42 42 42 42 6 43 42 42 42 42 22 42 42 42 21 
11 11 11 11 11 11 11 43 11 11 11 11 90 42 42 42 42 42 42 42 42 21 42 43 42 22 43 21 7 43 43 43 7 6 7 7 7 42 42 6 42 42 42 42 42 71 71 42 42 42 42 42 7 42 42 42 42 42 6 43 43 43 42 43 42 42 22 42 22 42 21 21 22 42 42 42 42 42 42 42 42 90 22 42 42 42 21 
11 11 11 11 42 42 42 43 43 31 11 31 42 42 42 42 42 42 42 42 42 42 22 43 42 22 42 43 43 6 7 42 43 42 42 42 43 43 42 22 42 42 42 42 42 52 42 42 42 42 42 42 42 42 42 42 7 43 7 6 42 42 42 21 43 42 42 42 42 42 42 42 42 43 42 42 90 42 42 42 42 22 42 42 42 42 21 
11 11 31 42 42 21 42 42 21 42 31 31 42 42 42 42 42 42 42 42 71 42 22 52 22 22 43 7 43 43 7 7 21 42 42 42 22 43 22 22 22 42 42 42 42 52 21 42 42 42 42 42 42 42 42 42 42 42 7 43 42 42 42 21 21 42 42 42 42 21 42 21 42 22 42 42 90 90 42 42 42 22 42 42 42 42 21 
42 42 43 43 42 42 42 6 7 43 11 90 42 42 42 42 42 42 52 42 22 52 52 21 22 42 43 7 43 52 42 22 6 42 42 43 22 43 22 22 22 42 42 42 42 42 52 52 42 42 42 42 42 42 43 42 6 43 43 43 42 42 42 22 42 42 42 42 42 42 42 42 42 42 42 42 90 42 42 42 42 42 24 23 23 42 42 
42 42 42 42 22 42 42 42 6 43 11 31 42 42 42 42 42 42 52 42 52 42 42 22 22 42 42 42 43 42 43 23 6 42 42 22 71 71 22 42 52 42 42 42 42 42 52 43 42 42 42 42 42 43 42 42 42 43 7 43 42 42 42 42 42 42 42 42 42 42 52 42 42 42 42 42 42 42 42 42 42 23 24 23 23 42 42 
42 42 42 42 42 42 42 6 7 31 31 42 42 42 42 42 42 42 42 42 42 42 43 42 42 42 43 5 42 42 43 22 43 43 22 42 22 22 42 43 22 42 42 42 42 52 52 43 42 42 42 42 42 42 42 42 42 43 43 6 42 52 22 42 42 42 21 42 42 42 52 52 42 42 42 42 42 42 42 42 42 23 24 21 21 21 42 
42 22 42 42 42 42 42 6 6 90 42 42 43 42 42 42 42 42 42 42 42 42 22 42 42 42 43 7 43 71 22 42 43 43 42 22 22 42 42 52 22 42 42 42 42 42 21 52 42 42 42 42 42 42 42 42 42 43 7 7 43 42 42 42 42 42 42 42 42 42 52 52 42 42 42 21 42 42 42 42 42 42 42 42 42 42 90 
42 43 43 42 42 42 6 7 90 90 42 42 43 22 42 42 42 42 42 43 42 42 42 71 71 42 42 7 43 43 22 42 42 21 42 42 42 42 42 22 23 42 42 42 42 42 42 52 42 42 42 42 42 42 42 42 43 7 43 6 42 42 42 42 42 42 42 42 42 42 52 52 42 42 42 21 52 42 42 42 42 42 42 42 42 42 42 
42 21 6 42 6 6 21 90 21 42 42 42 22 22 42 42 42 43 42 42 42 42 42 42 6 43 43 43 43 43 42 7 43 42 42 43 42 43 7 43 43 42 42 42 42 43 21 42 42 42 42 42 42 42 42 42 43 43 7 43 42 42 42 42 21 21 42 42 42 42 52 52 42 42 42 42 42 42 42 42 42 42 42 42 42 90 42 
42 42 6 43 43 43 43 43 43 42 42 42 22 42 42 42 42 90 42 42 42 42 42 7 7 21 21 21 42 21 42 42 43 42 42 42 21 7 43 7 43 42 42 43 42 5 43 71 42 42 42 42 42 42 42 42 43 43 7 43 42 42 42 42 42 21 21 42 42 42 52 52 42 42 42 42 42 42 43 42 42 42 52 42 42 42 42 
42 22 23 6 43 90 90 43 42 42 42 42 42 42 42 42 42 42 42 42 42 42 43 43 42 21 42 52 42 22 42 42 43 43 42 7 43 7 7 21 21 7 42 7 43 6 42 42 42 42 42 42 42 42 42 42 42 43 43 43 42 42 42 42 42 42 42 42 42 42 42 52 52 52 52 42 22 24 42 42 42 42 42 42 42 90 42 
42 42 42 6 43 90 43 42 21 42 42 42 42 42 42 42 42 42 42 42 42 42 43 21 42 42 42 42 42 42 52 42 42 42 42 42 43 7 21 42 42 42 42 42 42 42 42 21 42 42 42 42 42 42 5 7 7 43 6 7 43 42 42 42 42 42 42 42 42 42 42 52 52 52 43 22 22 21 21 42 22 42 42 42 90 42 42 
42 42 22 6 43 7 43 42 42 42 42 42 42 42 42 42 42 42 42 42 42 42 43 42 42 42 42 42 43 52 42 42 42 43 43 42 7 7 43 5 7 42 7 7 7 7 43 71 7 42 42 42 42 42 42 42 7 5 6 43 7 42 42 42 42 42 42 42 42 42 42 52 52 42 42 42 42 22 42 42 42 42 42 90 90 42 42 
42 42 6 43 43 43 52 22 42 42 42 42 42 42 42 42 42 42 42 42 42 42 42 42 42 42 7 43 71 42 42 42 42 43 43 42 42 7 7 42 42 7 7 42 42 7 43 22 7 42 42 42 42 42 42 5 7 6 43 7 42 42 21 21 42 42 42 42 42 42 42 42 42 42 42 42 21 22 42 42 42 42 42 90 11 42 42 
42 7 43 42 42 43 43 42 42 42 42 42 42 42 42 42 42 42 42 42 42 42 42 42 42 43 43 43 43 42 42 42 7 6 7 43 7 43 7 42 42 42 42 42 42 7 22 7 43 21 21 42 42 42 42 5 7 7 43 43 43 43 42 71 42 42 42 42 42 42 42 42 42 42 42 42 22 22 22 22 42 42 42 90 90 42 42 
42 43 43 42 5 7 43 42 42 42 42 42 42 42 42 42 42 42 42 42 42 42 42 42 42 43 42 7 42 42 42 21 43 42 43 42 52 42 42 42 42 42 42 42 42 7 5 43 52 52 52 42 42 42 42 7 7 7 42 42 42 42 42 42 42 42 42 42 42 42 42 42 43 42 42 42 42 42 22 52 42 42 42 90 90 90 42 
42 43 43 42 42 7 43 42 42 42 42 42 42 42 42 42 42 42 42 5 42 42 43 42 42 42 42 43 24 42 42 7 43 21 42 71 71 42 42 42 42 42 42 42 7 42 21 42 52 42 52 52 42 42 42 42 7 43 7 42 42 42 42 42 42 22 42 42 42 42 42 42 42 42 42 42 42 42 42 42 42 42 42 42 11 42 42 
5 43 42 42 42 6 43 5 42 42 42 42 42 42 42 42 42 42 42 7 42 42 43 43 42 5 21 42 22 42 42 7 42 42 21 71 52 42 42 42 42 42 42 42 42 22 42 23 42 52 52 42 42 42 42 7 7 43 7 42 42 42 42 42 42 43 52 42 42 42 42 42 42 42 22 42 22 22 22 22 22 43 42 42 90 42 42 
43 43 42 42 42 42 5 5 43 42 42 42 42 42 42 42 42 42 42 42 42 42 7 43 42 42 21 42 42 42 42 42 42 42 42 42 52 42 42 42 42 42 42 42 42 42 42 42 52 52 42 42 42 52 42 42 42 42 42 7 42 7 43 42 42 42 7 42 42 42 42 42 90 42 42 71 22 21 52 42 42 42 42 90 42 90 90 
43 42 42 42 42 42 42 7 43 42 42 42 42 42 42 42 42 42 42 42 42 42 7 43 5 7 23 7 42 43 7 42 42 22 21 42 52 42 42 42 42 71 42 42 42 42 42 42 71 71 90 42 52 52 42 42 42 42 43 43 43 42 42 6 43 6 5 42 42 42 42 42 42 42 21 42 22 42 22 42 22 42 42 42 42 90 90 
43 42 42 42 42 42 43 42 43 43 42 42 42 42 42 42 42 42 42 42 42 42 7 42 5 42 42 42 42 7 5 42 7 43 42 42 42 42 42 22 22 42 42 42 42 42 42 42 71 71 42 52 42 71 71 42 42 42 43 43 43 42 42 42 6 6 42 7 7 7 42 42 42 42 42 22 42 42 42 42 22 42 42 90 42 90 90 
43 42 42 42 42 42 43 42 42 7 43 42 42 42 42 42 42 42 42 42 42 7 5 42 42 42 43 22 42 42 42 42 42 42 42 42 42 42 22 42 21 42 22 42 42 42 42 52 71 71 42 42 42 71 52 42 42 42 43 43 43 42 42 42 42 42 42 42 43 6 7 42 42 42 42 42 42 42 42 42 22 42 42 42 42 42 42 
43 42 42 42 42 42 42 42 42 43 43 42 42 42 42 42 42 42 42 42 7 42 42 42 21 42 22 42 42 5 42 7 22 42 42 71 42 22 42 42 42 42 42 42 42 42 42 52 71 42 71 71 71 42 42 52 52 52 6 43 42 42 42 42 42 42 42 42 42 81 42 42 42 42 42 21 42 42 42 42 42 22 22 90 42 42 90 
42 42 42 42 42 42 42 42 42 7 43 43 42 42 42 42 42 42 42 5 5 42 42 42 42 42 42 42 42 42 42 42 22 52 22 42 42 52 42 42 42 22 42 42 42 42 71 71 42 42 42 71 42 42 42 42 42 42 43 6 42 43 43 42 42 42 43 42 43 52 31 42 42 42 42 42 42 42 42 42 21 42 42 42 42 42 21 
42 42 42 42 42 42 42 42 42 7 7 43 42 42 42 42 42 42 42 43 42 42 43 42 6 42 42 42 43 22 43 42 22 42 22 22 71 71 42 42 42 42 42 21 42 42 42 71 42 42 42 42 42 42 42 42 42 43 7 7 7 42 43 7 42 42 6 42 42 42 71 71 42 42 42 21 42 42 22 22 22 42 42 42 42 42 42 
42 42 42 42 42 42 42 43 43 6 42 42 42 42 42 42 42 42 42 42 42 42 42 42 52 52 23 6 42 42 42 52 42 90 42 71 71 42 42 42 5 21 21 42 42 42 42 42 42 42 42 42 42 42 42 7 43 6 21 42 22 42 42 22 22 42 43 71 42 42 42 71 71 42 42 42 42 42 52 52 22 42 42 42 42 42 42 
42 42 42 42 42 42 42 5 7 43 43 42 42 42 42 52 42 42 42 42 42 42 42 42 42 22 42 22 21 52 5 5 43 90 42 42 42 42 7 43 43 42 42 52 42 42 42 42 42 42 42 42 42 42 42 6 6 42 42 6 21 21 22 42 42 42 42 21 90 42 43 23 23 22 22 22 22 21 71 42 42 42 42 42 42 42 21 
42 42 42 42 42 42 42 43 43 43 42 42 42 42 42 42 42 42 42 42 42 42 90 42 42 42 21 21 21 22 90 43 43 43 43 42 42 42 7 22 22 42 42 42 42 42 42 42 42 42 42 42 42 6 43 6 42 42 5 43 42 21 42 42 22 21 7 43 90 90 43 42 22 42 21 7 42 22 22 22 42 42 42 90 42 42 21 
42 42 42 42 42 42 42 7 42 42 42 52 71 22 22 42 42 42 42 42 42 42 42 42 71 7 22 21 21 90 5 5 42 90 7 22 22 22 7 22 22 42 42 42 42 42 6 42 42 42 42 42 42 6 42 42 42 42 6 21 42 42 22 22 21 7 6 43 43 43 42 11 11 11 11 42 42 42 22 42 42 42 42 42 42 42 42 
43 42 42 42 42 42 7 43 42 42 42 42 42 42 22 42 42 42 42 43 42 42 42 21 42 42 22 42 90 90 5 42 21 90 42 22 22 22 7 22 22 42 42 42 42 42 42 42 42 42 42 6 6 42 42 42 21 6 6 7 21 21 22 42 7 7 7 43 43 90 11 11 11 11 11 22 22 21 42 42 42 42 42 42 42 42 42 
42 42 42 42 42 43 6 42 42 42 42 42 42 42 42 42 42 7 42 42 42 42 23 42 42 42 21 42 90 90 21 42 22 42 42 42 22 43 22 22 21 42 42 42 42 42 42 42 6 5 42 5 6 7 7 42 42 6 7 43 42 42 42 42 42 42 42 7 42 42 11 11 11 11 11 22 22 42 42 42 21 42 42 42 42 52 42 
42 42 42 42 6 43 43 42 42 42 42 22 42 42 43 42 42 42 90 43 7 7 42 42 21 22 21 21 90 21 22 22 22 22 22 22 90 42 22 42 21 22 42 42 7 42 42 42 6 7 42 7 42 7 6 42 7 43 22 21 43 42 42 42 42 42 7 7 43 21 21 22 11 11 11 11 22 22 11 42 21 42 52 52 42 42 22 
42 42 42 7 43 43 42 42 42 42 42 21 42 42 42 42 42 42 7 42 42 52 42 42 22 22 21 7 22 42 22 22 22 22 21 11 11 11 22 22 22 24 42 7 42 42 42 42 7 43 6 6 42 22 22 43 21 6 6 6 7 42 42 42 42 42 6 42 52 21 7 7 22 21 11 11 11 11 11 42 21 52 52 52 52 42 42 
42 42 42 43 43 42 42 42 22 22 21 21 42 42 42 21 42 42 52 52 42 22 42 21 42 42 7 7 22 7 42 22 21 22 22 11 11 11 22 42 22 24 42 7 42 42 42 42 6 22 42 22 22 22 43 5 52 7 43 6 42 42 7 42 42 42 6 42 43 42 5 7 21 7 21 21 11 11 11 42 52 52 52 52 52 42 42 
42 42 42 43 43 42 42 42 42 42 42 42 71 42 22 43 42 42 42 42 22 22 22 42 42 42 42 42 42 22 42 21 42 21 11 11 11 42 22 22 22 6 42 42 42 42 42 42 42 42 42 42 42 42 5 7 42 7 6 7 42 42 7 42 42 42 42 42 42 42 5 7 42 42 21 22 11 11 11 42 21 52 52 52 42 42 42 
42 42 43 43 42 42 22 42 22 22 43 42 42 42 22 42 42 42 42 42 42 42 21 42 22 42 42 22 21 42 22 22 22 21 11 11 21 22 22 42 42 5 42 42 42 42 42 42 42 42 42 42 42 42 42 42 42 7 43 6 42 42 42 42 42 42 42 42 42 42 42 42 42 42 43 21 42 22 21 42 52 52 52 43 42 42 42 
42 43 43 42 42 42 42 22 90 22 71 42 42 42 42 42 42 42 42 42 71 23 42 42 22 22 22 22 24 23 23 90 22 90 42 11 22 22 22 22 21 42 42 42 42 42 42 42 42 42 42 42 42 42 42 42 42 5 43 71 42 7 42 42 42 42 42 42 52 42 42 5 42 42 21 21 21 42 43 52 42 42 42 42 7 42 42 
42 7 5 43 42 42 42 42 42 42 42 42 7 7 42 42 42 81 81 42 42 22 22 22 22 22 21 42 24 23 23 22 22 21 11 21 22 22 23 42 42 42 42 42 42 42 42 42 42 42 42 42 42 42 42 42 42 42 42 71 42 6 43 42 42 42 42 22 42 42 42 7 42 42 42 42 42 42 42 52 42 42 42 42 42 42 7 
7 7 42 42 42 42 42 22 42 7 7 42 42 5 43 42 42 42 42 42 21 42 7 43 22 22 42 7 6 7 6 22 22 22 21 22 22 42 22 42 42 7 42 42 42 42 42 42 52 52 52 52 52 52 42 42 42 42 42 42 42 7 7 6 42 42 42 22 42 42 7 71 52 42 43 21 42 42 42 42 52 52 52 42 42 42 90 
6 43 42 42 42 42 42 42 43 7 43 71 71 42 42 42 42 42 5 21 42 42 42 42 22 42 42 42 42 21 21 22 22 22 22 22 43 21 21 21 42 43 42 42 42 42 42 42 42 52 52 52 52 52 42 42 42 42 42 42 42 7 6 42 42 42 42 22 42 42 42 52 71 42 42 42 42 42 42 42 42 52 52 42 42 42 52 
6 42 42 42 42 42 42 42 21 42 7 21 42 42 42 22 42 42 21 42 7 22 42 21 90 21 52 42 42 42 42 42 22 22 42 43 21 21 42 52 52 42 42 42 42 42 42 42 42 52 52 52 52 52 42 42 42 42 42 42 42 6 6 42 42 42 42 42 42 7 71 71 42 42 42 42 42 42 42 42 42 42 52 42 42 42 52 
5 42 42 42 42 42 42 6 7 42 42 42 42 42 42 42 21 21 42 21 22 22 90 90 90 6 6 42 5 42 42 42 7 7 42 42 42 71 71 71 71 42 42 42 42 42 42 42 42 52 52 52 52 52 42 42 42 42 42 42 42 42 6 42 42 42 42 42 5 21 22 23 42 42 42 42 42 42 42 42 42 42 42 42 42 42 52 
42 42 42 42 43 42 7 7 71 71 42 42 42 42 42 42 42 42 42 90 90 90 90 90 90 6 42 5 7 43 5 7 7 43 43 42 7 71 71 71 42 42 42 42 42 42 42 52 52 52 52 52 52 52 42 42 42 42 42 42 42 42 42 42 42 42 42 6 43 42 42 42 42 42 42 42 42 42 42 42 42 42 42 42 42 42 42 
42 42 42 42 42 42 42 42 42 42 42 42 42 42 42 42 90 90 90 90 90 90 6 7 5 43 42 5 6 7 71 21 42 42 42 43 6 71 71 71 42 42 42 42 42 71 42 42 52 52 52 52 52 52 42 42 42 42 42 42 42 42 42 42 43 42 5 7 43 22 42 42 42 42 42 42 52 52 52 42 42 42 42 42 42 42 42 
42 42 42 42 42 42 42 42 42 42 42 42 42 42 42 90 90 90 90 7 7 7 22 42 42 42 42 42 7 42 42 52 42 42 42 42 71 71 71 42 42 42 42 42 42 42 71 52 52 52 42 52 52 52 42 42 42 42 42 42 42 5 7 6 7 6 7 42 21 22 42 42 42 42 42 52 52 52 42 42 42 42 42 42 42 42 42 
42 42 42 42 42 90 42 42 42 71 42 42 42 42 21 90 90 90 43 5 7 52 22 42 42 42 42 42 42 42 52 52 42 42 42 42 71 71 42 42 42 42 42 42 42 42 42 71 52 42 42 42 42 7 7 6 7 42 42 42 42 42 42 42 42 42 42 42 42 22 42 42 42 42 42 42 42 42 42 42 90 42 42 42 42 42 43 
42 42 42 42 42 42 42 42 42 42 42 42 31 21 90 90 90 90 7 7 6 43 6 42 42 42 42 42 42 42 42 42 42 42 42 42 71 42 42 42 42 42 42 42 7 71 71 71 42 5 5 42 42 42 7 6 42 42 42 42 42 42 42 42 42 42 42 42 42 21 42 42 42 42 42 42 42 42 42 42 90 42 7 43 7 7 7 
5 42 42 42 42 42 42 43 7 42 71 71 23 22 22 90 90 6 7 42 42 42 6 42 42 42 42 42 71 42 42 42 42 42 42 42 71 42 42 42 42 42 42 42 42 42 71 71 42 90 90 42 42 42 42 42 42 42 42 5 42 42 42 42 42 42 42 42 42 43 42 42 42 42 42 6 6 6 6 43 42 43 7 7 7 42 43 
42 42 42 42 42 42 52 21 7 42 21 21 21 21 90 90 7 7 42 42 71 42 42 5 42 42 42 42 42 42 42 42 42 42 42 90 42 42 42 42 42 52 52 42 42 42 71 42 42 43 42 71 71 71 71 71 42 42 42 43 42 42 42 42 42 42 42 42 43 43 42 42 42 42 42 42 42 42 5 5 6 6 7 7 7 42 42 
42 42 42 7 43 7 52 43 21 21 42 21 22 90 90 90 42 42 42 42 42 42 42 6 42 42 42 42 42 71 42 90 42 42 42 90 42 42 90 42 52 52 52 42 42 42 42 42 42 42 42 71 71 71 71 42 42 42 42 6 42 42 42 42 42 42 42 42 43 6 7 6 5 42 42 42 42 42 42 6 6 42 42 42 5 42 42 
42 42 42 6 43 42 22 22 22 42 22 52 22 81 90 21 42 42 7 43 42 71 5 42 42 42 42 42 71 71 42 43 21 42 90 42 42 42 42 52 52 52 52 42 42 42 42 42 42 42 42 71 71 71 71 42 42 42 42 6 42 42 42 42 42 43 42 42 42 42 42 42 42 42 42 42 42 42 42 42 42 6 42 42 42 42 42 
42 42 42 42 42 42 22 42 42 42 52 21 90 81 90 42 42 42 22 43 42 5 42 42 42 42 42 42 71 71 42 52 71 90 90 42 42 52 52 52 52 52 42 42 42 42 42 42 42 42 42 42 71 71 71 42 42 42 5 5 42 42 42 42 42 42 42 42 42 42 42 42 42 42 42 42 42 42 42 42 42 42 42 42 42 42 42 
42 42 42 42 22 21 22 90 42 42 42 90 90 90 90 52 52 42 22 43 42 43 42 42 42 42 42 42 71 71 42 71 71 42 90 42 42 52 52 52 42 42 42 42 42 42 42 52 42 42 42 42 42 42 42 42 42 42 42 42 42 42 42 42 42 42 42 42 42 42 42 42 42 42 42 42 42 42 42 42 42 42 42 42 42 42 42 
42 42 42 22 42 52 42 42 42 42 90 90 90 90 90 90 42 42 22 21 5 42 42 42 42 42 42 71 71 42 52 71 21 90 90 90 42 52 52 42 42 42 42 42 42 42 52 42 52 42 42 42 42 42 42 42 42 42 42 42 42 42 42 42 42 42 42 42 42 42 43 42 5 42 42 42 42 42 42 42 42 42 42 42 42 42 42 
42 42 22 42 42 7 42 42 42 21 90 90 90 90 90 90 43 42 42 42 42 42 42 5 42 42 42 42 42 42 42 90 90 90 42 42 42 42 52 42 42 42 42 42 42 42 42 52 42 42 90 42 42 42 42 42 42 42 42 42 42 42 42 42 42 42 42 43 42 42 42 42 42 42 42 42 42 42 42 42 5 42 42 42 42 42 42 
42 43 42 42 42 43 42 22 42 90 90 90 42 90 90 90 43 42 43 43 42 42 7 5 42 42 42 42 42 42 11 90 90 42 42 42 42 42 42 42 42 42 42 6 42 52 52 42 90 42 42 42 42 42 42 42 42 42 42 52 42 42 42 42 42 42 42 6 7 42 42 42 42 42 42 42 42 42 42 42 5 42 42 42 5 42 42 
42 42 21 42 42 42 42 42 42 90 90 90 42 90 90 90 7 42 42 7 7 7 42 42 42 42 42 42 42 90 11 90 90 21 42 52 52 42 42 42 42 42 42 42 42 42 42 42 42 42 42 42 42 42 42 42 42 42 42 42 42 42 42 42 42 42 6 43 42 42 42 42 42 42 42 42 42 42 42 43 6 42 42 42 42 42 42 
6 42 42 90 42 42 42 42 90 22 90 5 8 52 90 90 52 42 42 42 42 42 43 42 42 42 42 42 21 90 11 11 21 42 42 52 52 52 42 42 42 42 42 42 42 42 42 42 42 42 42 42 42 42 42 42 42 42 42 42 52 42 42 42 52 6 6 7 42 42 42 42 42 42 42 42 42 42 42 42 6 43 42 42 42 42 42 
6 42 42 42 22 21 42 42 90 90 90 42 42 42 90 90 52 42 42 42 42 42 42 42 42 42 42 42 22 11 11 42 21 42 42 52 71 71 52 42 42 42 42 42 42 42 42 42 42 42 42 42 42 42 42 42 42 42 42 52 52 52 52 52 52 7 6 6 42 42 42 42 42 42 42 42 42 42 42 42 42 42 52 42 42 42 42 
43 42 42 42 42 42 42 21 22 7 7 90 43 42 90 90 42 42 42 42 42 42 42 42 42 42 42 42 11 11 90 42 42 42 42 42 71 71 42 42 42 42 42 42 42 90 42 42 42 42 42 42 42 42 42 42 42 42 52 52 52 52 52 52 42 42 6 42 42 42 42 42 42 42 42 42 42 42 42 42 42 52 52 52 42 42 42 
42 42 42 90 42 42 42 22 52 7 7 90 22 23 90 42 52 42 42 42 42 42 42 42 42 42 22 23 11 11 11 42 24 42 42 42 52 52 42 42 42 42 42 42 42 42 42 42 42 42 42 42 42 6 42 42 42 52 52 52 52 52 42 42 6 42 42 42 42 42 42 42 42 42 42 42 42 42 42 42 42 42 52 52 42 42 42 
6 42 42 90 42 42 6 43 42 22 42 90 23 43 90 52 52 42 42 42 42 42 42 42 42 81 22 22 11 11 11 22 42 42 42 42 42 42 42 42 42 42 42 42 42 42 42 52 52 71 42 42 42 42 42 42 42 52 52 52 52 52 42 7 6 42 42 42 42 42 42 42 42 42 42 5 42 42 42 42 42 42 52 52 42 42 42 
22 42 42 42 42 6 6 22 42 52 42 22 23 22 90 42 52 42 42 42 42 42 90 42 43 22 22 22 11 11 11 11 23 42 42 42 42 42 42 42 42 42 42 42 52 52 42 71 71 71 71 42 42 42 42 42 42 52 52 42 52 42 42 42 42 42 42 42 42 42 42 42 42 42 42 42 42 42 42 42 42 42 42 42 42 42 42 
42 42 90 42 22 7 71 22 42 52 42 42 90 21 90 90 42 42 42 42 42 7 42 42 21 22 22 11 11 11 11 11 22 22 42 42 42 42 42 42 42 42 42 42 71 71 52 71 42 42 42 42 42 42 42 42 42 52 52 42 42 42 42 42 42 42 42 42 42 42 42 42 42 42 42 42 42 6 42 42 42 42 42 42 42 42 42 
22 22 22 22 22 42 42 22 22 52 42 21 90 42 42 90 42 42 42 42 42 6 42 42 42 22 22 11 11 11 11 11 11 22 42 7 42 42 43 42 42 42 42 42 42 42 42 42 42 42 42 42 42 42 42 42 42 42 42 42 42 52 42 42 52 42 42 42 42 42 42 42 42 42 42 42 42 6 42 42 42 5 42 42 42 42 42 
42 43 90 21 52 42 22 21 42 22 22 22 90 22 21 42 42 42 42 42 42 6 43 7 42 22 21 21 22 21 22 11 11 23 6 8 42 42 42 42 42 42 42 42 42 42 42 42 42 42 42 42 42 42 52 52 42 42 42 42 52 42 42 42 42 42 42 42 52 42 42 42 42 42 42 42 42 5 42 52 52 52 42 42 42 42 42 
42 90 6 42 7 71 71 71 22 22 42 22 90 90 90 42 21 42 42 42 42 43 42 42 42 43 43 21 22 22 22 22 11 90 21 42 42 42 42 42 42 42 42 42 42 42 42 42 42 42 6 42 42 42 52 52 43 5 42 42 52 42 42 42 42 42 42 52 42 42 42 42 42 42 42 42 42 42 42 42 42 42 42 42 42 42 42 
22 90 7 22 42 42 42 42 42 42 42 42 90 90 90 21 42 42 42 42 42 42 42 42 7 7 42 43 52 42 52 11 11 11 90 21 42 42 42 42 42 42 42 42 42 42 42 42 42 42 42 42 42 52 52 42 42 6 6 42 52 52 52 42 42 42 71 71 42 42 42 42 71 42 42 42 42 42 42 42 7 42 42 90 90 90 42 
22 43 43 43 42 42 81 42 42 42 7 22 90 42 42 90 42 42 42 42 43 42 42 42 7 43 52 43 42 42 52 22 11 90 90 90 42 42 42 42 42 42 42 42 42 42 42 42 42 42 42 42 52 52 52 52 42 42 90 90 43 43 52 52 42 71 71 71 42 42 42 42 71 42 42 42 42 42 42 42 42 42 42 42 43 42 42 
22 21 42 43 42 42 43 42 42 42 43 6 42 90 21 21 42 42 42 42 7 42 42 42 7 71 43 43 42 52 42 42 22 90 90 90 43 42 42 42 42 42 42 42 42 42 42 42 42 42 42 42 52 52 52 52 42 90 90 42 90 6 42 52 42 42 42 42 42 42 42 42 71 71 71 42 42 42 42 42 42 42 42 42 42 42 42 
42 22 90 21 42 42 90 81 42 42 43 43 90 90 90 42 42 42 42 42 42 42 52 42 43 42 21 21 42 42 42 42 42 42 21 90 90 42 42 42 42 42 42 42 42 42 42 42 42 42 43 42 52 52 42 6 90 90 43 42 42 42 43 52 42 42 42 42 42 42 42 42 43 43 71 42 42 42 42 42 42 42 42 42 42 42 42 
21 21 90 21 52 52 81 42 7 7 7 42 90 42 42 90 21 21 21 42 42 52 52 42 42 42 42 42 42 42 42 42 42 42 42 21 90 42 42 42 42 42 42 42 42 42 42 42 42 42 42 42 52 52 90 90 90 90 42 42 42 11 42 6 42 42 42 42 42 42 42 42 42 42 42 42 42 42 42 42 42 42 42 42 42 42 42 
42 90 43 21 42 52 52 42 6 7 7 6 90 90 42 90 42 42 42 71 6 52 52 42 42 43 42 42 42 42 42 42 5 42 52 52 42 5 42 42 42 42 42 6 42 42 42 42 42 6 43 90 90 90 90 6 6 6 6 7 43 42 42 42 42 42 42 42 42 52 52 42 42 42 42 42 42 42 42 42 42 42 42 42 42 42 71 
42 6 21 42 52 52 52 52 52 52 7 7 42 90 42 42 42 42 42 43 6 52 52 5 42 42 42 42 42 42 52 43 42 5 52 52 42 90 42 7 42 42 42 42 42 42 42 42 42 7 42 7 6 7 42 6 42 42 42 42 42 42 42 42 42 42 42 42 42 52 42 42 42 42 90 42 42 42 42 42 42 42 42 42 42 52 42 
22 6 5 42 6 71 71 42 42 42 42 42 42 90 42 42 42 21 52 7 42 43 42 42 42 42 42 42 42 52 52 42 6 42 52 52 52 42 42 42 42 42 42 42 42 42 42 42 42 42 42 42 42 42 42 42 42 52 42 42 42 42 42 42 42 42 42 42 52 52 52 52 42 42 42 42 42 42 42 42 42 42 42 42 42 42 43 
42 43 42 6 6 43 42 42 42 42 42 42 42 90 90 42 42 21 42 42 42 42 42 42 42 42 42 42 6 6 42 42 6 52 52 52 42 42 42 42 42 42 42 42 42 42 42 42 42 42 42 42 42 42 42 52 52 52 42 52 52 42 42 42 42 42 42 42 52 52 52 52 42 42 42 42 42 42 42 42 42 42 42 42 42 43 43 
90 42 42 52 52 42 42 42 42 42 42 42 90 90 90 42 42 21 42 42 42 42 90 90 90 90 6 42 42 42 42 42 42 52 52 52 52 42 42 42 42 42 42 42 42 42 42 42 42 42 42 42 42 42 42 52 52 52 52 52 52 42 42 42 42 42 42 52 52 42 52 42 42 42 42 42 42 42 42 42 42 42 42 42 42 42 42 
42 42 42 52 52 42 42 42 42 42 90 42 42 90 90 42 42 42 42 42 42 90 90 42 42 42 42 42 43 5 42 42 6 42 42 42 42 42 42 42 42 42 42 42 42 42 42 42 42 42 42 42 42 42 42 52 52 52 52 52 52 42 42 42 42 42 42 52 52 42 42 42 42 42 42 42 42 42 6 5 42 42 42 42 42 42 42 
42 52 52 90 42 42 42 42 42 90 42 42 90 90 90 90 42 42 42 42 42 90 42 42 42 42 42 7 43 43 42 42 42 42 42 42 42 42 42 42 42 42 42 42 42 42 42 42 42 42 52 42 42 42 42 42 42 42 52 52 42 42 42 42 42 42 52 52 52 42 42 42 42 42 42 11 71 42 42 42 42 42 42 42 42 42 42 
42 52 52 6 42 42 42 42 42 90 42 90 90 90 90 90 42 42 42 90 90 42 42 52 42 42 42 42 5 42 42 42 42 42 42 21 42 42 42 42 42 42 42 42 42 42 42 42 42 42 52 42 42 42 42 42 42 42 52 52 52 42 42 42 52 52 52 52 52 42 42 42 42 42 42 11 42 42 42 42 42 42 42 42 42 42 42 
42 52 52 52 42 42 42 42 42 42 42 90 90 90 90 90 42 42 42 42 90 42 42 42 42 42 42 42 43 42 42 42 42 42 42 42 42 42 42 42 42 42 42 42 42 42 52 42 52 52 52 42 42 42 42 42 42 52 42 42 42 42 42 42 52 52 52 42 42 42 42 42 42 42 11 11 42 42 42 42 42 42 42 42 42 52 52 
42 52 52 52 42 42 42 42 42 52 52 90 90 42 90 90 90 42 90 90 42 42 42 42 42 90 42 42 43 42 42 42 42 42 42 42 42 42 42 42 42 42 42 42 42 52 52 52 52 52 52 42 42 42 42 42 42 42 42 42 42 42 42 42 42 42 42 42 42 42 42 42 42 42 11 42 42 42 42 42 42 42 42 42 42 42 52 
52 52 52 42 42 42 42 42 42 52 90 90 90 42 90 90 90 42 42 42 42 42 42 42 42 90 42 42 43 43 42 42 42 42 42 52 42 42 42 42 42 42 42 42 42 52 52 52 52 52 52 42 42 42 42 42 42 42 42 42 42 42 42 42 42 42 42 42 42 42 42 42 42 11 11 42 42 42 42 52 52 52 42 42 42 42 52 
