ncols        19
nrows        23
xllcorner    508544.901900000055
yllcorner    5265351.078099999577
cellsize     570.000000000000
1.0 1 1 1 1 1 1 0.99944597482681274414 1 1 1 1 0.95534628629684448242 0.94636523723602294922 0.93097060918807983398 0.98238229751586914062 0.96958446502685546875 0.99310249090194702148 0.96096491813659667969 
1 1 1 1 0.99972301721572875977 0.96842104196548461914 0.83932131528854370117 0.95772850513458251953 1 1 0.95451521873474121094 0.94072020053863525391 0.95217877626419067383 0.9893703460693359375 0.95204180479049682617 0.99476456642150878906 0.99572020769119262695 0.99710524082183837891 0.95745611190795898438 
1 1 1 0.99972301721572875977 0.96775621175765991211 0.9771468043327331543 0.87024927139282226562 0.9928531646728515625 0.99725759029388427734 0.92641276121139526367 0.9878947138786315918 1 0.97956597805023193359 0.99677497148513793945 0.97815328836441040039 0.95211911201477050781 0.96018004417419433594 0.99972301721572875977 1 
1 1 1 0.99353188276290893555 0.97128808498382568359 0.91933518648147583008 0.9533379673957824707 0.93572020530700683594 0.93706369400024414062 0.99313020706176757812 0.9892520904541015625 0.98067867755889892578 0.96336066722869873047 1 0.95986324548721313477 0.95135855674743652344 0.97209143638610839844 0.98203599452972412109 0.96192979812622070312 
1 1 0.99821329116821289062 0.99436289072036743164 0.97915512323379516602 0.90365648269653320312 0.93144041299819946289 0.94671744108200073242 0.98031854629516601562 0.96746540069580078125 0.98560941219329833984 0.93680053949356079102 1 1 0.98588609695434570312 0.89695489406585693359 0.9290778040885925293 0.86191135644912719727 0.89517545700073242188 
0.9862880706787109375 0.96842104196548461914 1 0.98437672853469848633 0.93911355733871459961 0.91759002208709716797 0.95609420537948608398 0.91324096918106079102 0.91513848304748535156 0.98416894674301147461 0.99713295698165893555 0.9889481663703918457 1 0.89507353305816650391 0.91360461711883544922 0.95099234580993652344 1 0.8463573455810546875 0.96587717533111572266 
0.94419664144515991211 0.97088640928268432617 0.94887810945510864258 0.98684209585189819336 0.96362882852554321289 0.98185592889785766602 0.93139886856079101562 0.92159277200698852539 0.92380887269973754883 0.97858726978302001953 0.99725759029388427734 1 1 0.94980770349502563477 0.99673593044281005859 0.99313253164291381836 1 0.89081716537475585938 1 
0.95667588710784912109 0.98034626245498657227 0.99630194902420043945 0.99944597482681274414 0.99091410636901855469 0.96871191263198852539 0.96853184700012207031 0.99048477411270141602 0.97502768039703369141 0.97014015913009643555 0.98133867979049682617 0.99970060586929321289 1 0.98320686817169189453 0.99414086341857910156 0.99398440122604370117 0.94165503978729248047 0.99713295698165893555 1 
0.99642658233642578125 0.99202215671539306641 1 1 1 0.96560943126678466797 0.9625346064567565918 0.98195290565490722656 0.98716616630554199219 0.95952302217483520508 0.98753106594085693359 0.9996865391731262207 1 0.97933930158615112305 0.99445760250091552734 0.97201490402221679688 0.87915384769439697266 0.99451524019241333008 1 
1 1 1 1 0.99916899204254150391 0.92397505044937133789 0.96961218118667602539 0.96317172050476074219 0.92756944894790649414 0.99232256412506103516 1 1 1 1 0.98096156120300292969 0.97761076688766479492 0.9142659306526184082 0.96085870265960693359 0.99824559688568115234 
0.99972301721572875977 1 0.99398893117904663086 0.99725759029388427734 0.99657893180847167969 0.90518003702163696289 0.95026314258575439453 0.9585196375846862793 0.89691781997680664062 0.97364962100982666016 1 0.98090910911560058594 0.92343020439147949219 0.96009361743927001953 0.95063710212707519531 0.90283930301666259766 0.89648199081420898438 0.99001383781433105469 0.9494736790657043457 
1 0.99189752340316772461 0.93876731395721435547 0.98644042015075683594 0.97556787729263305664 0.85104000568389892578 0.73714286088943481445 0.83618807792663574219 0.78157138824462890625 1 1 0.90858548879623413086 0.91704696416854858398 0.98617208003997802734 0.97998613119125366211 0.95162051916122436523 0.90749305486679077148 0.99602490663528442383 0.90280699729919433594 
0.99808865785598754883 0.91427975893020629883 0.97101110219955444336 0.94650971889495849609 0.9295985102653503418 0.82462686300277709961 0.73174047470092773438 0.80785274505615234375 0.78375965356826782227 0.99413192272186279297 1 0.99133116006851196289 0.99723184108734130859 1 0.96301937103271484375 0.95148199796676635742 0.96386426687240600586 1 1 
1 0.97365653514862060547 0.97766476869583129883 0.95890069007873535156 0.95348066091537475586 0.90928572416305541992 0.81541174650192260742 0.76515620946884155273 0.99482560157775878906 1 1 1 1 1 0.97001385688781738281 0.94351798295974731445 0.99463987350463867188 1 1 
1 0.99532854557037353516 0.97329998016357421875 0.988361358642578125 0.97711539268493652344 0.99628126621246337891 0.99101889133453369141 0.995941162109375 1 1 1 1 1 0.99889194965362548828 0.95876729488372802734 1 1 1 1 
0.99944597482681274414 0.84999996423721313477 0.84176057577133178711 0.98202127218246459961 0.99127012491226196289 1 1 1 1 1 1 1 0.99725759029388427734 1 0.98540163040161132812 1 1 1 1 
0.95182824134826660156 0.97902500629425048828 0.99482083320617675781 0.98254144191741943359 0.99268835783004760742 1 0.98466312885284423828 0.99627423286437988281 1 1 1 1 1 1 1 1 1 1 1 
0.96087259054183959961 0.96694767475128173828 0.78066664934158325195 0.99258619546890258789 1 0.92676258087158203125 0.96522158384323120117 0.99793630838394165039 1 1 1 0.99808865785598754883 1 1 1 1 1 1 1 
0.92247921228408813477 0.84644144773483276367 0.71153223514556884766 0.98769843578338623047 0.99775242805480957031 0.84256923198699951172 0.93713295459747314453 0.96943211555480957031 0.99861496686935424805 1 0.99904429912567138672 1 1 1 1 1 1 1 1 
0.93180054426193237305 0.97547703981399536133 1 0.98031252622604370117 0.99636763334274291992 0.97304707765579223633 0.95132964849472045898 0.97911357879638671875 0.99944597482681274414 1 1 1 1 1 1 1 1 1 1 
0.96799170970916748047 0.99611526727676391602 1 0.99303740262985229492 0.99028527736663818359 0.99229913949966430664 1 0.98278391361236572266 1 1 1 1 1 1 1 1 1 1 1 
0.99904429912567138672 1 1 0.97216254472732543945 0.9949169158935546875 0.99710524082183837891 1 0.98565095663070678711 1 1 0.99821329116821289062 1 0.99808865785598754883 0.99657893180847167969 1 0.99463987350463867188 0.99725759029388427734 1 1 
1 1 0.99934208393096923828 0.97628289461135864258 0.99348682165145874023 0.99641448259353637695 1 0.99210524559020996094 1 1 1 1 1 1 1 1 1 0.997730255126953125 1 
