ncols        19
nrows        23
xllcorner    508562.338426187926
yllcorner    5265326.272683421150
cellsize     570.000000000000
NODATA_value -9999
24 24 24 24 24 24 24 24 24 24 24 24 24 24 24 24 24 24 24 
24 24 24 24 24 24 24 24 24 24 24 24 24 124 24 24 24 24 24 
24 24 24 24 24 24 24 24 24 24 24 24 24 124 24 24 24 24 24 
24 24 24 24 24 24 24 24 24 24 24 24 117 124 24 24 24 24 24 
24 24 24 24 24 24 24 24 24 24 24 24 124 124 24 24 24 24 24 
24 24 24 24 24 24 24 24 24 24 24 24 124 17 17 24 24 24 24 
24 24 24 24 24 24 24 24 24 24 24 24 124 24 24 24 24 24 24 
24 24 24 24 24 24 24 24 24 24 24 24 117 24 24 24 24 24 24 
24 24 24 24 24 24 24 24 24 24 24 24 124 24 24 24 24 24 24 
24 24 24 24 24 24 24 24 24 24 12 24 124 24 24 24 24 24 24 
24 24 24 24 24 24 24 24 17 24 24 124 17 24 24 24 24 24 24 
24 24 24 24 24 17 17 117 117 124 124 17 17 24 24 24 24 24 24 
24 24 24 24 24 117 117 117 117 24 124 24 24 24 24 24 24 24 24 
24 24 24 24 24 117 117 117 124 24 124 124 24 24 24 24 24 24 24 
24 24 24 112 117 24 24 12 24 24 24 24 24 24 24 24 24 24 24 
24 17 17 124 24 24 12 24 24 24 24 24 24 24 24 24 24 24 24 
24 24 112 24 24 24 24 24 24 24 24 24 24 24 24 24 24 24 24 
24 24 117 124 24 24 24 24 24 24 24 24 24 24 24 24 24 24 24 
24 17 117 24 24 24 24 24 24 24 24 24 24 24 24 24 24 24 24 
24 24 112 24 24 24 24 24 24 24 24 24 24 24 24 24 24 24 24 
24 24 124 124 24 24 24 24 24 24 24 24 24 24 24 24 24 24 24 
24 24 124 24 24 24 24 24 24 24 24 24 24 24 24 24 24 24 24 
24 24 24 24 24 24 24 24 24 24 24 24 24 24 24 24 24 24 24 
