ncols        19
nrows        23
xllcorner    508562.338426190021
yllcorner    5265326.272683399729
cellsize     570.000000000000
NODATA_value -9999
0.0 0 0 0 0 0 0 0 0 0 0 0 0 0 0.00033137251739390194416 0 0 0 0 
0 0 0 0 0 0 0 0 0 0 0 0 0 0.00027818928356282413006 0.00036227222881279885769 0 0 0 0 
0 0 0 0 0 0 0 0 0 0 0 0 0 0.00075111107435077428818 0.00013085558020975440741 0 0 0 0 
0 0 0 0 0 0 0 0 0 0 0 0 0.0024626592639833688736 0 0 0 0 0 0 
0 0 0 0 0 0 0 0 0 0 0 0 0 0 0.0015450068749487400055 0.00056474516168236732483 0 0 0 
0 0 0 0 0 0 0 0 0 0 0 0.00011449863814050331712 0.00014670137898065149784 0.001656862674281001091 0.0021834624931216239929 0.001146734459325671196 0.00011555555101949721575 0 0 
0 0 0 0 0 0 0 0 0 0 0 0 0 0.0011555554810911417007 0.00011144080781377851963 0.00033935741521418094635 0 0 0 
0 0 0 0 0 0 0 0 0 0 0.00096917554037645459175 0.0001124417758546769619 0.0003078324079979211092 0.0012950190575793385506 0.00042316116741858422756 0.00093888881383463740349 0.00039256675518117845058 0 0 
0 0 0 0 0 0 0 0 0.00022288161562755703926 0.0014824559912085533142 0 0.00011772900325013324618 0.00025375373661518096924 0.001341269700787961483 0.00012730696471408009529 0.001541459234431385994 0.00057777774054557085037 0 0 
0 0 0 0 0 0 0 0 0.0014344134833663702011 0.00072688166983425617218 0 0 0 0 0.00060185178881511092186 0.0011884669074788689613 0.00010403200576547533274 0 0 
0 0 0 0 0 0 0 0.00090768706286326050758 0.0097747333347797393799 0.00068532029399648308754 0 0.00075869803549721837044 0.0021834624931216239929 0.0011252600234001874924 0.001144352019764482975 0.003120959969237446785 0.00072822399670258164406 0 0 
0 0 0 0 0 0.0015022221487015485764 0.02004845254123210907 0.011898788623511791229 0.01046190410852432251 0 0.00033833831548690795898 0.0034590640570968389511 0.001512304181233048439 0.00055720406817272305489 0.001144352019764482975 0.0023927360307425260544 0.0036411201581358909607 0 0 
0 0 0 0.00010403200576547533274 0.00068532029399648308754 0.0022421225439757108688 0.0052292542532086372375 0.01612815074622631073 0.012518517673015594482 0.00026080245152115821838 0 0.0010974025353789329529 0.00012995001452509313822 0 0.0012483840109780430794 0.0018725760746747255325 0.0024967680219560861588 0 0 
0 0 0.00010760903387563303113 0.00066587858600541949272 0.00082995695993304252625 0.0008941798587329685688 0.0057437904179096221924 0.008215277455747127533 0.00043669246952049434185 0.00013223786663729697466 0 0 0 0 0.001144352019764482975 0.0014564479934051632881 0.00031209600274451076984 0 0 
0 0.00010730158101068809628 0.00090133328922092914581 0.0003155928861815482378 0.0014444442931562662125 0.00011736110172932967544 0.00014171906514093279839 0.00088366004638373851776 0 0 0 0 0.00010403200576547533274 0.00010403200576547533274 0.0008322560461238026619 0 0 0 0 
0 0.0030178569722920656204 0.0021158058661967515945 0.0011985815363004803658 0.00024151480465661734343 0 0 0 0 0 0 0 0 0 0 0 0 0 0 
0 0.00075111107435077428818 0.00024466158356517553329 0.00082995695993304252625 0.00077168946154415607452 0 0 0 0 0 0 0 0 0 0 0 0 0 0 
0 0.0013100773794576525688 0.00062592589529231190681 0.00086334603838622570038 0 0.00027018383843824267387 0 0 0 0 0 0 0 0 0 0 0 0 0 
0.00031209600274451076984 0.00067667663097381591797 0 0.00079482654109597206116 0.00036699237534776329994 0.00011555555101949721575 0 0 0 0 0 0 0 0 0 0 0 0 0 
0 0.00066352565772831439972 0.0019976356998085975647 0.0013692128704860806465 0.00011045750579796731472 0 0 0 0 0 0 0 0 0 0 0 0 0 0 
0 0.00041883517405949532986 0 0.0010529594728723168373 0.00022555887699127197266 0 0 0 0 0 0 0 0 0 0 0 0 0 0 
0 0 0 0.0001152010809164494276 0 0 0 0 0 0 0 0 0 0 0 0 0 0 0 
0 0 0 0 0 0 0 0 0 0 0 0 0 0 0 0 0 0 0 
