ncols        19
nrows        23
xllcorner    508562.338426187926
yllcorner    5265326.272683421150
cellsize     570.000000000000
NODATA_value -9999
11 11 11 11 11 11 11 11 11 11 11 11 11 31 43 7 7 7 43 
11 11 11 11 11 11 23 31 11 11 11 42 42 90 42 7 7 6 5 
11 11 11 11 42 42 22 11 11 23 7 42 42 6 43 7 7 52 5 
11 11 11 11 42 21 11 23 23 52 7 7 43 5 42 7 7 42 5 
11 11 11 42 42 22 90 42 52 52 42 42 5 7 7 42 7 23 42 
11 6 31 42 42 7 7 7 42 42 42 42 7 42 42 42 42 23 42 
42 6 42 42 42 7 43 42 42 42 42 42 7 42 42 42 42 23 42 
6 43 42 42 42 42 42 7 7 7 42 7 7 42 42 52 42 42 42 
5 5 42 42 42 7 7 42 42 7 52 7 7 42 42 42 22 90 42 
42 5 42 42 7 42 7 42 42 42 71 42 5 5 7 42 42 42 90 
42 5 42 42 42 42 5 42 5 42 42 42 7 42 43 23 42 42 42 
42 7 42 42 42 21 5 22 22 42 6 7 5 42 7 11 42 42 42 
5 42 42 42 42 42 23 22 22 42 42 42 5 42 42 7 42 52 42 
42 42 7 42 42 7 7 23 42 42 52 42 42 5 7 42 42 42 42 
42 42 42 90 7 5 42 71 42 42 52 7 42 7 42 42 42 42 42 
42 7 81 5 5 42 71 42 52 42 42 71 42 42 42 42 6 7 42 
42 42 90 90 5 42 90 42 42 42 42 42 42 42 42 42 42 42 42 
42 42 7 42 42 42 11 71 42 42 42 42 52 5 42 42 42 42 42 
42 7 23 42 42 22 11 42 42 42 42 42 52 42 42 42 42 42 42 
7 42 90 42 42 7 42 90 42 42 42 52 42 42 42 42 42 42 42 
5 52 7 42 6 42 42 52 42 42 42 6 6 42 42 42 42 42 42 
52 42 90 42 42 42 42 42 42 42 42 42 52 42 52 42 42 42 42 
52 42 90 90 42 42 42 42 42 52 52 42 42 42 42 42 42 42 42 
