ncols        87
nrows        107
xllcorner    508536.404131802963
yllcorner    5265618.997906560078
cellsize     120.000000000000
NODATA_value -9999
0.13400000333786010742 0.13400000333786010742 0.13400000333786010742 0.13400000333786010742 0.13400000333786010742 0.13400000333786010742 0.13400000333786010742 0.13400000333786010742 0.13400000333786010742 0.13400000333786010742 0.13400000333786010742 0.13400000333786010742 0.13400000333786010742 0.13400000333786010742 0.13400000333786010742 0.13400000333786010742 0.13400000333786010742 0.13400000333786010742 0.13400000333786010742 0.13400000333786010742 0.13400000333786010742 0.13400000333786010742 0.13400000333786010742 0.13400000333786010742 0.13400000333786010742 0.13400000333786010742 0.13400000333786010742 0.13400000333786010742 0.13400000333786010742 0.13400000333786010742 0.13400000333786010742 0.13400000333786010742 0.13400000333786010742 0.13400000333786010742 0.13400000333786010742 0.13400000333786010742 0.13400000333786010742 0.13400000333786010742 0.13400000333786010742 0.13400000333786010742 0.13400000333786010742 0.13400000333786010742 0.13400000333786010742 0.13400000333786010742 0.13400000333786010742 0.13400000333786010742 0.13400000333786010742 0.13400000333786010742 0.13400000333786010742 0.13400000333786010742 0.13400000333786010742 0.13400000333786010742 0.13400000333786010742 0.13400000333786010742 0.13400000333786010742 0.13400000333786010742 0.13400000333786010742 0.13400000333786010742 0.13400000333786010742 0.13400000333786010742 0.13400000333786010742 0.13400000333786010742 0.13400000333786010742 0.13400000333786010742 0.13400000333786010742 0.13400000333786010742 0.26444801688194274902 0.86955320835113525391 1.210880279541015625 1.1999111175537109375 11.429917335510253906 26.758268356323242188 37.97058868408203125 71.81325531005859375 40.37824249267578125 4.9627017974853515625 33.27776336669921875 27.507425308227539062 10.699771881103515625 48.307384490966796875 56.190174102783203125 37.163402557373046875 79.15676116943359375 53.52596282958984375 40.171436309814453125 50.2437896728515625 61.78185272216796875 
0.13400000333786010742 0.13400000333786010742 0.13400000333786010742 0.13400000333786010742 0.13400000333786010742 0.13400000333786010742 0.13400000333786010742 0.13400000333786010742 0.13400000333786010742 0.13400000333786010742 0.13400000333786010742 0.13400000333786010742 0.13400000333786010742 0.13400000333786010742 0.13400000333786010742 0.13400000333786010742 0.13400000333786010742 0.13400000333786010742 0.13400000333786010742 0.13400000333786010742 0.13400000333786010742 0.13400000333786010742 0.13400000333786010742 0.13400000333786010742 0.13400000333786010742 0.13400000333786010742 0.13400000333786010742 0.13400000333786010742 0.13400000333786010742 0.13400000333786010742 0.13400000333786010742 0.13400000333786010742 0.13400000333786010742 0.13400000333786010742 0.13400000333786010742 0.13400000333786010742 0.13400000333786010742 0.13400000333786010742 0.13400000333786010742 0.13400000333786010742 0.13400000333786010742 0.13400000333786010742 0.13400000333786010742 0.13400000333786010742 0.13400000333786010742 0.13400000333786010742 0.13400000333786010742 0.13400000333786010742 0.13400000333786010742 0.13400000333786010742 0.13400000333786010742 0.13400000333786010742 0.13400000333786010742 0.13400000333786010742 0.13400000333786010742 0.13400000333786010742 0.13400000333786010742 0.13400000333786010742 0.13400000333786010742 0.13400000333786010742 0.13400000333786010742 0.13400000333786010742 0.13400000333786010742 0.13400000333786010742 0.13400000333786010742 0.26444801688194274902 6.8680438995361328125 6.5890469551086425781 16.463985443115234375 17.471767425537109375 44.276714324951171875 84.53350830078125 67.44394683837890625 55.983516693115234375 68.00201416015625 28.214342117309570312 34.967472076416015625 50.06362152099609375 63.090152740478515625 53.502056121826171875 30.604017257690429688 15.098494529724121094 15.557230949401855469 29.908056259155273438 19.916339874267578125 44.15316009521484375 1.6706390380859375 
0.13400000333786010742 0.13400000333786010742 0.13400000333786010742 0.13400000333786010742 0.13400000333786010742 0.13400000333786010742 0.13400000333786010742 0.13400000333786010742 0.13400000333786010742 0.13400000333786010742 0.13400000333786010742 0.13400000333786010742 0.13400000333786010742 0.13400000333786010742 0.13400000333786010742 0.13400000333786010742 0.13400000333786010742 0.13400000333786010742 0.13400000333786010742 0.13400000333786010742 0.13400000333786010742 0.13400000333786010742 0.13400000333786010742 0.13400000333786010742 0.13400000333786010742 0.13400000333786010742 0.13400000333786010742 0.13400000333786010742 0.13400000333786010742 0.13400000333786010742 0.13400000333786010742 0.13400000333786010742 0.13400000333786010742 0.13400000333786010742 0.13400000333786010742 0.13400000333786010742 0.13400000333786010742 0.13400000333786010742 0.13400000333786010742 0.13400000333786010742 0.13400000333786010742 0.13400000333786010742 0.13400000333786010742 0.13400000333786010742 0.13400000333786010742 0.13400000333786010742 0.13400000333786010742 0.13400000333786010742 0.13400000333786010742 0.13400000333786010742 0.13400000333786010742 0.13400000333786010742 0.13400000333786010742 0.13400000333786010742 0.13400000333786010742 0.13400000333786010742 0.13400000333786010742 0.13400000333786010742 0.13400000333786010742 0.65937840938568115234 0.99021315574645996094 0.36941537261009216309 0.13400000333786010742 0.13400000333786010742 0.13400000333786010742 0.5813732147216796875 1.3693468570709228516 1.2469211816787719727 13.8468170166015625 37.255733489990234375 65.67136383056640625 94.49970245361328125 90.16263580322265625 82.70153045654296875 57.699420928955078125 27.048917770385742188 18.925655364990234375 74.0482330322265625 42.613025665283203125 72.737335205078125 34.78626251220703125 38.99256134033203125 54.35108184814453125 69.59407806396484375 52.84356689453125 18.241437911987304688 0.13400000333786010742 
0.13400000333786010742 0.13400000333786010742 0.13400000333786010742 0.13400000333786010742 0.13400000333786010742 0.13400000333786010742 0.13400000333786010742 0.13400000333786010742 0.13400000333786010742 0.13400000333786010742 0.13400000333786010742 0.13400000333786010742 0.13400000333786010742 0.13400000333786010742 0.13400000333786010742 0.13400000333786010742 0.13400000333786010742 0.13400000333786010742 0.13400000333786010742 0.13400000333786010742 0.13400000333786010742 0.13400000333786010742 0.13400000333786010742 0.13400000333786010742 0.13400000333786010742 0.13400000333786010742 0.13400000333786010742 0.13400000333786010742 0.13400000333786010742 0.13400000333786010742 0.13400000333786010742 0.13400000333786010742 0.13400000333786010742 0.13400000333786010742 0.13400000333786010742 0.13400000333786010742 0.13400000333786010742 0.13400000333786010742 0.13400000333786010742 0.13400000333786010742 0.13400000333786010742 0.13400000333786010742 0.13400000333786010742 0.13400000333786010742 0.13400000333786010742 0.13400000333786010742 0.13400000333786010742 0.13400000333786010742 0.13400000333786010742 0.13400000333786010742 0.13400000333786010742 0.13400000333786010742 0.13400000333786010742 0.13400000333786010742 0.13400000333786010742 0.13400000333786010742 0.13400000333786010742 0.13400000333786010742 0.39489600062370300293 1.6969748735427856445 1.4698963165283203125 0.13400000333786010742 0.57354426383972167969 0.13400000333786010742 0.13400000333786010742 1.003653407096862793 41.5606231689453125 1.4834066629409790039 26.152006149291992188 72.89874267578125 68.30524444580078125 89.9021148681640625 73.41748046875 54.057079315185546875 46.94091796875 47.3059844970703125 36.21985626220703125 73.18346405029296875 22.781862258911132812 63.842777252197265625 44.366199493408203125 62.24521636962890625 29.599981307983398438 54.884090423583984375 24.370635986328125 4.9973740577697753906 0.5856075286865234375 
0.13400000333786010742 0.13400000333786010742 0.13400000333786010742 0.13400000333786010742 0.13400000333786010742 0.13400000333786010742 0.13400000333786010742 0.13400000333786010742 0.13400000333786010742 0.13400000333786010742 0.13400000333786010742 0.13400000333786010742 0.13400000333786010742 0.13400000333786010742 0.13400000333786010742 0.13400000333786010742 0.13400000333786010742 0.13400000333786010742 0.13400000333786010742 0.13400000333786010742 0.13400000333786010742 0.13400000333786010742 0.13400000333786010742 0.13400000333786010742 0.13400000333786010742 0.13400000333786010742 0.13400000333786010742 0.13400000333786010742 0.13400000333786010742 0.13400000333786010742 0.13400000333786010742 0.13400000333786010742 0.13400000333786010742 0.50418835878372192383 17.971605300903320312 13.885675430297851562 0.13400000333786010742 0.13400000333786010742 0.13400000333786010742 0.13400000333786010742 0.13400000333786010742 0.13400000333786010742 0.13400000333786010742 0.13400000333786010742 0.13400000333786010742 0.13400000333786010742 0.13400000333786010742 0.13400000333786010742 0.13400000333786010742 0.13400000333786010742 0.13400000333786010742 0.13400000333786010742 0.13400000333786010742 0.13400000333786010742 0.13400000333786010742 0.13400000333786010742 0.13400000333786010742 0.52534401416778564453 0.77699142694473266602 0.83997184038162231445 0.13400000333786010742 0.13400000333786010742 0.41899612545967102051 1.1078282594680786133 0.13400000333786010742 0.13400000333786010742 1.3837466239929199219 1.9318894147872924805 24.944065093994140625 67.2629547119140625 38.2888641357421875 62.068603515625 62.464305877685546875 44.59809112548828125 52.118083953857421875 73.52008056640625 64.2150115966796875 54.213775634765625 3.4070386886596679688 35.99935150146484375 14.429533004760742188 83.9478759765625 46.161724090576171875 56.77161407470703125 12.849817276000976562 0.34917756915092468262 0.66586446762084960938 
0.13400000333786010742 0.13400000333786010742 0.13400000333786010742 0.13400000333786010742 0.13400000333786010742 0.13400000333786010742 0.13400000333786010742 0.13400000333786010742 0.13400000333786010742 0.13400000333786010742 0.13400000333786010742 0.13400000333786010742 0.13400000333786010742 0.13400000333786010742 0.13400000333786010742 0.13400000333786010742 0.13400000333786010742 0.13400000333786010742 0.13400000333786010742 0.13400000333786010742 0.13400000333786010742 0.13400000333786010742 0.13400000333786010742 0.13400000333786010742 0.13400000333786010742 0.13400000333786010742 0.13400000333786010742 0.13400000333786010742 0.13400000333786010742 0.13400000333786010742 0.13400000333786010742 0.13400000333786010742 0.98028582334518432617 4.5354571342468261719 3.9346547126770019531 39.525135040283203125 0.13400000333786010742 0.13400000333786010742 0.13400000333786010742 0.13400000333786010742 0.13400000333786010742 0.13400000333786010742 0.13400000333786010742 0.13400000333786010742 0.13400000333786010742 0.13400000333786010742 0.13400000333786010742 0.13400000333786010742 0.13400000333786010742 0.13400000333786010742 0.13400000333786010742 0.13400000333786010742 0.13400000333786010742 0.41899612545967102051 0.59013199806213378906 0.92470884323120117188 1.1471269130706787109 6.7811083793640136719 0.95906847715377807617 1.5746430158615112305 9.068607330322265625 15.712042808532714844 1.1849771738052368164 1.7886476516723632812 0.50684684514999389648 0.13400000333786010742 1.5492357015609741211 2.0773115158081054688 1.3032128810882568359 28.792814254760742188 21.178174972534179688 57.971256256103515625 58.110523223876953125 64.72063446044921875 68.51175689697265625 68.752685546875 56.45537567138671875 43.375598907470703125 2.3975288867950439453 6.66954803466796875 57.67449951171875 62.125156402587890625 51.98815155029296875 24.523654937744140625 0.90395027399063110352 0.13400000333786010742 0.13400000333786010742 
0.13400000333786010742 0.13400000333786010742 0.13400000333786010742 0.13400000333786010742 0.13400000333786010742 0.13400000333786010742 0.13400000333786010742 0.13400000333786010742 0.13400000333786010742 0.13400000333786010742 0.13400000333786010742 0.13400000333786010742 0.13400000333786010742 0.13400000333786010742 0.13400000333786010742 0.13400000333786010742 0.13400000333786010742 0.13400000333786010742 0.13400000333786010742 0.13400000333786010742 0.13400000333786010742 0.13400000333786010742 0.13400000333786010742 0.13400000333786010742 0.13400000333786010742 0.13400000333786010742 0.13400000333786010742 0.13400000333786010742 0.13400000333786010742 0.13400000333786010742 0.13400000333786010742 31.575979232788085938 12.437165260314941406 1.0787404775619506836 0.36604362726211547852 0.5542100071907043457 0.13400000333786010742 0.13400000333786010742 0.13400000333786010742 0.13400000333786010742 0.13400000333786010742 0.13400000333786010742 0.13400000333786010742 0.13400000333786010742 0.13400000333786010742 0.13400000333786010742 0.13400000333786010742 0.13400000333786010742 0.13400000333786010742 0.13400000333786010742 0.13400000333786010742 0.89553236961364746094 0.66168099641799926758 0.82732462882995605469 1.9051920175552368164 1.9035484790802001953 1.9186737537384033203 22.358020782470703125 53.49555206298828125 25.188961029052734375 1.4612360000610351562 1.6013140678405761719 1.0572525262832641602 1.9774916172027587891 29.178972244262695312 1.0879043340682983398 1.9014528989791870117 1.9979070425033569336 1.5463097095489501953 1.0287256240844726562 1.3873095512390136719 50.8210906982421875 68.846160888671875 48.245609283447265625 60.691005706787109375 63.512897491455078125 91.49273681640625 10.253010749816894531 9.9770107269287109375 40.321224212646484375 70.368438720703125 71.527435302734375 59.1185455322265625 22.86719512939453125 66.190032958984375 23.403158187866210938 6.3944911956787109375 
0.13400000333786010742 0.13400000333786010742 0.13400000333786010742 0.13400000333786010742 0.13400000333786010742 0.13400000333786010742 0.13400000333786010742 0.13400000333786010742 0.13400000333786010742 0.13400000333786010742 0.13400000333786010742 0.13400000333786010742 0.13400000333786010742 0.13400000333786010742 0.13400000333786010742 0.13400000333786010742 0.13400000333786010742 0.13400000333786010742 0.13400000333786010742 0.13400000333786010742 0.13400000333786010742 0.13400000333786010742 0.13400000333786010742 0.13400000333786010742 0.13400000333786010742 0.13400000333786010742 0.39741411805152893066 0.63363081216812133789 0.23725056648254394531 6.7852869033813476562 16.099658966064453125 15.238419532775878906 0.64654344320297241211 1.049076080322265625 0.72519338130950927734 0.13400000333786010742 0.13400000333786010742 0.13400000333786010742 0.13400000333786010742 0.13400000333786010742 0.13400000333786010742 0.13400000333786010742 0.13400000333786010742 0.13400000333786010742 0.13400000333786010742 0.13400000333786010742 0.13400000333786010742 0.13400000333786010742 0.13400000333786010742 0.26444801688194274902 0.99828439950942993164 0.95050966739654541016 5.8310976028442382812 32.337032318115234375 2.2731115818023681641 1.9562680721282958984 2.1749007701873779297 1.8799988031387329102 49.827880859375 70.61077117919921875 1.3528953790664672852 1.7722183465957641602 1.3696455955505371094 15.335826873779296875 11.344608306884765625 0.76798188686370849609 1.8845572471618652344 11.218590736389160156 17.138820648193359375 8.409160614013671875 29.89858245849609375 62.49054718017578125 52.746700286865234375 38.61003875732421875 21.7934417724609375 43.910175323486328125 74.86025238037109375 2.0572552680969238281 24.78881072998046875 75.20166778564453125 74.11244964599609375 63.987659454345703125 45.841464996337890625 38.612751007080078125 56.020862579345703125 69.81292724609375 76.14235687255859375 
0.13400000333786010742 0.13400000333786010742 0.13400000333786010742 0.13400000333786010742 0.13400000333786010742 0.13400000333786010742 0.13400000333786010742 0.13400000333786010742 0.13400000333786010742 0.13400000333786010742 0.13400000333786010742 0.13400000333786010742 0.13400000333786010742 0.13400000333786010742 0.13400000333786010742 0.13400000333786010742 0.13400000333786010742 0.13400000333786010742 0.13400000333786010742 0.13400000333786010742 0.13400000333786010742 0.13400000333786010742 0.13400000333786010742 0.13400000333786010742 0.78624004125595092773 1.3328139781951904297 1.8791728019714355469 1.1587928533554077148 0.13400000333786010742 34.26799774169921875 6.117427825927734375 0.68608605861663818359 0.96903324127197265625 0.73999714851379394531 0.37639886140823364258 0.13400000333786010742 0.13400000333786010742 0.13400000333786010742 0.13400000333786010742 0.13400000333786010742 0.13400000333786010742 0.13400000333786010742 0.13400000333786010742 0.13400000333786010742 0.13400000333786010742 0.13400000333786010742 0.13400000333786010742 0.13400000333786010742 0.5160954594612121582 0.64654344320297241211 0.26444801688194274902 1.5618044137954711914 1.369443058967590332 1.1811975240707397461 7.4954419136047363281 1.5711141824722290039 2.1778051853179931641 1.8577945232391357422 19.361036300659179688 75.167327880859375 16.105976104736328125 1.7452019453048706055 49.8040618896484375 44.591884613037109375 0.36519005894660949707 0.23619912564754486084 1.8887594938278198242 49.422710418701171875 50.5341033935546875 29.867963790893554688 58.490032196044921875 54.498443603515625 45.148151397705078125 27.25594329833984375 10.993043899536132812 12.6096038818359375 59.0541534423828125 1.7752981185913085938 6.7888946533203125 1.7878808975219726562 24.19567108154296875 45.3183135986328125 66.5897674560546875 23.37624359130859375 27.622220993041992188 1.2462172508239746094 35.092395782470703125 
0.13400000333786010742 0.13400000333786010742 0.13400000333786010742 0.13400000333786010742 0.13400000333786010742 0.13400000333786010742 0.13400000333786010742 0.13400000333786010742 0.13400000333786010742 0.13400000333786010742 0.13400000333786010742 0.13400000333786010742 0.13400000333786010742 0.13400000333786010742 0.13400000333786010742 0.13400000333786010742 0.13400000333786010742 0.13400000333786010742 0.13400000333786010742 0.13400000333786010742 0.13400000333786010742 0.13400000333786010742 0.85314428806304931641 1.497646331787109375 62.47020721435546875 0.81329071521759033203 1.5993324518203735352 1.5387845039367675781 1.2143982648849487305 6.1429085731506347656 0.23896737396717071533 1.4676824808120727539 0.66045510768890380859 0.37639886140823364258 0.13400000333786010742 0.13400000333786010742 0.13400000333786010742 0.13400000333786010742 0.13400000333786010742 0.13400000333786010742 0.13400000333786010742 0.13400000333786010742 0.13400000333786010742 0.13400000333786010742 0.13400000333786010742 0.13400000333786010742 0.13400000333786010742 0.74658215045928955078 1.4978694915771484375 15.071109771728515625 9.7243251800537109375 20.908985137939453125 1.9384295940399169922 7.2237896919250488281 27.628992080688476562 2.2348465919494628906 2.5808587074279785156 12.75333404541015625 38.3839263916015625 85.8152008056640625 1.6030039787292480469 1.6321715116500854492 24.494752883911132812 64.26587677001953125 65.82160186767578125 0.54791420698165893555 1.9077626466751098633 33.9424591064453125 16.744564056396484375 17.274684906005859375 1.798746943473815918 68.6097412109375 57.777622222900390625 31.120388031005859375 21.992046356201171875 60.014659881591796875 50.375209808349609375 1.0969383716583251953 13.230779647827148438 1.3204870223999023438 21.666980743408203125 33.3205108642578125 34.30417633056640625 48.285594940185546875 0.13400000333786010742 8.3819150924682617188 50.84079742431640625 
0.13400000333786010742 0.13400000333786010742 0.13400000333786010742 0.13400000333786010742 0.13400000333786010742 0.13400000333786010742 0.13400000333786010742 0.13400000333786010742 0.13400000333786010742 0.13400000333786010742 0.13400000333786010742 0.13400000333786010742 0.13400000333786010742 0.13400000333786010742 0.13400000333786010742 0.13400000333786010742 0.13400000333786010742 0.13400000333786010742 0.13400000333786010742 0.13400000333786010742 0.39489600062370300293 1.2687106132507324219 1.6641793251037597656 1.8786847591400146484 1.1130720376968383789 1.6323550939559936523 1.8432700634002685547 1.1320631504058837891 1.2532128095626831055 41.8594512939453125 6.2996830940246582031 1.6043494939804077148 0.35844999551773071289 0.13400000333786010742 0.13400000333786010742 0.13400000333786010742 0.13400000333786010742 0.13400000333786010742 0.13400000333786010742 0.13400000333786010742 0.13400000333786010742 0.13400000333786010742 0.13400000333786010742 0.13400000333786010742 0.13400000333786010742 0.13400000333786010742 0.52534401416778564453 7.4857091903686523438 31.722003936767578125 24.225948333740234375 13.706975936889648438 35.3852081298828125 7.7648305892944335938 65.1732025146484375 17.70439910888671875 2.4951355457305908203 2.3699245452880859375 44.559215545654296875 14.221776962280273438 53.510986328125 1.6824951171875 1.7498133182525634766 55.29384613037109375 40.539188385009765625 69.75782012939453125 15.609244346618652344 1.7393710613250732422 56.208705902099609375 44.29656982421875 70.80362701416015625 21.16161346435546875 38.4470367431640625 56.57701873779296875 38.242443084716796875 28.104511260986328125 14.711641311645507812 4.2921366691589355469 0.81553751230239868164 28.734575271606445312 15.328189849853515625 32.089214324951171875 24.806854248046875 16.325908660888671875 30.673170089721679688 3.1635963916778564453 1.0176550149917602539 65.07318878173828125 
0.13400000333786010742 0.13400000333786010742 0.13400000333786010742 0.13400000333786010742 0.13400000333786010742 0.13400000333786010742 0.13400000333786010742 0.13400000333786010742 0.13400000333786010742 0.13400000333786010742 0.13400000333786010742 0.13400000333786010742 0.13400000333786010742 0.13400000333786010742 0.13400000333786010742 0.13400000333786010742 0.13400000333786010742 0.13400000333786010742 0.13400000333786010742 0.13400000333786010742 1.1058291196823120117 1.4232163429260253906 1.5217833518981933594 1.3198212385177612305 1.131298065185546875 1.926768183708190918 2.01288604736328125 1.9004428386688232422 1.2362228631973266602 11.223816871643066406 18.182159423828125 0.45436012744903564453 0.255199432373046875 0.13400000333786010742 0.13400000333786010742 0.13400000333786010742 0.13400000333786010742 0.13400000333786010742 0.13400000333786010742 0.13400000333786010742 0.13400000333786010742 0.13400000333786010742 0.13400000333786010742 0.13400000333786010742 0.13400000333786010742 0.13400000333786010742 7.4361162185668945312 1.3249481916427612305 2.13179779052734375 3.6538841724395751953 4.4336566925048828125 50.9530181884765625 52.29492950439453125 13.606777191162109375 9.4695301055908203125 2.2275843620300292969 10.4065704345703125 2.4333913326263427734 40.116222381591796875 42.425182342529296875 27.233678817749023438 0.13400000333786010742 58.51865386962890625 27.57444000244140625 42.35477447509765625 13.850568771362304688 21.624614715576171875 1.8935184478759765625 64.951873779296875 70.7175140380859375 16.940166473388671875 14.172656059265136719 62.08889007568359375 28.261796951293945312 13.361192703247070312 1.2118893861770629883 0.67940473556518554688 10.930233001708984375 11.351695060729980469 42.477321624755859375 33.57619476318359375 16.868167877197265625 1.1159380674362182617 1.0594995021820068359 9.8079462051391601562 13.565041542053222656 43.580379486083984375 
0.13400000333786010742 0.13400000333786010742 0.13400000333786010742 0.13400000333786010742 0.13400000333786010742 0.13400000333786010742 0.13400000333786010742 0.13400000333786010742 0.13400000333786010742 0.13400000333786010742 0.13400000333786010742 0.13400000333786010742 0.13400000333786010742 0.13400000333786010742 0.13400000333786010742 0.13400000333786010742 0.13400000333786010742 0.13400000333786010742 0.13400000333786010742 0.26444801688194274902 1.0344207286834716797 0.70268172025680541992 1.4551523923873901367 1.37023162841796875 1.1220780611038208008 2.0334565639495849609 2.2916765213012695312 1.9201612472534179688 0.61316764354705810547 0.46315979957580566406 0.8136317133903503418 0.5725447535514831543 0.255199432373046875 0.13400000333786010742 0.13400000333786010742 0.13400000333786010742 0.13400000333786010742 0.13400000333786010742 0.13400000333786010742 0.13400000333786010742 0.13400000333786010742 0.13400000333786010742 0.13400000333786010742 0.13400000333786010742 0.52534401416778564453 1.0425978899002075195 1.8887133598327636719 1.9433519840240478516 7.7715716361999511719 46.52001953125 46.1258087158203125 81.38410186767578125 43.8389739990234375 27.65848541259765625 81.96435546875 14.184456825256347656 17.126214981079101562 8.863101959228515625 26.573520660400390625 34.49822998046875 8.7202405929565429688 0.13400000333786010742 8.155792236328125 29.608892440795898438 5.4174380302429199219 16.383998870849609375 67.10254669189453125 35.22983551025390625 41.03774261474609375 14.021718025207519531 1.6395208835601806641 1.6469861268997192383 1.1376428604125976562 15.014471054077148438 30.862138748168945312 4.2927336692810058594 7.3947558403015136719 27.53379058837890625 32.813030242919921875 39.611358642578125 13.949675559997558594 2.2711145877838134766 2.5915822982788085938 2.1312382221221923828 1.5128867626190185547 22.30895233154296875 28.083324432373046875 
0.13400000333786010742 0.13400000333786010742 0.13400000333786010742 0.13400000333786010742 0.13400000333786010742 0.13400000333786010742 0.13400000333786010742 0.13400000333786010742 0.13400000333786010742 0.13400000333786010742 0.13400000333786010742 0.13400000333786010742 0.13400000333786010742 0.13400000333786010742 0.13400000333786010742 0.13400000333786010742 0.13400000333786010742 0.13400000333786010742 0.26444801688194274902 1.5732719898223876953 1.784556269645690918 1.26963043212890625 2.1330568790435791016 1.8917795419692993164 1.7285150289535522461 2.0154273509979248047 1.9970964193344116211 1.5686851739883422852 1.3469626903533935547 0.94493788480758666992 1.2694454193115234375 1.0774589776992797852 0.13400000333786010742 0.13400000333786010742 0.13400000333786010742 0.13400000333786010742 0.13400000333786010742 0.13400000333786010742 0.13400000333786010742 0.13400000333786010742 0.13400000333786010742 0.13400000333786010742 0.39489600062370300293 0.49185824394226074219 14.785485267639160156 1.8959209918975830078 1.8290255069732666016 1.9709926843643188477 42.0615234375 39.447956085205078125 38.6483154296875 85.67356109619140625 73.202789306640625 12.836857795715332031 23.036256790161132812 10.598700523376464844 41.744213104248046875 23.283498764038085938 6.8644375801086425781 14.594755172729492188 5.6772184371948242188 0.39489600062370300293 6.3335080146789550781 36.257205963134765625 36.891719818115234375 26.081462860107421875 6.1565690040588378906 25.49590301513671875 18.24365234375 1.2459011077880859375 2.0511744022369384766 6.3016109466552734375 19.524261474609375 39.566547393798828125 21.400220870971679688 46.78308868408203125 25.149082183837890625 10.560603141784667969 33.416316986083984375 56.262462615966796875 33.394054412841796875 2.4764304161071777344 2.249485015869140625 2.0551457405090332031 1.1666824817657470703 1.4784246683120727539 2.07649993896484375 
0.13400000333786010742 0.13400000333786010742 0.13400000333786010742 0.13400000333786010742 0.13400000333786010742 0.13400000333786010742 0.13400000333786010742 0.13400000333786010742 0.13400000333786010742 0.13400000333786010742 0.13400000333786010742 0.13400000333786010742 0.13400000333786010742 0.13400000333786010742 0.13400000333786010742 0.13400000333786010742 0.13400000333786010742 0.13400000333786010742 0.78624004125595092773 1.9170136451721191406 1.8909254074096679688 1.2797725200653076172 2.0483570098876953125 1.9305208921432495117 1.5882607698440551758 2.6436269283294677734 1.7267673015594482422 1.1694011688232421875 28.224428176879882812 5.8976850509643554688 1.2267391681671142578 0.74924576282501220703 0.13400000333786010742 0.13400000333786010742 0.13400000333786010742 0.13400000333786010742 0.13400000333786010742 0.13400000333786010742 0.13400000333786010742 0.13400000333786010742 0.13400000333786010742 1.424197077751159668 32.267353057861328125 11.071484565734863281 30.5052032470703125 1.8795003890991210938 1.9015977382659912109 10.924786567687988281 14.304705619812011719 11.227497100830078125 54.393634796142578125 53.172687530517578125 15.976606369018554688 12.968480110168457031 11.110657691955566406 1.9946237802505493164 30.724260330200195312 60.056499481201171875 67.9271697998046875 46.66483306884765625 0.80942481756210327148 0.65579199790954589844 1.1530823707580566406 60.85829925537109375 59.8254852294921875 1.9280707836151123047 1.8854349851608276367 11.090978622436523438 1.7944405078887939453 1.3839777708053588867 1.5653787851333618164 14.749472618103027344 27.085721969604492188 56.896610260009765625 57.434223175048828125 47.118846893310546875 8.6951513290405273438 1.5270388126373291016 6.7323598861694335938 28.053544998168945312 11.087221145629882812 4.3968915939331054688 2.6385016441345214844 2.4275338649749755859 1.9028681516647338867 1.9761306047439575195 42.7519989013671875 
0.13400000333786010742 0.13400000333786010742 0.13400000333786010742 0.13400000333786010742 0.13400000333786010742 0.13400000333786010742 0.13400000333786010742 0.13400000333786010742 0.13400000333786010742 0.13400000333786010742 0.13400000333786010742 0.13400000333786010742 0.13400000333786010742 0.13400000333786010742 0.13400000333786010742 0.13400000333786010742 0.13400000333786010742 0.13400000333786010742 1.1206243038177490234 1.8928475379943847656 1.8543298244476318359 1.4647022485733032227 1.5421743392944335938 1.1971133947372436523 1.3709375858306884766 1.3880369663238525391 23.797941207885742188 1.4837280511856079102 44.60980987548828125 23.721338272094726562 0.89562195539474487305 0.13400000333786010742 0.13400000333786010742 0.13400000333786010742 0.13400000333786010742 0.13400000333786010742 0.13400000333786010742 0.13400000333786010742 0.13400000333786010742 0.13400000333786010742 0.5160954594612121582 16.3377838134765625 41.90474700927734375 23.801889419555664062 1.9285840988159179688 1.9306315183639526367 14.661557197570800781 84.210174560546875 22.28420257568359375 45.9126129150390625 1.8619720935821533203 0.48952093720436096191 0.47998055815696716309 0.2454522550106048584 1.1263880729675292969 27.5021820068359375 15.080624580383300781 71.09795379638671875 21.859500885009765625 0.90169936418533325195 2.9752900600433349609 1.2825231552124023438 34.473407745361328125 43.47650146484375 56.31797027587890625 23.736080169677734375 1.8801447153091430664 39.29266357421875 9.0322675704956054688 1.4103140830993652344 2.1399509906768798828 0.70894449949264526367 0.88300204277038574219 32.12581634521484375 61.694324493408203125 39.97524261474609375 38.53670501708984375 2.1162860393524169922 1.8042693138122558594 52.445209503173828125 2.0785510540008544922 2.2346308231353759766 1.7685611248016357422 2.1775209903717041016 15.269454002380371094 11.430047035217285156 34.047199249267578125 
0.13400000333786010742 0.13400000333786010742 0.13400000333786010742 0.13400000333786010742 0.13400000333786010742 0.13400000333786010742 0.13400000333786010742 0.13400000333786010742 0.13400000333786010742 0.13400000333786010742 0.13400000333786010742 0.13400000333786010742 0.13400000333786010742 0.13400000333786010742 0.13400000333786010742 0.13400000333786010742 0.13400000333786010742 0.13400000333786010742 1.1927325725555419922 1.1077922582626342773 1.2222046852111816406 1.7178237438201904297 5.4267559051513671875 1.0471360683441162109 0.94078814983367919922 0.26696613430976867676 6.3600335121154785156 1.1738359928131103516 13.292337417602539062 13.699321746826171875 0.255199432373046875 0.13400000333786010742 0.13400000333786010742 0.13400000333786010742 0.13400000333786010742 0.13400000333786010742 0.26444801688194274902 0.24432994425296783447 0.66228950023651123047 6.55210113525390625 1.0247529745101928711 1.0483037233352661133 1.9989004135131835938 0.51864326000213623047 1.1471871137619018555 1.7458884716033935547 6.993831634521484375 27.712659835815429688 44.99224090576171875 14.612186431884765625 2.0184102058410644531 0.24287019670009613037 0.13400000333786010742 0.13400000333786010742 0.6559454798698425293 5.1592035293579101562 67.8626251220703125 71.49208831787109375 20.285614013671875 5.8832941055297851562 21.691799163818359375 22.375967025756835938 68.229034423828125 34.912960052490234375 56.23952484130859375 11.355932235717773438 33.880153656005859375 17.616443634033203125 8.454074859619140625 1.8955751657485961914 1.9119114875793457031 1.1576542854309082031 1.3757603168487548828 43.915493011474609375 61.0018463134765625 15.938055992126464844 16.255456924438476562 1.3687465190887451172 47.232814788818359375 45.900165557861328125 1.8758294582366943359 0.9585507512092590332 0.29998007416725158691 0.46596011519432067871 1.4095618724822998047 36.58493804931640625 68.6118011474609375 
0.13400000333786010742 0.13400000333786010742 0.13400000333786010742 0.13400000333786010742 0.13400000333786010742 0.13400000333786010742 0.13400000333786010742 0.13400000333786010742 0.13400000333786010742 0.13400000333786010742 0.13400000333786010742 0.13400000333786010742 0.13400000333786010742 0.13400000333786010742 0.13400000333786010742 0.13400000333786010742 0.13400000333786010742 0.5160954594612121582 1.7918757200241088867 1.4608618021011352539 1.8568340539932250977 2.1424036026000976562 1.7716764211654663086 1.4866802692413330078 1.0185883045196533203 0.71218729019165039062 3.7582507133483886719 16.190586090087890625 17.321683883666992188 0.73999714851379394531 0.13400000333786010742 0.13400000333786010742 0.13400000333786010742 0.13400000333786010742 0.13400000333786010742 0.26444801688194274902 1.3080320358276367188 36.568450927734375 15.961634635925292969 31.070730209350585938 1.3579096794128417969 0.13400000333786010742 0.96223032474517822266 0.72722828388214111328 36.293468475341796875 0.13400000333786010742 0.13400000333786010742 1.3084342479705810547 6.5800676345825195312 1.7049409151077270508 2.1928439140319824219 0.13400000333786010742 0.13400000333786010742 0.13400000333786010742 0.97906732559204101562 26.902673721313476562 74.30368804931640625 27.564958572387695312 69.95543670654296875 22.876413345336914062 22.548648834228515625 22.64679718017578125 53.312816619873046875 67.88896942138671875 53.730472564697265625 30.914602279663085938 6.8432831764221191406 4.2423048019409179688 45.17838287353515625 1.0616302490234375 1.3629674911499023438 1.4290682077407836914 1.6447585821151733398 14.156313896179199219 12.329119682312011719 1.6411423683166503906 21.241367340087890625 34.649967193603515625 49.42374420166015625 10.52918243408203125 1.8681561946868896484 1.516759037971496582 0.90467280149459838867 0.96371483802795410156 16.6915283203125 27.063629150390625 6.6916565895080566406 
0.13400000333786010742 0.13400000333786010742 0.13400000333786010742 0.13400000333786010742 0.13400000333786010742 0.13400000333786010742 0.13400000333786010742 0.13400000333786010742 0.13400000333786010742 0.13400000333786010742 0.13400000333786010742 0.13400000333786010742 0.13400000333786010742 0.13400000333786010742 0.13400000333786010742 0.13400000333786010742 0.26444801688194274902 1.3813272714614868164 1.7836860418319702148 1.8068552017211914062 1.8789960145950317383 2.1531698703765869141 1.7793036699295043945 1.066733241081237793 1.2631881237030029297 1.059224247932434082 9.7330369949340820312 9.7913160324096679688 29.680673599243164062 44.6487274169921875 0.13400000333786010742 0.13400000333786010742 0.13400000333786010742 0.13400000333786010742 0.13400000333786010742 0.39489600062370300293 1.3614906072616577148 3.5697109699249267578 1.642096400260925293 19.675210952758789062 26.371059417724609375 0.2454522550106048584 0.40831330418586730957 0.85436910390853881836 9.9576539993286132812 0.13400000333786010742 0.13400000333786010742 0.13400000333786010742 1.0649228096008300781 1.3536689281463623047 1.0878407955169677734 0.96166765689849853516 0.57659870386123657227 0.26444801688194274902 0.76142603158950805664 37.66561126708984375 57.738048553466796875 42.03514862060546875 35.95941925048828125 16.159637451171875 48.33933258056640625 50.28326416015625 69.30663299560546875 34.546688079833984375 19.954271316528320312 6.351779937744140625 56.1202239990234375 19.3182220458984375 8.7074937820434570312 0.64161992073059082031 0.13400000333786010742 0.44788718223571777344 1.5242477655410766602 1.2375242710113525391 1.6697762012481689453 1.5028297901153564453 1.6419202089309692383 16.071615219116210938 64.85871124267578125 10.456403732299804688 1.540385127067565918 1.5136008262634277344 1.0773661136627197266 8.6293859481811523438 53.0853729248046875 12.3534698486328125 5.294788360595703125 
0.13400000333786010742 0.13400000333786010742 0.13400000333786010742 0.13400000333786010742 0.13400000333786010742 0.13400000333786010742 0.13400000333786010742 0.13400000333786010742 0.13400000333786010742 0.13400000333786010742 0.13400000333786010742 0.13400000333786010742 0.13400000333786010742 0.13400000333786010742 0.13400000333786010742 0.13400000333786010742 0.65579199790954589844 1.8508048057556152344 1.5750409364700317383 1.5719361305236816406 1.5696294307708740234 0.91244035959243774414 1.4303569793701171875 0.90389138460159301758 0.58701211214065551758 1.3138910531997680664 6.5914373397827148438 0.99918371438980102539 40.34554290771484375 20.527179718017578125 0.13400000333786010742 0.13400000333786010742 0.13400000333786010742 0.13400000333786010742 13.476531028747558594 1.3923418521881103516 1.8939349651336669922 1.8936942815780639648 1.5820422172546386719 0.47697708010673522949 11.648900032043457031 0.13400000333786010742 0.13400000333786010742 0.58459889888763427734 0.64313864707946777344 0.13400000333786010742 0.89524173736572265625 0.13400000333786010742 2.4961459636688232422 2.2868463993072509766 1.9264173507690429688 1.1015671491622924805 5.780063629150390625 1.1438984870910644531 0.79464358091354370117 19.823596954345703125 28.45708465576171875 43.03340911865234375 39.571819305419921875 8.804351806640625 44.91119384765625 31.085145950317382812 39.215198516845703125 1.9082900285720825195 1.8945289850234985352 1.9175903797149658203 66.20123291015625 61.42256927490234375 70.05666351318359375 24.832489013671875 12.070065498352050781 0.4196796715259552002 0.75721579790115356445 1.1420331001281738281 1.2377163171768188477 0.83631682395935058594 0.58821964263916015625 25.935270309448242188 64.8606109619140625 30.097883224487304688 0.69968599081039428711 0.84544533491134643555 0.8794333338737487793 2.1210730075836181641 7.3410425186157226562 0.96766149997711181641 1.841504216194152832 
0.13400000333786010742 0.13400000333786010742 0.13400000333786010742 0.13400000333786010742 0.13400000333786010742 0.13400000333786010742 0.13400000333786010742 0.13400000333786010742 0.13400000333786010742 0.13400000333786010742 0.13400000333786010742 0.13400000333786010742 0.13400000333786010742 0.13400000333786010742 0.13400000333786010742 0.13400000333786010742 1.0246057510375976562 2.0008461475372314453 1.7720795869827270508 1.7598139047622680664 1.5241465568542480469 1.7395694255828857422 1.9210424423217773438 1.0811185836791992188 0.91836494207382202148 1.9134550094604492188 44.00586700439453125 23.1561737060546875 44.133937835693359375 9.4847116470336914062 0.13400000333786010742 0.13400000333786010742 0.13400000333786010742 2.6876862049102783203 14.639255523681640625 1.9069062471389770508 1.99961090087890625 1.8555457592010498047 1.9170322418212890625 0.4862200617790222168 1.3469504117965698242 0.13400000333786010742 0.13400000333786010742 0.13400000333786010742 0.13400000333786010742 0.13400000333786010742 0.24882343411445617676 0.44309625029563903809 2.2733309268951416016 1.965096592903137207 1.6070989370346069336 14.489844322204589844 11.070064544677734375 1.0468688011169433594 0.57399845123291015625 0.39489600062370300293 27.38266754150390625 1.3359482288360595703 20.820627212524414062 36.068729400634765625 24.935033798217773438 6.3445653915405273438 1.8808150291442871094 1.9010705947875976562 19.578966140747070312 51.75975799560546875 68.490478515625 58.217998504638671875 26.869556427001953125 1.6677303314208984375 1.2132593393325805664 1.1093865633010864258 1.2920548915863037109 1.192122340202331543 0.65075051784515380859 1.2095048427581787109 6.4398398399353027344 12.652972221374511719 30.366979598999023438 28.588834762573242188 0.69333338737487792969 0.7673771977424621582 1.2907341718673706055 2.2983193397521972656 1.7754837274551391602 1.6942770481109619141 1.7827037572860717773 
0.13400000333786010742 0.13400000333786010742 0.13400000333786010742 0.13400000333786010742 0.13400000333786010742 0.13400000333786010742 0.13400000333786010742 0.13400000333786010742 0.13400000333786010742 0.13400000333786010742 0.13400000333786010742 0.13400000333786010742 0.13400000333786010742 0.13400000333786010742 0.13400000333786010742 1.2599272727966308594 1.9853973388671875 1.8501398563385009766 1.9294376373291015625 1.9292846918106079102 2.1448256969451904297 2.2911224365234375 1.3487516641616821289 2.0617616176605224609 2.2037208080291748047 2.1038732528686523438 9.9082775115966796875 58.154148101806640625 35.423625946044921875 2.6572048664093017578 0.13400000333786010742 18.997823715209960938 1.424197077751159668 0.13400000333786010742 1.4886018037796020508 1.9470455646514892578 2.0404405593872070312 1.9233217239379882812 12.733457565307617188 1.6734337806701660156 1.5723570585250854492 0.13400000333786010742 0.13400000333786010742 0.40885025262832641602 0.13400000333786010742 0.13400000333786010742 0.41773724555969238281 0.92496055364608764648 2.4064240455627441406 1.612651824951171875 0.9762598872184753418 1.8235977888107299805 28.248544692993164062 1.3541196584701538086 0.66255545616149902344 37.929004669189453125 27.344516754150390625 42.96208953857421875 14.080575942993164062 74.43390655517578125 28.976144790649414062 1.8370792865753173828 1.7067455053329467773 1.8804631233215332031 63.4973602294921875 7.1444439888000488281 23.529420852661132812 7.9862303733825683594 35.70131683349609375 1.9380643367767333984 2.0057013034820556641 1.8843847513198852539 0.75939500331878662109 1.2759852409362792969 1.0774190425872802734 1.5691766738891601562 1.5153433084487915039 6.3395991325378417969 8.4406747817993164062 0.82542270421981811523 0.49986338615417480469 0.13400000333786010742 1.0357080698013305664 1.6687248945236206055 1.1771655082702636719 1.6263443231582641602 1.9414827823638916016 
0.13400000333786010742 0.13400000333786010742 0.13400000333786010742 0.13400000333786010742 0.13400000333786010742 0.13400000333786010742 0.13400000333786010742 0.13400000333786010742 0.13400000333786010742 0.13400000333786010742 0.13400000333786010742 0.13400000333786010742 0.13400000333786010742 0.13400000333786010742 0.39489600062370300293 0.90743947029113769531 1.7227814197540283203 1.9454811811447143555 1.8498727083206176758 1.8949311971664428711 2.1628632545471191406 1.9657986164093017578 1.2494980096817016602 23.744524002075195312 6.723941802978515625 0.9487813115119934082 6.5229511260986328125 27.702030181884765625 38.288646697998046875 42.860752105712890625 0.13400000333786010742 63.002544403076171875 41.073307037353515625 1.1365507841110229492 19.7926177978515625 1.9973633289337158203 6.44551849365234375 15.320744514465332031 28.15753173828125 1.8758223056793212891 1.8690237998962402344 31.852504730224609375 33.0519866943359375 2.5790400505065917969 2.6446893215179443359 6.1674251556396484375 1.4506518840789794922 2.3499233722686767578 2.1109356880187988281 2.4614768028259277344 5.0919742584228515625 6.5407800674438476562 1.2135435342788696289 1.0022153854370117188 0.92775642871856689453 9.6455640792846679688 1.7969152927398681641 53.21369171142578125 1.8550202846527099609 76.66625213623046875 34.568248748779296875 20.372653961181640625 9.5553112030029296875 11.164144515991210938 54.88944244384765625 48.65244293212890625 1.9586369991302490234 1.9533978700637817383 1.7165079116821289062 1.6690843105316162109 1.7461076974868774414 0.13400000333786010742 0.13400000333786010742 1.612513422966003418 1.934929966926574707 2.2215909957885742188 10.028230667114257812 22.85669708251953125 8.129261016845703125 1.9263168573379516602 2.2862603664398193359 1.9850879907608032227 1.5328861474990844727 1.9897323846817016602 1.5703885555267333984 1.8434686660766601562 0.13400000333786010742 
0.13400000333786010742 0.13400000333786010742 0.13400000333786010742 0.13400000333786010742 0.13400000333786010742 0.13400000333786010742 0.13400000333786010742 0.13400000333786010742 0.13400000333786010742 0.13400000333786010742 0.13400000333786010742 0.13400000333786010742 0.13400000333786010742 0.61009740829467773438 1.985448002815246582 1.4854727983474731445 1.4037536382675170898 1.9068655967712402344 1.8519767522811889648 1.8534235954284667969 1.8791089057922363281 1.6648738384246826172 17.677217483520507812 7.3763494491577148438 41.2796173095703125 22.263528823852539062 8.3205118179321289062 31.322509765625 19.287654876708984375 32.578639984130859375 11.467358589172363281 48.410442352294921875 1.0212228298187255859 2.8048923015594482422 6.2754616737365722656 3.9926395416259765625 42.01032257080078125 6.3798666000366210938 0.8557135462760925293 1.1366002559661865234 1.3258135318756103516 3.9363546371459960938 2.8628461360931396484 2.4159269332885742188 2.2904808521270751953 1.8451026678085327148 0.67437744140625 1.1538435220718383789 2.1544425487518310547 2.5422122478485107422 2.3117828369140625 1.7746512889862060547 6.1986651420593261719 1.3467813730239868164 1.9803029298782348633 2.1350409984588623047 2.3118631839752197266 7.7909207344055175781 25.082700729370117188 73.3083953857421875 56.73099517822265625 48.029781341552734375 22.82289886474609375 10.366512298583984375 10.358623504638671875 35.48395538330078125 1.8978097438812255859 1.9264365434646606445 1.1547926664352416992 1.9116920232772827148 1.9469283819198608398 1.4439116716384887695 1.5851877927780151367 1.3622894287109375 2.0849421024322509766 3.9130289554595947266 30.245098114013671875 5.3998765945434570312 1.9571398496627807617 1.9945766925811767578 2.2098741531372070312 1.9124143123626708984 1.0234816074371337891 1.928976893424987793 1.5814950466156005859 1.0104387998580932617 0.13400000333786010742 
0.13400000333786010742 0.13400000333786010742 0.13400000333786010742 0.13400000333786010742 0.13400000333786010742 0.56087607145309448242 1.058508753776550293 15.3656158447265625 4.0206813812255859375 0.13400000333786010742 0.13400000333786010742 0.13400000333786010742 0.26444801688194274902 1.9356306791305541992 1.8833889961242675781 2.1675467491149902344 2.1181833744049072266 1.9666358232498168945 1.8636877536773681641 1.9285634756088256836 1.8770247697830200195 1.1233921051025390625 1.3334722518920898438 20.123334884643554688 12.319782257080078125 0.61305767297744750977 18.357273101806640625 17.210245132446289062 22.8578643798828125 69.52664947509765625 32.5209197998046875 49.440235137939453125 46.441860198974609375 38.106822967529296875 53.77869415283203125 43.32497406005859375 42.869869232177734375 26.643163681030273438 11.797960281372070312 15.911280632019042969 10.91896820068359375 2.2187268733978271484 2.2982869148254394531 2.2638916969299316406 2.1101617813110351562 1.1953960657119750977 0.47685444355010986328 1.7386647462844848633 2.5412147045135498047 2.6001808643341064453 2.4974496364593505859 18.835987091064453125 38.184055328369140625 0.99765986204147338867 1.9688724279403686523 1.9670659303665161133 8.0155582427978515625 1.8546156883239746094 42.065860748291015625 76.0997161865234375 48.84807586669921875 14.926146507263183594 1.4283428192138671875 36.327816009521484375 1.6914584636688232422 1.3129898309707641602 0.58377343416213989258 1.1789366006851196289 0.45572292804718017578 1.1160306930541992188 0.94803887605667114258 1.1302630901336669922 0.89016819000244140625 1.3310118913650512695 1.9975808858871459961 2.3982391357421875 2.0891950130462646484 1.5683748722076416016 1.9433100223541259766 1.9537856578826904297 2.2469615936279296875 0.81793081760406494141 1.0179346799850463867 2.3904483318328857422 2.3309295177459716797 1.8539518117904663086 0.13400000333786010742 
0.13400000333786010742 0.13400000333786010742 0.13400000333786010742 0.26444801688194274902 1.2401304244995117188 1.8526272773742675781 2.0935065746307373047 48.792247772216796875 35.05742645263671875 0.56120812892913818359 0.13400000333786010742 0.13400000333786010742 1.3080320358276367188 1.9121745824813842773 1.8432865142822265625 1.9003319740295410156 1.8460887670516967773 1.8939381837844848633 1.7032670974731445312 1.6913068294525146484 0.88126796483993530273 1.8925164937973022461 0.99383032321929931641 22.322462081909179688 1.4077284336090087891 0.85109889507293701172 24.854974746704101562 38.3935699462890625 67.66687774658203125 64.7237548828125 70.4245147705078125 9.3007459640502929688 22.552110671997070312 1.5670416355133056641 1.3954650163650512695 11.330471038818359375 41.80048370361328125 38.332942962646484375 11.486313819885253906 22.929981231689453125 3.7847115993499755859 1.8245602846145629883 2.3989582061767578125 2.5453667640686035156 1.7582393884658813477 0.38920137286186218262 1.2441992759704589844 2.3924682140350341797 2.5679202079772949219 2.6259655952453613281 2.1880207061767578125 12.758413314819335938 11.361260414123535156 1.933208465576171875 2.0904691219329833984 26.239154815673828125 47.041187286376953125 58.90929412841796875 61.934329986572265625 79.1862945556640625 27.536844253540039062 1.5787731409072875977 1.9045287370681762695 0.6281948089599609375 25.965047836303710938 1.9448136091232299805 1.7664585113525390625 2.0511269569396972656 2.117748260498046875 2.0110561847686767578 1.8342730998992919922 1.5864948034286499023 9.7304983139038085938 52.4305267333984375 1.4448462724685668945 2.4134142398834228516 0.39489600062370300293 1.7101004123687744141 1.9182965755462646484 2.0693891048431396484 2.2154109477996826172 1.0704913139343261719 2.1813497543334960938 2.2096741199493408203 2.1061496734619140625 2.0823328495025634766 0.13400000333786010742 
0.13400000333786010742 0.5092868804931640625 1.1152840852737426758 1.6840883493423461914 1.7583429813385009766 1.1036409139633178711 10.344577789306640625 8.8699789047241210938 1.2744786739349365234 2.2888791561126708984 0.39489600062370300293 0.13400000333786010742 1.8298240900039672852 2.1625852584838867188 2.0352542400360107422 1.9567384719848632812 1.9007314443588256836 1.3126786947250366211 0.94461643695831298828 1.0175859928131103516 0.69014257192611694336 1.5257406234741210938 0.7303053736686706543 0.56754010915756225586 0.71819305419921875 0.56838476657867431641 29.300794601440429688 50.9478302001953125 98.24027252197265625 77.328857421875 42.282009124755859375 19.558887481689453125 8.0560512542724609375 1.464019775390625 1.6610628366470336914 20.453205108642578125 8.8352651596069335938 30.422481536865234375 0.58438754081726074219 0.91426110267639160156 0.36721023917198181152 2.0619833469390869141 2.3887031078338623047 2.2949669361114501953 2.0708279609680175781 0.36427643895149230957 11.903350830078125 16.171657562255859375 2.3885016441345214844 2.4462733268737792969 2.1206417083740234375 1.9244769811630249023 1.9970579147338867188 1.9627482891082763672 1.8993527889251708984 2.2157254219055175781 25.481943130493164062 3.8934960365295410156 37.2205047607421875 72.78411102294921875 1.7929247617721557617 1.9385389089584350586 1.820912480354309082 8.2821493148803710938 0.7301457524299621582 1.0251190662384033203 1.1194654703140258789 1.2095181941986083984 1.2916381359100341797 1.244126439094543457 1.2816737890243530273 1.4732401371002197266 9.431156158447265625 6.109378814697265625 1.9233132600784301758 2.3323340415954589844 0.13400000333786010742 1.4122333526611328125 1.8695701360702514648 1.5749630928039550781 1.9873582124710083008 0.80553483963012695312 2.1635487079620361328 1.5403035879135131836 1.2366273403167724609 2.45751190185546875 0.65579199790954589844 
1.7020322084426879883 1.7967960834503173828 30.99890899658203125 38.43956756591796875 1.2564064264297485352 2.1549632549285888672 1.5738298892974853516 20.721498489379882812 12.877061843872070312 27.878709793090820312 0.39489600062370300293 0.13400000333786010742 1.9464057683944702148 2.1027245521545410156 2.4183824062347412109 2.1634442806243896484 1.6027398109436035156 1.6169173717498779297 1.1427106857299804688 1.6870305538177490234 0.57629007101058959961 1.197198033332824707 0.41899612545967102051 1.2234286069869995117 0.96933990716934204102 1.6914917230606079102 19.233154296875 32.956035614013671875 56.221832275390625 7.1882987022399902344 21.238153457641601562 17.894054412841796875 37.824275970458984375 1.8381605148315429688 1.9493391513824462891 27.862934112548828125 22.1346435546875 39.33154296875 0.57566231489181518555 0.89273101091384887695 6.089748382568359375 6.5848369598388671875 2.5794920921325683594 2.4963026046752929688 2.2176687717437744141 1.4649013280868530273 16.819509506225585938 2.0503127574920654297 2.1952426433563232422 2.7064347267150878906 2.5740292072296142578 2.282459259033203125 2.2689788341522216797 1.9460713863372802734 45.5687103271484375 11.255506515502929688 32.31433868408203125 37.47936248779296875 51.0748291015625 66.934967041015625 1.8186415433883666992 1.958468317985534668 1.1192307472229003906 1.4609582424163818359 1.2511221170425415039 1.739127039909362793 1.4564709663391113281 1.2223409414291381836 1.9559091329574584961 1.0484023094177246094 2.3034236431121826172 1.558124542236328125 1.8049772977828979492 1.3082119226455688477 1.6470605134963989258 2.2772147655487060547 0.13400000333786010742 1.7929835319519042969 1.7200525999069213867 1.9550726413726806641 2.1404485702514648438 1.21504974365234375 0.2454522550106048584 0.13400000333786010742 0.71506208181381225586 2.2530426979064941406 1.2284157276153564453 
1.9664746522903442383 1.7724311351776123047 1.4037098884582519531 13.309576988220214844 1.264496922492980957 2.1535050868988037109 1.7652435302734375 16.142274856567382812 15.874785423278808594 53.106662750244140625 0.13400000333786010742 0.26444801688194274902 1.9205071926116943359 1.5239351987838745117 1.7960355281829833984 1.7937856912612915039 1.8539241552352905273 2.2211680412292480469 0.90026450157165527344 1.8718926906585693359 0.67946523427963256836 25.583217620849609375 1.407397150993347168 1.0111033916473388672 1.1849534511566162109 18.536149978637695312 6.7565112113952636719 16.906337738037109375 35.385894775390625 19.79010772705078125 25.309476852416992188 9.3662958145141601562 41.98018646240234375 1.8934915065765380859 1.8405449390411376953 0.37681248784065246582 0.13400000333786010742 0.13400000333786010742 0.49412506818771362305 1.3983781337738037109 0.13400000333786010742 17.361827850341796875 2.5527062416076660156 2.3696503639221191406 1.9356567859649658203 1.8753743171691894531 0.23619912564754486084 30.74910736083984375 25.2056427001953125 2.3695430755615234375 2.1608512401580810547 2.3818128108978271484 2.4759347438812255859 48.5115203857421875 16.58647918701171875 2.0812661647796630859 16.042196273803710938 66.5686492919921875 66.88483428955078125 77.21099853515625 23.816576004028320312 2.0873491764068603516 1.7496738433837890625 1.4041639566421508789 1.8023698329925537109 1.9385083913803100586 1.699581146240234375 2.0204184055328369141 1.9323549270629882812 1.321493983268737793 1.0049614906311035156 1.381440281867980957 1.8219614028930664062 1.9408779144287109375 1.8254390954971313477 2.1719257831573486328 2.1592745780944824219 2.1649928092956542969 2.0771801471710205078 2.1397585868835449219 2.4961977005004882812 1.2058005332946777344 0.13400000333786010742 0.13400000333786010742 0.82407867908477783203 1.7032802104949951172 2.5678617954254150391 
1.8238731622695922852 1.7972812652587890625 1.2124440670013427734 1.2612191438674926758 1.8749500513076782227 2.3173322677612304688 11.029006004333496094 27.855251312255859375 35.8055267333984375 26.36773681640625 0.13400000333786010742 1.5689280033111572266 1.0851521492004394531 1.8007717132568359375 1.3455626964569091797 2.2112851142883300781 2.293468475341796875 2.2211680412292480469 2.1394217014312744141 1.3904652595520019531 2.1667728424072265625 1.9266809225082397461 21.500581741333007812 1.2040874958038330078 1.4753832817077636719 1.256064295768737793 29.0024871826171875 43.10482025146484375 14.657668113708496094 8.3940258026123046875 17.505435943603515625 17.504083633422851562 34.0635986328125 45.527984619140625 1.1505134105682373047 1.5951454639434814453 0.13400000333786010742 0.13400000333786010742 1.3165596723556518555 14.580003738403320312 21.205430984497070312 19.116352081298828125 2.3137142658233642578 2.7293946743011474609 2.2225658893585205078 0.77312147617340087891 0.92379242181777954102 32.303741455078125 2.5887503623962402344 2.2656383514404296875 2.3416917324066162109 2.3737123012542724609 2.5295054912567138672 13.239370346069335938 4.1209645271301269531 1.9831016063690185547 7.785732269287109375 100.94297027587890625 52.83782958984375 56.3050689697265625 12.389281272888183594 0.90967136621475219727 0.77868288755416870117 1.0514993667602539062 1.4725080728530883789 1.17914581298828125 1.0075935125350952148 1.5539140701293945312 1.9648439884185791016 1.7194082736968994141 0.13400000333786010742 0.13400000333786010742 1.2662701606750488281 1.9499117136001586914 1.6308577060699462891 2.2472586631774902344 2.3234415054321289062 2.6696012020111083984 2.6124913692474365234 2.3593122959136962891 2.6476113796234130859 0.79792022705078125 0.13400000333786010742 0.13400000333786010742 0.13400000333786010742 0.90888345241546630859 2.1762540340423583984 
2.11279296875 1.271685481071472168 7.073028564453125 1.3789213895797729492 1.8223919868469238281 1.9475853443145751953 13.009854316711425781 44.246562957763671875 40.48986053466796875 0.13400000333786010742 1.5482704639434814453 1.7678678035736083984 22.113271713256835938 2.2084205150604248047 1.8080946207046508789 2.2452681064605712891 2.2099394798278808594 2.2785983085632324219 1.8187383413314819336 1.6175247430801391602 1.884266972541809082 1.9880555868148803711 0.50936496257781982422 1.3957296609878540039 1.785769343376159668 1.6028999090194702148 40.7459259033203125 52.8654022216796875 54.16161346435546875 4.2699375152587890625 8.1057710647583007812 10.363003730773925781 29.71295166015625 58.0859222412109375 1.8361005783081054688 0.99485343694686889648 0.34351593255996704102 1.3182480335235595703 2.0038955211639404297 11.808763504028320312 0.52638798952102661133 1.7410705089569091797 2.5238659381866455078 2.4427142143249511719 2.3172440528869628906 1.4173768758773803711 0.24974787235260009766 4.8094892501831054688 2.4333910942077636719 2.1842975616455078125 2.2396607398986816406 2.3667039871215820312 2.3759455680847167969 2.1102132797241210938 2.2118461132049560547 11.935422897338867188 2.2918093204498291016 90.7090301513671875 40.107028961181640625 82.7397308349609375 56.215602874755859375 1.895569920539855957 1.6924779415130615234 1.2061398029327392578 1.6586098670959472656 1.4047446250915527344 1.3629415035247802734 1.8737463951110839844 2.0612864494323730469 2.0248775482177734375 0.53838080167770385742 0.57722693681716918945 2.1422693729400634766 2.0504202842712402344 2.2045109272003173828 30.534793853759765625 1.7642291784286499023 2.7492978572845458984 1.4326701164245605469 2.5230510234832763672 2.6680364608764648438 2.4460084438323974609 1.8797430992126464844 1.8653863668441772461 2.1716609001159667969 1.8665831089019775391 1.0971117019653320312 
2.1798341274261474609 30.2854766845703125 31.348297119140625 8.1994028091430664062 3.1745040416717529297 5.1060118675231933594 22.781158447265625 58.68450164794921875 10.517603874206542969 0.50522595643997192383 1.5158262252807617188 1.2499200105667114258 25.603754043579101562 0.85462898015975952148 1.757882237434387207 2.2099394798278808594 3.3939921855926513672 2.1769845485687255859 2.8918757438659667969 8.3592901229858398438 2.0127441883087158203 1.9638993740081787109 2.1303076744079589844 0.71984958648681640625 1.2493413686752319336 1.9758087396621704102 24.213430404663085938 34.381591796875 49.108722686767578125 13.749770164489746094 1.1745601892471313477 7.741840362548828125 1.738407135009765625 17.0045013427734375 6.4976210594177246094 1.8717257976531982422 1.9736422300338745117 6.3695163726806640625 11.203293800354003906 14.046469688415527344 11.3334808349609375 6.8192000389099121094 2.6252231597900390625 2.7135679721832275391 6.2226204872131347656 15.437070846557617188 0.90700072050094604492 0.57843667268753051758 2.3238434791564941406 1.8270548582077026367 2.3400704860687255859 2.1925685405731201172 2.3718650341033935547 2.4801185131072998047 2.4501564502716064453 2.0024352073669433594 27.007907867431640625 60.6684722900390625 57.75295257568359375 61.796360015869140625 12.277042388916015625 1.8861551284790039062 1.9404461383819580078 1.8356828689575195312 2.2003891468048095703 1.9594776630401611328 1.8389866352081298828 1.9070543050765991211 1.8690371513366699219 1.9026010036468505859 0.6977646946907043457 1.1751242876052856445 2.0418143272399902344 2.068363189697265625 2.0715565681457519531 18.180208206176757812 16.067396163940429688 1.4712550640106201172 1.8010828495025634766 2.4005954265594482422 2.41194915771484375 2.5098090171813964844 2.5235571861267089844 2.4474494457244873047 2.4556002616882324219 1.4949468374252319336 2.3605544567108154297 
1.5980809926986694336 5.6470265388488769531 12.265238761901855469 6.7988581657409667969 25.421190261840820312 17.068368911743164062 16.270122528076171875 0.13400000333786010742 33.309352874755859375 1.3255259990692138672 1.0982537269592285156 23.106401443481445312 2.0619270801544189453 1.2425386905670166016 1.8288550376892089844 2.2211680412292480469 3.8899457454681396484 6.7113728523254394531 1.5011675357818603516 1.9602720737457275391 2.0744912624359130859 1.9987510442733764648 1.9801808595657348633 1.1780638694763183594 21.213741302490234375 16.613897323608398438 45.4559326171875 33.658863067626953125 28.310628890991210938 21.348043441772460938 1.5406079292297363281 42.87955474853515625 38.3551483154296875 8.361194610595703125 1.3878536224365234375 49.372432708740234375 10.078451156616210938 51.483856201171875 49.074291229248046875 25.36508941650390625 33.938594818115234375 2.0311803817749023438 1.8728219270706176758 1.7116160392761230469 16.264303207397460938 42.40424346923828125 15.919269561767578125 1.9412119388580322266 4.0448236465454101562 8.1755733489990234375 2.2135245800018310547 2.2646484375 2.3761334419250488281 2.3266437053680419922 2.2057676315307617188 1.9234970808029174805 29.254100799560546875 64.7010498046875 59.55550384521484375 36.699390411376953125 7.0793719291687011719 1.8855671882629394531 1.8915121555328369141 1.4915672540664672852 0.90499210357666015625 0.97155904769897460938 1.3138408660888671875 1.7966940402984619141 2.0385918617248535156 1.9034337997436523438 0.56948077678680419922 0.77124446630477905273 2.0788314342498779297 2.1419959068298339844 1.9446194171905517578 1.3950231075286865234 1.93814849853515625 1.9063788652420043945 2.3023581504821777344 2.2211680412292480469 2.2211680412292480469 2.3234915733337402344 2.3702819347381591797 2.5502085685729980469 2.5761206150054931641 1.1643779277801513672 2.6634666919708251953 
1.6716144084930419922 1.7949244976043701172 9.8502111434936523438 45.738338470458984375 53.057750701904296875 38.880275726318359375 40.997608184814453125 45.40076446533203125 51.35880279541015625 1.8877526521682739258 1.8739274740219116211 7.3089461326599121094 1.2938365936279296875 1.9175047874450683594 2.027435302734375 2.2211680412292480469 4.4769678115844726562 1.1762791872024536133 1.6756806373596191406 1.7437621355056762695 2.1682169437408447266 2.2606363296508789062 1.7673249244689941406 15.950239181518554688 31.668142318725585938 10.057191848754882812 31.004913330078125 20.035221099853515625 19.076595306396484375 1.0049706697463989258 1.6890480518341064453 24.57381439208984375 38.8433380126953125 1.9995857477188110352 9.4076242446899414062 17.453878402709960938 14.378140449523925781 51.9316558837890625 37.31890869140625 56.93499755859375 72.3817138671875 1.8161560297012329102 6.0018067359924316406 24.000825881958007812 14.28565216064453125 56.281768798828125 32.476284027099609375 4.738887786865234375 2.4498496055603027344 2.2389693260192871094 2.163295745849609375 7.3432850837707519531 1.4263083934783935547 6.0312509536743164062 22.11248016357421875 17.703126907348632812 44.48854827880859375 54.881114959716796875 61.065891265869140625 62.341945648193359375 7.1035532951354980469 1.8453042507171630859 1.4890201091766357422 1.0975465774536132812 1.1247982978820800781 1.2650973796844482422 1.4531649351119995117 1.8408198356628417969 2.0005652904510498047 1.9519523382186889648 0.97517949342727661133 0.48526906967163085938 1.9748122692108154297 2.0033235549926757812 1.1388601064682006836 1.6913781166076660156 1.8649555444717407227 1.9525547027587890625 6.6953110694885253906 2.2211680412292480469 2.2211680412292480469 2.6184623241424560547 1.1251804828643798828 2.7223119735717773438 2.5821733474731445312 1.557332158088684082 2.165485382080078125 
2.2007248401641845703 1.1741570234298706055 0.96358907222747802734 19.254093170166015625 69.08514404296875 16.59685516357421875 27.943195343017578125 42.42369842529296875 1.5195516347885131836 1.9299353361129760742 1.9005436897277832031 2.2052707672119140625 2.2447035312652587891 2.5288677215576171875 2.4312176704406738281 2.3386769294738769531 2.1150808334350585938 1.3238753080368041992 1.7624543905258178711 2.2932324409484863281 2.0530772209167480469 6.0519113540649414062 51.125225067138671875 35.40313720703125 1.6013115644454956055 14.415121078491210938 5.404735565185546875 1.1291213035583496094 1.9308282136917114258 0.78263354301452636719 1.8375611305236816406 11.357144355773925781 57.255687713623046875 40.38932037353515625 14.972899436950683594 33.011287689208984375 71.5560302734375 53.07988739013671875 28.566310882568359375 13.296088218688964844 8.1220073699951171875 22.395824432373046875 9.16066741943359375 19.11055755615234375 19.497438430786132812 37.798587799072265625 7.8823175430297851562 18.235616683959960938 2.2635722160339355469 2.2653295993804931641 2.3265683650970458984 1.6491363048553466797 10.219202995300292969 2.2940571308135986328 5.9956684112548828125 7.4318523406982421875 19.39347076416015625 79.93704986572265625 70.2088165283203125 51.495456695556640625 1.8458312749862670898 1.8759135007858276367 1.7659400701522827148 1.7466323375701904297 1.7925589084625244141 1.3561315536499023438 1.5102003812789916992 1.8685358762741088867 1.9724452495574951172 2.0760600566864013672 1.9834252595901489258 0.3496227562427520752 0.44613388180732727051 0.45815864205360412598 0.73250663280487060547 1.7862514257431030273 0.90144085884094238281 0.38133671879768371582 4.4728837013244628906 2.1899189949035644531 2.2340397834777832031 2.2449707984924316406 2.4497258663177490234 2.4949834346771240234 1.9075043201446533203 1.0331871509552001953 1.8208349943161010742 
2.4859485626220703125 6.5071496963500976562 5.9959259033203125 40.890354156494140625 62.365436553955078125 11.605525016784667969 44.212886810302734375 5.7992653846740722656 1.2307918071746826172 1.9688372611999511719 1.8904763460159301758 2.2121536731719970703 2.2500965595245361328 2.2956533432006835938 2.4171881675720214844 2.2560987472534179688 2.0897383689880371094 1.6346400976181030273 2.3586089611053466797 2.2273654937744140625 2.2372660636901855469 22.759845733642578125 31.52120208740234375 5.5255055427551269531 1.4509408473968505859 1.7148497104644775391 1.7593817710876464844 1.8180440664291381836 7.2805514335632324219 0.84119880199432373047 1.0980427265167236328 1.9440702199935913086 13.521780014038085938 18.871252059936523438 2.097930908203125 8.1683635711669921875 37.058147430419921875 56.89302825927734375 27.030426025390625 7.4099946022033691406 2.0245032310485839844 1.8323177099227905273 5.0415258407592773438 14.938344001770019531 1.1818636655807495117 11.195589065551757812 1.3412899971008300781 9.2737989425659179688 19.753602981567382812 1.4045321941375732422 1.7578296661376953125 1.7374662160873413086 2.2628369331359863281 3.1143805980682373047 44.766193389892578125 35.836193084716796875 41.682163238525390625 58.067211151123046875 52.754337310791015625 67.431304931640625 44.107433319091796875 2.0012056827545166016 1.9568063020706176758 1.7067873477935791016 1.7132490873336791992 2.7351531982421875 2.1034002304077148438 1.9777388572692871094 2.0012910366058349609 2.0630056858062744141 1.9323022365570068359 0.13400000333786010742 0.13400000333786010742 5.2876672744750976562 31.992063522338867188 0.97074967622756958008 0.70902848243713378906 0.46596011519432067871 1.1748356819152832031 1.5883458852767944336 0.90180373191833496094 2.2929704189300537109 2.3647124767303466797 1.5153255462646484375 0.13400000333786010742 1.4740121364593505859 2.5890164375305175781 
1.8489722013473510742 7.8417263031005859375 24.77191925048828125 52.82782745361328125 44.949756622314453125 39.064350128173828125 55.35022735595703125 1.239461064338684082 1.7124373912811279297 1.7864627838134765625 2.1066329479217529297 2.4056518077850341797 2.0056684017181396484 1.9914175271987915039 2.504642486572265625 2.33612823486328125 2.2015938758850097656 2.2003927230834960938 2.2086875438690185547 2.2211680412292480469 2.2211680412292480469 18.48805999755859375 29.846330642700195312 1.9172756671905517578 1.8765801191329956055 1.8420442342758178711 5.3066048622131347656 5.1958374977111816406 42.89319610595703125 0.68882209062576293945 1.4311887025833129883 2.1467132568359375 5.9275383949279785156 38.02152252197265625 8.1927585601806640625 2.2135519981384277344 35.833831787109375 47.772266387939453125 24.709348678588867188 39.75798797607421875 43.05945587158203125 23.880765914916992188 17.1186370849609375 28.325735092163085938 34.518829345703125 49.93819427490234375 16.677051544189453125 0.13400000333786010742 33.541423797607421875 9.3085451126098632812 20.85834503173828125 2.2939970493316650391 2.2333111763000488281 10.12595367431640625 2.0224487781524658203 18.640394210815429688 34.707958221435546875 61.835369110107421875 50.14185333251953125 60.110076904296875 45.840854644775390625 7.1836085319519042969 7.3398680686950683594 8.2038402557373046875 1.9959442615509033203 2.5866510868072509766 2.0923714637756347656 1.9801118373870849609 2.47908782958984375 2.1595203876495361328 2.0686163902282714844 0.77238434553146362305 1.0212194919586181641 25.329315185546875 11.530383110046386719 1.8524109125137329102 1.6769378185272216797 0.58522695302963256836 1.3015476465225219727 1.8000608682632446289 1.6931321620941162109 2.6383519172668457031 1.7963134050369262695 0.13400000333786010742 0.13400000333786010742 1.6033073663711547852 2.1945259571075439453 
2.2761199474334716797 6.3835811614990234375 51.22205352783203125 58.57555389404296875 43.3121337890625 49.123058319091796875 20.320024490356445312 0.69858926534652709961 1.4750032424926757812 1.8696662187576293945 2.0193383693695068359 2.1276671886444091797 2.1314828395843505859 2.0973334312438964844 2.4380557537078857422 2.68921661376953125 2.2399349212646484375 2.2497644424438476562 2.2785983085632324219 2.2211680412292480469 2.2181007862091064453 2.0137248039245605469 11.945270538330078125 1.8741164207458496094 1.8856502771377563477 9.3718137741088867188 40.03985595703125 51.462749481201171875 0.13400000333786010742 1.3493890762329101562 1.9663110971450805664 2.1350584030151367188 2.423675537109375 19.226995468139648438 10.686212539672851562 16.268377304077148438 6.9755096435546875 27.825792312622070312 24.8980865478515625 24.253263473510742188 1.9829254150390625 34.49098968505859375 32.250885009765625 7.5059113502502441406 10.987092018127441406 43.1161346435546875 17.46346282958984375 0.13400000333786010742 61.24382781982421875 18.73046875 1.6823612451553344727 1.0638524293899536133 2.1396205425262451172 10.668512344360351562 22.506628036499023438 57.876434326171875 46.374416351318359375 41.594715118408203125 78.8300628662109375 71.79523468017578125 40.017421722412109375 0.81476551294326782227 5.584369659423828125 1.1041684150695800781 0.86324399709701538086 2.3843569755554199219 2.0617177486419677734 2.3036837577819824219 1.8146686553955078125 1.0216554403305053711 2.1797306537628173828 2.0546922683715820312 3.3255598545074462891 20.553409576416015625 2.3101444244384765625 1.4972516298294067383 0.8625583648681640625 1.01036834716796875 1.6069467067718505859 1.831462860107421875 2.0477700233459472656 2.5311489105224609375 1.958462834358215332 0.13400000333786010742 0.26444801688194274902 1.8803029060363769531 1.9403325319290161133 
1.6741999387741088867 43.41857147216796875 52.00447845458984375 18.736948013305664062 30.2783355712890625 40.272796630859375 32.74066162109375 1.2965031862258911133 1.5705010890960693359 2.1868946552276611328 2.3375911712646484375 2.5295248031616210938 2.3878235816955566406 2.5385200977325439453 2.5257639884948730469 2.1867861747741699219 2.2019343376159667969 2.2211680412292480469 2.2211680412292480469 2.2868108749389648438 2.4443099498748779297 2.2490403652191162109 1.9078905582427978516 1.8818546533584594727 12.931169509887695312 55.0970916748046875 46.160831451416015625 62.397663116455078125 40.365077972412109375 1.3762252330780029297 2.0084040164947509766 1.9885921478271484375 15.958903312683105469 26.203294754028320312 23.587589263916015625 14.712534904479980469 27.59759521484375 23.218469619750976562 40.382595062255859375 1.9026166200637817383 22.363164901733398438 12.363138198852539062 2.1218400001525878906 1.9589142799377441406 2.0471487045288085938 27.008090972900390625 6.9082760810852050781 37.502651214599609375 46.92514801025390625 3.3274471759796142578 0.95362031459808349609 1.845955967903137207 12.41803741455078125 28.27457427978515625 18.048511505126953125 26.259761810302734375 57.098262786865234375 81.2566070556640625 43.18939971923828125 77.2824554443359375 42.06803131103515625 20.399469375610351562 1.6983584165573120117 0.90913486480712890625 1.1477527618408203125 1.3412861824035644531 1.1557478904724121094 1.6240372657775878906 1.0983216762542724609 0.72005903720855712891 1.3100366592407226562 1.5045219659805297852 1.9516898393630981445 14.586188316345214844 18.019886016845703125 1.1709028482437133789 0.45124465227127075195 0.68099647760391235352 0.85189402103424072266 1.116551518440246582 1.6169530153274536133 2.0420315265655517578 1.3791052103042602539 0.13400000333786010742 0.65579199790954589844 1.8533128499984741211 1.9403325319290161133 
13.084891319274902344 69.75601959228515625 42.887668609619140625 1.8334001302719116211 48.944652557373046875 34.61908721923828125 27.222393035888671875 1.2161904573440551758 1.6664415597915649414 2.0400137901306152344 2.0867021083831787109 2.2926146984100341797 2.5385200977325439453 2.3430428504943847656 2.5485064983367919922 2.2099394798278808594 2.3625016212463378906 2.1828067302703857422 2.3373448848724365234 2.1220915317535400391 1.9561567306518554688 2.0034468173980712891 2.0075869560241699219 30.065626144409179688 15.089647293090820312 57.53347015380859375 3.1960093975067138672 72.4249114990234375 6.6734395027160644531 1.8478820323944091797 2.3250346183776855469 24.86681365966796875 35.0077362060546875 1.7941685914993286133 16.599191665649414062 11.758521080017089844 6.9358463287353515625 14.089737892150878906 14.911032676696777344 1.9367276430130004883 10.550553321838378906 1.811763763427734375 1.7442368268966674805 1.8325570821762084961 8.5471601486206054688 25.707141876220703125 10.419657707214355469 49.64279937744140625 0.13400000333786010742 0.13400000333786010742 0.58170801401138305664 1.5365271568298339844 2.4179863929748535156 2.5262112617492675781 2.3555231094360351562 29.195440292358398438 79.07709503173828125 85.705535888671875 33.063251495361328125 12.461254119873046875 17.396482467651367188 12.16977691650390625 1.9966292381286621094 1.0635056495666503906 1.5166959762573242188 1.8170578479766845703 1.8416807651519775391 1.5445177555084228516 1.9564239978790283203 1.9078148603439331055 2.1468017101287841797 5.7598528861999511719 9.1563367843627929688 6.116481781005859375 2.6903226375579833984 1.2981170415878295898 1.5698132514953613281 1.7161819934844970703 1.2598532438278198242 0.93154299259185791016 1.3424112796783447266 1.823361515998840332 1.2373980283737182617 0.13400000333786010742 0.13400000333786010742 0.84755754470825195312 1.9125752449035644531 
27.9810028076171875 62.719776153564453125 33.956714630126953125 1.9298912286758422852 17.66948699951171875 39.4129791259765625 54.678272247314453125 1.705668330192565918 1.738049626350402832 2.2210242748260498047 2.1672682762145996094 2.2480299472808837891 2.4041781425476074219 2.2873589992523193359 2.5436260700225830078 2.2408599853515625 2.5354971885681152344 2.2812426090240478516 11.53563690185546875 33.09346771240234375 1.9312167167663574219 1.9831137657165527344 30.2080535888671875 27.915216445922851562 1.8810325860977172852 1.7218047380447387695 8.5816497802734375 30.198284149169921875 8.2391977310180664062 2.0322670936584472656 1.7958084344863891602 60.41480255126953125 40.276042938232421875 1.1689587831497192383 1.1306263208389282227 0.13400000333786010742 1.4932216405868530273 1.6339612007141113281 1.8709665536880493164 1.3388272523880004883 1.7059442996978759766 1.8884580135345458984 1.6853688955307006836 12.007486343383789062 29.4348602294921875 3.8461630344390869141 4.1297535896301269531 15.331150054931640625 0.79944837093353271484 1.5314087867736816406 0.46596011519432067871 0.55311018228530883789 2.2762422561645507812 2.313762664794921875 2.3745365142822265625 7.9571666717529296875 71.6915740966796875 79.020355224609375 66.4101409912109375 6.7729315757751464844 2.0378572940826416016 1.5107277631759643555 1.3328626155853271484 1.7641634941101074219 1.6216181516647338867 0.82651913166046142578 1.1971396207809448242 1.9478049278259277344 1.9064784049987792969 2.0632038116455078125 2.2587170600891113281 2.0250139236450195312 2.4498269557952880859 1.7360640764236450195 1.9464699029922485352 2.0347383022308349609 1.5633100271224975586 1.5328910350799560547 1.3703501224517822266 1.5756171941757202148 1.9815697669982910156 1.6537904739379882812 1.7144598960876464844 1.4521226882934570312 0.52534401416778564453 2.048923492431640625 1.9403325319290161133 
50.244091033935546875 66.02787017822265625 9.8243227005004882812 1.9370520114898681641 7.3068776130676269531 44.433734893798828125 62.607944488525390625 55.2853546142578125 1.8238465785980224609 1.927248835563659668 2.0918819904327392578 2.1300427913665771484 2.2717440128326416016 2.7449002265930175781 2.677150726318359375 2.6248745918273925781 2.7230896949768066406 2.3289918899536132812 11.134312629699707031 31.686975479125976562 2.0344674587249755859 7.2898411750793457031 21.262075424194335938 43.738246917724609375 2.2402472496032714844 18.411182403564453125 16.242849349975585938 4.3048233985900878906 5.3091273307800292969 1.7214134931564331055 1.6568480730056762695 61.448947906494140625 23.172901153564453125 1.8831840753555297852 1.4508119821548461914 0.13400000333786010742 0.45653751492500305176 2.5558350086212158203 1.9016488790512084961 15.375882148742675781 2.0851290225982666016 1.5770623683929443359 1.6200007200241088867 1.7147991657257080078 1.9346954822540283203 2.7244915962219238281 1.4628235101699829102 1.2901294231414794922 1.81087493896484375 0.46452388167381286621 0.6319401860237121582 1.6431148052215576172 2.1275041103363037109 1.5834658145904541016 2.3267905712127685547 31.616489410400390625 28.240343093872070312 36.69742584228515625 33.1114501953125 1.9473961591720581055 13.667057991027832031 21.583948135375976562 7.2408738136291503906 1.950028538703918457 4.4822297096252441406 43.90663909912109375 16.8714447021484375 1.9928165674209594727 1.9812090396881103516 2.1047465801239013672 2.1276936531066894531 2.0047628879547119141 2.0866835117340087891 1.7385528087615966797 0.90422409772872924805 1.1575841903686523438 0.48941442370414733887 0.58259433507919311523 0.47133007645606994629 0.93411105871200561523 0.80502468347549438477 19.06871795654296875 4.0054430961608886719 8.7734994888305664062 1.0286786556243896484 1.5962804555892944336 1.8686029911041259766 
66.620574951171875 31.552083969116210938 1.9344377517700195312 2.0892953872680664062 2.0381059646606445312 2.0470523834228515625 67.57062530517578125 69.73177337646484375 53.360591888427734375 1.8295687437057495117 2.0863451957702636719 2.0025925636291503906 2.1066007614135742188 2.0544605255126953125 2.3150889873504638672 2.1431345939636230469 2.2624182701110839844 2.0296254158020019531 2.3912754058837890625 5.3829431533813476562 2.0001969337463378906 2.3503479957580566406 15.727562904357910156 22.529666900634765625 5.0531764030456542969 6.5199718475341796875 5.3709044456481933594 1.7529162168502807617 1.4643671512603759766 2.2596826553344726562 25.89801025390625 13.495936393737792969 1.2842367887496948242 2.0468590259552001953 1.5514020919799804688 2.0643293857574462891 0.13400000333786010742 2.0971324443817138672 6.1508464813232421875 4.8174500465393066406 1.9609950780868530273 1.759990692138671875 1.4233702421188354492 1.7718569040298461914 2.0425043106079101562 2.5715529918670654297 2.0803539752960205078 2.0254564285278320312 0.64048433303833007812 0.13400000333786010742 1.6145558357238769531 2.0394120216369628906 1.7866613864898681641 0.76753652095794677734 1.4191632270812988281 2.5116736888885498047 2.1423840522766113281 32.3257598876953125 26.31381988525390625 46.537265777587890625 29.333784103393554688 47.04534912109375 46.158214569091796875 8.98163604736328125 16.236925125122070312 6.8897728919982910156 54.798404693603515625 5.3987145423889160156 2.3193361759185791016 2.1037461757659912109 2.1633777618408203125 1.8939775228500366211 1.265263676643371582 2.5270557403564453125 1.708695530891418457 1.2539267539978027344 0.13400000333786010742 0.51411551237106323242 0.13400000333786010742 1.3435862064361572266 1.6348885297775268555 5.7119212150573730469 9.7054891586303710938 6.1630029678344726562 1.6844971179962158203 0.13400000333786010742 0.13400000333786010742 
69.79084014892578125 16.184019088745117188 2.7394487857818603516 2.6802213191986083984 2.5222885608673095703 2.0918390750885009766 31.64434051513671875 63.5188140869140625 46.237339019775390625 1.7796498537063598633 1.8474669456481933594 1.9912216663360595703 2.0212829113006591797 2.0968534946441650391 2.0833683013916015625 2.0227284431457519531 1.8732621669769287109 1.837189793586730957 2.2735331058502197266 2.0435576438903808594 2.0798106193542480469 2.3926248550415039062 27.417144775390625 18.15589141845703125 19.217227935791015625 32.331119537353515625 0.76490628719329833984 14.685429573059082031 4.977935791015625 17.766880035400390625 51.32479095458984375 18.108264923095703125 9.28957366943359375 1.0123099088668823242 1.2518751621246337891 1.9895213842391967773 1.2585865259170532227 2.1198687553405761719 1.9824802875518798828 1.4005254507064819336 1.2009503841400146484 0.88876897096633911133 1.3752580881118774414 1.6246684789657592773 1.9141635894775390625 2.0524950027465820312 2.0011501312255859375 9.834323883056640625 0.13400000333786010742 0.255199432373046875 1.163075566291809082 1.1528452634811401367 0.60982054471969604492 0.13400000333786010742 1.2126142978668212891 2.3093645572662353516 5.4861044883728027344 13.711015701293945312 67.25414276123046875 88.4046783447265625 54.499530792236328125 24.311100006103515625 25.184392929077148438 52.429828643798828125 27.858991622924804688 37.546672821044921875 65.69257354736328125 33.645145416259765625 2.2867085933685302734 8.0797977447509765625 2.3035962581634521484 2.2888891696929931641 2.0954496860504150391 2.1542444229125976562 1.1737711429595947266 1.2968034744262695312 2.7271058559417724609 3.1525483131408691406 0.50724905729293823242 1.5834016799926757812 1.1542088985443115234 1.6076977252960205078 2.1438646316528320312 1.3342401981353759766 1.8949782848358154297 0.68181091547012329102 0.13400000333786010742 
67.2625579833984375 15.058977127075195312 2.5880117416381835938 2.4157428741455078125 2.4868068695068359375 2.652622222900390625 45.75775909423828125 26.3457489013671875 46.355319976806640625 59.19788360595703125 18.479627609252929688 1.8965193033218383789 2.0449576377868652344 2.1013219356536865234 2.3103213310241699219 2.0345957279205322266 1.948229670524597168 1.8027604818344116211 2.1132414340972900391 2.0886867046356201172 1.9782297611236572266 13.160212516784667969 53.726070404052734375 6.7446036338806152344 23.74626922607421875 6.7480902671813964844 1.5240886211395263672 9.9605932235717773438 1.5026603937149047852 32.942607879638671875 38.532184600830078125 7.8649048805236816406 36.388149261474609375 20.375288009643554688 2.2494590282440185547 2.2009725570678710938 2.2381069660186767578 10.3709259033203125 1.8861799240112304688 0.95786917209625244141 1.0447335243225097656 1.0235414505004882812 11.536337852478027344 1.4635568857192993164 1.8733122348785400391 2.1568768024444580078 7.5903882980346679688 1.5607893466949462891 0.13400000333786010742 0.37639886140823364258 1.9319467544555664062 0.42432051897048950195 0.92430442571640014648 0.13400000333786010742 1.0980533361434936523 2.0869977474212646484 2.0353958606719970703 25.69319915771484375 68.40814208984375 70.2285614013671875 53.19854736328125 5.6646571159362792969 2.6027357578277587891 21.511547088623046875 42.83222198486328125 20.05988311767578125 7.976131439208984375 31.711208343505859375 39.89922332763671875 41.902843475341796875 12.728631019592285156 2.1107649803161621094 2.6322054862976074219 1.1496649980545043945 1.776585698127746582 0.83078557252883911133 4.7589178085327148438 12.530439376831054688 1.7063680887222290039 1.5243877172470092773 0.26444801688194274902 2.2522614002227783203 2.1196014881134033203 0.79247808456420898438 1.3417408466339111328 0.68867915868759155273 0.13400000333786010742 
42.157306671142578125 11.613817214965820312 2.5120465755462646484 2.3527016639709472656 2.4592978954315185547 2.5383849143981933594 22.87831878662109375 1.9541802406311035156 1.8541996479034423828 66.2871856689453125 48.393039703369140625 11.101358413696289062 1.9118798971176147461 2.1300427913665771484 2.5043094158172607422 2.2810235023498535156 2.3332526683807373047 2.1347522735595703125 2.2719259262084960938 2.1966481208801269531 7.0210804939270019531 52.594631195068359375 35.990139007568359375 1.7745071649551391602 1.4217544794082641602 1.3903634548187255859 7.4625368118286132812 1.9153096675872802734 1.5741227865219116211 2.0921177864074707031 3.33243560791015625 12.866770744323730469 1.6374033689498901367 13.417534828186035156 1.6040071249008178711 1.6496465206146240234 7.1593699455261230469 7.0637483596801757812 1.1039246320724487305 1.6388809680938720703 1.2208962440490722656 1.2564488649368286133 0.33839824795722961426 1.1635377407073974609 2.0423638820648193359 2.0213751792907714844 6.3955984115600585938 0.13400000333786010742 0.13400000333786010742 0.91650635004043579102 1.6242636442184448242 1.6826370954513549805 1.8544838428497314453 0.13400000333786010742 0.40214139223098754883 1.3357299566268920898 2.0211701393127441406 19.364248275756835938 79.55013275146484375 70.16004180908203125 36.05512237548828125 3.260562896728515625 2.3288776874542236328 3.3628938198089599609 3.2577917575836181641 2.3235809803009033203 2.0758707523345947266 1.8546106815338134766 11.049773216247558594 35.282550811767578125 27.53246307373046875 2.0020689964294433594 2.4872756004333496094 2.1996099948883056641 1.9776004552841186523 1.3622887134552001953 2.1136763095855712891 1.9168246984481811523 1.4676069021224975586 2.2329015731811523438 0.52534401416778564453 1.346058964729309082 2.24785614013671875 2.0980317592620849609 1.8990650177001953125 1.6460765600204467773 1.053532719612121582 
59.181201934814453125 27.30352783203125 2.3699183464050292969 2.4157428741455078125 2.4868068695068359375 2.4091207981109619141 2.2471382617950439453 2.0702741146087646484 1.8840562105178833008 61.1446685791015625 70.344207763671875 1.8828092813491821289 2.0054633617401123047 2.2011456489562988281 2.4113581180572509766 2.3862175941467285156 2.3869497776031494141 2.1271915435791015625 2.3754322528839111328 5.1423969268798828125 36.79039764404296875 12.428697586059570312 1.9993289709091186523 1.8858443498611450195 1.3529571294784545898 2.2452681064605712891 3.1673600673675537109 1.9155656099319458008 1.7960850000381469727 25.680583953857421875 7.6220941543579101562 26.308774948120117188 0.57104194164276123047 1.7467865943908691406 1.315442204475402832 1.1752066612243652344 1.7477309703826904297 0.38019588589668273926 1.6376004219055175781 1.1603692770004272461 1.8296452760696411133 1.8173159360885620117 1.4188648462295532227 1.9968456029891967773 2.0677905082702636719 4.4346947669982910156 1.7893189191818237305 0.35120737552642822266 0.3494656682014465332 1.8590762615203857422 1.2574956417083740234 0.13400000333786010742 0.13400000333786010742 1.8032305240631103516 1.9223415851593017578 0.73754382133483886719 1.1488343477249145508 1.1765195131301879883 47.061809539794921875 78.78696441650390625 21.412729263305664062 24.176443099975585938 14.859465599060058594 2.1603937149047851562 2.1888639926910400391 2.1512739658355712891 2.0391356945037841797 2.0226495265960693359 1.6707150936126708984 2.0682964324951171875 0.8420893549919128418 1.9955785274505615234 2.2981903553009033203 1.8375147581100463867 1.4325853586196899414 1.2218073606491088867 1.2283167839050292969 1.2232329845428466797 1.652492523193359375 1.243138432502746582 1.5493241548538208008 1.0958634614944458008 0.3999322354793548584 0.90329229831695556641 1.6605004072189331055 1.571473240852355957 0.13400000333786010742 
14.2181243896484375 2.2558641433715820312 2.4630131721496582031 2.4557423591613769531 2.383579254150390625 2.5779659748077392578 2.4775464534759521484 1.9786956310272216797 1.8921687602996826172 58.971649169921875 49.30252838134765625 34.3771820068359375 2.0324585437774658203 2.0440728664398193359 2.1730387210845947266 1.9749594926834106445 2.4450538158416748047 2.1060149669647216797 2.3769366741180419922 27.82285308837890625 18.2692718505859375 1.9988830089569091797 3.1656181812286376953 5.4910326004028320312 1.6718541383743286133 2.3633565902709960938 1.5946220159530639648 2.1831195354461669922 2.4740035533905029297 2.3520534038543701172 2.1608135700225830078 2.1130719184875488281 0.35857793688774108887 0.72015982866287231445 1.1738170385360717773 1.2937797307968139648 10.452420234680175781 1.0638524293899536133 1.2413123846054077148 1.0636119842529296875 2.1885323524475097656 0.66586446762084960938 1.4586249589920043945 1.8243328332901000977 2.3645186424255371094 2.1199183464050292969 0.96043449640274047852 0.13400000333786010742 1.317633509635925293 2.2692482471466064453 1.8749434947967529297 1.0024323463439941406 2.1126952171325683594 2.5980527400970458984 2.0250055789947509766 1.470062255859375 1.8426314592361450195 1.9330847263336181641 62.744129180908203125 52.023387908935546875 26.81465911865234375 44.7580108642578125 20.732122421264648438 13.828175544738769531 2.2106804847717285156 2.3235044479370117188 11.618966102600097656 27.664402008056640625 35.788761138916015625 0.23896737396717071533 0.3721415102481842041 1.7922184467315673828 1.9888306856155395508 2.1934907436370849609 1.8760548830032348633 1.7144409418106079102 1.7939411401748657227 1.7727199792861938477 1.7249945402145385742 1.0650681257247924805 0.89656996726989746094 1.2490403652191162109 1.5767567157745361328 2.0102171897888183594 1.59127044677734375 0.85573399066925048828 0.13400000333786010742 
2.3673770427703857422 2.3278951644897460938 2.4054453372955322266 2.2420110702514648438 2.4765896797180175781 2.5637571811676025391 2.2875177860260009766 1.9769288301467895508 26.822797775268554688 46.57916259765625 57.060703277587890625 57.799983978271484375 6.5721507072448730469 2.0302345752716064453 2.0482792854309082031 2.2803206443786621094 2.3253998756408691406 2.1600170135498046875 2.2933084964752197266 18.331783294677734375 11.075303077697753906 2.0081186294555664062 7.6685833930969238281 2.2470149993896484375 24.055978775024414062 6.1638016700744628906 1.424296259880065918 11.228287696838378906 42.433887481689453125 10.182187080383300781 29.851865768432617188 25.190776824951171875 0.73247241973876953125 0.69312393665313720703 0.33796861767768859863 0.35983461141586303711 1.4963891506195068359 0.87698137760162353516 1.8730809688568115234 9.667285919189453125 33.258777618408203125 0.58538746833801269531 1.6833728551864624023 1.453435063362121582 4.586917877197265625 1.9651081562042236328 2.3683645725250244141 0.71575725078582763672 2.0662593841552734375 1.87935638427734375 1.7724001407623291016 2.3315832614898681641 2.6058843135833740234 2.51197052001953125 19.329280853271484375 7.9806551933288574219 1.9375041723251342773 42.1191253662109375 76.03131866455078125 74.04383087158203125 58.494205474853515625 25.798519134521484375 27.808401107788085938 21.988803863525390625 3.3139975070953369141 2.3435802459716796875 15.377229690551757812 12.449453353881835938 1.2506072521209716797 6.9764618873596191406 11.161573410034179688 0.51150113344192504883 1.6755241155624389648 1.3571956157684326172 1.4831016063690185547 1.0017377138137817383 1.3889756202697753906 1.2719371318817138672 0.92377054691314697266 1.1215211153030395508 0.79668122529983520508 1.8894572257995605469 2.0440349578857421875 1.9058685302734375 2.1517047882080078125 2.1240513324737548828 1.9165983200073242188 
2.2562830448150634766 2.1945891380310058594 2.1905252933502197266 2.2058467864990234375 2.1943323612213134766 2.0029065608978271484 18.185209274291992188 56.477313995361328125 40.762157440185546875 33.521480560302734375 21.3477325439453125 7.7920088768005371094 14.206165313720703125 2.0823380947113037109 2.0047543048858642578 1.9014177322387695312 2.2748546600341796875 1.9456651210784912109 6.3114705085754394531 2.1623537540435791016 2.7376654148101806641 2.3707082271575927734 2.6479170322418212891 2.6965501308441162109 5.8288125991821289062 0.26444801688194274902 8.0534276962280273438 14.980562210083007812 10.061473846435546875 2.23586273193359375 7.2324299812316894531 16.773088455200195312 1.3367000818252563477 0.38105311989784240723 1.8030022382736206055 0.53238725662231445312 1.0399661064147949219 1.5116182565689086914 6.2932138442993164062 17.853063583374023438 20.628557205200195312 1.1663309335708618164 1.2527406215667724609 0.98860889673233032227 1.4564522504806518555 2.4502041339874267578 2.229999542236328125 1.615755915641784668 2.079433441162109375 2.0520610809326171875 2.1561331748962402344 2.1900165081024169922 2.4394838809967041016 2.3997328281402587891 2.0091533660888671875 42.84918975830078125 44.89263153076171875 21.1920166015625 22.825017929077148438 1.4690256118774414062 0.86572676897048950195 1.0638524293899536133 2.973297119140625 1.2120512723922729492 1.114851832389831543 1.7350946664810180664 54.78945159912109375 9.5186176300048828125 1.3097933530807495117 1.1797796487808227539 6.3941264152526855469 0.13400000333786010742 0.37324181199073791504 1.1363320350646972656 1.7672822475433349609 1.8456485271453857422 1.2551326751708984375 1.1676909923553466797 0.35844999551773071289 0.25540626049041748047 0.85030835866928100586 6.7678236961364746094 21.420795440673828125 1.806559443473815918 1.5128548145294189453 2.0777873992919921875 2.0662381649017333984 
3.8275814056396484375 2.1616861820220947266 2.2211680412292480469 2.1905252933502197266 2.2348942756652832031 2.17662811279296875 24.145017623901367188 61.0655975341796875 54.51848602294921875 36.562530517578125 8.5329446792602539062 2.1882982254028320312 2.0582296848297119141 1.9606657028198242188 1.7391184568405151367 0.76500403881072998047 1.8217036724090576172 1.9004392623901367188 2.1464633941650390625 2.5490331649780273438 2.6842236518859863281 2.3023333549499511719 2.6673939228057861328 2.2937302589416503906 2.1916170120239257812 0.74339240789413452148 2.3151671886444091797 2.3155279159545898438 1.1901705265045166016 6.6583390235900878906 36.140716552734375 37.69457244873046875 42.605316162109375 0.85754781961441040039 1.1424795389175415039 1.5768232345581054688 1.9158930778503417969 2.0152442455291748047 38.578754425048828125 14.048579216003417969 23.202184677124023438 12.356637954711914062 1.1712024211883544922 1.0390667915344238281 1.3510975837707519531 16.800951004028320312 1.900315403938293457 1.900424957275390625 2.2128400802612304688 2.2527701854705810547 2.3479244709014892578 2.3673996925354003906 1.9700322151184082031 1.7986556291580200195 16.103719711303710938 65.71429443359375 70.74323272705078125 9.1437997817993164062 57.439853668212890625 38.85857391357421875 13.166375160217285156 0.98775213956832885742 0.91274207830429077148 0.67694211006164550781 1.9986375570297241211 1.6907509565353393555 16.46762847900390625 1.5248640775680541992 0.45723888278007507324 2.1368269920349121094 4.9675416946411132812 0.52874356508255004883 0.817047119140625 0.84079730510711669922 1.1600978374481201172 1.0828191041946411133 0.69430893659591674805 0.76037061214447021484 0.55052924156188964844 1.3089997768402099609 1.5796848535537719727 2.0664417743682861328 2.0651447772979736328 1.3436131477355957031 2.2494564056396484375 1.9841964244842529297 1.0436409711837768555 
10.748950004577636719 2.1835501194000244141 2.1905252933502197266 2.2058467864990234375 2.2107129096984863281 2.0725140571594238281 20.498746871948242188 58.932041168212890625 50.97589111328125 11.158295631408691406 6.3764643669128417969 2.0280640125274658203 2.1165297031402587891 1.6875391006469726562 1.7654814720153808594 2.1628556251525878906 1.8837332725524902344 2.0582602024078369141 2.4828891754150390625 2.6276488304138183594 2.3749408721923828125 1.9879895448684692383 1.1716238260269165039 1.7360823154449462891 1.8523266315460205078 1.9435503482818603516 0.72164559364318847656 3.7837312221527099609 0.23725056648254394531 0.57741236686706542969 7.6650791168212890625 49.31642913818359375 35.19083404541015625 6.0769295692443847656 9.4430990219116210938 2.0198001861572265625 1.6675475835800170898 9.277374267578125 32.945209503173828125 0.36941537261009216309 0.60904014110565185547 2.0833551883697509766 2.5026574134826660156 1.1218360662460327148 5.9550237655639648438 8.9266290664672851562 1.7900429964065551758 1.9409183263778686523 1.9739722013473510742 2.0102725028991699219 2.2005660533905029297 2.0627102851867675781 1.9052431583404541016 49.4932098388671875 36.51885986328125 40.139430999755859375 2.0001199245452880859 17.262754440307617188 55.20932769775390625 23.4383544921875 1.4229996204376220703 0.87577867507934570312 1.0659201145172119141 1.6515967845916748047 0.68658494949340820312 18.925457000732421875 40.157688140869140625 27.317598342895507812 0.26444801688194274902 3.5315494537353515625 19.622226715087890625 1.9485999345779418945 0.57293343544006347656 1.1375358104705810547 0.36888080835342407227 9.9508514404296875 5.8286423683166503906 1.1057065725326538086 1.0197564363479614258 0.78624004125595092773 1.9731436967849731445 2.0838801860809326172 2.1210048198699951172 1.1217654943466186523 2.2149014472961425781 1.5166556835174560547 0.79792022705078125 
6.1903142929077148438 2.2387256622314453125 2.2693681716918945312 2.2131628990173339844 2.4241397380828857422 2.3074736595153808594 37.366275787353515625 53.196826934814453125 17.118236541748046875 2.2674479484558105469 5.8873968124389648438 0.93295955657958984375 0.74619179964065551758 0.26444801688194274902 0.76211154460906982422 2.1043875217437744141 1.906407475471496582 2.2250332832336425781 2.7186076641082763672 2.5836241245269775391 2.5054502487182617188 1.5871143341064453125 1.7924129962921142578 1.8281877040863037109 0.94157361984252929688 33.597133636474609375 4.9065990447998046875 0.81829679012298583984 0.13400000333786010742 9.5127210617065429688 41.57379913330078125 48.220855712890625 6.2854032516479492188 17.783578872680664062 21.628206253051757812 1.1221443414688110352 0.13400000333786010742 1.0637165307998657227 28.925563812255859375 27.3227081298828125 0.27395650744438171387 1.1907281875610351562 2.1770815849304199219 16.296092987060546875 1.9313957691192626953 1.9156321287155151367 28.27191925048828125 1.9271141290664672852 1.875568389892578125 1.8739353418350219727 1.8843330144882202148 2.0191986560821533203 1.9165663719177246094 51.974567413330078125 26.192213058471679688 7.0632886886596679688 1.2163381576538085938 1.469220280647277832 20.418609619140625 22.220476150512695312 1.37445068359375 1.1352972984313964844 0.9450575709342956543 1.1560361385345458984 7.243450164794921875 41.0502777099609375 20.955011367797851562 51.86573028564453125 8.9047565460205078125 4.9409508705139160156 0.72468864917755126953 0.37374037504196166992 0.13400000333786010742 0.13400000333786010742 0.91668802499771118164 19.177820205688476562 1.5355156660079956055 1.343963623046875 0.62446284294128417969 1.0588154792785644531 1.7042865753173828125 2.1416327953338623047 2.2188422679901123047 1.5753237009048461914 1.6629936695098876953 1.2130930423736572266 0.96152824163436889648 
26.990352630615234375 2.1608607769012451172 2.3282845020294189453 2.2648665904998779297 2.1130189895629882812 11.052557945251464844 65.852630615234375 37.72235107421875 4.9391965866088867188 2.2997331619262695312 2.2053577899932861328 1.9092317819595336914 1.3031827211380004883 1.2508438825607299805 1.1863837242126464844 2.0533964633941650391 1.8623600006103515625 2.0319190025329589844 3.8373155593872070312 22.945219039916992188 2.2283253669738769531 1.1980187892913818359 1.3813844919204711914 0.80271351337432861328 1.1626257896423339844 1.5949625968933105469 0.76177436113357543945 1.7288045883178710938 0.65953826904296875 12.775071144104003906 31.4835052490234375 24.751142501831054688 19.274044036865234375 10.919948577880859375 1.9615702629089355469 0.67887252569198608398 0.48186135292053222656 24.31035614013671875 50.5811309814453125 16.643949508666992188 0.32829755544662475586 1.9211776256561279297 9.193981170654296875 10.479694366455078125 1.8910409212112426758 1.9625952243804931641 1.9254969358444213867 15.386382102966308594 1.9093354940414428711 1.8958837985992431641 1.8747353553771972656 36.72843170166015625 54.4712677001953125 6.7798223495483398438 7.6741137504577636719 1.6101472377777099609 1.3068380355834960938 27.049283981323242188 56.718730926513671875 50.368679046630859375 1.0682847499847412109 0.97024071216583251953 0.55699288845062255859 11.745806694030761719 26.680845260620117188 25.126977920532226562 24.109928131103515625 31.31980133056640625 8.20957183837890625 1.7338433265686035156 0.13400000333786010742 0.13400000333786010742 0.13400000333786010742 0.13400000333786010742 0.26444801688194274902 1.2486481666564941406 0.63618820905685424805 0.93057096004486083984 1.9311956167221069336 1.3851463794708251953 1.1690747737884521484 1.9780690670013427734 2.2069654464721679688 2.0861227512359619141 1.9163721799850463867 1.5754954814910888672 1.4448021650314331055 
2.1795237064361572266 2.3322582244873046875 2.5442025661468505859 2.2568111419677734375 7.4942402839660644531 37.093135833740234375 44.814746856689453125 2.0348689556121826172 2.4097971916198730469 2.0924806594848632812 1.8346267938613891602 1.0538336038589477539 1.2646018266677856445 1.1884151697158813477 5.8158435821533203125 29.712457656860351562 1.8644969463348388672 38.40985107421875 5.8573193550109863281 2.3467161655426025391 2.4893434047698974609 4.5428061485290527344 0.85609340667724609375 1.8266978263854980469 1.5682058334350585938 1.4433242082595825195 0.74283313751220703125 0.90472912788391113281 0.13400000333786010742 21.507892608642578125 10.4407196044921875 1.0507857799530029297 1.0427062511444091797 1.7127860784530639648 1.5358878374099731445 1.1163506507873535156 0.8190352320671081543 27.60504150390625 2.1983153820037841797 0.39489600062370300293 1.058186650276184082 1.9081529378890991211 2.0200037956237792969 2.3122351169586181641 5.85466766357421875 1.9824895858764648438 2.0040421485900878906 2.0547068119049072266 61.268833160400390625 28.64141845703125 1.9017422199249267578 43.756435394287109375 67.31139373779296875 43.60031890869140625 60.767810821533203125 1.5634391307830810547 12.487969398498535156 55.66291046142578125 34.273105621337890625 43.135768890380859375 1.2728834152221679688 1.5947357416152954102 2.4697129726409912109 2.2007501125335693359 1.9978053569793701172 2.3155355453491210938 12.910718917846679688 26.195690155029296875 2.0922138690948486328 2.2828218936920166016 0.25060513615608215332 0.13400000333786010742 0.13400000333786010742 0.13400000333786010742 0.13400000333786010742 0.65579199790954589844 0.63031136989593505859 1.1895592212677001953 1.14144134521484375 1.7798788547515869141 1.3837726116180419922 2.2114233970642089844 1.8749655485153198242 2.1120131015777587891 2.1028342247009277344 0.9271030426025390625 1.0386672019958496094 
2.7896809577941894531 2.7394487857818603516 2.4456071853637695312 2.0343737602233886719 44.259807586669921875 50.35279083251953125 48.774318695068359375 2.599170684814453125 1.951992034912109375 2.4605646133422851562 1.817806243896484375 1.033379673957824707 1.7469549179077148438 1.5579451322555541992 28.864847183227539062 16.367231369018554688 1.8839585781097412109 6.1416583061218261719 0.92927575111389160156 34.21900177001953125 55.55094146728515625 37.125858306884765625 1.7871561050415039062 1.9605108499526977539 0.46425101161003112793 0.13400000333786010742 0.13400000333786010742 8.7559833526611328125 0.78515136241912841797 5.3375897407531738281 4.6479144096374511719 0.13400000333786010742 0.13400000333786010742 0.13400000333786010742 0.43492457270622253418 0.59120118618011474609 1.2017208337783813477 1.0613832473754882812 0.86945748329162597656 1.1709856986999511719 0.60077369213104248047 0.74226224422454833984 2.2041666507720947266 28.600223541259765625 43.868560791015625 2.0032322406768798828 1.9507807493209838867 1.8538969755172729492 66.6457366943359375 29.121198654174804688 1.3229360580444335938 47.461750030517578125 26.520814895629882812 58.37574005126953125 46.054279327392578125 30.6600189208984375 9.2630481719970703125 49.933017730712890625 0.44568434357643127441 8.027370452880859375 38.965259552001953125 2.3889794349670410156 2.100444793701171875 1.8953082561492919922 2.0448255538940429688 5.3717417716979980469 42.384075164794921875 27.048807144165039062 20.73281097412109375 5.447124481201171875 22.799634933471679688 5.6721897125244140625 0.13400000333786010742 0.13400000333786010742 0.13400000333786010742 0.36769855022430419922 0.63715451955795288086 0.39741411805152893066 0.64778685569763183594 1.60277557373046875 1.0348654985427856445 1.3091875314712524414 1.1138317584991455078 1.0049614906311035156 1.5752141475677490234 1.5761389732360839844 1.0601174831390380859 
2.657604217529296875 2.2247824668884277344 2.4353160858154296875 30.400514602661132812 57.274387359619140625 57.404285430908203125 7.173755645751953125 1.9300532341003417969 1.5296890735626220703 1.0715421438217163086 1.3937139511108398438 0.76527863740921020508 1.8192002773284912109 1.8033294677734375 1.7808547019958496094 1.461383819580078125 1.7507593631744384766 4.5000977516174316406 17.6836090087890625 10.689317703247070312 29.51940155029296875 5.4583115577697753906 7.6670966148376464844 1.7179261445999145508 0.62319898605346679688 0.13400000333786010742 12.230484962463378906 54.702487945556640625 0.53255444765090942383 6.1936621665954589844 19.73140716552734375 0.25644287467002868652 0.13400000333786010742 10.78047943115234375 0.29885134100914001465 0.45961168408393859863 0.91663217544555664062 12.051089286804199219 1.2384842634201049805 1.0163489580154418945 11.895490646362304688 0.13400000333786010742 25.557626724243164062 53.20104217529296875 10.056064605712890625 1.9269019365310668945 1.9287284612655639648 1.9262564182281494141 63.435749053955078125 14.688837051391601562 41.191181182861328125 14.149862289428710938 1.4262834787368774414 1.5301115512847900391 8.5917234420776367188 32.445842742919921875 0.62283670902252197266 30.59212493896484375 12.559954643249511719 59.22803497314453125 61.1995849609375 2.1447367668151855469 2.0626900196075439453 1.8685764074325561523 2.0113916397094726562 2.0727183818817138672 50.61392974853515625 15.748136520385742188 28.691236495971679688 4.3467645645141601562 40.823787689208984375 14.73011016845703125 0.25644287467002868652 0.13400000333786010742 0.13400000333786010742 0.13400000333786010742 0.26444801688194274902 0.13400000333786010742 0.39489600062370300293 1.4383065700531005859 0.76731640100479125977 0.13400000333786010742 0.13400000333786010742 0.13400000333786010742 0.56736314296722412109 1.8765376806259155273 1.9472461938858032227 
2.1346354484558105469 2.2747642993927001953 10.835588455200195312 72.08214569091796875 46.45720672607421875 22.7656707763671875 2.2238407135009765625 1.6634354591369628906 0.96758949756622314453 1.0788804292678833008 0.97175890207290649414 1.049645543098449707 2.0065491199493408203 1.643994450569152832 1.1896208524703979492 0.94121289253234863281 1.2183599472045898438 0.96280467510223388672 0.13400000333786010742 0.48987060785293579102 1.4310747385025024414 7.1239390373229980469 19.184160232543945312 1.2843888998031616211 1.650544285774230957 1.5926909446716308594 23.656604766845703125 42.36878204345703125 0.13400000333786010742 51.0423736572265625 23.939056396484375 3.4670376777648925781 3.1716682910919189453 0.13400000333786010742 0.28179225325584411621 0.13400000333786010742 0.13400000333786010742 27.991460800170898438 0.79043996334075927734 5.0372624397277832031 28.175737380981445312 0.26009136438369750977 9.6525926589965820312 35.61248779296875 2.1107499599456787109 1.8959903717041015625 1.930792689323425293 13.000654220581054688 27.227365493774414062 4.9932317733764648438 1.1021839380264282227 0.52793079614639282227 0.57512509822845458984 0.74624782800674438477 30.390878677368164062 49.090087890625 0.51547330617904663086 60.97808074951171875 77.266357421875 48.38820648193359375 7.6921629905700683594 1.9543050527572631836 39.05237579345703125 2.0611591339111328125 2.0569081306457519531 10.224700927734375 26.4501800537109375 8.5467195510864257812 45.208770751953125 6.3356423377990722656 48.4840087890625 27.400007247924804688 16.010007858276367188 36.13968658447265625 0.2454522550106048584 0.13400000333786010742 0.13400000333786010742 0.13400000333786010742 0.26444801688194274902 1.5828127861022949219 0.74849677085876464844 0.13400000333786010742 0.13400000333786010742 0.24974787235260009766 1.0409514904022216797 1.9033899307250976562 2.3695330619812011719 
2.5491724014282226562 2.1928553581237792969 18.451143264770507812 73.73590087890625 52.345489501953125 1.9626941680908203125 1.5848566293716430664 1.9070440530776977539 1.8261066675186157227 1.4498842954635620117 1.5031678676605224609 1.4367136955261230469 0.78291732072830200195 1.4209930896759033203 0.92244476079940795898 32.566204071044921875 7.5256395339965820312 1.4712532758712768555 1.6472527980804443359 2.0335226058959960938 1.1490911245346069336 0.97900271415710449219 0.60656273365020751953 1.6236325502395629883 1.4665584564208984375 1.7957041263580322266 2.1436755657196044922 5.6001877784729003906 5.3500280380249023438 16.107801437377929688 1.5178850889205932617 6.2538084983825683594 1.094952702522277832 0.75087064504623413086 0.39489600062370300293 0.13400000333786010742 0.40950733423233032227 0.52409648895263671875 0.52920776605606079102 0.27175366878509521484 0.42170861363410949707 18.209381103515625 9.7182588577270507812 1.9737038612365722656 1.904568791389465332 1.6652066707611083984 1.562184453010559082 0.86123394966125488281 1.8311591148376464844 1.8436341285705566406 1.887242436408996582 1.8882046937942504883 2.0099351406097412109 2.1872513294219970703 25.040796279907226562 47.710704803466796875 2.0654509067535400391 39.24851226806640625 36.1290435791015625 54.552707672119140625 1.8962845802307128906 9.9831762313842773438 58.20484161376953125 2.0165965557098388672 2.1622624397277832031 6.4373688697814941406 1.9125648736953735352 1.9416363239288330078 1.975292205810546875 1.6767832040786743164 21.52684783935546875 26.567037582397460938 11.479496955871582031 14.589844703674316406 0.83895856142044067383 0.46107107400894165039 0.13400000333786010742 0.61408674716949462891 0.44261482357978820801 1.6654841899871826172 0.84334462881088256836 0.13400000333786010742 0.13400000333786010742 7.2890472412109375 1.810199737548828125 2.3126778602600097656 2.3351664543151855469 
2.3022992610931396484 7.3112969398498535156 62.7849884033203125 43.893474578857421875 1.9933290481567382812 1.2248116731643676758 0.59597480297088623047 1.3631663322448730469 0.78056287765502929688 0.3475710749626159668 29.201778411865234375 1.3840017318725585938 1.5946033000946044922 1.9153555631637573242 1.0275309085845947266 11.484466552734375 24.46892547607421875 1.6360481977462768555 1.7974922657012939453 1.7043855190277099609 2.1401114463806152344 1.5220041275024414062 1.2525660991668701172 1.929499506950378418 1.2505512237548828125 1.4481401443481445312 1.353272557258605957 1.3284868001937866211 0.89790761470794677734 1.3761104345321655273 0.8462924957275390625 0.13400000333786010742 0.13400000333786010742 0.13400000333786010742 0.76015043258666992188 0.59545332193374633789 0.92892909049987792969 0.58186823129653930664 0.71584367752075195312 1.4747279882431030273 0.60425484180450439453 24.088579177856445312 1.3702762126922607422 1.5864518880844116211 0.89247274398803710938 1.6735366582870483398 1.9213690757751464844 2.375415802001953125 1.8640729188919067383 2.0995378494262695312 1.8205903768539428711 1.8706895112991333008 2.4195771217346191406 2.5038964748382568359 7.7040891647338867188 4.9640207290649414062 6.6606926918029785156 70.54407501220703125 61.402008056640625 17.719396591186523438 23.311193466186523438 10.191704750061035156 21.997753143310546875 1.4476690292358398438 1.9001457691192626953 1.9731051921844482422 2.2346522808074951172 1.7516758441925048828 2.0662038326263427734 1.3206617832183837891 2.1822364330291748047 38.02695465087890625 25.196956634521484375 1.4046458005905151367 11.006269454956054688 10.107102394104003906 1.1285570859909057617 1.0486479997634887695 15.337761878967285156 1.4760230779647827148 1.0896106958389282227 0.13400000333786010742 0.40299019217491149902 47.642120361328125 2.016876220703125 2.3032934665679931641 2.2406625747680664062 
9.4760580062866210938 40.695125579833984375 35.614521026611328125 13.408437728881835938 1.7641271352767944336 1.4807966947555541992 1.2695729732513427734 0.80671828985214233398 0.87782829999923706055 0.74171149730682373047 1.1846995353698730469 1.3639158010482788086 1.5723168849945068359 1.7816540002822875977 1.6726944446563720703 1.7694534063339233398 6.4678583145141601562 2.0688736438751220703 1.4878724813461303711 1.9606041908264160156 1.4558653831481933594 0.13400000333786010742 1.5190153121948242188 1.9166885614395141602 0.37038421630859375 1.5308830738067626953 0.29455140233039855957 0.40900537371635437012 0.13400000333786010742 0.13400000333786010742 0.48521882295608520508 0.13400000333786010742 0.13400000333786010742 1.003653407096862793 1.2578597068786621094 0.5519650578498840332 0.26696613430976867676 0.50324749946594238281 0.13400000333786010742 0.56923735141754150391 0.73828870058059692383 1.285729527473449707 1.908742070198059082 1.9497102499008178711 1.9022225141525268555 1.9598883390426635742 1.8479015827178955078 1.9328894615173339844 1.9008364677429199219 1.9753797054290771484 1.8951354026794433594 1.8697947263717651367 2.2321324348449707031 2.3882367610931396484 2.2255113124847412109 2.3438563346862792969 2.4035604000091552734 13.824560165405273438 42.114166259765625 0.28260299563407897949 1.7805535793304443359 27.58046722412109375 22.527996063232421875 1.8826558589935302734 1.9104647636413574219 5.1421489715576171875 2.0628273487091064453 1.8452118635177612305 0.88855797052383422852 1.9441758394241333008 1.965401768684387207 43.4668121337890625 25.055307388305664062 1.9045537710189819336 23.992340087890625 24.149957656860351562 0.89817178249359130859 6.988018035888671875 33.819759368896484375 1.258152008056640625 1.359584808349609375 1.8920029401779174805 2.2753627300262451172 24.153902053833007812 54.535732269287109375 2.0992231369018554688 2.4075350761413574219 
25.5621490478515625 68.86031341552734375 30.686250686645507812 46.931915283203125 1.8541302680969238281 2.0248937606811523438 26.535736083984375 19.078645706176757812 1.9265829324722290039 5.8392705917358398438 31.199666976928710938 10.844709396362304688 29.33758544921875 41.9451904296875 1.7225732803344726562 1.2417306900024414062 1.7887624502182006836 0.97003853321075439453 1.2044309377670288086 1.8690316677093505859 1.2832953929901123047 0.13400000333786010742 0.13400000333786010742 0.53534775972366333008 0.75922369956970214844 0.58358377218246459961 1.0421209335327148438 0.90571397542953491211 10.925068855285644531 31.055688858032226562 0.47929850220680236816 0.27720022201538085938 0.13400000333786010742 0.88023000955581665039 0.96515822410583496094 0.71802347898483276367 0.13400000333786010742 0.13400000333786010742 9.345245361328125 1.8313051462173461914 1.2809684276580810547 5.8688983917236328125 1.7958745956420898438 1.9395163059234619141 1.9133609533309936523 2.1788852214813232422 10.713239669799804688 18.29936981201171875 2.1761252880096435547 1.4906448125839233398 1.6195081472396850586 1.9261777400970458984 1.4028294086456298828 1.4493658542633056641 2.3120038509368896484 2.3705065250396728516 2.5107653141021728516 2.4293005466461181641 1.4662144184112548828 0.92868250608444213867 1.9951968193054199219 14.615362167358398438 62.043628692626953125 10.445446014404296875 6.9185338020324707031 2.0543415546417236328 2.2741267681121826172 1.1384491920471191406 1.3671498298645019531 2.0686504840850830078 21.22588348388671875 32.301120758056640625 2.0151968002319335938 2.0932893753051757812 14.626969337463378906 1.6681303977966308594 1.4022399187088012695 2.2690854072570800781 6.3306789398193359375 0.8204784393310546875 2.1375005245208740234 8.2428941726684570312 13.399532318115234375 4.7618927955627441406 13.539813041687011719 8.7123279571533203125 21.950252532958984375 
35.59137725830078125 65.801422119140625 11.989148139953613281 2.2833509445190429688 1.8964567184448242188 1.9398900270462036133 6.401523590087890625 0.83779281377792358398 20.19577789306640625 33.40717315673828125 40.172039031982421875 19.114246368408203125 5.9341859817504882812 38.15520477294921875 28.720623016357421875 1.2916524410247802734 1.7656015157699584961 2.2708823680877685547 1.9732036590576171875 1.9399573802947998047 0.98629409074783325195 0.92535138130187988281 38.281707763671875 1.0313863754272460938 1.2074166536331176758 0.74360156059265136719 12.165217399597167969 7.7242722511291503906 45.62888336181640625 35.490444183349609375 63.832614898681640625 16.513658523559570312 0.49185824394226074219 0.13400000333786010742 0.13400000333786010742 0.27395650744438171387 0.54726099967956542969 0.41391301155090332031 0.55207157135009765625 1.3390946388244628906 14.478471755981445312 29.503339767456054688 4.6625533103942871094 24.261480331420898438 2.1487338542938232422 1.926823735237121582 17.549732208251953125 13.959195137023925781 0.89520502090454101562 0.86661058664321899414 0.13400000333786010742 0.37389987707138061523 0.13400000333786010742 0.13400000333786010742 1.5984839200973510742 2.1861937046051025391 2.3034279346466064453 2.0030827522277832031 2.0226967334747314453 9.7232618331909179688 19.997259140014648438 44.307842254638671875 61.2714691162109375 53.658725738525390625 2.1562123298645019531 2.1335074901580810547 2.272693634033203125 1.2008254528045654297 1.8523300886154174805 15.418598175048828125 51.32381439208984375 1.0048583745956420898 1.3570804595947265625 26.867967605590820312 24.678915023803710938 1.1702805757522583008 1.4108440876007080078 2.2195963859558105469 2.4134759902954101562 1.4913113117218017578 1.1496119499206542969 1.0753525495529174805 1.0706528425216674805 1.9739735126495361328 2.5196044445037841797 2.4591553211212158203 1.461840510368347168 
56.4501953125 55.78256988525390625 2.2174015045166015625 2.4128773212432861328 1.9917275905609130859 4.6248564720153808594 28.082818984985351562 1.5254999399185180664 21.400968551635742188 22.0233306884765625 27.013713836669921875 11.174075126647949219 1.0821478366851806641 6.6185450553894042969 4.6865754127502441406 1.384970545768737793 1.7244653701782226562 1.9917674064636230469 36.8481903076171875 0.48238462209701538086 5.7024517059326171875 1.4194788932800292969 1.9798572063446044922 1.4816261529922485352 0.34271681308746337891 1.7022190093994140625 1.55401611328125 25.3978118896484375 11.062801361083984375 16.113264083862304688 14.297940254211425781 0.32016029953956604004 0.13400000333786010742 2.8842172622680664062 0.13400000333786010742 18.707483291625976562 22.595157623291015625 6.1103777885437011719 8.831390380859375 0.81357914209365844727 6.4604763984680175781 69.6915130615234375 2.2671790122985839844 6.9730815887451171875 4.509906768798828125 2.2034518718719482422 2.3029131889343261719 2.0850412845611572266 1.9728363752365112305 1.0832372903823852539 0.13400000333786010742 0.13400000333786010742 0.13400000333786010742 0.13400000333786010742 2.0339195728302001953 2.2720520496368408203 2.2910013198852539062 2.1832029819488525391 2.0776536464691162109 1.8908247947692871094 23.907772064208984375 51.5771942138671875 66.633209228515625 10.014063835144042969 2.2327463626861572266 2.3498194217681884766 2.1931862831115722656 1.3204268217086791992 1.9226181507110595703 19.248687744140625 14.386889457702636719 0.61579936742782592773 0.92895162105560302734 1.9535063505172729492 1.3213703632354736328 1.714646458625793457 1.2902395725250244141 2.0156126022338867188 2.0437407493591308594 2.1680891513824462891 2.1434512138366699219 0.97376704216003417969 1.4116083383560180664 2.2047929763793945312 2.2916018962860107422 2.4078376293182373047 1.461840510368347168 
64.11563873291015625 19.052188873291015625 2.7202551364898681641 2.4100573062896728516 2.1148018836975097656 1.8836692571640014648 23.203998565673828125 1.3457990884780883789 0.895721435546875 1.4211989641189575195 22.1472015380859375 28.836427688598632812 1.44164276123046875 1.5615608692169189453 0.9552357792854309082 0.13400000333786010742 1.4804090261459350586 0.87579923868179321289 0.37207800149917602539 19.555528640747070312 47.928195953369140625 0.13400000333786010742 1.8680952787399291992 0.34453749656677246094 0.38215407729148864746 12.273783683776855469 0.60250467061996459961 1.6308864355087280273 9.1854047775268554688 2.0123291015625 2.2947223186492919922 1.5778342485427856445 0.86581909656524658203 12.946475028991699219 30.519468307495117188 1.0592142343521118164 36.21634674072265625 1.3001881837844848633 1.3967494964599609375 0.13400000333786010742 0.57980901002883911133 1.9573198556900024414 2.2366356849670410156 2.3898282051086425781 2.2299468517303466797 2.1763436794281005859 2.2211680412292480469 2.0277521610260009766 2.4932012557983398438 0.79792022705078125 0.13400000333786010742 0.13400000333786010742 0.13400000333786010742 0.13400000333786010742 2.1798446178436279297 2.1846413612365722656 2.4688336849212646484 2.2817685604095458984 2.123081207275390625 1.9502159357070922852 2.1211838722229003906 50.68715667724609375 68.27581024169921875 2.3852794170379638672 2.1988956928253173828 2.2574923038482666016 2.2896618843078613281 5.9876198768615722656 2.6847159862518310547 31.62017059326171875 0.78302395343780517578 0.58170801401138305664 1.4342992305755615234 1.7699406147003173828 1.9416633844375610352 1.6417919397354125977 1.7113651037216186523 2.1717982292175292969 2.2587094306945800781 2.2337603569030761719 2.1699969768524169922 2.1588230133056640625 0.97488820552825927734 2.4504423141479492188 2.0925402641296386719 1.3680652379989624023 0.13400000333786010742 
44.236331939697265625 8.28519439697265625 2.461933135986328125 2.2318696975708007812 15.368994712829589844 1.8785051107406616211 6.9896731376647949219 11.765428543090820312 18.50719451904296875 10.454404830932617188 1.8620829582214355469 17.475061416625976562 2.1943764686584472656 2.004245758056640625 2.0336351394653320312 1.8500999212265014648 0.55272382497787475586 1.2535147666931152344 1.9433110952377319336 1.7984950542449951172 22.470737457275390625 0.13400000333786010742 0.13400000333786010742 0.13400000333786010742 0.13400000333786010742 54.7352294921875 27.79453277587890625 7.9614911079406738281 25.690044403076171875 8.26462554931640625 8.3001956939697265625 1.1593286991119384766 50.613372802734375 65.224151611328125 1.8740026950836181641 1.7655824422836303711 2.0542213916778564453 0.13400000333786010742 0.27345123887062072754 0.35084301233291625977 0.83241075277328491211 1.9573262929916381836 1.9663139581680297852 1.9255683422088623047 2.2193114757537841797 2.2211680412292480469 2.2211680412292480469 1.3337517976760864258 1.2001745700836181641 1.261473536491394043 0.13400000333786010742 0.13400000333786010742 0.13400000333786010742 1.5692241191864013672 1.6664296388626098633 2.1547808647155761719 2.1460750102996826172 2.1776764392852783203 2.248065948486328125 2.141643524169921875 2.2712190151214599609 5.4130644798278808594 35.771190643310546875 10.63512420654296875 22.698892593383789062 2.1791675090789794922 2.3293528556823730469 15.28284454345703125 41.169200897216796875 10.44789886474609375 0.69719272851943969727 1.4233974218368530273 1.3105742931365966797 1.6347802877426147461 1.4189743995666503906 1.8708105087280273438 1.8633902072906494141 2.1140506267547607422 2.2342431545257568359 1.9296293258666992188 2.2109704017639160156 2.3320376873016357422 2.2104024887084960938 2.2252907752990722656 2.2934432029724121094 1.6908501386642456055 1.3197122812271118164 
6.7783064842224121094 2.5178868770599365234 2.2500271797180175781 6.220489501953125 39.96082305908203125 15.107684135437011719 30.29290008544921875 45.955230712890625 0.13400000333786010742 0.69267135858535766602 1.6141133308410644531 1.7916932106018066406 2.1322379112243652344 2.1953051090240478516 1.2430232763290405273 1.3760575056076049805 0.89615780115127563477 1.1178088188171386719 1.0820915699005126953 0.28507217764854431152 0.13400000333786010742 0.13400000333786010742 0.13400000333786010742 0.13400000333786010742 25.690382003784179688 51.43798828125 19.856243133544921875 15.189012527465820312 28.6184234619140625 53.59344482421875 41.13916015625 22.737728118896484375 9.0130739212036132812 44.01532745361328125 21.828777313232421875 7.6874785423278808594 34.257991790771484375 0.13400000333786010742 0.13400000333786010742 0.13400000333786010742 1.6637678146362304688 1.9181315898895263672 1.9202817678451538086 2.3238999843597412109 2.3250997066497802734 3.4986016750335693359 4.5406661033630371094 1.4757509231567382812 0.13400000333786010742 0.13400000333786010742 0.13400000333786010742 0.13400000333786010742 0.13400000333786010742 0.13400000333786010742 1.7596058845520019531 2.0968778133392333984 2.1347179412841796875 2.2158718109130859375 1.9651616811752319336 2.1036000251770019531 2.3536953926086425781 2.4232068061828613281 1.960511326789855957 2.1904995441436767578 18.78049468994140625 1.9440608024597167969 2.0783259868621826172 60.60349273681640625 38.593524932861328125 1.5259196758270263672 1.9540160894393920898 2.3171343803405761719 2.3400249481201171875 2.3323371410369873047 2.5753848552703857422 2.4265501499176025391 1.848994135856628418 1.4097069501876831055 1.9958040714263916016 9.792781829833984375 2.2782087326049804688 2.5422465801239013672 2.2358860969543457031 2.3537223339080810547 2.6656656265258789062 2.2544982433319091797 2.6378140449523925781 
5.5489358901977539062 2.3839006423950195312 2.0115115642547607422 1.9875061511993408203 1.9590476751327514648 15.658277511596679688 32.468929290771484375 1.8153520822525024414 1.8149675130844116211 1.8009769916534423828 2.0416524410247802734 1.5665442943572998047 1.9904367923736572266 1.5457465648651123047 1.7700296640396118164 1.1440271139144897461 0.13400000333786010742 0.13400000333786010742 0.13400000333786010742 0.13400000333786010742 0.13400000333786010742 0.13400000333786010742 17.95079803466796875 26.586099624633789062 68.661834716796875 47.44785308837890625 1.5422511100769042969 31.164911270141601562 69.91884613037109375 21.664690017700195312 18.239603042602539062 1.0829882621765136719 1.9206535816192626953 1.6604419946670532227 32.161418914794921875 58.47658538818359375 63.8100738525390625 6.530216217041015625 0.13400000333786010742 0.42682301998138427734 2.0225729942321777344 1.9942966699600219727 2.2801706790924072266 1.8415591716766357422 1.7644453048706054688 3.7579782009124755859 2.2211680412292480469 1.4110420942306518555 0.13400000333786010742 0.13400000333786010742 0.13400000333786010742 0.13400000333786010742 0.13400000333786010742 0.13400000333786010742 1.5940914154052734375 1.9963092803955078125 2.3580892086029052734 2.3746395111083984375 2.3359355926513671875 2.2635989189147949219 12.423401832580566406 8.0499181747436523438 3.5055742263793945312 23.458967208862304688 47.182453155517578125 15.221408843994140625 40.197116851806640625 28.309022903442382812 20.650623321533203125 1.0601984262466430664 1.8508534431457519531 2.4360814094543457031 2.3777925968170166016 2.3674466609954833984 2.4240107536315917969 2.2238748073577880859 0.82899570465087890625 1.3272131681442260742 1.3276209831237792969 1.6638268232345581055 2.3472790718078613281 2.476215362548828125 2.2340397834777832031 2.2919340133666992188 2.4379181861877441406 2.276599884033203125 2.7711346149444580078 
3.8474924564361572266 11.455891609191894531 1.9987342357635498047 2.2177715301513671875 2.1473338603973388672 2.1407635211944580078 16.568971633911132812 2.1754219532012939453 2.0389964580535888672 2.0197644233703613281 2.3093514442443847656 2.2351973056793212891 2.0883646011352539062 1.9512150287628173828 1.3264057636260986328 0.67745125293731689453 0.13400000333786010742 0.13400000333786010742 0.13400000333786010742 41.767726898193359375 30.766668319702148438 47.251483917236328125 16.608341217041015625 15.150049209594726562 3.9578835964202880859 2.680309295654296875 1.9340823888778686523 19.380380630493164062 32.354793548583984375 2.8706002235412597656 2.7489409446716308594 0.59892624616622924805 1.2677811384201049805 1.8847984075546264648 1.8178704977035522461 1.8988122940063476562 0.82421851158142089844 0.28596127033233642578 1.0818847417831420898 1.8052084445953369141 2.0515544414520263672 2.0712413787841796875 2.2669529914855957031 1.8114565610885620117 1.919913172721862793 1.346632838249206543 1.0284960269927978516 0.81611686944961547852 0.13400000333786010742 0.85134029388427734375 1.4101210832595825195 0.13400000333786010742 0.68865543603897094727 0.90775430202484130859 1.94228363037109375 2.1328911781311035156 1.8989577293395996094 2.3004314899444580078 2.0882012844085693359 2.0344827175140380859 2.4546859264373779297 20.95301055908203125 62.67431640625 46.916446685791015625 42.063564300537109375 33.74427032470703125 33.6350555419921875 8.7577676773071289062 8.57574462890625 0.9567317962646484375 2.0066714286804199219 2.3630347251892089844 2.3038651943206787109 2.1366870403289794922 2.0567355155944824219 0.95940548181533813477 0.13400000333786010742 0.84369540214538574219 8.1635990142822265625 1.6400918960571289062 1.7921384572982788086 2.4464590549468994141 2.2911221981048583984 2.3191289901733398438 2.6320393085479736328 2.2848629951477050781 2.3713335990905761719 
2.2327070236206054688 8.7815485000610351562 10.608550071716308594 2.381641387939453125 2.4470019340515136719 1.1606514453887939453 2.2861268520355224609 2.3260786533355712891 2.2374410629272460938 0.89834475517272949219 1.991790771484375 2.1846303939819335938 1.1308636665344238281 1.0124690532684326172 0.71964603662490844727 0.13400000333786010742 0.13400000333786010742 0.71238148212432861328 27.902460098266601562 72.5194244384765625 37.560985565185546875 1.0159112215042114258 0.43583148717880249023 1.6910452842712402344 2.4615588188171386719 2.3539891242980957031 2.5530428886413574219 2.4741449356079101562 2.0800502300262451172 2.4113261699676513672 0.78320741653442382812 0.34406358003616333008 1.787999272346496582 1.9821643829345703125 1.2606236934661865234 1.8906991481781005859 0.72006458044052124023 0.45431792736053466797 1.7894179821014404297 2.1600909233093261719 2.1759510040283203125 2.5041608810424804688 2.4411737918853759766 2.4319832324981689453 8.418155670166015625 15.267342567443847656 1.7607811689376831055 0.13400000333786010742 0.47330999374389648438 2.3353247642517089844 11.195641517639160156 1.694598078727722168 1.4273496866226196289 9.3447017669677734375 16.702402114868164062 21.333566665649414062 24.365327835083007812 4.3459334373474121094 1.9696484804153442383 1.6247104406356811523 20.303785324096679688 33.59432220458984375 28.813997268676757812 18.239093780517578125 2.6248657703399658203 2.157413482666015625 5.6424694061279296875 9.9363384246826171875 14.401677131652832031 2.8221485614776611328 1.9028886556625366211 2.4064126014709472656 2.4069309234619140625 2.1274325847625732422 1.6117132902145385742 1.3154556751251220703 2.034454345703125 2.1219837665557861328 2.4038896560668945312 2.2381618022918701172 0.39141318202018737793 1.6300752162933349609 2.4229588508605957031 5.5700969696044921875 2.6042215824127197266 15.027080535888671875 56.23316192626953125 
2.5122251510620117188 2.3266155719757080078 2.3511753082275390625 2.3473861217498779297 1.8478257656097412109 1.9703149795532226562 5.8266968727111816406 2.2132570743560791016 1.9207769632339477539 0.72884798049926757812 1.2597229480743408203 1.4414031505584716797 0.95141780376434326172 0.57289576530456542969 12.17110443115234375 0.13400000333786010742 0.13400000333786010742 0.13400000333786010742 39.908031463623046875 53.029888153076171875 64.83779144287109375 18.302989959716796875 27.46459197998046875 5.9767270088195800781 2.2391562461853027344 2.3379158973693847656 2.26422882080078125 2.3067836761474609375 2.0886194705963134766 2.24664306640625 1.4919954538345336914 1.9682160615921020508 1.8760440349578857422 1.8679895401000976562 1.9172242879867553711 1.5727064609527587891 0.25949558615684509277 1.425118565559387207 2.1268782615661621094 2.1956338882446289062 2.5655159950256347656 2.5628287792205810547 2.2779932022094726562 18.094266891479492188 32.6647796630859375 1.099766850471496582 0.3418115079402923584 0.13400000333786010742 4.4840536117553710938 28.69189453125 17.85816192626953125 1.2752628326416015625 2.0645356178283691406 17.617504119873046875 19.05117034912109375 22.75832366943359375 8.20435333251953125 2.0660734176635742188 1.5979591608047485352 1.761196136474609375 11.199708938598632812 19.526348114013671875 20.7738494873046875 2.2911078929901123047 2.3623926639556884766 2.2930784225463867188 2.1717061996459960938 1.9771108627319335938 1.8100379705429077148 12.416417121887207031 2.1279001235961914062 2.3742222785949707031 1.9114842414855957031 1.5353423357009887695 1.9906368255615234375 2.2452681064605712891 2.2519624233245849609 2.2132999897003173828 2.2443683147430419922 1.5973984003067016602 0.76612192392349243164 2.0067217350006103516 23.601655960083007812 41.742961883544921875 40.38147735595703125 40.656742095947265625 31.871295928955078125 
26.122528076171875 8.1368150711059570312 2.5230948925018310547 2.7485706806182861328 1.7887750864028930664 2.3357470035552978516 15.423793792724609375 12.90326690673828125 30.415956497192382812 4.4000229835510253906 0.26444801688194274902 0.41899612545967102051 0.44309625029563903809 0.13400000333786010742 0.13400000333786010742 0.13400000333786010742 0.13400000333786010742 56.2971343994140625 79.08648681640625 25.652914047241210938 7.5065851211547851562 1.3486608266830444336 44.235889434814453125 33.42113494873046875 2.3155906200408935547 2.5326337814331054688 2.3774981498718261719 2.3705868721008300781 0.86404699087142944336 2.4857084751129150391 2.6525228023529052734 1.2704226970672607422 1.2802634239196777344 1.455364227294921875 2.0599801540374755859 1.7283005714416503906 0.96452194452285766602 2.1106750965118408203 2.2185521125793457031 2.5337314605712890625 2.0184965133666992188 1.9922879934310913086 2.0038933753967285156 14.494542121887207031 1.8383933305740356445 1.2182686328887939453 0.24730412662029266357 0.57285010814666748047 5.7141408920288085938 4.87691497802734375 1.2301465272903442383 1.6626923084259033203 1.5630015134811401367 1.7701063156127929688 2.0790083408355712891 16.076982498168945312 2.3105912208557128906 2.1437277793884277344 10.569506645202636719 52.802661895751953125 5.2679796218872070312 9.4512262344360351562 14.065215110778808594 2.1726751327514648438 2.2057926654815673828 2.0884191989898681641 2.1197092533111572266 2.0416455268859863281 1.8626068830490112305 30.372941970825195312 1.957127690315246582 2.1158654689788818359 2.2290658950805664062 2.2568819522857666016 2.437664031982421875 22.417850494384765625 29.255657196044921875 32.769191741943359375 37.76261138916015625 20.650148391723632812 22.5510101318359375 36.15392303466796875 57.18642425537109375 57.669170379638671875 58.953197479248046875 26.691295623779296875 8.2199506759643554688 
4.8647398948669433594 2.3455379009246826172 2.4250016212463378906 10.251530647277832031 2.2373559474945068359 3.7217311859130859375 14.108450889587402344 21.320003509521484375 31.217174530029296875 1.3896461725234985352 0.47688779234886169434 0.74172300100326538086 0.13400000333786010742 0.13400000333786010742 22.36931610107421875 0.13400000333786010742 28.519412994384765625 60.582500457763671875 23.362447738647460938 5.5246853828430175781 1.0829061269760131836 1.3941651582717895508 17.89220428466796875 52.879070281982421875 6.5945105552673339844 2.3023788928985595703 2.5128169059753417969 2.2548296451568603516 2.2854633331298828125 2.4635293483734130859 2.4436335563659667969 2.0589971542358398438 1.9575772285461425781 2.1138994693756103516 1.9067100286483764648 1.2094397544860839844 1.6847449541091918945 2.3979496955871582031 2.0336039066314697266 1.3734811544418334961 1.3353924751281738281 1.1057553291320800781 0.78183686733245849609 1.6364152431488037109 1.8640935420989990234 1.8290284872055053711 0.77903407812118530273 1.2806574106216430664 1.7233097553253173828 4.8448834419250488281 1.9519741535186767578 0.36060824990272521973 0.13400000333786010742 0.13400000333786010742 0.24981394410133361816 0.40228137373924255371 1.9206705093383789062 1.9566464424133300781 7.8575987815856933594 31.951494216918945312 1.9077570438385009766 1.9771120548248291016 2.3277792930603027344 2.2944309711456298828 2.3106279373168945312 2.3575510978698730469 2.2648980617523193359 1.9276533126831054688 28.287141799926757812 40.067035675048828125 24.652421951293945312 6.241863250732421875 21.37618255615234375 26.412763595581054688 6.0609507560729980469 9.1979112625122070312 2.5739626884460449219 6.6729273796081542969 50.2949676513671875 40.929294586181640625 66.4969635009765625 50.106670379638671875 61.736209869384765625 39.063571929931640625 53.883636474609375 20.473585128784179688 2.9046485424041748047 
2.5291740894317626953 2.4286496639251708984 2.5674932003021240234 29.223697662353515625 27.124223709106445312 30.899906158447265625 20.17380523681640625 8.8702068328857421875 0.56167513132095336914 0.88755285739898681641 1.9461723566055297852 0.50504410266876220703 0.39489600062370300293 0.13400000333786010742 0.31346789002418518066 1.033107757568359375 2.1581981182098388672 2.4095199108123779297 9.4565896987915039062 4.3158941268920898438 1.8139674663543701172 1.5743415355682373047 16.834394454956054688 59.650562286376953125 2.2988681793212890625 2.2843599319458007812 2.2033350467681884766 2.2991654872894287109 2.4040613174438476562 0.13400000333786010742 1.4430092573165893555 1.4866802692413330078 25.3857879638671875 2.1592502593994140625 1.6763292551040649414 1.1493302583694458008 1.8276987075805664062 1.9870873689651489258 1.1431690454483032227 1.20685577392578125 0.13400000333786010742 0.13400000333786010742 0.5690606236457824707 1.7210556268692016602 1.8598083257675170898 1.8176854848861694336 1.799971461296081543 1.8853441476821899414 2.0501537322998046875 2.0958445072174072266 1.8501685857772827148 0.24197281897068023682 0.13400000333786010742 0.13400000333786010742 0.13400000333786010742 1.386893153190612793 1.8744102716445922852 1.8841758966445922852 24.09075927734375 48.61952972412109375 1.9351079463958740234 1.9788162708282470703 2.0382509231567382812 2.367099761962890625 2.1956171989440917969 2.3415083885192871094 2.1251835823059082031 6.2996778488159179688 22.729269027709960938 30.205394744873046875 57.35002899169921875 40.509632110595703125 33.31549072265625 14.446422576904296875 8.2546491622924804688 2.3826341629028320312 2.238399505615234375 9.9312810897827148438 20.617597579956054688 42.029582977294921875 39.67073822021484375 3.7656929492950439453 15.565388679504394531 17.0227508544921875 40.498371124267578125 2.529666900634765625 2.8487105369567871094 
2.4790325164794921875 2.300136566162109375 3.6446142196655273438 24.97055816650390625 24.552501678466796875 6.7641835212707519531 11.147280693054199219 0.13400000333786010742 0.34393474459648132324 8.6890554428100585938 0.13400000333786010742 0.13400000333786010742 0.13400000333786010742 0.13400000333786010742 0.13400000333786010742 0.86670100688934326172 1.1524566411972045898 0.83990448713302612305 39.4083099365234375 44.241329193115234375 1.350934147834777832 21.354928970336914062 32.56740570068359375 13.783044815063476562 2.5087554454803466797 2.2680656909942626953 2.4663169384002685547 2.349330902099609375 0.64515209197998046875 0.13400000333786010742 1.249889373779296875 66.06734466552734375 1.0175977945327758789 1.8168168067932128906 0.13400000333786010742 1.4230811595916748047 1.6850945949554443359 1.4111090898513793945 1.2523986101150512695 0.13400000333786010742 0.13400000333786010742 0.13400000333786010742 0.99748951196670532227 1.8686292171478271484 1.7628072500228881836 1.858707427978515625 1.2847083806991577148 1.8867509365081787109 1.8187403678894042969 1.8624750375747680664 1.8371626138687133789 0.87917345762252807617 0.13400000333786010742 0.13400000333786010742 0.24197281897068023682 1.8888204097747802734 1.8608716726303100586 1.8892006874084472656 15.040030479431152344 50.3047637939453125 2.0005176067352294922 4.24582672119140625 7.8640704154968261719 2.2457909584045410156 7.8234004974365234375 35.76470184326171875 2.0663554668426513672 2.1556549072265625 9.7758665084838867188 10.760909080505371094 10.89177703857421875 12.400614738464355469 5.7089638710021972656 2.2107579708099365234 2.4898722171783447266 2.3923861980438232422 1.9947847127914428711 15.560006141662597656 21.357198715209960938 23.267671585083007812 10.128554344177246094 48.881420135498046875 9.5639886856079101562 2.6672568321228027344 2.4319148063659667969 2.2002327442169189453 2.4962253570556640625 
2.4923944473266601562 2.3906118869781494141 3.5889496803283691406 4.8375034332275390625 12.585904121398925781 1.2333132028579711914 0.13400000333786010742 1.5807306766510009766 11.39740753173828125 17.259731292724609375 1.3856940269470214844 0.13400000333786010742 0.13400000333786010742 0.13400000333786010742 0.13400000333786010742 8.7511396408081054688 1.8466533422470092773 2.0077157020568847656 1.1884161233901977539 37.331424713134765625 6.3340497016906738281 22.266353607177734375 5.6216778755187988281 1.9568598270416259766 2.2965176105499267578 2.1147258281707763672 2.4486305713653564453 2.3334324359893798828 0.80228692293167114258 0.24197281897068023682 1.3299853801727294922 8.5527601242065429688 0.52288454771041870117 0.685199737548828125 0.2454522550106048584 1.434416651725769043 1.9227868318557739258 1.1325328350067138672 0.13400000333786010742 0.13400000333786010742 0.13400000333786010742 0.26254293322563171387 1.4833694696426391602 1.8708865642547607422 1.8539854288101196289 1.7341152429580688477 10.626484870910644531 15.875153541564941406 1.8940607309341430664 1.8208633661270141602 1.8598597049713134766 1.8865760564804077148 0.47892338037490844727 0.13400000333786010742 1.0997245311737060547 1.8941485881805419922 1.8967161178588867188 1.864772796630859375 40.064731597900390625 34.64013671875 2.2740788459777832031 15.714001655578613281 6.1085233688354492188 2.5073299407958984375 2.1558904647827148438 22.8000946044921875 7.4758563041687011719 27.146635055541992188 31.392248153686523438 20.090747833251953125 2.2156665325164794922 3.4838652610778808594 9.9475803375244140625 2.1957416534423828125 2.1799008846282958984 2.0612938404083251953 1.9068651199340820312 3.4280753135681152344 11.924562454223632812 6.7434244155883789062 2.3073210716247558594 7.3557605743408203125 2.6979842185974121094 2.5298452377319335938 2.2544982433319091797 2.3626668453216552734 2.6102735996246337891 
2.2833647727966308594 2.4461433887481689453 2.4803416728973388672 2.3159403800964355469 1.0461753606796264648 16.989734649658203125 6.8931632041931152344 0.36060824990272521973 6.5845217704772949219 2.3215146064758300781 1.2851805686950683594 0.13400000333786010742 0.13400000333786010742 0.13400000333786010742 0.13400000333786010742 1.1512658596038818359 1.1162045001983642578 1.8839666843414306641 3.3405208587646484375 25.377298355102539062 11.811383247375488281 32.998371124267578125 1.2929869890213012695 1.9846059083938598633 2.1134030818939208984 2.3838391304016113281 2.3419365882873535156 1.7444723844528198242 0.27415218949317932129 1.3549820184707641602 1.5233274698257446289 0.13400000333786010742 0.2454522550106048584 1.2451399564743041992 0.57464486360549926758 1.6435494422912597656 1.9121079444885253906 0.40494742989540100098 0.13400000333786010742 0.46506950259208679199 1.6966680288314819336 1.8903578519821166992 1.8889942169189453125 1.8151266574859619141 1.8709806203842163086 1.8958562612533569336 1.6591112613677978516 0.67867422103881835938 1.3404227495193481445 1.8384510278701782227 1.8500168323516845703 1.8949961662292480469 1.765412449836730957 1.5526360273361206055 1.9432891607284545898 20.1402130126953125 1.8402707576751708984 1.9488444328308105469 12.644097328186035156 12.76242828369140625 8.7456827163696289062 1.9293558597564697266 2.0777897834777832031 2.2264704704284667969 1.9282057285308837891 1.8495669364929199219 2.1810390949249267578 4.0130801200866699219 6.2808938026428222656 2.2676119804382324219 2.21260833740234375 2.4646067619323730469 2.197582244873046875 5.0441465377807617188 1.9571521282196044922 2.0673246383666992188 2.2629716396331787109 2.3558151721954345703 2.3321220874786376953 2.1876912117004394531 2.5412113666534423828 2.5788767337799072266 2.7491736412048339844 2.5956027507781982422 2.5019397735595703125 2.6133952140808105469 2.7774548530578613281 
2.1847722530364990234 2.3657076358795166016 1.9899930953979492188 1.2995761632919311523 1.9058721065521240234 7.0970005989074707031 1.6570580005645751953 4.605030059814453125 1.9946789741516113281 1.6058179140090942383 0.24484418332576751709 0.13400000333786010742 0.13400000333786010742 0.13400000333786010742 0.13400000333786010742 0.56590390205383300781 1.7144178152084350586 1.3883163928985595703 1.1166081428527832031 2.13066864013671875 20.784725189208984375 23.019590377807617188 1.9211912155151367188 32.46091461181640625 22.871196746826171875 2.1710736751556396484 2.2409436702728271484 1.0967254638671875 0.74779599905014038086 1.9253877401351928711 1.1591325998306274414 0.13400000333786010742 0.85919219255447387695 1.2611172199249267578 0.25540626049041748047 11.074715614318847656 1.903437495231628418 0.57887977361679077148 0.13400000333786010742 1.437749028205871582 1.8823355436325073242 14.591250419616699219 9.9170093536376953125 1.8781619071960449219 1.8556760549545288086 1.8549264669418334961 0.71626800298690795898 1.5838944911956787109 0.78883117437362670898 1.8911708593368530273 1.7218227386474609375 1.7538222074508666992 1.8660016059875488281 1.8489943742752075195 1.9099497795104980469 24.98651885986328125 1.8670641183853149414 2.3338754177093505859 2.2323472499847412109 2.3846597671508789062 2.2704994678497314453 2.1226131916046142578 2.2030801773071289062 1.8526413440704345703 1.6981525421142578125 1.936831355094909668 1.9607288837432861328 4.954067230224609375 2.5208718776702880859 2.2803194522857666016 25.584352493286132812 16.69530487060546875 10.507596015930175781 10.107435226440429688 2.1067979335784912109 1.9859137535095214844 2.1183676719665527344 2.536956787109375 2.49184417724609375 2.3431596755981445312 2.4357976913452148438 2.7105836868286132812 2.7104673385620117188 2.6545495986938476562 2.417514801025390625 2.4927151203155517578 2.4830219745635986328 
2.483577728271484375 1.8015626668930053711 1.0804696083068847656 1.4289698600769042969 1.6731971502304077148 51.44280242919921875 7.7143096923828125 19.580669403076171875 2.1995155811309814453 1.3945351839065551758 0.13400000333786010742 0.13400000333786010742 0.57212340831756591797 0.13400000333786010742 0.13400000333786010742 14.536940574645996094 65.74167633056640625 2.1527085304260253906 5.9219155311584472656 1.823830723762512207 1.5119568109512329102 1.9309542179107666016 2.1242063045501708984 51.171009063720703125 1.7731733322143554688 1.8119951486587524414 2.0312595367431640625 2.0865292549133300781 1.9085264205932617188 1.1664535999298095703 1.2505512237548828125 0.46956676244735717773 0.13400000333786010742 0.73477506637573242188 10.220191001892089844 10.793087005615234375 1.9031342267990112305 1.2820776700973510742 0.78104603290557861328 1.7394415140151977539 1.7933732271194458008 1.8535053730010986328 1.8542766571044921875 1.9395850896835327148 1.8369660377502441406 1.3543038368225097656 1.4683885574340820312 0.93162012100219726562 1.4549601078033447266 1.7074193954467773438 0.96999144554138183594 1.5960260629653930664 1.9156160354614257812 1.9608515501022338867 1.9566702842712402344 1.9501541852951049805 2.2895495891571044922 2.2722830772399902344 2.1686804294586181641 1.9851149320602416992 2.3614239692687988281 2.0288753509521484375 1.8816218376159667969 1.7430013418197631836 2.3303902149200439453 2.0550816059112548828 1.9801729917526245117 20.083766937255859375 15.546682357788085938 9.5099325180053710938 5.1102361679077148438 2.1255116462707519531 1.7306319475173950195 1.7869385480880737305 1.9851468801498413086 2.0099532604217529297 2.0123834609985351562 2.3132236003875732422 2.6722948551177978516 2.3431596755981445312 15.158153533935546875 2.7499742507934570312 2.5474359989166259766 3.7528109550476074219 4.0095305442810058594 2.5968961715698242188 2.4949076175689697266 
10.131862640380859375 44.76959228515625 1.1930615901947021484 1.2222104072570800781 1.4335834980010986328 27.120347976684570312 19.796247482299804688 1.3066879510879516602 1.8376522064208984375 0.13400000333786010742 0.13400000333786010742 0.25875177979469299316 1.4964748620986938477 0.23598431050777435303 0.13400000333786010742 0.13400000333786010742 60.16115570068359375 14.199337005615234375 25.569004058837890625 33.28243255615234375 17.812433242797851562 7.4842801094055175781 65.81481170654296875 34.1656494140625 1.9987581968307495117 1.9080433845520019531 2.4968550205230712891 2.2233343124389648438 1.2901872396469116211 1.4675463438034057617 0.25644287467002868652 0.13400000333786010742 0.13400000333786010742 1.1204068660736083984 1.8529212474822998047 1.7872613668441772461 1.891157984733581543 2.0604014396667480469 1.6349420547485351562 1.8296189308166503906 1.7922828197479248047 1.7855839729309082031 8.8818922042846679688 31.869894027709960938 1.9129672050476074219 1.1506506204605102539 1.0301005840301513672 1.8945391178131103516 1.0667918920516967773 1.927865147590637207 1.9149918556213378906 1.8971698284149169922 1.896172642707824707 1.9192651510238647461 9.6927700042724609375 2.2617807388305664062 1.433455348014831543 19.286756515502929688 3.4174659252166748047 5.0283284187316894531 2.0836572647094726562 1.9526646137237548828 1.9587632417678833008 1.7514337301254272461 2.1563475131988525391 2.0873601436614990234 11.585654258728027344 53.575359344482421875 23.557508468627929688 2.2980659008026123047 2.3438477516174316406 2.2466757297515869141 1.5409661531448364258 1.2630859613418579102 1.9478030204772949219 1.9383695125579833984 6.0895066261291503906 2.1810946464538574219 2.3565061092376708984 2.3723893165588378906 17.4874725341796875 3.4233384132385253906 2.3844749927520751953 4.7936682701110839844 12.751096725463867188 2.2118754386901855469 2.5214991569519042969 
2.0972127914428710938 1.9715034961700439453 0.81686627864837646484 1.486161351203918457 2.0809037685394287109 1.9565410614013671875 1.9826855659484863281 1.8165714740753173828 1.9473899602890014648 0.13400000333786010742 0.13400000333786010742 0.27345123887062072754 1.0087784528732299805 0.24197281897068023682 0.13400000333786010742 18.064083099365234375 21.328807830810546875 1.8558745384216308594 18.81223297119140625 42.404918670654296875 41.7996978759765625 43.737819671630859375 23.807786941528320312 1.9705256223678588867 1.9852620363235473633 2.4011135101318359375 2.2652347087860107422 1.6463388204574584961 1.4944624900817871094 1.0012542009353637695 0.24974787235260009766 0.13400000333786010742 0.82703393697738647461 1.1421408653259277344 1.6955295801162719727 0.81481575965881347656 1.0192838907241821289 1.5150971412658691406 1.8184561729431152344 1.8279918432235717773 1.7975846529006958008 1.8965477943420410156 13.231280326843261719 23.469865798950195312 1.9418529272079467773 1.9249440431594848633 1.8490949869155883789 1.8124200105667114258 1.844925999641418457 1.8372159004211425781 7.0625596046447753906 1.9225937128067016602 1.9616510868072509766 1.9418215751647949219 24.1999969482421875 2.2850730419158935547 2.1758196353912353516 2.2580180168151855469 2.4804089069366455078 2.3552982807159423828 1.6361986398696899414 6.0451283454895019531 4.8114418983459472656 2.2052760124206542969 2.5622107982635498047 2.353885650634765625 19.01242828369140625 47.078746795654296875 7.5097699165344238281 2.2274570465087890625 2.4248549938201904297 2.2995419502258300781 1.8647279739379882812 1.9090502262115478516 1.9414521455764770508 1.9404594898223876953 2.0326938629150390625 12.10523223876953125 2.2673773765563964844 11.649053573608398438 29.079410552978515625 3.7418186664581298828 8.8769941329956054688 4.6694288253784179688 2.2700016498565673828 2.3082318305969238281 2.4284353256225585938 
47.529743194580078125 1.9586069583892822266 1.0738148689270019531 0.6770076751708984375 1.0974888801574707031 1.2477306127548217773 1.9609984159469604492 2.0437235832214355469 0.40900537371635437012 0.13400000333786010742 0.13400000333786010742 37.49306488037109375 52.49489593505859375 0.58438003063201904297 11.418914794921875 5.6099023818969726562 0.13400000333786010742 1.9731849431991577148 2.5491609573364257812 2.2557396888732910156 1.9127819538116455078 20.893926620483398438 43.12160491943359375 1.3164193630218505859 2.2534856796264648438 2.187480926513671875 2.1239035129547119141 1.2433583736419677734 0.95150864124298095703 0.64475429058074951172 0.13400000333786010742 0.48087006807327270508 1.1478148698806762695 1.7601186037063598633 1.1417675018310546875 0.13400000333786010742 0.13400000333786010742 0.13400000333786010742 1.2055939435958862305 1.8710558414459228516 1.8538161516189575195 1.8998912572860717773 1.8439537286758422852 1.8269079923629760742 1.8761231899261474609 1.9325975179672241211 1.8172385692596435547 1.9038277864456176758 1.8937450647354125977 1.9261617660522460938 24.095117568969726562 1.8934710025787353516 1.9165933132171630859 1.9016097784042358398 2.1332898139953613281 2.2417531013488769531 2.3896324634552001953 2.2274525165557861328 2.5414683818817138672 2.0006766319274902344 0.41579401493072509766 9.4060945510864257812 9.106037139892578125 1.7793784141540527344 19.147375106811523438 57.029880523681640625 63.350131988525390625 48.081340789794921875 8.8018350601196289062 6.7126941680908203125 16.926931381225585938 2.3375914096832275391 1.9514368772506713867 1.8858184814453125 1.8496181964874267578 1.9293878078460693359 2.0833423137664794922 12.629388809204101562 2.2370512485504150391 5.6896848678588867188 43.51850128173828125 12.660820960998535156 14.292790412902832031 2.0840637683868408203 2.1079633235931396484 2.1895024776458740234 2.2294919490814208984 
18.717775344848632812 1.8472763299942016602 1.4390293359756469727 1.3549101352691650391 0.65692961215972900391 1.0343370437622070312 1.7695612907409667969 1.0803585052490234375 0.13400000333786010742 0.13400000333786010742 0.28507217764854431152 23.619258880615234375 1.1638797521591186523 1.7430646419525146484 6.1848955154418945312 0.2413168102502822876 0.40639829635620117188 1.9985939264297485352 2.5400176048278808594 2.2135593891143798828 1.9711147546768188477 6.0153145790100097656 5.8922128677368164062 2.0018713474273681641 1.9252004623413085938 2.1540508270263671875 0.90857577323913574219 2.0058636665344238281 0.54840326309204101562 0.13400000333786010742 0.24130550026893615723 0.7961552739143371582 1.0946654081344604492 1.9516110420227050781 1.8035635948181152344 0.94519478082656860352 0.13400000333786010742 0.13400000333786010742 0.90526235103607177734 15.825346946716308594 1.8416073322296142578 1.8537805080413818359 1.7805552482604980469 1.7945456504821777344 1.8719063997268676758 1.7219438552856445312 1.8474881649017333984 1.9533441066741943359 1.931872248649597168 2.1366961002349853516 1.9576363563537597656 1.8213618993759155273 1.8544210195541381836 1.9164373874664306641 2.4218983650207519531 2.3346910476684570312 2.2947924137115478516 2.3010296821594238281 2.2540469169616699219 1.0199385881423950195 0.13400000333786010742 0.13400000333786010742 0.13400000333786010742 0.13400000333786010742 4.2518157958984375 34.7584228515625 41.88646697998046875 37.0766754150390625 6.0935101509094238281 10.953293800354003906 2.031391143798828125 1.9774506092071533203 1.902950286865234375 1.8900865316390991211 1.8868322372436523438 2.0311496257781982422 3.8952665328979492188 6.1001992225646972656 2.8924946784973144531 21.081476211547851562 14.398638725280761719 5.1596312522888183594 0.53720021247863769531 1.9063272476196289062 1.9721010923385620117 2.0323946475982666016 1.9661005735397338867 
33.150211334228515625 19.729755401611328125 1.234061121940612793 1.1088331937789916992 1.9455816745758056641 1.2863861322402954102 2.2192518711090087891 0.88721686601638793945 1.1775840520858764648 67.44561767578125 32.05828094482421875 19.682382583618164062 36.1417236328125 2.0795984268188476562 0.13400000333786010742 0.88115066289901733398 1.8799660205841064453 2.0752925872802734375 2.1032907962799072266 1.960499882698059082 1.9453428983688354492 1.9379302263259887695 2.0887515544891357422 2.1162853240966796875 2.0934147834777832031 1.882868647575378418 1.7182561159133911133 2.0726878643035888672 0.61862611770629882812 0.26444801688194274902 0.13400000333786010742 1.0499181747436523438 1.8623710870742797852 1.9242509603500366211 1.9135652780532836914 1.5242935419082641602 0.13400000333786010742 0.13400000333786010742 1.5056389570236206055 1.9683372974395751953 1.8720765113830566406 1.7973638772964477539 1.880930781364440918 1.779500126838684082 1.7842085361480712891 1.1014966964721679688 1.7987909317016601562 1.8380262851715087891 1.8588907718658447266 1.9348957538604736328 1.9349753856658935547 1.9397410154342651367 2.0394699573516845703 1.9212397336959838867 2.1552462577819824219 2.2000865936279296875 2.1668114662170410156 2.1632287502288818359 0.9710286259651184082 0.49978882074356079102 0.81915271282196044922 0.86212617158889770508 1.2183731794357299805 21.777139663696289062 24.724699020385742188 18.353776931762695312 37.487949371337890625 13.5495147705078125 1.9806506633758544922 20.328508377075195312 1.9264200925827026367 1.9146028757095336914 1.9091055393218994141 1.8924835920333862305 1.9981948137283325195 2.1280057430267333984 2.2359097003936767578 2.2291855812072753906 2.6574308872222900391 2.6729629039764404297 2.5002427101135253906 0.83291149139404296875 0.56488770246505737305 1.1193839311599731445 1.8818728923797607422 1.8102118968963623047 2.0030374526977539062 
6.21955108642578125 1.2265437841415405273 1.7464488744735717773 1.1982320547103881836 1.4649246931076049805 1.9703099727630615234 1.5634900331497192383 0.39489600062370300293 0.46596011519432067871 46.652004241943359375 48.5716705322265625 5.43473052978515625 0.39489600062370300293 0.39489600062370300293 0.13400000333786010742 1.8940367698669433594 1.4091260433197021484 2.5801653861999511719 2.1538698673248291016 2.0651590824127197266 1.9350150823593139648 2.0052547454833984375 2.3173723220825195312 2.3004822731018066406 2.0105605125427246094 1.6928133964538574219 0.78287017345428466797 0.13400000333786010742 0.13400000333786010742 0.13400000333786010742 0.13400000333786010742 1.4304995536804199219 1.3570047616958618164 2.0117964744567871094 1.9155657291412353516 1.9280045032501220703 0.25303900241851806641 5.4663457870483398438 7.3918452262878417969 2.2904660701751708984 2.1314845085144042969 1.9177975654602050781 1.8571500778198242188 1.7161743640899658203 1.7428532838821411133 1.4198575019836425781 1.9576207399368286133 1.8770813941955566406 1.3223437070846557617 13.667824745178222656 12.924784660339355469 1.9802958965301513672 1.8827165365219116211 50.94144439697265625 1.8987524509429931641 1.875324249267578125 1.8818843364715576172 1.4386928081512451172 0.13400000333786010742 1.2092282772064208984 0.69896310567855834961 0.13400000333786010742 1.5088976621627807617 9.916767120361328125 28.861249923706054688 1.7280380725860595703 9.1824579238891601562 1.9309201240539550781 1.9146077632904052734 1.9473859071731567383 1.8578225374221801758 1.9589189291000366211 1.9074683189392089844 1.8557738065719604492 2.0876922607421875 2.2271800041198730469 1.9172457456588745117 2.3590533733367919922 2.5784440040588378906 2.4829480648040771484 2.4083931446075439453 1.9516413211822509766 0.13400000333786010742 0.23949894309043884277 1.9545319080352783203 1.9884510040283203125 1.9281699657440185547 
27.63204193115234375 1.0570527315139770508 1.8376333713531494141 0.70742487907409667969 1.3367153406143188477 4.4289336204528808594 42.412784576416015625 19.86344146728515625 1.0204539299011230469 10.096112251281738281 1.5037308931350708008 0.28342306613922119141 0.13400000333786010742 5.3074693679809570312 0.27759134769439697266 1.0877741575241088867 0.13400000333786010742 2.2918658256530761719 2.2021636962890625 1.424435734748840332 1.7558542490005493164 1.8961904048919677734 2.5019090175628662109 2.2335085868835449219 1.9662272930145263672 0.28163069486618041992 0.13400000333786010742 0.13400000333786010742 0.23616132140159606934 0.13400000333786010742 0.13400000333786010742 0.89805048704147338867 1.0861107110977172852 1.8340630531311035156 1.8360732793807983398 1.9670349359512329102 1.4507504701614379883 26.191682815551757812 2.4168972969055175781 2.3069946765899658203 1.9886364936828613281 1.8904242515563964844 1.8368649482727050781 1.8233597278594970703 1.8296768665313720703 1.879304051399230957 1.2455780506134033203 0.69254982471466064453 0.35628437995910644531 0.13400000333786010742 1.0628192424774169922 1.9562546014785766602 1.9232920408248901367 13.700534820556640625 22.4556884765625 1.8900164365768432617 2.0158178806304931641 0.95943564176559448242 0.13400000333786010742 0.25640463829040527344 0.13400000333786010742 4.3319582939147949219 17.687974929809570312 40.65544891357421875 27.824069976806640625 9.869770050048828125 1.9304153919219970703 1.8650306463241577148 1.9605208635330200195 1.9058130979537963867 1.9109096527099609375 1.8300113677978515625 1.8303846120834350586 1.9286345243453979492 7.7834863662719726562 37.665874481201171875 18.566568374633789062 2.1742284297943115234 2.7119631767272949219 2.4042849540710449219 2.5328085422515869141 1.4568803310394287109 1.113589167594909668 0.78146284818649291992 2.0117442607879638672 1.9455009698867797852 1.901287078857421875 
1.003922581672668457 1.7018271684646606445 1.3573895692825317383 1.1560388803482055664 1.374507904052734375 10.530730247497558594 40.010204315185546875 3.4766662120819091797 1.2034914493560791016 0.8292719721794128418 1.2182633876800537109 0.54031759500503540039 2.6140053272247314453 0.13400000333786010742 0.2442029416561126709 0.97677177190780639648 0.13400000333786010742 2.2881906032562255859 2.1322739124298095703 1.8148502111434936523 2.1067798137664794922 2.0162692070007324219 1.7623662948608398438 1.9601011276245117188 24.16558837890625 11.826543807983398438 0.2454522550106048584 0.47500407695770263672 0.13400000333786010742 0.13400000333786010742 0.13400000333786010742 0.59886461496353149414 0.65282309055328369141 1.7362127304077148438 10.516916275024414062 1.8509795665740966797 1.9977945089340209961 2.2650606632232666016 2.2417180538177490234 2.4912884235382080078 2.0207419395446777344 1.587066650390625 1.8810695409774780273 1.7497196197509765625 0.87881076335906982422 0.58289265632629394531 1.2370682954788208008 0.13400000333786010742 0.5785687565803527832 0.77758383750915527344 0.13400000333786010742 1.8776305913925170898 1.9172593355178833008 1.8797150850296020508 19.79010772705078125 6.3641571998596191406 1.6045957803726196289 0.13400000333786010742 0.48525699973106384277 1.2475453615188598633 0.77311480045318603516 1.6940425634384155273 1.8894715309143066406 6.4758639335632324219 1.8789688348770141602 1.9144769906997680664 1.9217135906219482422 1.9328340291976928711 1.8910858631134033203 1.8874986171722412109 1.8385982513427734375 1.9220478534698486328 1.9129843711853027344 1.9865039587020874023 1.8729265928268432617 23.24483489990234375 5.9831490516662597656 2.2693278789520263672 2.3859071731567382812 2.277862548828125 2.475902557373046875 2.5156433582305908203 2.4005291461944580078 3.0739645957946777344 2.1095869541168212891 2.147899627685546875 2.3694007396697998047 
1.6205605268478393555 2.3027350902557373047 1.1583310365676879883 1.6783282756805419922 1.1346684694290161133 21.398962020874023438 32.205997467041015625 2.9075398445129394531 1.9809317588806152344 0.77872830629348754883 1.986784815788269043 1.1879881620407104492 14.815901756286621094 1.0840954780578613281 0.13400000333786010742 0.91668802499771118164 2.17032623291015625 1.9101665019989013672 2.4228808879852294922 2.0189659595489501953 2.2673270702362060547 14.350295066833496094 13.120691299438476562 2.0036790370941162109 0.86395215988159179688 0.24903699755668640137 0.13400000333786010742 0.13400000333786010742 0.13400000333786010742 0.13400000333786010742 0.13400000333786010742 0.13400000333786010742 0.44309625029563903809 0.80347287654876708984 13.752964019775390625 1.900357365608215332 2.0978560447692871094 2.3832924365997314453 2.0417490005493164062 2.4944825172424316406 1.8654015064239501953 1.8572900295257568359 1.8558924198150634766 1.4228825569152832031 0.13400000333786010742 0.13400000333786010742 0.13400000333786010742 0.57827073335647583008 1.8526922464370727539 1.9647961854934692383 1.8636621236801147461 1.9795427322387695312 1.8260376453399658203 1.9180120229721069336 1.743989109992980957 1.7073475122451782227 1.6155514717102050781 0.24903699755668640137 0.8049818873405456543 1.7815843820571899414 1.0080831050872802734 1.3724005222320556641 1.9432834386825561523 6.9391150474548339844 1.9130669832229614258 1.9219595193862915039 1.695338129997253418 1.5497775077819824219 1.9323765039443969727 2.0363907814025878906 1.9724485874176025391 1.8774648904800415039 1.9320275783538818359 1.9054460525512695312 1.8709230422973632812 1.9336568117141723633 1.9236491918563842773 42.980792999267578125 2.4682245254516601562 2.2380311489105224609 2.4188013076782226562 15.707332611083984375 3.3585486412048339844 2.2741727828979492188 2.0800912380218505859 2.0432283878326416016 2.3431301116943359375 
0.96184098720550537109 2.4817643165588378906 4.1609320640563964844 0.51027202606201171875 0.36037361621856689453 9.623691558837890625 1.0591895580291748047 0.13400000333786010742 0.74419331550598144531 0.92388439178466796875 1.4304592609405517578 0.6938260197639465332 0.48696812987327575684 1.0170525312423706055 0.70096427202224731445 1.2847770452499389648 2.1033265590667724609 1.7082884311676025391 2.2972586154937744141 2.4357385635375976562 2.3275480270385742188 15.864159584045410156 19.492250442504882812 6.9697184562683105469 0.84038406610488891602 0.13400000333786010742 0.25644287467002868652 0.26444801688194274902 0.13400000333786010742 0.24329237639904022217 0.38689088821411132812 0.13400000333786010742 0.39489600062370300293 1.4999918937683105469 1.6718547344207763672 36.05291748046875 12.369849205017089844 1.8299071788787841797 22.004659652709960938 1.8183243274688720703 1.7938541173934936523 1.8957687616348266602 1.8896138668060302734 1.8933978080749511719 1.5533993244171142578 1.2148984670639038086 1.1447426080703735352 1.8889493942260742188 1.9286100864410400391 2.3298249244689941406 2.1201081275939941406 1.6106215715408325195 1.9843696355819702148 1.5982569456100463867 1.2157847881317138672 1.6190316677093505859 1.8169343471527099609 1.8720550537109375 1.8246998786926269531 1.8373978137969970703 1.3956888914108276367 0.87229257822036743164 1.8669577836990356445 1.9498401880264282227 1.1571515798568725586 1.7708387374877929688 1.9960179328918457031 1.8303934335708618164 1.6154978275299072266 1.9272141456604003906 1.8789237737655639648 1.8843822479248046875 1.862013697624206543 1.866100311279296875 1.9415330886840820312 1.938617706298828125 11.042501449584960938 46.0054779052734375 4.9136095046997070312 3.6186757087707519531 2.17132568359375 34.950954437255859375 2.0277521610260009766 1.9826642274856567383 1.9200414419174194336 2.079349517822265625 1.848346710205078125 
1.3962795734405517578 15.7984771728515625 28.624599456787109375 8.7774934768676757812 1.6797252893447875977 5.2340121269226074219 0.13400000333786010742 0.13400000333786010742 1.4575262069702148438 0.57905352115631103516 9.9839992523193359375 0.13400000333786010742 0.13400000333786010742 0.13400000333786010742 0.13400000333786010742 1.6615999937057495117 1.4809039831161499023 1.1213315725326538086 2.46315765380859375 2.4149627685546875 2.7392730712890625 38.596668243408203125 29.742261886596679688 29.709711074829101562 1.2777662277221679688 0.75777047872543334961 0.56553912162780761719 0.37888574600219726562 0.91543406248092651367 0.79237014055252075195 0.34063050150871276855 0.26444801688194274902 0.13400000333786010742 1.768310546875 35.09085845947265625 20.9591522216796875 9.713237762451171875 2.0942912101745605469 6.2256894111633300781 15.567082405090332031 2.0234324932098388672 1.8933813571929931641 1.8860114812850952148 1.8806546926498413086 1.8395009040832519531 1.7492083311080932617 1.8247342109680175781 1.9443944692611694336 2.0182766914367675781 1.944731593132019043 27.271938323974609375 7.734867095947265625 1.9658446311950683594 1.4573848247528076172 0.56401324272155761719 0.42427831888198852539 20.921148300170898438 29.382963180541992188 1.8724155426025390625 1.8540883064270019531 0.86881470680236816406 2.0180861949920654297 2.0089366436004638672 1.9747798442840576172 1.9699926376342773438 1.9039659500122070312 1.7273814678192138672 1.4903966188430786133 0.75164926052093505859 1.9004588127136230469 1.8544831275939941406 1.8963406085968017578 1.8790394067764282227 2.0100536346435546875 2.0231020450592041016 2.0759418010711669922 19.147550582885742188 48.661937713623046875 8.0027513504028320312 11.806284904479980469 0.50840586423873901367 0.96053510904312133789 1.7860393524169921875 1.8749957084655761719 1.9119437932968139648 1.891308903694152832 1.954437255859375 
1.7006185054779052734 1.3385339975357055664 61.26540374755859375 0.93359911441802978516 27.907777786254882812 0.47888392210006713867 0.13400000333786010742 1.0152978897094726562 1.0812331438064575195 1.3403534889221191406 18.689573287963867188 0.27395650744438171387 0.13400000333786010742 0.13400000333786010742 0.28342306613922119141 1.3135418891906738281 1.3742887973785400391 2.1499464511871337891 2.4238936901092529297 2.5663158893585205078 5.1574368476867675781 27.194627761840820312 2.4800074100494384766 2.2655282020568847656 1.9222353696823120117 28.82373046875 30.9773712158203125 0.93628746271133422852 0.7993023991584777832 0.13400000333786010742 0.25644287467002868652 0.70485782623291015625 0.13400000333786010742 4.7681403160095214844 19.259092330932617188 1.4845284223556518555 1.7931618690490722656 1.8999313116073608398 20.76290130615234375 9.1428174972534179688 2.0764698982238769531 1.8868714570999145508 1.9131414890289306641 1.8799113035202026367 1.8819156885147094727 1.7739893198013305664 1.8412941694259643555 1.8204667568206787109 2.0914022922515869141 1.9482269287109375 44.914424896240234375 12.009746551513671875 1.9802112579345703125 1.1963275671005249023 1.0988916158676147461 7.2345104217529296875 55.7591552734375 40.5099029541015625 1.5547026395797729492 1.8753633499145507812 1.1187757253646850586 1.9127414226531982422 1.8982002735137939453 2.1206972599029541016 2.1803181171417236328 2.3085143566131591797 2.1810534000396728516 1.0996078252792358398 1.6112816333770751953 1.8200687170028686523 1.8360080718994140625 1.8767620325088500977 6.5653867721557617188 1.9509583711624145508 2.0680801868438720703 2.1410515308380126953 2.0547010898590087891 9.8982906341552734375 1.8582607507705688477 1.8288249969482421875 1.5033479928970336914 1.7606856822967529297 1.676015019416809082 27.728389739990234375 1.9218612909317016602 1.8911142349243164062 1.9503895044326782227 
0.96594154834747314453 3.3199031352996826172 23.4400634765625 6.8390965461730957031 12.154681205749511719 1.6912723779678344727 1.1785069704055786133 1.3922967910766601562 14.689345359802246094 6.2539153099060058594 9.9348001480102539062 1.1137462854385375977 0.13400000333786010742 0.37243899703025817871 0.63644605875015258789 0.83781087398529052734 1.601254582405090332 2.2649970054626464844 2.58086395263671875 3.7556014060974121094 4.3272490501403808594 2.501094818115234375 2.6275403499603271484 2.3889338970184326172 23.003589630126953125 31.174623489379882812 11.337868690490722656 24.966039657592773438 1.1318486928939819336 1.5120168924331665039 0.13400000333786010742 0.62979686260223388672 0.39489600062370300293 0.26444801688194274902 22.03033447265625 6.8352108001708984375 1.689810633659362793 1.9697164297103881836 9.0250339508056640625 12.862673759460449219 1.990491032600402832 2.0814869403839111328 1.9166536331176757812 1.7868524789810180664 1.7803586721420288086 1.7381035089492797852 1.7138526439666748047 1.9012849330902099609 1.8872407674789428711 1.9816579818725585938 11.983160018920898438 1.7085055112838745117 1.5258426666259765625 0.34714549779891967773 0.87659436464309692383 5.40576171875 9.05927276611328125 24.342828750610351562 35.9224395751953125 1.2339078187942504883 0.24197281897068023682 0.29998007416725158691 0.24807831645011901855 1.3118327856063842773 1.5943384170532226562 1.3100595474243164062 1.211159825325012207 0.71110826730728149414 2.1439566612243652344 2.0236940383911132812 1.8635405302047729492 3.08234405517578125 1.2525911331176757812 1.6864479780197143555 2.0938236713409423828 2.0461838245391845703 1.9129238128662109375 13.212376594543457031 28.297330856323242188 11.8257598876953125 31.446382522583007812 1.7566736936569213867 1.1296246051788330078 0.76909613609313964844 3.1081006526947021484 0.86891865730285644531 1.4837449789047241211 
0.85005283355712890625 30.076498031616210938 33.174285888671875 16.081659317016601562 1.5515029430389404297 4.5463490486145019531 0.42907565832138061523 1.5234650373458862305 4.7986135482788085938 5.454555511474609375 33.864837646484375 9.952423095703125 0.13400000333786010742 1.0177958011627197266 1.4882794618606567383 0.78170979022979736328 1.9686183929443359375 2.1793234348297119141 2.5619909763336181641 2.6474270820617675781 32.16831207275390625 2.6288979053497314453 2.605030059814453125 2.3782494068145751953 38.447093963623046875 24.201097488403320312 0.80041903257369995117 27.669254302978515625 1.2021120786666870117 1.5235511064529418945 0.13400000333786010742 0.62809658050537109375 0.26444801688194274902 0.13400000333786010742 5.1740555763244628906 0.24882343411445617676 1.2466362714767456055 1.9311729669570922852 1.9188796281814575195 2.0168516635894775391 2.0050520896911621094 2.0222642421722412109 1.9464356899261474609 1.8647059202194213867 1.7962725162506103516 1.805810093879699707 1.9493607282638549805 1.8504462242126464844 1.8766758441925048828 1.8389163017272949219 1.9310336112976074219 1.750128626823425293 0.75347161293029785156 0.13400000333786010742 0.13400000333786010742 0.90505611896514892578 1.9010268449783325195 1.4968665838241577148 1.2136352062225341797 6.5183591842651367188 18.32741546630859375 37.546062469482421875 0.66967493295669555664 0.77578866481781005859 1.3513600826263427734 0.81665772199630737305 0.33806493878364562988 4.47483062744140625 6.6093287467956542969 1.9011758565902709961 1.8756611347198486328 1.3487799167633056641 0.7776349186897277832 1.464915156364440918 1.8863515853881835938 2.0944604873657226562 1.9194841384887695312 1.9765876531600952148 6.5945849418640136719 1.8864258527755737305 1.8410948514938354492 1.5818940401077270508 1.6694840192794799805 6.0217261314392089844 17.320390701293945312 2.0207116603851318359 1.8503537178039550781 
0.77026826143264770508 6.2569532394409179688 22.152553558349609375 41.9128265380859375 1.4453126192092895508 10.221784591674804688 11.691064834594726562 1.3095673322677612305 1.8430520296096801758 29.223133087158203125 14.874233245849609375 10.945707321166992188 1.9271738529205322266 0.13400000333786010742 1.02024078369140625 0.13400000333786010742 1.6592056751251220703 2.4099242687225341797 2.6290557384490966797 4.6187758445739746094 34.215747833251953125 2.4746525287628173828 2.4036974906921386719 3.8357915878295898438 33.8103485107421875 4.9607043266296386719 15.183506011962890625 23.886892318725585938 9.144763946533203125 1.0607163906097412109 1.1308348178863525391 1.4666763544082641602 0.83310699462890625 0.13400000333786010742 0.13400000333786010742 0.13400000333786010742 9.5364322662353515625 1.95702362060546875 6.5138840675354003906 7.7171163558959960938 2.1273589134216308594 1.9050936698913574219 1.7987320423126220703 1.7942876815795898438 1.7732923030853271484 1.9199823141098022461 1.9529870748519897461 1.869078516960144043 1.8887455463409423828 1.8751540184020996094 12.6004486083984375 1.7129065990447998047 0.3405011296272277832 0.13400000333786010742 0.24130550026893615723 17.609846115112304688 20.50205230712890625 0.35890567302703857422 1.1310850381851196289 15.059144973754882812 20.460680007934570312 33.17113494873046875 18.567880630493164062 4.8474435806274414062 5.2948851585388183594 9.7176303863525390625 9.3317203521728515625 5.5165700912475585938 17.310049057006835938 1.8279998302459716797 1.8654271364212036133 1.2554328441619873047 1.1327736377716064453 0.13400000333786010742 1.0508826971054077148 1.8575304746627807617 13.371242523193359375 31.312286376953125 1.8836703300476074219 1.9264169931411743164 2.0014696121215820312 1.9413284063339233398 1.9780869483947753906 1.9204131364822387695 1.999233245849609375 1.9789928197860717773 1.9651561975479125977 
1.6093193292617797852 5.3083395957946777344 0.37781029939651489258 8.1166868209838867188 1.7824157476425170898 1.6697820425033569336 0.13400000333786010742 26.757688522338867188 1.9021801948547363281 9.6768522262573242188 29.339914321899414062 41.1277923583984375 0.66082823276519775391 0.36060824990272521973 0.89631342887878417969 1.3153229951858520508 1.0795369148254394531 2.4785828590393066406 2.4582438468933105469 4.9847440719604492188 18.92028045654296875 1.4977030754089355469 0.98240351676940917969 11.991337776184082031 25.124883651733398438 14.112551689147949219 12.339260101318359375 0.66457921266555786133 3.1418709754943847656 1.7817447185516357422 1.8856370449066162109 1.9423134326934814453 1.9948012828826904297 16.08412933349609375 4.8248200416564941406 0.58582252264022827148 10.444811820983886719 1.7180002927780151367 10.220746994018554688 2.106784820556640625 1.9335254430770874023 2.0930407047271728516 1.8455986976623535156 1.9269118309020996094 1.971546173095703125 1.9875751733779907227 2.1116154193878173828 1.9618231058120727539 2.0007069110870361328 2.0272710323333740234 44.297031402587890625 5.5052447319030761719 0.36299151182174682617 0.13400000333786010742 6.3176755905151367188 22.457509994506835938 3.4779429435729980469 0.13400000333786010742 27.59673309326171875 1.8265491724014282227 5.8532133102416992188 1.5277802944183349609 47.8763275146484375 0.67169213294982910156 22.9743499755859375 11.093454360961914062 1.813386082649230957 2.0409374237060546875 1.8222494125366210938 1.8829438686370849609 1.8799681663513183594 1.8839039802551269531 28.55487060546875 17.603267669677734375 1.1558344364166259766 1.7930294275283813477 1.5152128934860229492 1.8993425369262695312 1.9215854406356811523 2.0197930335998535156 1.9464755058288574219 1.9496225118637084961 1.9918090105056762695 2.0460817813873291016 2.0187113285064697266 2.0421953201293945312 2.0443589687347412109 
12.609961509704589844 4.7053356170654296875 15.741253852844238281 10.705861091613769531 0.70857101678848266602 0.13400000333786010742 1.1774197816848754883 11.215814590454101562 26.233804702758789062 70.44136810302734375 31.301542282104492188 25.706880569458007812 0.63984191417694091797 1.6548682451248168945 1.4876042604446411133 0.63046431541442871094 1.1770421266555786133 1.264216303825378418 1.2739845514297485352 1.5726506710052490234 5.9373335838317871094 0.24287019670009613037 0.57475543022155761719 7.1506571769714355469 34.344264984130859375 6.7823228836059570312 1.4268006086349487305 1.8690228462219238281 2.0369021892547607422 2.0532917976379394531 2.0080497264862060547 1.9774575233459472656 1.9366574287414550781 10.4738616943359375 1.2788262367248535156 0.679195404052734375 0.88033539056777954102 1.5062816143035888672 14.948319435119628906 1.957857966423034668 2.0349171161651611328 1.9444059133529663086 1.8995726108551025391 1.9026837348937988281 1.9230438470840454102 1.8638701438903808594 1.9711066484451293945 1.9096269607543945312 1.9018392562866210938 1.95446014404296875 5.9154219627380371094 27.200138092041015625 0.45371648669242858887 1.012350916862487793 0.69496369361877441406 0.13400000333786010742 4.7895998954772949219 18.756399154663085938 27.194957733154296875 14.425209999084472656 16.287464141845703125 1.0778342485427856445 19.412563323974609375 37.4002685546875 20.730077743530273438 1.8526780605316162109 1.8507190942764282227 1.8884313106536865234 1.9231162071228027344 1.9118227958679199219 1.447682499885559082 1.6475789546966552734 1.4800215959548950195 10.071674346923828125 1.2861540317535400391 1.9696400165557861328 1.8879010677337646484 1.9198983907699584961 2.0792384147644042969 2.0123398303985595703 1.9789911508560180664 1.9979491233825683594 2.0207297801971435547 1.96697998046875 1.997929692268371582 2.0534794330596923828 1.8634610176086425781 
1.4232496023178100586 2.3214139938354492188 18.681001663208007812 1.0052981376647949219 1.1751381158828735352 0.13400000333786010742 1.1896872520446777344 1.5946211814880371094 0.77548879384994506836 48.220249176025390625 39.44100189208984375 79.11348724365234375 1.3945003747940063477 1.4676771163940429688 1.7434701919555664062 0.13400000333786010742 1.9365181922912597656 1.7353115081787109375 3.0499460697174072266 1.1300139427185058594 43.670257568359375 0.13400000333786010742 0.81283342838287353516 10.36072540283203125 15.329789161682128906 19.516336441040039062 1.707384943962097168 13.67581939697265625 2.0149662494659423828 1.9992824792861938477 1.5194604396820068359 5.0534296035766601562 34.0580902099609375 25.67818450927734375 0.67306119203567504883 0.35487470030784606934 6.1608705520629882812 31.421634674072265625 9.8863134384155273438 1.9158525466918945312 1.9939361810684204102 1.886943817138671875 1.8985131978988647461 24.348186492919921875 27.03823089599609375 19.370035171508789062 15.404101371765136719 34.400348663330078125 15.938978195190429688 45.69280242919921875 24.258539199829101562 8.6501989364624023438 14.169769287109375 6.2643685340881347656 5.4228687286376953125 37.577312469482421875 54.846714019775390625 36.771678924560546875 46.118946075439453125 44.033840179443359375 50.955169677734375 7.7572011947631835938 1.8902322053909301758 1.8830887079238891602 1.8663104772567749023 1.84033203125 1.8700656890869140625 1.8836246728897094727 1.9387003183364868164 1.1816464662551879883 0.24514219164848327637 1.6428283452987670898 1.2256162166595458984 1.8493764400482177734 1.4123070240020751953 1.9246599674224853516 1.932232975959777832 1.932408452033996582 1.9867092370986938477 1.9542115926742553711 2.0458011627197265625 1.9851726293563842773 1.9699078798294067383 1.9878935813903808594 2.0057466030120849609 1.7839605808258056641 0.59924203157424926758 
1.0051777362823486328 8.6384077072143554688 15.90550994873046875 1.4084150791168212891 0.6574268341064453125 0.67004179954528808594 0.34815943241119384766 0.52322256565093994141 0.13400000333786010742 34.489841461181640625 23.907087326049804688 70.74129486083984375 2.1795876026153564453 1.6881687641143798828 1.9784262180328369141 1.998583674430847168 1.6938757896423339844 1.6825615167617797852 1.4256389141082763672 47.10950469970703125 61.404956817626953125 6.1545419692993164062 1.1748420000076293945 61.858791351318359375 21.635248184204101562 11.949797630310058594 1.780947566032409668 6.8203067779541015625 2.1820607185363769531 1.9078005552291870117 0.96436280012130737305 23.980190277099609375 26.579923629760742188 44.6787872314453125 0.36234113574028015137 0.13400000333786010742 1.44345855712890625 8.9340620040893554688 9.465427398681640625 28.805194854736328125 6.231296539306640625 1.8899723291397094727 1.8786122798919677734 1.8778455257415771484 29.691869735717773438 11.207132339477539062 1.8682742118835449219 6.6499333381652832031 7.1456823348999023438 23.897680282592773438 19.450435638427734375 53.14632415771484375 54.063655853271484375 26.261016845703125 6.5677537918090820312 22.727075576782226562 10.948516845703125 1.2253981828689575195 5.6419672966003417969 27.994401931762695312 1.8650315999984741211 1.8583257198333740234 1.9119445085525512695 1.8875871896743774414 1.8192379474639892578 1.8726491928100585938 1.8837505578994750977 1.8919234275817871094 1.3469654321670532227 0.49392223358154296875 1.6466221809387207031 1.9119074344635009766 1.7728296518325805664 1.8431988954544067383 0.96742683649063110352 1.7848222255706787109 1.9000725746154785156 1.9321079254150390625 1.9069314002990722656 2.0427005290985107422 2.0393619537353515625 1.9829676151275634766 1.9432123899459838867 1.9035053253173828125 1.936762690544128418 0.97391122579574584961 1.0445708036422729492 
0.57384401559829711914 22.287199020385742188 57.7479248046875 17.822916030883789062 48.302684783935546875 1.8499479293823242188 0.32117500901222229004 13.433185577392578125 5.1558175086975097656 1.9768348932266235352 22.15293121337890625 1.8750307559967041016 2.0225431919097900391 0.13400000333786010742 1.8159985542297363281 1.6811462640762329102 2.2049479484558105469 0.6176726222038269043 1.7043087482452392578 47.61609649658203125 15.792223930358886719 33.6305389404296875 1.9920001029968261719 1.8684662580490112305 2.0367145538330078125 1.9024584293365478516 1.8983161449432373047 1.9294369220733642578 1.9900698661804199219 5.5849328041076660156 1.0153728723526000977 30.763307571411132812 69.0203704833984375 18.11058807373046875 0.57898044586181640625 0.13400000333786010742 0.81392461061477661133 1.3832930326461791992 1.8945381641387939453 6.367435455322265625 1.8643890619277954102 1.8666130304336547852 1.8800983428955078125 1.8844178915023803711 1.9127775430679321289 1.896816253662109375 1.8893694877624511719 1.9505174160003662109 1.9479688405990600586 1.8003653287887573242 1.8964363336563110352 1.847359776496887207 1.9132320880889892578 1.9033155441284179688 1.9198389053344726562 1.9296756982803344727 1.8857523202896118164 0.24514219164848327637 1.4856203794479370117 1.3168368339538574219 1.6304028034210205078 1.9762955904006958008 1.9273086786270141602 1.9306489229202270508 1.9180892705917358398 1.9845169782638549805 1.8564492464065551758 1.8200833797454833984 0.99891602993011474609 0.90963584184646606445 0.97181499004364013672 0.80085313320159912109 1.9071613550186157227 2.0429301261901855469 1.7541241645812988281 1.9119712114334106445 1.9323055744171142578 1.9269831180572509766 1.9217220544815063477 1.985695958137512207 1.9940146207809448242 2.0120584964752197266 1.9605242013931274414 1.4911257028579711914 1.4800028800964355469 5.5182299613952636719 18.519540786743164062 
1.1919744014739990234 23.755704879760742188 23.005743026733398438 36.507228851318359375 34.579624176025390625 39.805767059326171875 1.2128996849060058594 5.5432720184326171875 31.448560714721679688 5.2818360328674316406 1.6851326227188110352 2.0084645748138427734 1.6804748773574829102 0.13400000333786010742 1.0603369474411010742 0.97119599580764770508 1.1608283519744873047 0.95358073711395263672 2.0461788177490234375 1.1822854280471801758 1.3220170736312866211 1.9536037445068359375 2.4198093414306640625 1.7319356203079223633 8.1371860504150390625 7.8389482498168945312 5.9496979713439941406 1.7879748344421386719 22.373889923095703125 33.56963348388671875 4.4278287887573242188 4.3981461524963378906 28.64389801025390625 0.36020600795745849609 0.13400000333786010742 0.13400000333786010742 1.0260623693466186523 6.8006367683410644531 1.9246196746826171875 1.9187718629837036133 1.8792221546173095703 1.8981877565383911133 1.2239035367965698242 1.8617318868637084961 1.8285048007965087891 1.8773198127746582031 1.9458916187286376953 1.907848358154296875 1.8856842517852783203 1.9386664628982543945 1.9046547412872314453 1.8404867649078369141 1.8546689748764038086 1.8594465255737304688 1.8574416637420654297 0.90282332897186279297 0.23630131781101226807 0.24484418332576751709 1.4385015964508056641 0.13400000333786010742 0.95441251993179321289 1.9563338756561279297 1.9336661100387573242 1.9688020944595336914 1.9785999059677124023 2.0521645545959472656 1.9068137407302856445 1.7584694623947143555 1.1178510189056396484 0.58132737874984741211 0.35757011175155639648 0.24514219164848327637 2.0286872386932373047 2.0318200588226318359 1.8354933261871337891 1.9364726543426513672 2.0016734600067138672 1.9684834480285644531 2.1353540420532226562 1.97396087646484375 1.9434516429901123047 1.9833382368087768555 1.9313185214996337891 1.6432355642318725586 1.6929236650466918945 30.449460983276367188 48.5592041015625 
0.68148064613342285156 1.7774600982666015625 5.8258142471313476562 0.24730412662029266357 7.2201428413391113281 2.1644413471221923828 2.2657108306884765625 6.529083251953125 13.219799995422363281 5.4638333320617675781 1.4128624200820922852 1.2608976364135742188 0.32591989636421203613 20.6452178955078125 0.92981362342834472656 1.1802555322647094727 1.5064179897308349609 1.2199723720550537109 2.0110208988189697266 2.0559716224670410156 1.9891206026077270508 1.956005096435546875 0.84446114301681518555 1.0585200786590576172 0.90689599514007568359 25.435533523559570312 35.407146453857421875 27.674135208129882812 8.4159297943115234375 23.391986846923828125 5.9700026512145996094 9.9686956405639648438 1.4482980966567993164 0.13400000333786010742 0.13400000333786010742 0.13400000333786010742 0.25394994020462036133 6.9740033149719238281 1.9656717777252197266 1.8939124345779418945 1.9157223701477050781 1.9059362411499023438 1.7078777551651000977 1.8055171966552734375 1.8749701976776123047 1.9383254051208496094 1.9519191980361938477 1.7037240266799926758 1.9313929080963134766 1.8217473030090332031 1.8206248283386230469 1.8927899599075317383 1.8493955135345458984 1.8571054935455322266 1.7894368171691894531 0.13400000333786010742 0.13400000333786010742 0.35568836331367492676 1.0606385469436645508 0.13400000333786010742 0.34714549779891967773 1.8767580986022949219 1.8827399015426635742 1.9221979379653930664 1.9476770162582397461 1.8500326871871948242 1.9433096647262573242 0.5890369415283203125 0.13400000333786010742 1.4680809974670410156 1.1520689725875854492 1.3844809532165527344 1.9564415216445922852 1.9073185920715332031 1.8989924192428588867 1.9622437953948974609 1.9426734447479248047 1.9271913766860961914 7.3690972328186035156 1.9220522642135620117 5.8110852241516113281 1.9426888227462768555 1.9370673894882202148 1.9374964237213134766 1.9466879367828369141 18.478902816772460938 1.9153314828872680664 
1.8332610130310058594 1.7950186729431152344 1.2845888137817382812 0.23731525242328643799 1.1670044660568237305 2.5018711090087890625 2.4079098701477050781 11.10141754150390625 1.5300425291061401367 1.8948924541473388672 0.30793067812919616699 1.8537064790725708008 1.5093324184417724609 1.1208699941635131836 0.90783292055130004883 1.5393973588943481445 2.3592433929443359375 1.5420904159545898438 1.6797466278076171875 1.4450972080230712891 1.8006644248962402344 0.13400000333786010742 0.52288454771041870117 1.4678771495819091797 2.0668995380401611328 2.1995854377746582031 1.475949406623840332 24.665943145751953125 26.701868057250976562 35.13574981689453125 19.80791473388671875 11.111474990844726562 8.9306917190551757812 1.6651896238327026367 1.4846667051315307617 5.7872633934020996094 1.3250441551208496094 2.0138194561004638672 2.0306556224822998047 1.9633364677429199219 1.8903862237930297852 1.8529809713363647461 1.6221650838851928711 1.8842397928237915039 1.8956692218780517578 1.9248082637786865234 1.9528193473815917969 1.7862615585327148438 1.2687687873840332031 1.888695836067199707 1.9759218692779541016 1.9196896553039550781 1.4643480777740478516 1.70787811279296875 1.3143860101699829102 0.36228320002555847168 0.13400000333786010742 0.2539081275463104248 0.24484418332576751709 0.13400000333786010742 0.13400000333786010742 1.8816434144973754883 1.8361322879791259766 1.9312282800674438477 1.8251705169677734375 1.840678095817565918 1.2041766643524169922 0.13400000333786010742 0.69427549839019775391 1.3824565410614013672 1.8753066062927246094 1.8079061508178710938 1.892533421516418457 1.9565103054046630859 1.5925184488296508789 1.6716516017913818359 1.9125924110412597656 16.642625808715820312 49.156951904296875 32.69942474365234375 10.556487083435058594 1.8986811637878417969 1.8270692825317382812 1.8852614164352416992 1.9057401418685913086 1.9284784793853759766 1.9451210498809814453 
1.9207657575607299805 0.62125635147094726562 4.6159567832946777344 0.3587563633918762207 1.7199733257293701172 7.7099790573120117188 19.066928863525390625 3.0710215568542480469 1.9758583307266235352 1.2245621681213378906 2.2389020919799804688 2.2381780147552490234 0.39489600062370300293 0.13400000333786010742 0.13400000333786010742 0.24616743624210357666 1.7025438547134399414 1.4137213230133056641 1.8876191377639770508 1.6074266433715820312 1.4438405036926269531 0.92964702844619750977 1.6257250308990478516 1.7923643589019775391 2.2084481716156005859 2.0205175876617431641 1.7325445413589477539 24.142629623413085938 13.668505668640136719 11.921384811401367188 2.1245529651641845703 2.2211680412292480469 2.1434156894683837891 2.3026807308197021484 2.2026152610778808594 1.7594993114471435547 1.4782834053039550781 2.0329825878143310547 2.2237615585327148438 1.9344615936279296875 1.850643157958984375 1.93332672119140625 1.6774778366088867188 1.9183293581008911133 1.8862372636795043945 1.8795486688613891602 1.8366026878356933594 1.8919515609741210938 1.9321589469909667969 2.0844862461090087891 1.0612437725067138672 1.690128326416015625 1.9026948213577270508 1.9040590524673461914 1.9050997495651245117 1.9380929470062255859 1.2925767898559570312 1.9798818826675415039 0.45986375212669372559 0.35436326265335083008 1.2190039157867431641 1.6937787532806396484 1.8330004215240478516 1.9894056320190429688 1.7402921915054321289 1.3601307868957519531 0.88880163431167602539 0.13400000333786010742 0.4614734351634979248 1.8699381351470947266 1.9447292089462280273 1.980101466178894043 1.8865493535995483398 1.8666424751281738281 1.1332072019577026367 0.65579199790954589844 0.65579199790954589844 1.9015994071960449219 1.8400784730911254883 1.9246723651885986328 1.9616408348083496094 1.8625979423522949219 1.896765589714050293 1.9057363271713256836 1.8475188016891479492 1.9065841436386108398 1.9496412277221679688 
2.0682375431060791016 0.13400000333786010742 0.13400000333786010742 21.323505401611328125 10.452181816101074219 2.1746890544891357422 2.0779430866241455078 5.2235965728759765625 2.3570203781127929688 1.0593782663345336914 2.4214894771575927734 1.2038770914077758789 0.91668802499771118164 0.65020859241485595703 0.88885766267776489258 0.13400000333786010742 1.3127042055130004883 1.3434847593307495117 1.9802415370941162109 0.91710972785949707031 1.1968542337417602539 2.1549618244171142578 2.2390649318695068359 1.02452850341796875 10.6466217041015625 2.1366181373596191406 2.2492032051086425781 21.634489059448242188 11.698821067810058594 5.6996669769287109375 2.5088531970977783203 2.2392861843109130859 2.2211680412292480469 3.4053227901458740234 2.1324629783630371094 1.1039719581604003906 1.272442936897277832 2.3084087371826171875 1.9619791507720947266 1.9600696563720703125 1.8827873468399047852 1.9278960227966308594 1.7648559808731079102 1.9240286350250244141 1.543544769287109375 1.6931692361831665039 1.7940522432327270508 1.9281297922134399414 1.9117403030395507812 1.1608027219772338867 0.44724535942077636719 1.9415351152420043945 1.5863518714904785156 1.8500636816024780273 1.9127516746520996094 1.8797230720520019531 1.4383044242858886719 1.6792795658111572266 0.34857374429702758789 0.75708276033401489258 0.65671968460083007812 1.9030256271362304688 1.9149608612060546875 1.9051108360290527344 1.0963157415390014648 0.13400000333786010742 0.13400000333786010742 0.70088332891464233398 0.67978906631469726562 1.8821625709533691406 1.9210455417633056641 2.0489728450775146484 1.8977749347686767578 1.8817540407180786133 1.2207784652709960938 0.13400000333786010742 1.3975427150726318359 1.9238573312759399414 1.9002828598022460938 1.9059362411499023438 1.9013739824295043945 1.9167677164077758789 1.8836859464645385742 1.8960945606231689453 1.8748346567153930664 1.6746270656585693359 1.4550287723541259766 
2.0031070709228515625 0.13400000333786010742 0.13400000333786010742 1.0102536678314208984 2.0223295688629150391 2.3141233921051025391 5.5657978057861328125 11.454524040222167969 2.2845988273620605469 1.3089635372161865234 1.5178136825561523438 0.29998007416725158691 0.26444801688194274902 1.1980103254318237305 0.80251032114028930664 0.2413168102502822876 1.3393043279647827148 1.1708817481994628906 1.5005346536636352539 2.0325019359588623047 1.2448617219924926758 2.6984136104583740234 1.8323066234588623047 2.4397408962249755859 27.0312347412109375 1.4453172683715820312 1.7637941837310791016 7.8167057037353515625 22.425235748291015625 3.3147435188293457031 2.0799479484558105469 2.4611887931823730469 2.2586693763732910156 2.1121690273284912109 2.8832252025604248047 1.5657781362533569336 1.7645560503005981445 2.3933575153350830078 2.1518316268920898438 1.9062849283218383789 1.9482856988906860352 1.9181520938873291016 1.9288809299468994141 1.8796975612640380859 1.7738986015319824219 1.7347670793533325195 1.1253874301910400391 1.2387049198150634766 0.13400000333786010742 0.92504638433456420898 0.36955937743186950684 1.9222577810287475586 1.9632838964462280273 1.9061723947525024414 1.6992691755294799805 1.6636031866073608398 1.8181072473526000977 0.97102528810501098633 1.4787963628768920898 1.8314721584320068359 1.7860544919967651367 1.827599644660949707 1.8214720487594604492 1.8679429292678833008 1.1500005722045898438 1.065462946891784668 0.79081648588180541992 1.9104750156402587891 1.7226145267486572266 1.9868938922882080078 2.1077339649200439453 1.9856674671173095703 1.8686182498931884766 1.9443608522415161133 0.46749269962310791016 0.63515263795852661133 1.9868141412734985352 1.9126564264297485352 1.8967559337615966797 1.9055923223495483398 1.9023708105087280273 1.8720722198486328125 1.8992923498153686523 1.8946394920349121094 1.2319144010543823242 0.24058143794536590576 0.5785687565803527832 
1.7864819765090942383 0.13400000333786010742 0.13400000333786010742 1.0152897834777832031 2.1748785972595214844 2.3735346794128417969 9.406650543212890625 2.2105200290679931641 3.3928291797637939453 0.23598431050777435303 0.75553625822067260742 0.13400000333786010742 0.2454522550106048584 1.3304425477981567383 0.8609536290168762207 0.13400000333786010742 0.35701161623001098633 1.2794321775436401367 0.64466375112533569336 1.2244483232498168945 1.2707681655883789062 2.0506293773651123047 2.4114823341369628906 1.9828751087188720703 25.913022994995117188 1.0906701087951660156 1.9173111915588378906 3.5942819118499755859 19.427354812622070312 7.8128490447998046875 1.9405751228332519531 2.3681781291961669922 2.2833058834075927734 1.7132738828659057617 1.6223268508911132812 15.09149169921875 2.3104205131530761719 2.1976983547210693359 2.0169663429260253906 1.9969133138656616211 2.016326904296875 1.7502881288528442383 1.5679086446762084961 1.9889726638793945312 1.5728948116302490234 1.1232749223709106445 0.34878194332122802734 0.13400000333786010742 0.13400000333786010742 0.24184975028038024902 0.48332130908966064453 1.8844733238220214844 1.8562836647033691406 1.8922262191772460938 1.8485441207885742188 1.9394425153732299805 1.8769214153289794922 1.8659923076629638672 1.8945099115371704102 1.7971624135971069336 1.7576564550399780273 1.7069476842880249023 1.7668449878692626953 1.8997454643249511719 1.926047205924987793 1.9276396036148071289 1.904482722282409668 1.9168643951416015625 1.9847159385681152344 1.9124392271041870117 1.9437489509582519531 1.912995457649230957 1.8969465494155883789 1.2558230161666870117 0.13400000333786010742 1.5726222991943359375 1.9362102746963500977 1.9849557876586914062 1.9327770471572875977 1.9427251815795898438 1.9066590070724487305 1.7497074604034423828 1.8874468803405761719 1.8992595672607421875 1.9219073057174682617 1.9147741794586181641 0.95241045951843261719 
0.13400000333786010742 0.13400000333786010742 0.13400000333786010742 1.2305432558059692383 2.3175935745239257812 2.1821842193603515625 1.9412254095077514648 2.3371934890747070312 1.4076216220855712891 0.13400000333786010742 0.57980901002883911133 0.13400000333786010742 0.73087477684020996094 1.8805561065673828125 0.55001288652420043945 0.13400000333786010742 0.57054299116134643555 1.5114651918411254883 2.2886524200439453125 2.4812617301940917969 1.9787588119506835938 2.6843290328979492188 2.4727425575256347656 2.3409745693206787109 1.9008359909057617188 10.488275527954101562 2.2087218761444091797 7.0892910957336425781 13.914349555969238281 9.3160991668701171875 1.9553213119506835938 2.3472859859466552734 2.3846585750579833984 1.7861574888229370117 2.353458404541015625 1.0014039278030395508 1.4874026775360107422 1.9168512821197509766 2.2211053371429443359 2.1781783103942871094 1.8969469070434570312 1.8711093664169311523 1.5382387638092041016 1.8657326698303222656 1.8693507909774780273 0.13400000333786010742 0.13400000333786010742 0.13400000333786010742 0.13400000333786010742 0.13400000333786010742 0.34969949722290039062 1.8094087839126586914 1.8858988285064697266 1.8379290103912353516 1.9238615036010742188 1.8238641023635864258 1.8763663768768310547 1.7646120786666870117 1.8122801780700683594 1.6821509599685668945 1.6821509599685668945 1.7343477010726928711 1.782164454460144043 1.6821509599685668945 1.9303926229476928711 1.8107025623321533203 1.9475601911544799805 1.8335794210433959961 1.9947525262832641602 1.9363224506378173828 2.0320224761962890625 2.0172131061553955078 1.6693862676620483398 0.13400000333786010742 0.13400000333786010742 1.7098649740219116211 2.0459415912628173828 1.8799322843551635742 1.9511717557907104492 1.0164651870727539062 1.0430479049682617188 0.82781088352203369141 1.2766642570495605469 1.8923646211624145508 1.9262009859085083008 1.8542194366455078125 0.13400000333786010742 
