ncols        19
nrows        23
xllcorner    508536.404131802963
yllcorner    5265348.997906560078
cellsize     570.000000000000
NODATA_value -9999
2.3817229270935058594 2.3817229270935058594 2.3817229270935058594 2.3817229270935058594 2.3817229270935058594 2.3817229270935058594 2.3817229270935058594 5.0395522117614746094 2.3817229270935058594 2.3817229270935058594 2.3817229270935058594 2.3817229270935058594 6.90431976318359375 4.8328704833984375 183.353057861328125 256.119842529296875 212.757080078125 216.7242279052734375 141.7957611083984375 
2.3817229270935058594 2.3817229270935058594 2.3817229270935058594 2.3817229270935058594 2.6903469562530517578 27.368242263793945312 36.3853607177734375 27.429994583129882812 2.3817229270935058594 2.3817229270935058594 9.7460126876831054688 42.76422882080078125 111.86977386474609375 167.06317138671875 111.75075531005859375 255.456878662109375 162.9557952880859375 202.2086944580078125 88.405517578125 
2.3817229270935058594 2.3817229270935058594 2.3817229270935058594 2.5874722003936767578 20.841339111328125 32.18581390380859375 41.781162261962890625 2.3817229270935058594 2.5874722003936767578 21.616502761840820312 161.8337860107421875 161.76080322265625 154.7243194580078125 161.021148681640625 170.1204071044921875 155.47003173828125 108.26318359375 64.57562255859375 111.6017303466796875 
2.3817229270935058594 2.3817229270935058594 2.3817229270935058594 8.3629179000854492188 29.523386001586914062 36.9625701904296875 57.3708343505859375 16.3549041748046875 53.988506317138671875 57.874767303466796875 85.000213623046875 104.80188751220703125 60.450199127197265625 178.492279052734375 84.6858978271484375 100.75983428955078125 114.9909820556640625 54.22713470458984375 123.80858612060546875 
2.3817229270935058594 2.3817229270935058594 2.7474119663238525391 22.704179763793945312 41.59178924560546875 92.024749755859375 96.48603057861328125 48.28992462158203125 44.904125213623046875 17.884601593017578125 37.74688720703125 66.21277618408203125 182.5047760009765625 107.1121368408203125 95.99697113037109375 22.681690216064453125 70.0245361328125 27.513570785522460938 23.609979629516601562 
34.901546478271484375 63.218719482421875 21.767839431762695312 31.394153594970703125 27.43314361572265625 136.500091552734375 185.9189453125 109.7022705078125 44.600299835205078125 37.656154632568359375 51.7353057861328125 69.68573760986328125 260.99847412109375 29.153730392456054688 21.076869964599609375 36.31613922119140625 33.97452545166015625 26.0349578857421875 26.939708709716796875 
53.513462066650390625 93.84027862548828125 37.690723419189453125 37.378925323486328125 43.102375030517578125 149.290924072265625 121.52649688720703125 76.60869598388671875 86.98741912841796875 54.007869720458984375 54.57901763916015625 60.005718231201171875 306.3531494140625 27.912542343139648438 25.221769332885742188 34.766834259033203125 41.586444854736328125 30.303411483764648438 27.653591156005859375 
133.7728729248046875 147.834442138671875 37.446811676025390625 38.04547882080078125 80.20113372802734375 61.727855682373046875 83.27292633056640625 133.406402587890625 105.620361328125 108.3231353759765625 64.49945068359375 95.61205291748046875 251.6743316650390625 34.47344970703125 33.121738433837890625 43.430141448974609375 29.350067138671875 28.860891342163085938 36.1499481201171875 
163.8844757080078125 139.06121826171875 40.42679595947265625 43.871791839599609375 89.3068695068359375 129.772857666015625 80.2834320068359375 54.681903839111328125 50.477809906005859375 58.64208984375 24.894094467163085938 77.47951507568359375 170.842803955078125 65.08068084716796875 37.744251251220703125 49.02715301513671875 19.945522308349609375 29.718952178955078125 27.213069915771484375 
133.9080657958984375 127.561920166015625 101.297760009765625 38.3546295166015625 80.8272857666015625 43.975460052490234375 76.9621429443359375 39.614978790283203125 25.4678192138671875 39.423091888427734375 7.643978118896484375 26.13440704345703125 322.848663330078125 73.98314666748046875 69.2064666748046875 32.999011993408203125 28.630588531494140625 27.072305679321289062 10.544451713562011719 
43.844646453857421875 127.58968353271484375 99.72821807861328125 35.944179534912109375 51.070316314697265625 43.933269500732421875 92.639373779296875 29.105772018432617188 47.64730072021484375 40.88198089599609375 36.809253692626953125 225.6189727783203125 77.7300262451171875 78.16620635986328125 68.26165771484375 27.06856536865234375 19.870145797729492188 39.845367431640625 26.131525039672851562 
63.777751922607421875 137.1429901123046875 25.974184036254882812 56.031024932861328125 67.2284393310546875 42.3864898681640625 12.588528633117675781 55.4859619140625 65.91371917724609375 69.79062652587890625 34.83960723876953125 105.35446929931640625 124.74593353271484375 57.211338043212890625 96.3385162353515625 6.9186701774597167969 17.585325241088867188 25.909345626831054688 22.30420684814453125 
152.8463287353515625 34.79769134521484375 44.749462127685546875 42.983127593994140625 30.793369293212890625 14.615482330322265625 21.411060333251953125 18.533519744873046875 27.608457565307617188 40.950466156005859375 34.20790863037109375 56.918437957763671875 97.40924072265625 71.80889129638671875 58.36132049560546875 80.73029327392578125 29.860876083374023438 48.8018951416015625 52.95021820068359375 
107.8990631103515625 73.225006103515625 90.40975189208984375 44.212299346923828125 73.3018646240234375 56.06118011474609375 53.788097381591796875 69.288238525390625 44.56558990478515625 43.49505615234375 16.671661376953125 21.27747344970703125 60.682674407958984375 78.99900054931640625 62.327114105224609375 38.67238616943359375 37.386615753173828125 35.03163909912109375 30.754779815673828125 
48.4465179443359375 55.788425445556640625 32.148113250732421875 7.9336490631103515625 132.8198394775390625 66.72728729248046875 46.08095550537109375 13.810514450073242188 37.305408477783203125 38.014987945556640625 22.319705963134765625 43.08986663818359375 61.147594451904296875 94.1650848388671875 66.703582763671875 37.472011566162109375 32.27130889892578125 65.20240020751953125 110.74893951416015625 
67.59281158447265625 45.378692626953125 12.234717369079589844 75.60378265380859375 81.664764404296875 42.931850433349609375 18.1418304443359375 26.369596481323242188 16.060396194458007812 30.548837661743164062 28.118310928344726562 22.400403976440429688 75.031982421875 57.899868011474609375 94.531646728515625 63.99083709716796875 100.19113922119140625 111.89971923828125 45.281429290771484375 
43.30115509033203125 47.355426788330078125 4.5299315452575683594 95.2996978759765625 110.786407470703125 54.814830780029296875 12.846117973327636719 26.407239913940429688 29.278484344482421875 35.04084014892578125 28.972833633422851562 41.039363861083984375 44.666355133056640625 36.247844696044921875 74.96212005615234375 37.080810546875 46.24094390869140625 48.0244598388671875 43.752536773681640625 
52.3343505859375 36.883037567138671875 45.5347900390625 15.894558906555175781 53.739288330078125 27.049190521240234375 12.741909980773925781 25.55218505859375 39.48044586181640625 31.737396240234375 39.253429412841796875 47.124614715576171875 21.1556854248046875 85.95636749267578125 65.7157135009765625 36.697925567626953125 53.73210906982421875 33.603969573974609375 36.2918548583984375 
35.36507415771484375 50.254486083984375 9.3173732757568359375 34.6290740966796875 65.68731689453125 20.2349090576171875 7.0978417396545410156 48.079280853271484375 40.88775634765625 22.802843093872070312 35.4838714599609375 35.4544525146484375 25.213594436645507812 42.498188018798828125 31.175426483154296875 41.6530609130859375 59.54180145263671875 43.655658721923828125 35.4174041748046875 
73.88525390625 45.7554473876953125 6.9749708175659179688 39.3217315673828125 55.5619354248046875 107.53780364990234375 17.9846649169921875 38.78508758544921875 48.718425750732421875 33.0228118896484375 59.480258941650390625 42.324153900146484375 69.27167510986328125 58.587421417236328125 35.98587799072265625 41.47472381591796875 53.4044189453125 40.939037322998046875 31.458398818969726562 
86.81134033203125 38.43885040283203125 35.87921905517578125 29.929372787475585938 60.14935302734375 55.6614227294921875 84.98584747314453125 35.81279754638671875 41.7483367919921875 48.083126068115234375 70.30757904052734375 54.260486602783203125 65.77034759521484375 45.876209259033203125 24.661357879638671875 29.709516525268554688 34.699260711669921875 33.4438323974609375 92.96942138671875 
27.888502120971679688 52.94476318359375 35.6280670166015625 23.472269058227539062 26.663196563720703125 70.92212677001953125 70.00998687744140625 26.807760238647460938 33.497303009033203125 32.101963043212890625 28.673549652099609375 25.1634063720703125 16.101411819458007812 28.456209182739257812 19.910081863403320312 28.214925765991210938 44.424983978271484375 33.6524200439453125 52.27886962890625 
16.4541778564453125 37.929347991943359375 11.798821449279785156 12.0487823486328125 35.749187469482421875 62.72454071044921875 49.08444976806640625 38.707538604736328125 33.83248138427734375 22.022518157958984375 12.641482353210449219 33.412570953369140625 30.4998016357421875 32.66626739501953125 34.37262725830078125 22.491943359375 32.689586639404296875 29.856655120849609375 23.058481216430664062 
