ncols        19
nrows        23
xllcorner    508536.404131802963
yllcorner    5265348.997906560078
cellsize     570.000000000000
NODATA_value -9999
0.13400000333786010742 0.13400000333786010742 0.13400000333786010742 0.13400000333786010742 0.13400000333786010742 0.13400000333786010742 0.13400000333786010742 0.68867486715316772461 0.13400000333786010742 0.13400000333786010742 0.13400000333786010742 0.13400000333786010742 0.38984462618827819824 0.27298080921173095703 27.369989395141601562 56.326568603515625 43.876926422119140625 41.127826690673828125 19.693578720092773438 
0.13400000333786010742 0.13400000333786010742 0.13400000333786010742 0.13400000333786010742 0.15134489536285400391 2.8475408554077148438 5.7387094497680664062 3.2474427223205566406 0.13400000333786010742 0.13400000333786010742 0.68228209018707275391 4.1340208053588867188 20.324636459350585938 23.239336013793945312 17.562908172607421875 52.824737548828125 32.92246246337890625 42.9736480712890625 21.553144454956054688 
0.13400000333786010742 0.13400000333786010742 0.13400000333786010742 0.14556325972080230713 1.1794747114181518555 2.0186622142791748047 4.7043704986572265625 0.13400000333786010742 0.14556325972080230713 2.472137451171875 30.554201126098632812 22.332561492919921875 23.907596588134765625 30.9091796875 26.839252471923828125 28.053442001342773438 22.445749282836914062 9.5355901718139648438 20.323770523071289062 
0.13400000333786010742 0.13400000333786010742 0.13400000333786010742 0.47237479686737060547 1.8198359012603759766 5.109989166259765625 8.2917356491088867188 2.0355536937713623047 8.0050001144409179688 9.401203155517578125 14.094896316528320312 16.38603973388671875 16.55204010009765625 36.408191680908203125 11.349072456359863281 19.675706863403320312 19.810461044311523438 7.2863001823425292969 23.168424606323242188 
0.13400000333786010742 0.13400000333786010742 0.15471567213535308838 1.2881033420562744141 3.4033703804016113281 14.503185272216796875 16.892406463623046875 5.7158799171447753906 6.0444502830505371094 1.1112892627716064453 3.202945709228515625 8.9287462234497070312 33.214092254638671875 14.057730674743652344 15.811194419860839844 1.3601721525192260742 13.693639755249023438 1.7053331136703491211 1.3363411426544189453 
4.2801117897033691406 10.414069175720214844 1.5288960933685302734 1.7795130014419555664 2.1051192283630371094 20.890422821044921875 35.601833343505859375 20.768640518188476562 5.4820156097412109375 3.0223929882049560547 5.7737579345703125 9.7464780807495117188 48.070766448974609375 3.0577085018157958984 1.1942453384399414062 2.3251440525054931641 2.1012055873870849609 1.4768327474594116211 1.5211505889892578125 
7.3364310264587402344 20.246583938598632812 4.2655892372131347656 2.4219930171966552734 3.8864040374755859375 23.749637603759765625 18.711923599243164062 10.978790283203125 12.414410591125488281 7.242794036865234375 5.5797352790832519531 6.6597614288330078125 55.304019927978515625 1.5873086452484130859 1.4346127510070800781 3.1254556179046630859 3.0425584316253662109 1.7144052982330322266 1.5626680850982666016 
22.87545013427734375 23.973695755004882812 2.3070840835571289062 2.1853396892547607422 11.037595748901367188 9.7662868499755859375 11.347780227661132812 25.510038375854492188 21.99517059326171875 21.163684844970703125 9.5781230926513671875 18.890750885009765625 60.34465789794921875 2.4954538345336914062 1.8814077377319335938 5.2398009300231933594 1.8463511466979980469 1.6303325891494750977 2.0421493053436279297 
27.40776824951171875 27.731641769409179688 2.2953619956970214844 3.1437039375305175781 11.835773468017578125 21.8178863525390625 15.180615425109863281 7.7266292572021484375 7.1820173263549804688 8.3991107940673828125 3.1873257160186767578 14.973696708679199219 31.543956756591796875 7.9555120468139648438 3.0923414230346679688 4.2126703262329101562 1.129168391227722168 2.9670517444610595703 1.5384842157363891602 
16.396673202514648438 20.213470458984375 14.968229293823242188 2.1792459487915039062 14.109771728515625 6.7934985160827636719 13.916492462158203125 3.6230669021606445312 1.448495030403137207 2.9621760845184326172 0.43340349197387695312 1.635069727897644043 53.60153961181640625 14.144031524658203125 13.669987678527832031 1.8708276748657226562 2.1266095638275146484 1.7237697839736938477 0.59326225519180297852 
2.9128284454345703125 24.374948501586914062 13.536190032958984375 2.2124719619750976562 4.4998159408569335938 6.5268926620483398438 15.583404541015625 2.7751781940460205078 7.854991912841796875 3.413360595703125 2.0948672294616699219 41.239727020263671875 14.782126426696777344 11.8650970458984375 10.677863121032714844 2.3090708255767822266 1.2978680133819580078 2.9734199047088623047 1.4822156429290771484 
7.8771309852600097656 22.320100784301757812 1.6199725866317749023 7.9944696426391601562 10.312829017639160156 8.9403400421142578125 2.7055444717407226562 7.8814768791198730469 12.397043228149414062 10.947659492492675781 2.43932342529296875 22.801836013793945312 26.680522918701171875 9.2767419815063476562 17.42449951171875 0.59421658515930175781 0.99278044700622558594 1.472208857536315918 1.2716708183288574219 
28.179162979125976562 3.4983074665069580078 5.5949845314025878906 4.6912717819213867188 2.6934638023376464844 0.82549846172332763672 2.5419602394104003906 1.8412303924560546875 5.2017154693603515625 3.7544338703155517578 1.946994781494140625 7.6830830574035644531 22.54048919677734375 12.497945785522460938 8.8257389068603515625 15.862397193908691406 3.5626339912414550781 8.343540191650390625 4.1562099456787109375 
19.830524444580078125 10.939084053039550781 15.425368309020996094 4.5210022926330566406 11.536672592163085938 13.5277862548828125 16.18260955810546875 14.209986686706542969 3.7864072322845458984 3.9759993553161621094 1.4760441780090332031 1.2045559883117675781 10.868147850036621094 19.314191818237304688 12.465548515319824219 3.8995366096496582031 2.3076083660125732422 1.9823813438415527344 2.9422028064727783203 
4.4056692123413085938 7.6257443428039550781 1.8256897926330566406 1.7440321445465087891 34.65477752685546875 11.300482749938964844 6.0274014472961425781 1.4238362312316894531 2.1123361587524414062 5.4330387115478515625 3.6684973239898681641 7.2002410888671875 7.8930354118347167969 19.638463973999023438 9.9130411148071289062 2.1227941513061523438 2.0891289710998535156 10.095713615417480469 16.155916213989257812 
9.0094280242919921875 9.2979135513305664062 0.69171696901321411133 14.909197807312011719 16.156122207641601562 3.1892721652984619141 1.661921381950378418 1.5001645088195800781 0.91351497173309326172 2.6253833770751953125 1.6827653646469116211 1.5736186504364013672 14.555309295654296875 5.9207577705383300781 16.764530181884765625 10.029684066772460938 21.761730194091796875 26.20751190185546875 2.5619924068450927734 
4.0786180496215820312 4.5111060142517089844 0.25551548600196838379 12.345299720764160156 22.055084228515625 4.6347990036010742188 0.73043572902679443359 2.586582183837890625 2.6142146587371826172 4.1563992500305175781 1.6450338363647460938 5.0800724029541015625 4.3266606330871582031 2.1899626255035400391 11.121458053588867188 3.1675248146057128906 4.7528853416442871094 3.8635959625244140625 2.4725661277770996094 
7.3796701431274414062 3.6436526775360107422 11.138317108154296875 1.7572325468063354492 5.7740092277526855469 1.5362262725830078125 0.72152513265609741211 2.3337354660034179688 2.8584451675415039062 2.0295760631561279297 4.0158567428588867188 5.2011060714721679688 1.3582754135131835938 17.08620452880859375 12.102015495300292969 2.4915006160736083984 6.5640206336975097656 3.3607692718505859375 2.0528032779693603516 
4.6302042007446289062 8.1728334426879882812 0.79081547260284423828 1.9640458822250366211 8.3979997634887695312 2.7061917781829833984 0.43472126126289367676 7.4216432571411132812 3.6728899478912353516 1.2971928119659423828 3.621479034423828125 3.9286096096038818359 3.00185394287109375 4.7426514625549316406 1.7693488597869873047 4.1856861114501953125 11.069884300231933594 4.5421290397644042969 2.0139224529266357422 
12.819777488708496094 4.7703399658203125 0.3957830965518951416 2.2299554347991943359 6.4553761482238769531 17.391115188598632812 1.0213271379470825195 5.0019812583923339844 4.7483263015747070312 1.8673727512359619141 6.5132584571838378906 6.9393849372863769531 11.033083915710449219 6.9199805259704589844 3.2684748172760009766 3.7284166812896728516 7.5138654708862304688 3.4684200286865234375 1.7783342599868774414 
14.797888755798339844 6.6766467094421386719 4.2637681961059570312 1.7008811235427856445 12.081812858581542969 8.2644395828247070312 14.321527481079101562 6.1097383499145507812 4.7463932037353515625 7.2484612464904785156 13.633579254150390625 10.551278114318847656 13.748507499694824219 5.0814576148986816406 1.4024640321731567383 2.0218539237976074219 1.968196868896484375 2.0169103145599365234 13.321625709533691406 
3.3018972873687744141 6.268024444580078125 3.9951043128967285156 1.3317751884460449219 1.5099565982818603516 11.244175910949707031 8.9851474761962890625 1.8761855363845825195 1.9029669761657714844 1.82302093505859375 1.6274402141571044922 1.4210501909255981445 0.90514504909515380859 1.6032019853591918945 1.1252598762512207031 1.6052255630493164062 6.7503409385681152344 2.2647802829742431641 4.7005357742309570312 
0.93374437093734741211 3.2273240089416503906 0.66946935653686523438 0.6812076568603515625 2.0255603790283203125 8.8867139816284179688 5.0807981491088867188 3.3593418598175048828 1.9134886264801025391 1.2363400459289550781 0.71329098939895629883 1.8703014850616455078 1.7267785072326660156 1.8264851570129394531 1.9373620748519897461 1.2794768810272216797 1.8554509878158569336 1.6890871524810791016 1.3044680356979370117 
