ncols        19
nrows        23
xllcorner    508536.404131802963
yllcorner    5265348.997906560078
cellsize     570.000000000000
NODATA_value -9999
0.0046709999442100524902 0.0046709999442100524902 0.0046709999442100524902 0.0046709999442100524902 0.0046709999442100524902 0.0046709999442100524902 0.0046709999442100524902 0.0065320027060806751251 0.0046709999442100524902 0.0046709999442100524902 0.0046709999442100524902 0.0046709999442100524902 0.010860498994588851929 0.0086364541202783584595 0.016876261681318283081 0.0037915734574198722839 0.0094450917094945907593 0.012671202421188354492 0.014649613760411739349 
0.0046709999442100524902 0.0046709999442100524902 0.0046709999442100524902 0.0046709999442100524902 0.0052698780782520771027 0.012396620586514472961 0.010689415968954563141 0.01035165693610906601 0.0046709999442100524902 0.0046709999442100524902 0.014901238493621349335 0.032460775226354598999 0.02605177462100982666 0.028078926727175712585 0.022004649043083190918 0.008795238099992275238 0.026028022170066833496 0.010660252533853054047 0.011560842394828796387 
0.0046709999442100524902 0.0046709999442100524902 0.0046709999442100524902 0.0050702518783509731293 0.026057168841361999512 0.034946784377098083496 0.014683750458061695099 0.0046709999442100524902 0.0050702518783509731293 0.016526702791452407837 0.025703240185976028442 0.037572104483842849731 0.026930656284093856812 0.019952289760112762451 0.02270005643367767334 0.01929859258234500885 0.017472742125391960144 0.032020475715398788452 0.022360280156135559082 
0.0046709999442100524902 0.0046709999442100524902 0.0046709999442100524902 0.013519360683858394623 0.037741120904684066772 0.028242394328117370605 0.0096709253266453742981 0.010037526488304138184 0.01713723503053188324 0.024850791320204734802 0.028946859762072563171 0.018756506964564323425 0.013886770233511924744 0.016564922407269477844 0.032012727111577987671 0.024672990664839744568 0.028381606563925743103 0.041122958064079284668 0.02603591233491897583 
0.0046709999442100524902 0.0046709999442100524902 0.0052562686614692211151 0.031480103731155395508 0.037341445684432983398 0.022641548886895179749 0.0058892937377095222473 0.03266005590558052063 0.02646053023636341095 0.026729969307780265808 0.047018300741910934448 0.024163661524653434753 0.020179800689220428467 0.029567928984761238098 0.030777679756283760071 0.033557157963514328003 0.028184458613395690918 0.038804545998573303223 0.038942914456129074097 
0.018662331625819206238 0.028447914868593215942 0.028068158775568008423 0.041431255638599395752 0.029393104836344718933 0.022563729435205459595 0.01347029954195022583 0.019849553704261779785 0.037821915000677108765 0.042398970574140548706 0.061697755008935928345 0.040368530899286270142 0.017279421910643577576 0.022925734519958496094 0.028850855305790901184 0.050738416612148284912 0.044826790690422058105 0.04129487648606300354 0.043361403048038482666 
0.034787062555551528931 0.024066610261797904968 0.031562190502882003784 0.062336731702089309692 0.040148064494132995605 0.02603974565863609314 0.021497994661331176758 0.026207461953163146973 0.032613012939691543579 0.038921520113945007324 0.063179738819599151611 0.053763728588819503784 0.010106675326824188232 0.037814002484083175659 0.032746613025665283203 0.040944673120975494385 0.062924608588218688965 0.049937538802623748779 0.047111403197050094604 
0.028383225202560424805 0.015934899449348449707 0.05233497917652130127 0.061864584684371948242 0.046624530106782913208 0.028411174193024635315 0.035022895783185958862 0.027403229847550392151 0.024540459737181663513 0.023865832015872001648 0.04799601435661315918 0.037480734288692474365 0.0051380982622504234314 0.048040598630905151367 0.048376761376857757568 0.029827343299984931946 0.043689142912626266479 0.048796493560075759888 0.057859756052494049072 
0.027330085635185241699 0.02278637327253818512 0.062676809728145599365 0.070935189723968505859 0.043490938842296600342 0.03060049004852771759 0.034376211464405059814 0.036230277270078659058 0.036554981023073196411 0.037907287478446960449 0.028128325939178466797 0.044949274510145187378 0.026783615350723266602 0.036673594266176223755 0.049080897122621536255 0.052544292062520980835 0.026140380650758743286 0.031280834227800369263 0.029614841565489768982 
0.056552082300186157227 0.04155886918306350708 0.038252145051956176758 0.056926909834146499634 0.040686659514904022217 0.035335730761289596558 0.038462724536657333374 0.042922012507915496826 0.035881325602531433105 0.04714125022292137146 0.012238884344696998596 0.03922141343355178833 0.010324504226446151733 0.050683107227087020874 0.037053234875202178955 0.048571772873401641846 0.035464845597743988037 0.039135884493589401245 0.014113561250269412994 
0.070121295750141143799 0.0341300182044506073 0.04102239757776260376 0.050907712429761886597 0.060180649161338806152 0.031732771545648574829 0.026735723018646240234 0.03059823252260684967 0.018935732543468475342 0.043555229902267456055 0.055160056799650192261 0.017949394881725311279 0.024851255118846893311 0.036587402224540710449 0.018452506512403488159 0.026123451068997383118 0.027912629768252372742 0.04726186022162437439 0.036423895508050918579 
0.061546176671981811523 0.038975298404693603516 0.036024805158376693726 0.041104901582002639771 0.039107255637645721436 0.0093139596283435821533 0.0097919395193457603455 0.017167178913950920105 0.012509042397141456604 0.041760679334402084351 0.040260054171085357666 0.01370367780327796936 0.013421979732811450958 0.043148636817932128906 0.01765329018235206604 0.010824055410921573639 0.023099165409803390503 0.036646742373704910278 0.029901297762989997864 
0.035053253173828125 0.034303870052099227905 0.030531704425811767578 0.032159827649593353271 0.032882101833820343018 0.023054357618093490601 0.012882234528660774231 0.012255962938070297241 0.013548186048865318298 0.042754378169775009155 0.044700432568788528442 0.054630711674690246582 0.026536453515291213989 0.040405150502920150757 0.040172625333070755005 0.021144930273294448853 0.026744838804006576538 0.028924971818923950195 0.054691437631845474243 
0.043901536613702774048 0.030311014503240585327 0.031048499047756195068 0.039520215243101119995 0.027668153867125511169 0.018744392320513725281 0.0093605173751711845398 0.010087491944432258606 0.034225009381771087646 0.062407601624727249146 0.018136918544769287109 0.030727576464414596558 0.041259229183197021484 0.04176209867000579834 0.037011206150054931641 0.039431832730770111084 0.055627826601266860962 0.055107202380895614624 0.044588651508092880249 
0.058415029197931289673 0.046701133251190185547 0.046398621052503585815 0.0065719746053218841553 0.0029740768950432538986 0.053610485047101974487 0.039446659386157989502 0.017447775229811668396 0.054353475570678710938 0.044522747397422790527 0.021702378988265991211 0.033950984477996826172 0.04817624017596244812 0.038816969841718673706 0.037206150591373443604 0.060288101434707641602 0.048171255737543106079 0.05907093733549118042 0.059994634240865707397 
0.057687237858772277832 0.017381919547915458679 0.018502393737435340881 0.021587509661912918091 0.030098736286163330078 0.064064256846904754639 0.01320535317063331604 0.037761833518743515015 0.022332778200507164001 0.033786687999963760376 0.036956656724214553833 0.022302204743027687073 0.035179477185010910034 0.053873695433139801025 0.03573583066463470459 0.055223550647497177124 0.041105985641479492188 0.040617574006319046021 0.078543737530708312988 
0.047155506908893585205 0.044435374438762664795 0.0067147589288651943207 0.036200635135173797607 0.03252089768648147583 0.051765199750661849976 0.019003035500645637512 0.030401030555367469788 0.032317332923412322998 0.031644433736801147461 0.033356070518493652344 0.040769804269075393677 0.053085394203662872314 0.049163188785314559937 0.051125440746545791626 0.045836307108402252197 0.065091505646705627441 0.072748214006423950195 0.077486477792263031006 
0.029071187600493431091 0.041063662618398666382 0.0081889498978853225708 0.021106770262122154236 0.048414569348096847534 0.037770532071590423584 0.017695371061563491821 0.024015406146645545959 0.039550565183162689209 0.036581087857484817505 0.03536683693528175354 0.045259710401296615601 0.033207427710294723511 0.02388267219066619873 0.037967555224895477295 0.040241599082946777344 0.059104826301336288452 0.035719893872737884521 0.045677736401557922363 
0.028023140504956245422 0.014018891379237174988 0.0079519189894199371338 0.05425357818603515625 0.048646990209817886353 0.013154621236026287079 0.010558260604739189148 0.036760773509740829468 0.045113760977983474731 0.026497550308704376221 0.027675913646817207336 0.031933438032865524292 0.025538576766848564148 0.03860016167163848877 0.03638240322470664978 0.037592351436614990234 0.050076514482498168945 0.049745183438062667847 0.047396752983331680298 
0.019111922010779380798 0.036509480327367782593 0.011117265559732913971 0.06332648545503616333 0.061117451637983322144 0.022426165640354156494 0.025336770340800285339 0.020991440862417221069 0.042884889990091323853 0.036279715597629547119 0.036836232990026473999 0.018146444112062454224 0.020925933495163917542 0.028101906180381774902 0.036871340125799179077 0.035518269985914230347 0.036201242357492446899 0.034280322492122650146 0.031817875802516937256 
0.020265495404601097107 0.021066728979349136353 0.039512991905212402344 0.039106540381908416748 0.026073068380355834961 0.039460022002458572388 0.033945299685001373291 0.019880387932062149048 0.041043549776077270508 0.038039524108171463013 0.030903628095984458923 0.020943000912666320801 0.02130767330527305603 0.032229993492364883423 0.028499551117420196533 0.036867562681436538696 0.041171219199895858765 0.03660680726170539856 0.021108649671077728271 
0.023995537310838699341 0.055645272135734558105 0.038990020751953125 0.034576173871755599976 0.040353324264287948608 0.037884164601564407349 0.050326514989137649536 0.039670467376708984375 0.040041349828243255615 0.03616488724946975708 0.034472305327653884888 0.025026896968483924866 0.015675326809287071228 0.026595314964652061462 0.021445093676447868347 0.037549871951341629028 0.038902994245290756226 0.039699617773294448853 0.028064174577593803406 
0.026197295635938644409 0.052211262285709381104 0.017526671290397644043 0.018107473850250244141 0.055846646428108215332 0.035935711115598678589 0.059103470295667648315 0.047477874904870986938 0.038649972528219223022 0.021191645413637161255 0.013506513088941574097 0.026169532909989356995 0.031548559665679931641 0.024939302355051040649 0.037512987852096557617 0.031959861516952514648 0.036860901862382888794 0.029523085802793502808 0.022838832810521125793 
