ncols        19
nrows        23
xllcorner    508536.404131802963
yllcorner    5265348.997906560078
cellsize     570.000000000000
NODATA_value -9999
0.56772899627685546875 0.56772899627685546875 0.56772899627685546875 0.56772899627685546875 0.56772899627685546875 0.56772899627685546875 0.56772899627685546875 2.4743831157684326172 0.56772899627685546875 0.56772899627685546875 0.56772899627685546875 0.56772899627685546875 1.6696093082427978516 1.1635979413986206055 73.53502655029296875 167.8451690673828125 129.570556640625 119.05855560302734375 51.423641204833984375 
0.56772899627685546875 0.56772899627685546875 0.56772899627685546875 0.56772899627685546875 0.64135915040969848633 7.6625542640686035156 16.655975341796875 8.750270843505859375 0.56772899627685546875 0.56772899627685546875 2.6874666213989257812 12.777042388916015625 61.136440277099609375 62.818798065185546875 50.410083770751953125 155.565093994140625 99.6156005859375 128.1878204345703125 67.4261016845703125 
0.56772899627685546875 0.56772899627685546875 0.56772899627685546875 0.61681580543518066406 5.0862865447998046875 8.023509979248046875 12.786191940307617188 0.56772899627685546875 0.61681580543518066406 7.9499378204345703125 90.67494964599609375 61.34738922119140625 67.5721435546875 91.8046875 75.00177764892578125 81.4925537109375 68.37349700927734375 28.824632644653320312 60.37172698974609375 
0.56772899627685546875 0.56772899627685546875 0.56772899627685546875 2.0211396217346191406 7.5396571159362792969 16.69150543212890625 22.533901214599609375 6.1102128028869628906 23.310625076293945312 29.0548248291015625 42.38764190673828125 46.09275054931640625 53.789211273193359375 108.83869171142578125 32.93502044677734375 60.3317718505859375 59.01303863525390625 23.282472610473632812 69.7425537109375 
0.56772899627685546875 0.56772899627685546875 0.6563930511474609375 5.5406012535095214844 11.433053016662597656 41.7957916259765625 47.513275146484375 18.093946456909179688 18.6316680908203125 4.4182448387145996094 12.024689674377441406 25.462717056274414062 96.56976318359375 39.99591064453125 47.955280303955078125 5.7515411376953125 43.3846282958984375 6.8176331520080566406 5.7268280982971191406 
12.66677093505859375 31.940158843994140625 5.5097799301147460938 7.6642789840698242188 7.5517978668212890625 58.06999969482421875 103.768096923828125 61.926860809326171875 17.903478622436523438 10.372562408447265625 20.672357559204101562 30.700742721557617188 138.2620697021484375 9.90128326416015625 5.143341064453125 9.0388212203979492188 8.8473491668701171875 6.3383383750915527344 6.5133056640625 
23.076498031616210938 62.906421661376953125 13.756871223449707031 9.570865631103515625 12.931425094604492188 67.20340728759765625 52.664691925048828125 31.9510040283203125 36.0226287841796875 23.04930877685546875 18.943307876586914062 22.085927963256835938 156.5349273681640625 6.8401770591735839844 6.18869781494140625 11.80194854736328125 12.082146644592285156 7.3546977043151855469 6.6813578605651855469 
66.5402984619140625 66.94985198974609375 9.724048614501953125 9.2435665130615234375 33.52126312255859375 30.63117218017578125 33.3591766357421875 76.58535003662109375 68.05284881591796875 64.21089935302734375 30.921749114990234375 59.7948150634765625 184.1006011962890625 10.099695205688476562 8.0923643112182617188 16.343786239624023438 7.3915987014770507812 6.9827294349670410156 8.7512960433959960938 
78.90944671630859375 83.622100830078125 9.87192535400390625 12.446278572082519531 35.312488555908203125 64.0212249755859375 47.90146636962890625 24.063100814819335938 24.305395126342773438 26.802783966064453125 11.332425117492675781 48.859954833984375 92.98799896240234375 23.974008560180664062 12.1839447021484375 14.067242622375488281 4.8663935661315917969 10.352443695068359375 6.6569700241088867188 
45.349796295166015625 59.65897369384765625 44.689594268798828125 9.3769435882568359375 44.70305633544921875 22.392230987548828125 44.136871337890625 12.500244140625 6.2374415397644042969 11.019338607788085938 1.8573893308639526367 6.8532900810241699219 147.1265411376953125 46.864955902099609375 44.71231842041015625 8.0439968109130859375 7.8573918342590332031 7.1831107139587402344 2.5491075515747070312 
11.333838462829589844 74.23572540283203125 39.339359283447265625 9.322910308837890625 15.56610870361328125 20.885698318481445312 46.052761077880859375 9.6841535568237304688 23.975599288940429688 12.001862525939941406 9.014072418212890625 118.694580078125 45.5814361572265625 35.951442718505859375 30.900148391723632812 8.0106487274169921875 5.3742060661315917969 11.0438995361328125 6.3841490745544433594 
26.057821273803710938 65.16941070556640625 6.7917714118957519531 26.394222259521484375 32.544338226318359375 27.42195892333984375 9.2674922943115234375 22.224109649658203125 37.048603057861328125 35.3547210693359375 9.9859552383422851562 69.621185302734375 80.682159423828125 31.076162338256835938 51.17098236083984375 2.2410900592803955078 4.2753839492797851562 6.3356838226318359375 5.4841184616088867188 
84.26122283935546875 12.117894172668457031 18.149433135986328125 15.008061408996582031 9.8055105209350585938 3.5369753837585449219 7.4393506050109863281 5.4001636505126953125 16.695323944091796875 13.630290985107421875 8.401912689208984375 25.9268951416015625 71.7135162353515625 40.437755584716796875 28.622282028198242188 48.980457305908203125 11.974671363830566406 26.9725189208984375 13.806374549865722656 
61.814525604248046875 33.20428466796875 46.932659149169921875 15.190909385681152344 35.183841705322265625 43.74024200439453125 52.84232330322265625 42.59454345703125 11.859234809875488281 14.696933746337890625 5.28806304931640625 5.1784954071044921875 36.70586395263671875 64.582763671875 41.097675323486328125 13.338953018188476562 9.2117557525634765625 8.5114355087280273438 11.200680732727050781 
15.77945709228515625 25.399356842041015625 7.8598875999450683594 5.9570722579956054688 107.6304168701171875 37.5698699951171875 19.811834335327148438 5.3638739585876464844 9.0901193618774414062 19.372934341430664062 12.645825386047363281 24.53682708740234375 25.909381866455078125 63.13756561279296875 30.954813003540039062 9.1063737869262695312 8.2546520233154296875 33.563930511474609375 48.240856170654296875 
29.316186904907226562 29.457185745239257812 2.9692132472991943359 46.230182647705078125 50.99054718017578125 12.813414573669433594 4.9044480323791503906 6.458492279052734375 3.9329514503479003906 10.267780303955078125 6.9428873062133789062 5.7046580314636230469 47.482341766357421875 19.833221435546875 51.809909820556640625 33.6739959716796875 69.93177032470703125 84.12549591064453125 10.968469619750976562 
14.087641716003417969 15.053331375122070312 1.0946596860885620117 35.177623748779296875 68.42771148681640625 15.035901069641113281 3.1412236690521240234 9.8537664413452148438 10.145552635192871094 15.106489181518554688 7.1070194244384765625 18.614030838012695312 15.675790786743164062 9.2820482254028320312 35.498836517333984375 12.314656257629394531 17.581806182861328125 14.606881141662597656 10.57070159912109375 
23.335262298583984375 13.263422012329101562 34.94034576416015625 6.5322070121765136719 19.291765213012695312 6.6174554824829101562 3.1039462089538574219 8.0240621566772460938 10.491665840148925781 8.4959087371826171875 14.493273735046386719 18.57733154296875 5.6315774917602539062 52.948284149169921875 39.92653656005859375 10.061947822570800781 22.910320281982421875 11.919255256652832031 8.8585309982299804688 
15.205885887145996094 23.917459487915039062 2.4670009613037109375 8.4356851577758789062 26.91280364990234375 8.5137662887573242188 1.7423093318939208984 25.255083084106445312 13.641595840454101562 5.6038494110107421875 13.06276702880859375 14.272387504577636719 11.067117691040039062 17.004045486450195312 7.6469578742980957031 15.267656326293945312 37.675937652587890625 16.334125518798828125 8.6855649948120117188 
38.194583892822265625 15.310388565063476562 1.6959069967269897461 9.575054168701171875 22.190479278564453125 49.82318115234375 4.3947906494140625 15.164794921875 16.280866622924804688 8.0798063278198242188 20.669828414916992188 21.554731369018554688 32.895191192626953125 20.234655380249023438 11.966650962829589844 12.123910903930664062 25.276807785034179688 12.007935523986816406 7.696315765380859375 
43.459911346435546875 21.305278778076171875 15.713975906372070312 7.334911346435546875 38.873836517333984375 27.562999725341796875 44.1989288330078125 19.720277786254882812 17.127994537353515625 25.24697113037109375 44.24076080322265625 34.159160614013671875 44.2750396728515625 17.700138092041015625 6.0573558807373046875 8.3266458511352539062 8.5084590911865234375 8.5725574493408203125 38.22674560546875 
11.063832283020019531 21.725332260131835938 14.068068504333496094 5.7277331352233886719 6.489959716796875 35.427280426025390625 27.878131866455078125 7.6321172714233398438 8.2220525741577148438 7.8831725120544433594 7.0324316024780273438 6.1559624671936035156 3.9200654029846191406 6.9491858482360839844 4.8662099838256835938 6.9236173629760742188 23.830255508422851562 9.3619098663330078125 14.130170822143554688 
4.0069937705993652344 12.398233413696289062 2.87790679931640625 2.9240045547485351562 8.703845977783203125 27.858675003051757812 17.698360443115234375 12.377294540405273438 8.2719478607177734375 5.3560152053833007812 3.0831074714660644531 8.1260900497436523438 7.4789280891418457031 7.938213348388671875 8.3872089385986328125 5.5111966133117675781 8.0236558914184570312 7.3148813247680664062 5.6493730545043945312 
