ncols        87
nrows        107
xllcorner    508536.404131802963
yllcorner    5265618.997906560078
cellsize     120.000000000000
NODATA_value -9999
2.3817229270935058594 2.3817229270935058594 2.3817229270935058594 2.3817229270935058594 2.3817229270935058594 2.3817229270935058594 2.3817229270935058594 2.3817229270935058594 2.3817229270935058594 2.3817229270935058594 2.3817229270935058594 2.3817229270935058594 2.3817229270935058594 2.3817229270935058594 2.3817229270935058594 2.3817229270935058594 2.3817229270935058594 2.3817229270935058594 2.3817229270935058594 2.3817229270935058594 2.3817229270935058594 2.3817229270935058594 2.3817229270935058594 2.3817229270935058594 2.3817229270935058594 2.3817229270935058594 2.3817229270935058594 2.3817229270935058594 2.3817229270935058594 2.3817229270935058594 2.3817229270935058594 2.3817229270935058594 2.3817229270935058594 2.3817229270935058594 2.3817229270935058594 2.3817229270935058594 2.3817229270935058594 2.3817229270935058594 2.3817229270935058594 2.3817229270935058594 2.3817229270935058594 2.3817229270935058594 2.3817229270935058594 2.3817229270935058594 2.3817229270935058594 2.3817229270935058594 2.3817229270935058594 2.3817229270935058594 2.3817229270935058594 2.3817229270935058594 2.3817229270935058594 2.3817229270935058594 2.3817229270935058594 2.3817229270935058594 2.3817229270935058594 2.3817229270935058594 2.3817229270935058594 2.3817229270935058594 2.3817229270935058594 2.3817229270935058594 2.3817229270935058594 2.3817229270935058594 2.3817229270935058594 2.3817229270935058594 2.3817229270935058594 2.3817229270935058594 4.7028331756591796875 15.410363197326660156 21.40792083740234375 21.2677154541015625 75.154693603515625 171.112518310546875 204.7276763916015625 292.154144287109375 261.495849609375 34.851070404052734375 223.573760986328125 167.5810089111328125 42.1068115234375 175.145660400390625 194.66522216796875 216.00390625 451.38275146484375 310.581939697265625 229.5413055419921875 361.653228759765625 398.5301513671875 
2.3817229270935058594 2.3817229270935058594 2.3817229270935058594 2.3817229270935058594 2.3817229270935058594 2.3817229270935058594 2.3817229270935058594 2.3817229270935058594 2.3817229270935058594 2.3817229270935058594 2.3817229270935058594 2.3817229270935058594 2.3817229270935058594 2.3817229270935058594 2.3817229270935058594 2.3817229270935058594 2.3817229270935058594 2.3817229270935058594 2.3817229270935058594 2.3817229270935058594 2.3817229270935058594 2.3817229270935058594 2.3817229270935058594 2.3817229270935058594 2.3817229270935058594 2.3817229270935058594 2.3817229270935058594 2.3817229270935058594 2.3817229270935058594 2.3817229270935058594 2.3817229270935058594 2.3817229270935058594 2.3817229270935058594 2.3817229270935058594 2.3817229270935058594 2.3817229270935058594 2.3817229270935058594 2.3817229270935058594 2.3817229270935058594 2.3817229270935058594 2.3817229270935058594 2.3817229270935058594 2.3817229270935058594 2.3817229270935058594 2.3817229270935058594 2.3817229270935058594 2.3817229270935058594 2.3817229270935058594 2.3817229270935058594 2.3817229270935058594 2.3817229270935058594 2.3817229270935058594 2.3817229270935058594 2.3817229270935058594 2.3817229270935058594 2.3817229270935058594 2.3817229270935058594 2.3817229270935058594 2.3817229270935058594 2.3817229270935058594 2.3817229270935058594 2.3817229270935058594 2.3817229270935058594 2.3817229270935058594 2.3817229270935058594 4.7028331756591796875 64.9802093505859375 59.474460601806640625 113.56417083740234375 120.0392913818359375 221.8990631103515625 561.3116455078125 245.7779083251953125 228.5484161376953125 255.81097412109375 142.0981292724609375 182.72967529296875 237.57720947265625 230.090789794921875 161.0204620361328125 114.24555206298828125 134.42559814453125 105.3054962158203125 141.27227783203125 138.9418182373046875 291.797637939453125 29.36299896240234375 
2.3817229270935058594 2.3817229270935058594 2.3817229270935058594 2.3817229270935058594 2.3817229270935058594 2.3817229270935058594 2.3817229270935058594 2.3817229270935058594 2.3817229270935058594 2.3817229270935058594 2.3817229270935058594 2.3817229270935058594 2.3817229270935058594 2.3817229270935058594 2.3817229270935058594 2.3817229270935058594 2.3817229270935058594 2.3817229270935058594 2.3817229270935058594 2.3817229270935058594 2.3817229270935058594 2.3817229270935058594 2.3817229270935058594 2.3817229270935058594 2.3817229270935058594 2.3817229270935058594 2.3817229270935058594 2.3817229270935058594 2.3817229270935058594 2.3817229270935058594 2.3817229270935058594 2.3817229270935058594 2.3817229270935058594 2.3817229270935058594 2.3817229270935058594 2.3817229270935058594 2.3817229270935058594 2.3817229270935058594 2.3817229270935058594 2.3817229270935058594 2.3817229270935058594 2.3817229270935058594 2.3817229270935058594 2.3817229270935058594 2.3817229270935058594 2.3817229270935058594 2.3817229270935058594 2.3817229270935058594 2.3817229270935058594 2.3817229270935058594 2.3817229270935058594 2.3817229270935058594 2.3817229270935058594 2.3817229270935058594 2.3817229270935058594 2.3817229270935058594 2.3817229270935058594 2.3817229270935058594 2.3817229270935058594 11.699057579040527344 17.504642486572265625 6.5407929420471191406 2.3817229270935058594 2.3817229270935058594 2.3817229270935058594 10.288768768310546875 24.096954345703125 21.884433746337890625 122.6900177001953125 291.246826171875 275.1678466796875 440.7244873046875 320.819427490234375 296.376556396484375 293.62091064453125 177.5197601318359375 52.1183013916015625 338.468017578125 226.3489532470703125 279.67926025390625 181.769195556640625 222.314453125 198.9200897216796875 416.17901611328125 244.8667144775390625 125.0479888916015625 2.3817229270935058594 
2.3817229270935058594 2.3817229270935058594 2.3817229270935058594 2.3817229270935058594 2.3817229270935058594 2.3817229270935058594 2.3817229270935058594 2.3817229270935058594 2.3817229270935058594 2.3817229270935058594 2.3817229270935058594 2.3817229270935058594 2.3817229270935058594 2.3817229270935058594 2.3817229270935058594 2.3817229270935058594 2.3817229270935058594 2.3817229270935058594 2.3817229270935058594 2.3817229270935058594 2.3817229270935058594 2.3817229270935058594 2.3817229270935058594 2.3817229270935058594 2.3817229270935058594 2.3817229270935058594 2.3817229270935058594 2.3817229270935058594 2.3817229270935058594 2.3817229270935058594 2.3817229270935058594 2.3817229270935058594 2.3817229270935058594 2.3817229270935058594 2.3817229270935058594 2.3817229270935058594 2.3817229270935058594 2.3817229270935058594 2.3817229270935058594 2.3817229270935058594 2.3817229270935058594 2.3817229270935058594 2.3817229270935058594 2.3817229270935058594 2.3817229270935058594 2.3817229270935058594 2.3817229270935058594 2.3817229270935058594 2.3817229270935058594 2.3817229270935058594 2.3817229270935058594 2.3817229270935058594 2.3817229270935058594 2.3817229270935058594 2.3817229270935058594 2.3817229270935058594 2.3817229270935058594 2.3817229270935058594 7.0239434242248535156 30.036138534545898438 25.93642425537109375 2.3817229270935058594 10.147566795349121094 2.3817229270935058594 2.3817229270935058594 17.855791091918945312 280.21197509765625 25.99929046630859375 212.9174957275390625 507.226593017578125 519.10198974609375 452.683013916015625 265.190277099609375 239.8387451171875 244.9467620849609375 252.0402069091796875 185.507843017578125 435.689483642578125 94.812347412109375 404.556488037109375 235.293365478515625 324.4061279296875 220.30316162109375 254.660247802734375 108.4022216796875 41.142704010009765625 10.308808326721191406 
2.3817229270935058594 2.3817229270935058594 2.3817229270935058594 2.3817229270935058594 2.3817229270935058594 2.3817229270935058594 2.3817229270935058594 2.3817229270935058594 2.3817229270935058594 2.3817229270935058594 2.3817229270935058594 2.3817229270935058594 2.3817229270935058594 2.3817229270935058594 2.3817229270935058594 2.3817229270935058594 2.3817229270935058594 2.3817229270935058594 2.3817229270935058594 2.3817229270935058594 2.3817229270935058594 2.3817229270935058594 2.3817229270935058594 2.3817229270935058594 2.3817229270935058594 2.3817229270935058594 2.3817229270935058594 2.3817229270935058594 2.3817229270935058594 2.3817229270935058594 2.3817229270935058594 2.3817229270935058594 2.3817229270935058594 8.9429149627685546875 74.96828460693359375 97.01373291015625 2.3817229270935058594 2.3817229270935058594 2.3817229270935058594 2.3817229270935058594 2.3817229270935058594 2.3817229270935058594 2.3817229270935058594 2.3817229270935058594 2.3817229270935058594 2.3817229270935058594 2.3817229270935058594 2.3817229270935058594 2.3817229270935058594 2.3817229270935058594 2.3817229270935058594 2.3817229270935058594 2.3817229270935058594 2.3817229270935058594 2.3817229270935058594 2.3817229270935058594 2.3817229270935058594 9.3450536727905273438 13.792766571044921875 14.800516128540039062 2.3817229270935058594 2.3817229270935058594 7.4251999855041503906 19.536212921142578125 2.3817229270935058594 2.3817229270935058594 24.511411666870117188 33.869781494140625 196.6030426025390625 431.3802490234375 265.99835205078125 272.764739990234375 262.31536865234375 231.66107177734375 283.471832275390625 323.079681396484375 311.9354248046875 318.645782470703125 45.89948272705078125 213.05218505859375 62.772735595703125 414.455078125 167.3008270263671875 265.310577392578125 53.30908203125 6.1527514457702636719 11.719099044799804688 
2.3817229270935058594 2.3817229270935058594 2.3817229270935058594 2.3817229270935058594 2.3817229270935058594 2.3817229270935058594 2.3817229270935058594 2.3817229270935058594 2.3817229270935058594 2.3817229270935058594 2.3817229270935058594 2.3817229270935058594 2.3817229270935058594 2.3817229270935058594 2.3817229270935058594 2.3817229270935058594 2.3817229270935058594 2.3817229270935058594 2.3817229270935058594 2.3817229270935058594 2.3817229270935058594 2.3817229270935058594 2.3817229270935058594 2.3817229270935058594 2.3817229270935058594 2.3817229270935058594 2.3817229270935058594 2.3817229270935058594 2.3817229270935058594 2.3817229270935058594 2.3817229270935058594 2.3817229270935058594 17.321552276611328125 47.487865447998046875 36.9514007568359375 317.631011962890625 2.3817229270935058594 2.3817229270935058594 2.3817229270935058594 2.3817229270935058594 2.3817229270935058594 2.3817229270935058594 2.3817229270935058594 2.3817229270935058594 2.3817229270935058594 2.3817229270935058594 2.3817229270935058594 2.3817229270935058594 2.3817229270935058594 2.3817229270935058594 2.3817229270935058594 2.3817229270935058594 2.3817229270935058594 7.4251999855041503906 10.458726882934570312 16.308521270751953125 20.221372604370117188 61.3928070068359375 16.854831695556640625 27.805265426635742188 82.3802337646484375 131.973724365234375 21.01018524169921875 31.483865737915039062 8.9560394287109375 2.3817229270935058594 27.264326095581054688 36.554027557373046875 23.007801055908203125 152.1772308349609375 153.4076995849609375 156.1526031494140625 156.147796630859375 301.81231689453125 424.626739501953125 266.342498779296875 255.62835693359375 314.29815673828125 42.3052215576171875 72.455078125 176.00958251953125 166.935516357421875 302.421875 200.8504791259765625 16.021722793579101562 2.3817229270935058594 2.3817229270935058594 
2.3817229270935058594 2.3817229270935058594 2.3817229270935058594 2.3817229270935058594 2.3817229270935058594 2.3817229270935058594 2.3817229270935058594 2.3817229270935058594 2.3817229270935058594 2.3817229270935058594 2.3817229270935058594 2.3817229270935058594 2.3817229270935058594 2.3817229270935058594 2.3817229270935058594 2.3817229270935058594 2.3817229270935058594 2.3817229270935058594 2.3817229270935058594 2.3817229270935058594 2.3817229270935058594 2.3817229270935058594 2.3817229270935058594 2.3817229270935058594 2.3817229270935058594 2.3817229270935058594 2.3817229270935058594 2.3817229270935058594 2.3817229270935058594 2.3817229270935058594 2.3817229270935058594 216.03131103515625 110.1900482177734375 18.981998443603515625 6.4945330619812011719 9.7796792984008789062 2.3817229270935058594 2.3817229270935058594 2.3817229270935058594 2.3817229270935058594 2.3817229270935058594 2.3817229270935058594 2.3817229270935058594 2.3817229270935058594 2.3817229270935058594 2.3817229270935058594 2.3817229270935058594 2.3817229270935058594 2.3817229270935058594 2.3817229270935058594 2.3817229270935058594 15.906245231628417969 11.664401054382324219 14.6204376220703125 33.563449859619140625 33.48204803466796875 33.591724395751953125 140.11993408203125 276.254486083984375 108.40234375 25.950992584228515625 28.2787628173828125 18.63436126708984375 34.86348724365234375 236.34820556640625 19.276683807373046875 33.331676483154296875 35.1851348876953125 27.22888946533203125 18.107410430908203125 24.546689987182617188 277.34564208984375 338.409027099609375 240.1431884765625 285.7757568359375 188.283416748046875 446.25323486328125 100.4961700439453125 63.771495819091796875 161.3244171142578125 264.642364501953125 229.27545166015625 333.361297607421875 167.8759765625 362.7178955078125 108.76934051513671875 56.0890655517578125 
2.3817229270935058594 2.3817229270935058594 2.3817229270935058594 2.3817229270935058594 2.3817229270935058594 2.3817229270935058594 2.3817229270935058594 2.3817229270935058594 2.3817229270935058594 2.3817229270935058594 2.3817229270935058594 2.3817229270935058594 2.3817229270935058594 2.3817229270935058594 2.3817229270935058594 2.3817229270935058594 2.3817229270935058594 2.3817229270935058594 2.3817229270935058594 2.3817229270935058594 2.3817229270935058594 2.3817229270935058594 2.3817229270935058594 2.3817229270935058594 2.3817229270935058594 2.3817229270935058594 7.0371770858764648438 11.175841331481933594 4.1860432624816894531 20.001573562622070312 77.1615142822265625 98.96273040771484375 11.47165679931640625 18.474651336669921875 12.746338844299316406 2.3817229270935058594 2.3817229270935058594 2.3817229270935058594 2.3817229270935058594 2.3817229270935058594 2.3817229270935058594 2.3817229270935058594 2.3817229270935058594 2.3817229270935058594 2.3817229270935058594 2.3817229270935058594 2.3817229270935058594 2.3817229270935058594 2.3817229270935058594 4.7028331756591796875 17.697834014892578125 16.746368408203125 39.32590484619140625 214.418182373046875 40.24900054931640625 34.494441986083984375 38.30182647705078125 33.0012664794921875 258.228607177734375 260.555267333984375 23.884456634521484375 31.100973129272460938 24.02457427978515625 96.9566802978515625 55.900218963623046875 13.556253433227539062 33.004985809326171875 54.656711578369140625 148.270416259765625 71.3324432373046875 115.71147918701171875 256.70050048828125 260.275482177734375 149.968170166015625 184.471893310546875 234.7296142578125 266.4852294921875 36.2455291748046875 156.7347564697265625 363.104278564453125 328.300262451171875 285.17767333984375 234.59600830078125 118.47516632080078125 230.80670166015625 258.07940673828125 204.600830078125 
2.3817229270935058594 2.3817229270935058594 2.3817229270935058594 2.3817229270935058594 2.3817229270935058594 2.3817229270935058594 2.3817229270935058594 2.3817229270935058594 2.3817229270935058594 2.3817229270935058594 2.3817229270935058594 2.3817229270935058594 2.3817229270935058594 2.3817229270935058594 2.3817229270935058594 2.3817229270935058594 2.3817229270935058594 2.3817229270935058594 2.3817229270935058594 2.3817229270935058594 2.3817229270935058594 2.3817229270935058594 2.3817229270935058594 2.3817229270935058594 13.987274169921875 23.635225296020507812 33.437744140625 20.41429901123046875 2.3817229270935058594 124.29045867919921875 51.087970733642578125 12.116852760314941406 17.17131805419921875 13.014739036560058594 6.634929656982421875 2.3817229270935058594 2.3817229270935058594 2.3817229270935058594 2.3817229270935058594 2.3817229270935058594 2.3817229270935058594 2.3817229270935058594 2.3817229270935058594 2.3817229270935058594 2.3817229270935058594 2.3817229270935058594 2.3817229270935058594 2.3817229270935058594 9.1505460739135742188 11.47165679931640625 4.7028331756591796875 27.57643890380859375 24.151746749877929688 20.753999710083007812 67.89270782470703125 27.715673446655273438 38.31713104248046875 32.6553497314453125 112.96262359619140625 240.9484100341796875 87.76763916015625 30.740352630615234375 282.016845703125 339.948272705078125 6.4715027809143066406 4.1665282249450683594 33.179546356201171875 289.348876953125 328.8831787109375 159.2692413330078125 325.198394775390625 278.201690673828125 269.489013671875 154.6308441162109375 82.62740325927734375 89.02593231201171875 227.1953887939453125 31.291700363159179688 70.95122528076171875 31.466175079345703125 122.4735107421875 266.107086181640625 292.5064697265625 97.37183380126953125 203.2979278564453125 21.843257904052734375 194.1282806396484375 
2.3817229270935058594 2.3817229270935058594 2.3817229270935058594 2.3817229270935058594 2.3817229270935058594 2.3817229270935058594 2.3817229270935058594 2.3817229270935058594 2.3817229270935058594 2.3817229270935058594 2.3817229270935058594 2.3817229270935058594 2.3817229270935058594 2.3817229270935058594 2.3817229270935058594 2.3817229270935058594 2.3817229270935058594 2.3817229270935058594 2.3817229270935058594 2.3817229270935058594 2.3817229270935058594 2.3817229270935058594 15.13999176025390625 26.561853408813476562 507.841461181640625 14.352974891662597656 28.251417160034179688 27.104236602783203125 21.421289443969726562 51.5711212158203125 4.2196826934814453125 26.071575164794921875 11.77164459228515625 6.634929656982421875 2.3817229270935058594 2.3817229270935058594 2.3817229270935058594 2.3817229270935058594 2.3817229270935058594 2.3817229270935058594 2.3817229270935058594 2.3817229270935058594 2.3817229270935058594 2.3817229270935058594 2.3817229270935058594 2.3817229270935058594 2.3817229270935058594 13.277624130249023438 26.480365753173828125 98.9786376953125 46.87386322021484375 174.890625 33.98619842529296875 46.6560821533203125 233.6526336669921875 39.316005706787109375 45.465091705322265625 118.30922698974609375 233.0271148681640625 497.0113525390625 28.363885879516601562 28.663707733154296875 209.4961090087890625 413.746307373046875 360.96807861328125 9.6149530410766601562 33.525730133056640625 176.065155029296875 113.11285400390625 106.20537567138671875 31.753946304321289062 358.169708251953125 337.4581298828125 233.074981689453125 184.6613006591796875 192.9684295654296875 283.7835693359375 19.24102020263671875 119.3072357177734375 23.41640472412109375 95.1117706298828125 153.0414581298828125 116.0855865478515625 242.5034637451171875 2.3817229270935058594 24.291843414306640625 136.613311767578125 
2.3817229270935058594 2.3817229270935058594 2.3817229270935058594 2.3817229270935058594 2.3817229270935058594 2.3817229270935058594 2.3817229270935058594 2.3817229270935058594 2.3817229270935058594 2.3817229270935058594 2.3817229270935058594 2.3817229270935058594 2.3817229270935058594 2.3817229270935058594 2.3817229270935058594 2.3817229270935058594 2.3817229270935058594 2.3817229270935058594 2.3817229270935058594 2.3817229270935058594 7.0239434242248535156 22.422725677490234375 29.3245086669921875 33.28501129150390625 19.664896011352539062 28.85416412353515625 32.46640777587890625 19.951879501342773438 22.08304595947265625 335.225830078125 53.543201446533203125 28.312713623046875 6.3126463890075683594 2.3817229270935058594 2.3817229270935058594 2.3817229270935058594 2.3817229270935058594 2.3817229270935058594 2.3817229270935058594 2.3817229270935058594 2.3817229270935058594 2.3817229270935058594 2.3817229270935058594 2.3817229270935058594 2.3817229270935058594 2.3817229270935058594 9.3450536727905273438 30.471189498901367188 233.75439453125 108.93703460693359375 109.85986328125 250.20318603515625 79.17974853515625 390.185577392578125 70.7107391357421875 43.94974517822265625 41.73857879638671875 340.72265625 101.6018524169921875 335.202606201171875 29.571493148803710938 17.44022369384765625 285.29302978515625 145.2540283203125 247.4825286865234375 99.64727020263671875 30.571947097778320312 422.832244873046875 238.4296875 457.47821044921875 99.91576385498046875 171.08660888671875 271.0323486328125 223.2467498779296875 159.208770751953125 111.71758270263671875 48.706020355224609375 14.346400260925292969 133.05487060546875 62.034458160400390625 87.237152099609375 101.1203460693359375 105.6399078369140625 196.7209625244140625 26.496622085571289062 17.892047882080078125 182.2090301513671875 
2.3817229270935058594 2.3817229270935058594 2.3817229270935058594 2.3817229270935058594 2.3817229270935058594 2.3817229270935058594 2.3817229270935058594 2.3817229270935058594 2.3817229270935058594 2.3817229270935058594 2.3817229270935058594 2.3817229270935058594 2.3817229270935058594 2.3817229270935058594 2.3817229270935058594 2.3817229270935058594 2.3817229270935058594 2.3817229270935058594 2.3817229270935058594 2.3817229270935058594 19.595197677612304688 25.074443817138671875 26.849866867065429688 23.300020217895507812 20.098722457885742188 33.953800201416015625 35.605136871337890625 33.408107757568359375 21.73891448974609375 95.308135986328125 136.913665771484375 8.0315494537353515625 4.5083260536193847656 2.3817229270935058594 2.3817229270935058594 2.3817229270935058594 2.3817229270935058594 2.3817229270935058594 2.3817229270935058594 2.3817229270935058594 2.3817229270935058594 2.3817229270935058594 2.3817229270935058594 2.3817229270935058594 2.3817229270935058594 2.3817229270935058594 45.2912139892578125 23.372684478759765625 37.5246429443359375 42.976985931396484375 53.470844268798828125 291.462921142578125 397.083587646484375 124.6785430908203125 52.452789306640625 39.15865325927734375 91.48189544677734375 42.857448577880859375 198.331695556640625 293.729522705078125 182.7111358642578125 2.3817229270935058594 339.429656982421875 233.4934234619140625 247.5042572021484375 111.7150115966796875 155.3233184814453125 33.261959075927734375 434.821746826171875 419.37872314453125 143.775299072265625 75.80881500244140625 440.806304931640625 143.2198333740234375 58.404781341552734375 21.269140243530273438 11.940854072570800781 68.75954437255859375 75.4188079833984375 118.31154632568359375 150.9540557861328125 60.76459503173828125 19.673702239990234375 18.660398483276367188 79.48200225830078125 109.4073486328125 124.9615478515625 
2.3817229270935058594 2.3817229270935058594 2.3817229270935058594 2.3817229270935058594 2.3817229270935058594 2.3817229270935058594 2.3817229270935058594 2.3817229270935058594 2.3817229270935058594 2.3817229270935058594 2.3817229270935058594 2.3817229270935058594 2.3817229270935058594 2.3817229270935058594 2.3817229270935058594 2.3817229270935058594 2.3817229270935058594 2.3817229270935058594 2.3817229270935058594 4.7028331756591796875 18.259433746337890625 12.409329414367675781 25.636384963989257812 24.429170608520507812 19.745599746704101562 35.8524322509765625 40.5543670654296875 33.68625640869140625 10.829931259155273438 8.210643768310546875 14.333898544311523438 10.103173255920410156 4.5083260536193847656 2.3817229270935058594 2.3817229270935058594 2.3817229270935058594 2.3817229270935058594 2.3817229270935058594 2.3817229270935058594 2.3817229270935058594 2.3817229270935058594 2.3817229270935058594 2.3817229270935058594 2.3817229270935058594 9.3450536727905273438 18.384283065795898438 33.222866058349609375 34.22580718994140625 79.30251312255859375 136.548065185546875 135.218597412109375 383.911224365234375 360.23663330078125 205.466796875 566.54083251953125 102.0777587890625 120.12802886962890625 88.7512969970703125 122.46845245361328125 206.5861968994140625 78.01837158203125 2.3817229270935058594 80.68808746337890625 160.47003173828125 16.423250198364257812 78.0593719482421875 386.80426025390625 195.447357177734375 228.905487060546875 83.17949676513671875 28.85056304931640625 29.0106353759765625 19.993824005126953125 128.8330230712890625 183.8262939453125 49.834667205810546875 34.068141937255859375 98.20125579833984375 268.163909912109375 215.286865234375 54.02935028076171875 39.98459625244140625 45.82195281982421875 37.552825927734375 26.649709701538085938 186.7028045654296875 225.280059814453125 
2.3817229270935058594 2.3817229270935058594 2.3817229270935058594 2.3817229270935058594 2.3817229270935058594 2.3817229270935058594 2.3817229270935058594 2.3817229270935058594 2.3817229270935058594 2.3817229270935058594 2.3817229270935058594 2.3817229270935058594 2.3817229270935058594 2.3817229270935058594 2.3817229270935058594 2.3817229270935058594 2.3817229270935058594 2.3817229270935058594 4.7028331756591796875 27.816453933715820312 31.52088165283203125 22.296966552734375 37.611873626708984375 33.461048126220703125 30.443925857543945312 35.72579193115234375 35.206104278564453125 27.70726776123046875 23.749601364135742188 16.629619598388671875 22.361558914184570312 18.981714248657226562 2.3817229270935058594 2.3817229270935058594 2.3817229270935058594 2.3817229270935058594 2.3817229270935058594 2.3817229270935058594 2.3817229270935058594 2.3817229270935058594 2.3817229270935058594 2.3817229270935058594 7.0239434242248535156 8.7394123077392578125 128.0633544921875 33.260448455810546875 32.1563262939453125 34.793087005615234375 127.48072052001953125 142.7822113037109375 172.933197021484375 449.862701416015625 470.300628662109375 112.7225341796875 170.9279022216796875 84.6190185546875 224.8797149658203125 144.9782867431640625 45.3774261474609375 96.34474945068359375 33.281421661376953125 7.0239434242248535156 44.1710205078125 231.9217376708984375 176.968231201171875 134.2239837646484375 44.18895721435546875 181.893341064453125 161.32989501953125 21.8891448974609375 36.179340362548828125 40.933681488037109375 111.68039703369140625 195.004730224609375 77.48549652099609375 231.8866424560546875 106.82281494140625 76.67339324951171875 246.9300384521484375 209.2106781005859375 113.20294952392578125 43.70721435546875 39.817455291748046875 36.131988525390625 20.678323745727539062 25.907758712768554688 36.47002410888671875 
2.3817229270935058594 2.3817229270935058594 2.3817229270935058594 2.3817229270935058594 2.3817229270935058594 2.3817229270935058594 2.3817229270935058594 2.3817229270935058594 2.3817229270935058594 2.3817229270935058594 2.3817229270935058594 2.3817229270935058594 2.3817229270935058594 2.3817229270935058594 2.3817229270935058594 2.3817229270935058594 2.3817229270935058594 2.3817229270935058594 13.987274169921875 33.943145751953125 33.4493408203125 22.503652572631835938 36.133708953857421875 34.284320831298828125 28.01871490478515625 46.724460601806640625 30.449403762817382812 20.631834030151367188 176.0029296875 59.010364532470703125 21.768636703491210938 13.209246635437011719 2.3817229270935058594 2.3817229270935058594 2.3817229270935058594 2.3817229270935058594 2.3817229270935058594 2.3817229270935058594 2.3817229270935058594 2.3817229270935058594 2.3817229270935058594 5.7222323417663574219 167.0672454833984375 74.3351593017578125 208.0670928955078125 32.988269805908203125 33.591587066650390625 79.29184722900390625 62.129222869873046875 81.915191650390625 268.966522216796875 333.314605712890625 142.7108917236328125 122.09642791748046875 103.9783477783203125 35.006862640380859375 182.6353302001953125 381.99053955078125 358.680633544921875 299.93341064453125 14.324881553649902344 11.666163444519042969 20.275068283081054688 296.41009521484375 325.55987548828125 34.03093719482421875 33.0506591796875 77.94364166259765625 31.5453033447265625 24.364471435546875 27.785633087158203125 89.3949432373046875 170.3119964599609375 244.9752655029296875 182.58465576171875 233.2325439453125 47.172565460205078125 26.921718597412109375 42.927654266357421875 111.79044342041015625 55.358539581298828125 45.75060272216796875 46.62506866455078125 42.845035552978515625 33.5778961181640625 34.64086151123046875 129.3083343505859375 
2.3817229270935058594 2.3817229270935058594 2.3817229270935058594 2.3817229270935058594 2.3817229270935058594 2.3817229270935058594 2.3817229270935058594 2.3817229270935058594 2.3817229270935058594 2.3817229270935058594 2.3817229270935058594 2.3817229270935058594 2.3817229270935058594 2.3817229270935058594 2.3817229270935058594 2.3817229270935058594 2.3817229270935058594 2.3817229270935058594 19.870944976806640625 33.198360443115234375 32.5479583740234375 25.929962158203125 27.221113204956054688 21.128210067749023438 24.275846481323242188 24.493288040161132812 169.3674468994140625 26.028097152709960938 208.5451507568359375 173.9307861328125 15.809693336486816406 2.3817229270935058594 2.3817229270935058594 2.3817229270935058594 2.3817229270935058594 2.3817229270935058594 2.3817229270935058594 2.3817229270935058594 2.3817229270935058594 2.3817229270935058594 9.1505460739135742188 129.07159423828125 238.2374267578125 118.25311279296875 33.98934173583984375 33.8319549560546875 62.68114471435546875 386.648223876953125 95.97658538818359375 321.700897216796875 32.65641021728515625 8.6191453933715820312 8.447803497314453125 4.3330683708190917969 19.760387420654296875 87.42765045166015625 79.2908782958984375 397.159881591796875 160.85308837890625 15.854312896728515625 13.704961776733398438 22.563045501708984375 103.9228057861328125 167.4696197509765625 236.9841766357421875 202.87750244140625 32.92299652099609375 152.402740478515625 79.788421630859375 24.847608566284179688 37.7670440673828125 12.504796981811523438 15.514680862426757812 102.35343170166015625 219.5991363525390625 305.287353515625 212.51580810546875 37.2977447509765625 31.856672286987304688 313.858612060546875 36.515720367431640625 39.507579803466796875 31.274959564208984375 38.47388458251953125 135.4953765869140625 82.26180267333984375 106.191925048828125 
2.3817229270935058594 2.3817229270935058594 2.3817229270935058594 2.3817229270935058594 2.3817229270935058594 2.3817229270935058594 2.3817229270935058594 2.3817229270935058594 2.3817229270935058594 2.3817229270935058594 2.3817229270935058594 2.3817229270935058594 2.3817229270935058594 2.3817229270935058594 2.3817229270935058594 2.3817229270935058594 2.3817229270935058594 2.3817229270935058594 21.056987762451171875 19.46979522705078125 21.481456756591796875 30.5528717041015625 36.8762359619140625 18.62949371337890625 16.7096405029296875 4.7160668373107910156 55.3450927734375 20.614614486694335938 87.14853668212890625 115.06691741943359375 4.5083260536193847656 2.3817229270935058594 2.3817229270935058594 2.3817229270935058594 2.3817229270935058594 2.3817229270935058594 4.7028331756591796875 4.3078961372375488281 11.659624099731445312 60.70555877685546875 18.091436386108398438 18.405611038208007812 35.259552001953125 9.1345081329345703125 20.164369583129882812 30.659914016723632812 65.72362518310546875 134.633636474609375 163.6671600341796875 104.85784149169921875 35.4113006591796875 4.2833771705627441406 2.3817229270935058594 2.3817229270935058594 11.5463714599609375 23.36670684814453125 414.5679931640625 330.39990234375 103.2558135986328125 30.612161636352539062 68.44793701171875 128.0398406982421875 252.435455322265625 143.1712493896484375 221.740447998046875 105.17014312744140625 177.079315185546875 111.83425140380859375 76.80889892578125 33.40749359130859375 33.707469940185546875 20.35727691650390625 24.100826263427734375 170.7532196044921875 248.24114990234375 117.99967193603515625 70.32159423828125 24.204980850219726562 247.5244140625 242.21875 32.80986785888671875 16.892736434936523438 5.3170733451843261719 8.2524232864379882812 24.785863876342773438 155.84869384765625 552.722900390625 
2.3817229270935058594 2.3817229270935058594 2.3817229270935058594 2.3817229270935058594 2.3817229270935058594 2.3817229270935058594 2.3817229270935058594 2.3817229270935058594 2.3817229270935058594 2.3817229270935058594 2.3817229270935058594 2.3817229270935058594 2.3817229270935058594 2.3817229270935058594 2.3817229270935058594 2.3817229270935058594 2.3817229270935058594 9.1505460739135742188 31.705896377563476562 25.753215789794921875 32.734081268310546875 37.94085693359375 31.438816070556640625 26.395338058471679688 17.927324295043945312 12.581288337707519531 13.54993438720703125 64.079833984375 139.4109039306640625 13.014739036560058594 2.3817229270935058594 2.3817229270935058594 2.3817229270935058594 2.3817229270935058594 2.3817229270935058594 4.7028331756591796875 23.271715164184570312 229.0795745849609375 118.56964111328125 170.7228546142578125 24.012996673583984375 2.3817229270935058594 16.894664764404296875 12.8670806884765625 152.98394775390625 2.3817229270935058594 2.3817229270935058594 23.052606582641601562 45.839450836181640625 30.047811508178710938 38.564517974853515625 2.3817229270935058594 2.3817229270935058594 2.3817229270935058594 17.203115463256835938 202.378997802734375 405.608428955078125 149.9163818359375 459.7764892578125 107.49825286865234375 71.882354736328125 156.85260009765625 150.26971435546875 373.659515380859375 147.8105010986328125 182.207672119140625 71.56797027587890625 50.858669281005859375 341.045379638671875 18.887395858764648438 23.998291015625 25.071605682373046875 28.8811492919921875 102.99906158447265625 114.65123748779296875 28.8940582275390625 144.2004547119140625 206.5407257080078125 253.102447509765625 52.782611846923828125 32.693988800048828125 26.584224700927734375 16.005289077758789062 16.99211883544921875 69.01854705810546875 156.158233642578125 40.34883880615234375 
2.3817229270935058594 2.3817229270935058594 2.3817229270935058594 2.3817229270935058594 2.3817229270935058594 2.3817229270935058594 2.3817229270935058594 2.3817229270935058594 2.3817229270935058594 2.3817229270935058594 2.3817229270935058594 2.3817229270935058594 2.3817229270935058594 2.3817229270935058594 2.3817229270935058594 2.3817229270935058594 4.7028331756591796875 24.457019805908203125 31.39411163330078125 31.852191925048828125 33.20770263671875 37.95316314697265625 31.470012664794921875 18.816297531127929688 22.25 18.609630584716796875 67.7572784423828125 51.528839111328125 144.0646514892578125 271.983123779296875 2.3817229270935058594 2.3817229270935058594 2.3817229270935058594 2.3817229270935058594 2.3817229270935058594 7.0239434242248535156 24.024797439575195312 37.210113525390625 29.009334564208984375 137.478912353515625 140.7946319580078125 4.3330683708190917969 7.2083349227905273438 15.083640098571777344 51.984142303466796875 2.3817229270935058594 2.3817229270935058594 2.3817229270935058594 18.86612701416015625 23.866815567016601562 19.157022476196289062 16.882791519165039062 10.120959281921386719 4.7028331756591796875 13.424818038940429688 280.77777099609375 350.881378173828125 288.61956787109375 288.00872802734375 115.180023193359375 141.7227935791015625 145.7824249267578125 331.170623779296875 262.1898193359375 129.53326416015625 67.31951904296875 275.494171142578125 169.368011474609375 84.7589874267578125 11.297629356384277344 2.3817229270935058594 7.9271497726440429688 26.854276657104492188 21.812196731567382812 29.382680892944335938 26.406337738037109375 28.888118743896484375 68.5792388916015625 305.4605712890625 77.75041961669921875 27.1443939208984375 26.73248291015625 19.004352569580078125 58.368480682373046875 282.339996337890625 46.9704437255859375 15.743760108947753906 
2.3817229270935058594 2.3817229270935058594 2.3817229270935058594 2.3817229270935058594 2.3817229270935058594 2.3817229270935058594 2.3817229270935058594 2.3817229270935058594 2.3817229270935058594 2.3817229270935058594 2.3817229270935058594 2.3817229270935058594 2.3817229270935058594 2.3817229270935058594 2.3817229270935058594 2.3817229270935058594 11.666163444519042969 32.798797607421875 27.6527862548828125 27.623437881469726562 27.484622955322265625 16.008481979370117188 25.292776107788085938 15.910115242004394531 10.4091644287109375 23.070896148681640625 31.373687744140625 17.58168792724609375 126.8422698974609375 68.742645263671875 2.3817229270935058594 2.3817229270935058594 2.3817229270935058594 2.3817229270935058594 108.618316650390625 24.741823196411132812 33.5934295654296875 33.571559906005859375 27.81952667236328125 8.4138116836547851562 72.914306640625 2.3817229270935058594 2.3817229270935058594 10.266895294189453125 11.322454452514648438 2.3817229270935058594 15.79709625244140625 2.3817229270935058594 44.16066741943359375 40.273113250732421875 33.908473968505859375 19.430562973022460938 56.837360382080078125 20.245731353759765625 14.046576499938964844 129.8592681884765625 173.634857177734375 243.155059814453125 318.26611328125 53.78517913818359375 265.974609375 158.00408935546875 296.471221923828125 33.804107666015625 33.56575775146484375 33.739147186279296875 333.6583251953125 288.16241455078125 343.47406005859375 118.19062042236328125 72.75782012939453125 7.3909654617309570312 13.375421524047851562 20.097553253173828125 21.742189407348632812 14.716634750366210938 10.401530265808105469 118.70212554931640625 234.4063568115234375 148.9430999755859375 12.382579803466796875 14.952103614807128906 15.545022964477539062 37.411407470703125 71.77584075927734375 17.066562652587890625 32.692005157470703125 
2.3817229270935058594 2.3817229270935058594 2.3817229270935058594 2.3817229270935058594 2.3817229270935058594 2.3817229270935058594 2.3817229270935058594 2.3817229270935058594 2.3817229270935058594 2.3817229270935058594 2.3817229270935058594 2.3817229270935058594 2.3817229270935058594 2.3817229270935058594 2.3817229270935058594 2.3817229270935058594 18.281782150268554688 35.460964202880859375 31.128849029541015625 30.895046234130859375 26.790563583374023438 30.567911148071289062 33.927631378173828125 19.086439132690429688 16.181367874145507812 33.728122711181640625 205.665313720703125 173.350830078125 165.2256011962890625 27.255146026611328125 2.3817229270935058594 2.3817229270935058594 2.3817229270935058594 22.531679153442382812 124.35662841796875 33.495609283447265625 35.415683746337890625 32.61251068115234375 33.68389892578125 8.5862588882446289062 23.61797332763671875 2.3817229270935058594 2.3817229270935058594 2.3817229270935058594 2.3817229270935058594 2.3817229270935058594 4.421619415283203125 7.8264570236206054688 40.4860992431640625 34.713222503662109375 28.374467849731445312 105.12387847900390625 48.73598480224609375 18.434535980224609375 10.130002021789550781 7.0239434242248535156 185.70623779296875 23.424444198608398438 77.6568603515625 100.81200408935546875 153.88238525390625 66.63172149658203125 33.097232818603515625 33.493000030517578125 109.34096527099609375 181.3612060546875 247.2561492919921875 188.637542724609375 206.2606353759765625 29.406549453735351562 21.451494216918945312 19.774324417114257812 22.899072647094726562 21.03096771240234375 11.491183280944824219 21.216754913330078125 64.51386260986328125 56.32845306396484375 139.3415679931640625 155.454437255859375 12.308329582214355469 13.567934036254882812 22.714183807373046875 40.462596893310546875 31.333974838256835938 29.999979019165039062 31.510211944580078125 
2.3817229270935058594 2.3817229270935058594 2.3817229270935058594 2.3817229270935058594 2.3817229270935058594 2.3817229270935058594 2.3817229270935058594 2.3817229270935058594 2.3817229270935058594 2.3817229270935058594 2.3817229270935058594 2.3817229270935058594 2.3817229270935058594 2.3817229270935058594 2.3817229270935058594 22.345899581909179688 35.03008270263671875 32.38895416259765625 33.959819793701171875 33.889041900634765625 37.738315582275390625 40.327861785888671875 23.594800949096679688 36.461521148681640625 38.877349853515625 36.98505401611328125 31.583932876586914062 248.6700286865234375 284.982666015625 22.45215606689453125 2.3817229270935058594 122.0594329833984375 5.7222323417663574219 2.3817229270935058594 26.114748001098632812 34.120258331298828125 35.923313140869140625 33.852756500244140625 91.10933685302734375 29.364871978759765625 27.628599166870117188 2.3817229270935058594 2.3817229270935058594 7.2187275886535644531 2.3817229270935058594 2.3817229270935058594 7.3706603050231933594 16.229475021362304688 42.455608367919921875 28.443273544311523438 17.257709503173828125 32.126911163330078125 135.433624267578125 23.7443389892578125 11.681042671203613281 279.1209716796875 185.18084716796875 235.0472412109375 62.511066436767578125 416.529388427734375 141.8344268798828125 32.189300537109375 29.954700469970703125 33.01486968994140625 380.14520263671875 44.994991302490234375 84.13172149658203125 47.466094970703125 219.967437744140625 34.026233673095703125 35.47200775146484375 33.19412994384765625 13.425645828247070312 22.597568511962890625 18.961399078369140625 27.656551361083984375 26.6629791259765625 30.201671600341796875 54.721771240234375 14.537763595581054688 8.8619031906127929688 2.3817229270935058594 18.214769363403320312 29.406126022338867188 20.8625335693359375 28.634565353393554688 34.221904754638671875 
2.3817229270935058594 2.3817229270935058594 2.3817229270935058594 2.3817229270935058594 2.3817229270935058594 2.3817229270935058594 2.3817229270935058594 2.3817229270935058594 2.3817229270935058594 2.3817229270935058594 2.3817229270935058594 2.3817229270935058594 2.3817229270935058594 2.3817229270935058594 7.0239434242248535156 16.1138763427734375 30.253589630126953125 34.121860504150390625 32.4283905029296875 33.455352783203125 38.04638671875 34.41010284423828125 21.872974395751953125 201.72125244140625 48.39701080322265625 16.744276046752929688 57.497470855712890625 212.3485260009765625 184.619110107421875 198.197235107421875 2.3817229270935058594 472.145477294921875 274.25262451171875 20.077558517456054688 147.287109375 35.126911163330078125 33.037761688232421875 76.4332275390625 131.5692291259765625 32.849315643310546875 32.8413543701171875 239.639404296875 158.038604736328125 45.62624359130859375 46.770214080810546875 69.529083251953125 25.69048309326171875 41.56827545166015625 37.42121124267578125 43.521854400634765625 46.65863800048828125 41.7482452392578125 21.316951751708984375 17.654066085815429688 16.378284454345703125 41.5443572998046875 31.7158203125 433.1629638671875 32.453838348388671875 415.439971923828125 187.711822509765625 76.2050323486328125 83.8501129150390625 37.563632965087890625 167.3124237060546875 290.811065673828125 34.638385772705078125 34.524932861328125 30.3047637939453125 29.4458770751953125 30.81487274169921875 2.3817229270935058594 2.3817229270935058594 28.495153427124023438 34.1093292236328125 39.429485321044921875 51.8541107177734375 81.9741363525390625 81.8133697509765625 33.885677337646484375 40.32445526123046875 35.0073394775390625 27.113866806030273438 34.980800628662109375 27.699863433837890625 32.635410308837890625 2.3817229270935058594 
2.3817229270935058594 2.3817229270935058594 2.3817229270935058594 2.3817229270935058594 2.3817229270935058594 2.3817229270935058594 2.3817229270935058594 2.3817229270935058594 2.3817229270935058594 2.3817229270935058594 2.3817229270935058594 2.3817229270935058594 2.3817229270935058594 10.760359764099121094 34.914394378662109375 26.224298477172851562 24.848690032958984375 33.39997100830078125 32.509002685546875 32.54265594482421875 33.0003814697265625 29.168766021728515625 120.857086181640625 66.592071533203125 249.4842376708984375 182.06597900390625 67.52008819580078125 221.3476715087890625 140.0668792724609375 177.598876953125 70.4905242919921875 295.52655029296875 18.088748931884765625 35.36464691162109375 59.6717376708984375 42.079921722412109375 165.046905517578125 36.934047698974609375 15.033448219299316406 19.976016998291015625 23.417177200317382812 41.3560333251953125 44.018032073974609375 42.664951324462890625 40.296825408935546875 32.455020904541015625 11.873188972473144531 20.42182159423828125 37.94557952880859375 44.8364410400390625 40.76195526123046875 31.181444168090820312 39.0733642578125 23.712030410766601562 34.883472442626953125 37.540008544921875 40.8595428466796875 79.8877105712890625 85.998931884765625 432.7205810546875 310.91717529296875 390.392822265625 83.58568572998046875 90.7183380126953125 47.757022857666015625 111.93384552001953125 33.27732086181640625 33.9718780517578125 20.328168869018554688 33.720855712890625 34.281829833984375 25.405574798583984375 27.952371597290039062 23.954519271850585938 36.781719207763671875 46.848300933837890625 98.25878143310546875 46.556285858154296875 34.7373504638671875 35.047576904296875 38.866573333740234375 33.59004974365234375 18.092121124267578125 33.790187835693359375 27.911817550659179688 17.7878875732421875 2.3817229270935058594 
2.3817229270935058594 2.3817229270935058594 2.3817229270935058594 2.3817229270935058594 2.3817229270935058594 9.959293365478515625 18.69310760498046875 110.80239105224609375 38.5471038818359375 2.3817229270935058594 2.3817229270935058594 2.3817229270935058594 4.7028331756591796875 34.09171295166015625 33.09354400634765625 38.227939605712890625 37.368045806884765625 34.554531097412109375 32.733806610107421875 33.872714996337890625 33.06038665771484375 19.673274993896484375 23.333543777465820312 174.445770263671875 114.55963134765625 10.866015434265136719 121.62633514404296875 72.52649688720703125 99.55744171142578125 388.93096923828125 197.7718658447265625 251.7184295654296875 218.7049407958984375 227.6699676513671875 209.79254150390625 140.60400390625 170.4682769775390625 90.6862945556640625 85.29674530029296875 109.99008941650390625 54.8156890869140625 39.472919464111328125 40.64483642578125 40.11712646484375 37.2069091796875 21.109798431396484375 8.3897237777709960938 30.786083221435546875 44.86647796630859375 45.91640472412109375 43.998004913330078125 74.4046783447265625 137.2701568603515625 17.498430252075195312 34.621387481689453125 34.565349578857421875 80.2386627197265625 32.594898223876953125 144.320159912109375 361.795196533203125 256.473052978515625 124.5008087158203125 25.151769638061523438 297.904876708984375 29.636913299560546875 23.113832473754882812 10.3104095458984375 20.748758316040039062 8.1248121261596679688 19.714342117309570312 16.767320632934570312 19.99764251708984375 15.617666244506835938 23.47542572021484375 35.205219268798828125 42.514385223388671875 36.984134674072265625 27.614751815795898438 34.38824462890625 34.303821563720703125 39.531463623046875 14.354146003723144531 17.9853668212890625 42.114849090576171875 41.082763671875 32.8005828857421875 2.3817229270935058594 
2.3817229270935058594 2.3817229270935058594 2.3817229270935058594 4.7028331756591796875 21.944257736206054688 32.6580352783203125 30.190059661865234375 247.457916259765625 195.555145263671875 9.9279575347900390625 2.3817229270935058594 2.3817229270935058594 23.271715164184570312 33.706024169921875 32.467731475830078125 33.485912322998046875 32.346187591552734375 33.45682525634765625 30.028268814086914062 29.7882843017578125 15.55687713623046875 33.377410888671875 17.536931991577148438 151.300140380859375 24.767208099365234375 14.969616889953613281 117.54825592041015625 224.4482421875 323.57440185546875 214.2253875732421875 337.39117431640625 40.385311126708984375 162.407684326171875 27.548770904541015625 24.58907318115234375 109.57953643798828125 250.867095947265625 211.8882598876953125 46.22255706787109375 93.32923126220703125 43.447032928466796875 32.329059600830078125 42.315563201904296875 45.013942718505859375 31.008108139038085938 6.8595080375671386719 21.888517379760742188 42.1539154052734375 45.316131591796875 46.361637115478515625 38.44324493408203125 60.128955841064453125 55.62660980224609375 34.0145111083984375 36.950084686279296875 194.2935791015625 130.56475830078125 341.6580810546875 259.291595458984375 376.20196533203125 166.45245361328125 27.83049774169921875 33.4552001953125 11.028934478759765625 194.155609130859375 34.06678009033203125 31.20523834228515625 36.236812591552734375 37.398105621337890625 35.384563446044921875 32.26354217529296875 27.971996307373046875 94.32154083251953125 423.9671630859375 25.436899185180664062 42.65845489501953125 7.0239434242248535156 30.491292953491210938 33.960788726806640625 36.342967987060546875 38.978176116943359375 18.845052719116210938 38.561065673828125 38.82512664794921875 37.04345703125 36.71060943603515625 2.3817229270935058594 
2.3817229270935058594 9.0262975692749023438 19.659315109252929688 29.638278961181640625 30.909229278564453125 19.468231201171875 44.912677764892578125 50.826419830322265625 22.408252716064453125 33.698856353759765625 7.0239434242248535156 2.3817229270935058594 32.556156158447265625 38.042064666748046875 35.861522674560546875 34.4502716064453125 33.417133331298828125 23.031595230102539062 16.73879241943359375 17.916517257690429688 12.229564666748046875 26.740304946899414062 12.960613250732421875 9.9729661941528320312 12.699303627014160156 9.9885654449462890625 196.18603515625 257.120391845703125 605.92889404296875 366.6103515625 195.7137908935546875 90.4653167724609375 49.77158355712890625 25.671453475952148438 29.247035980224609375 128.3180694580078125 25.510021209716796875 164.7696990966796875 10.29094696044921875 16.039030075073242188 6.5335874557495117188 36.52806854248046875 42.13944244384765625 40.539981842041015625 36.351200103759765625 6.4138960838317871094 102.827667236328125 83.8458251953125 42.062328338623046875 43.257045745849609375 37.250598907470703125 33.82610321044921875 35.0556793212890625 34.46762847900390625 33.272426605224609375 39.081623077392578125 176.8397979736328125 42.0895538330078125 115.87518310546875 433.32421875 31.403162002563476562 34.11756134033203125 31.882724761962890625 70.3100433349609375 12.884718894958496094 17.966363906860351562 19.668609619140625 21.329517364501953125 22.81386566162109375 22.05336761474609375 22.567995071411132812 25.894998550415039062 35.56945037841796875 32.042819976806640625 33.973602294921875 41.273784637451171875 2.3817229270935058594 25.113525390625 32.749721527099609375 27.69358062744140625 34.83313751220703125 14.272024154663085938 38.12755584716796875 27.182313919067382812 21.774209976196289062 43.472820281982421875 11.666163444519042969 
29.92493438720703125 31.595518112182617188 168.0031280517578125 256.40966796875 22.116466522216796875 37.968292236328125 27.743032455444335938 68.61529541015625 59.295864105224609375 184.925933837890625 7.0239434242248535156 2.3817229270935058594 34.420928955078125 36.923931121826171875 42.8036651611328125 38.399082183837890625 28.45825958251953125 28.783063888549804688 20.101869583129882812 29.736166000366210938 10.17859649658203125 21.07813262939453125 7.4251999855041503906 21.517637252807617188 17.040496826171875 23.11940765380859375 161.0830230712890625 143.774444580078125 398.706787109375 63.197750091552734375 103.571533203125 117.869140625 193.8968048095703125 32.22615814208984375 34.1490020751953125 176.9799041748046875 140.8491668701171875 215.6182403564453125 10.13977813720703125 15.711554527282714844 49.867282867431640625 48.693988800048828125 45.517330169677734375 44.069904327392578125 38.998287200927734375 25.678279876708984375 137.17840576171875 22.023466110229492188 38.62966156005859375 47.83663177490234375 45.53659820556640625 40.355792999267578125 40.0611572265625 34.157390594482421875 211.874267578125 58.18683624267578125 157.661163330078125 215.87945556640625 238.62799072265625 480.09356689453125 31.830595016479492188 34.33657073974609375 19.694545745849609375 25.729183197021484375 22.1924591064453125 30.622280120849609375 25.779268264770507812 21.606550216674804688 34.8873291015625 18.409091949462890625 40.7178955078125 27.411664962768554688 31.634222030639648438 23.102108001708984375 29.098667144775390625 40.480236053466796875 2.3817229270935058594 31.829366683959960938 30.143095016479492188 34.637912750244140625 37.595020294189453125 21.477041244506835938 4.3330683708190917969 2.3817229270935058594 12.638706207275390625 39.85338592529296875 21.727991104125976562 
34.498538970947265625 31.119607925415039062 24.714197158813476562 119.5028076171875 22.345331192016601562 38.009906768798828125 31.099416732788085938 71.42136383056640625 47.112110137939453125 339.168853759765625 2.3817229270935058594 4.7028331756591796875 33.93358612060546875 26.851863861083984375 31.718135833740234375 31.864610671997070312 32.9574127197265625 39.5194854736328125 15.870843887329101562 32.976772308349609375 12.016753196716308594 149.2572021484375 24.755353927612304688 17.788232803344726562 20.91135406494140625 167.370147705078125 43.24355316162109375 148.390228271484375 279.050140380859375 169.900390625 179.1749420166015625 72.35358428955078125 184.8884124755859375 33.16747283935546875 32.329059600830078125 6.6427607536315917969 2.3817229270935058594 2.3817229270935058594 8.7031774520874023438 24.554584503173828125 2.3817229270935058594 131.5501708984375 45.07871246337890625 41.7601318359375 33.98374176025390625 32.825244903564453125 4.1665282249450683594 172.5963592529296875 163.1940460205078125 41.893085479736328125 38.19907379150390625 42.11476898193359375 43.79338836669921875 304.823455810546875 68.11440277099609375 36.5881195068359375 81.8040618896484375 373.460235595703125 328.9130859375 347.5755615234375 204.9652252197265625 36.666255950927734375 30.742151260375976562 24.743364334106445312 31.75252532958984375 34.03983306884765625 30.031690597534179688 35.79184722900390625 33.940540313720703125 23.300359725952148438 17.5949554443359375 24.535480499267578125 32.11608123779296875 34.162769317626953125 32.24503326416015625 38.516834259033203125 38.1696319580078125 38.048404693603515625 36.527271270751953125 37.85976409912109375 44.098590850830078125 21.330930709838867188 2.3817229270935058594 2.3817229270935058594 14.523340225219726562 30.1769866943359375 45.449100494384765625 
32.029415130615234375 31.636444091796875 21.315807342529296875 22.2182464599609375 33.16614532470703125 40.880306243896484375 84.12136077880859375 83.9015350341796875 115.44860076904296875 128.36895751953125 2.3817229270935058594 27.913934707641601562 19.200059890747070312 31.856706619262695312 23.724843978881835938 39.25896453857421875 40.723255157470703125 39.5194854736328125 37.9070587158203125 24.792234420776367188 38.251613616943359375 33.93177032470703125 150.1873931884765625 21.150941848754882812 25.920877456665039062 22.033563613891601562 176.3164520263671875 190.109100341796875 133.35711669921875 62.09401702880859375 105.05211639404296875 119.67449188232421875 161.9896392822265625 343.7574462890625 20.19377899169921875 28.014799118041992188 2.3817229270935058594 2.3817229270935058594 23.1148681640625 126.70879364013671875 146.6201934814453125 170.114715576171875 40.69417572021484375 48.1989288330078125 39.08228302001953125 13.612095832824707031 16.293119430541992188 157.22186279296875 45.731616973876953125 40.083637237548828125 41.484333038330078125 41.914459228515625 44.69817352294921875 93.06285858154296875 53.005168914794921875 35.1451416015625 78.85097503662109375 694.6240234375 233.4993438720703125 221.4903564453125 114.91900634765625 15.970762252807617188 13.768986701965332031 18.519884109497070312 25.9844818115234375 20.759920120239257812 17.707693099975585938 27.53398895263671875 34.880733489990234375 30.188983917236328125 2.3817229270935058594 2.3817229270935058594 22.365602493286132812 34.51792144775390625 28.846342086791992188 39.62915802001953125 41.024387359619140625 47.182636260986328125 46.1489410400390625 41.6250762939453125 46.77831268310546875 14.123124122619628906 2.3817229270935058594 2.3817229270935058594 2.3817229270935058594 16.118619918823242188 38.579654693603515625 
37.279369354248046875 22.369939804077148438 68.014007568359375 24.49048614501953125 32.144397735595703125 34.31884002685546875 71.8166656494140625 120.71551513671875 161.448699951171875 2.3817229270935058594 27.546083450317382812 31.20113372802734375 147.2118072509765625 39.226177215576171875 32.076244354248046875 39.920742034912109375 39.284526824951171875 40.502857208251953125 32.299999237060546875 28.6170806884765625 33.1857147216796875 34.94000244140625 8.9692735671997070312 24.629652023315429688 31.329454421997070312 28.09307861328125 233.701751708984375 259.860687255859375 440.75189208984375 42.842311859130859375 41.838008880615234375 73.15229034423828125 144.256439208984375 309.944061279296875 32.1612701416015625 17.4349212646484375 6.0453424453735351562 23.1695556640625 35.208110809326171875 74.9022369384765625 9.3045206069946289062 30.6730194091796875 44.56687164306640625 43.214324951171875 40.7827606201171875 24.9663543701171875 4.4073843955993652344 24.259920120239257812 43.05577850341796875 38.76320648193359375 39.6636199951171875 41.883880615234375 41.930561065673828125 37.035572052001953125 39.0527801513671875 58.967990875244140625 40.427349090576171875 584.0592041015625 182.6126556396484375 338.627166748046875 312.084716796875 33.230560302734375 29.781200408935546875 21.21722412109375 29.294157028198242188 24.938938140869140625 23.94293975830078125 33.021026611328125 36.31645965576171875 35.51374053955078125 9.4872083663940429688 10.13741302490234375 37.64218902587890625 36.048236846923828125 38.871311187744140625 147.8659820556640625 31.135929107666015625 48.61090087890625 25.176076889038085938 44.5262451171875 47.15676116943359375 43.299282073974609375 33.394313812255859375 33.009365081787109375 38.376583099365234375 32.968170166015625 19.37085723876953125 
38.33303070068359375 253.9625244140625 157.5137939453125 80.2835540771484375 36.369327545166015625 36.598247528076171875 81.32857513427734375 216.9275054931640625 77.6703643798828125 8.9501161575317382812 26.846424102783203125 22.068180084228515625 196.233917236328125 15.183146476745605469 31.16761016845703125 39.284526824951171875 40.683208465576171875 38.598812103271484375 44.48950958251953125 83.5193939208984375 35.621738433837890625 34.509784698486328125 37.543849945068359375 12.668912887573242188 22.081354141235351562 34.665313720703125 161.5675048828125 180.979156494140625 295.31732177734375 95.0735321044921875 20.824554443359375 78.92809295654296875 30.5250091552734375 90.844696044921875 38.751247406005859375 32.7473907470703125 34.6702117919921875 45.407100677490234375 51.572093963623046875 88.32096099853515625 94.10401153564453125 53.06974029541015625 46.370258331298828125 47.8594818115234375 45.84233856201171875 88.27740478515625 15.966317176818847656 10.237986564636230469 41.230438232421875 32.43012237548828125 41.3667755126953125 38.916362762451171875 41.778903961181640625 43.64757537841796875 43.198261260986328125 35.367404937744140625 100.63864898681640625 249.2378997802734375 228.958251953125 314.939544677734375 114.06072998046875 32.987743377685546875 33.9985198974609375 32.17089080810546875 38.688907623291015625 34.444820404052734375 32.4446563720703125 33.44441986083984375 32.6873016357421875 33.290569305419921875 12.242865562438964844 20.658514022827148438 35.91326141357421875 36.449550628662109375 36.362117767333984375 61.831699371337890625 56.048091888427734375 25.959262847900390625 31.880908966064453125 42.448268890380859375 42.695224761962890625 44.24542999267578125 44.602813720703125 43.238605499267578125 43.279552459716796875 26.321910858154296875 41.497314453125 
28.166170120239257812 30.648410797119140625 55.563816070556640625 42.237285614013671875 68.81427001953125 80.05242156982421875 93.0014801025390625 2.3817229270935058594 160.4824371337890625 23.351697921752929688 19.355133056640625 82.496856689453125 17.645708084106445312 21.99758148193359375 32.178882598876953125 39.5194854736328125 48.76409912109375 52.8529052734375 26.733575820922851562 34.87726593017578125 36.630558013916015625 35.116558074951171875 34.720577239990234375 20.714366912841796875 121.92852783203125 146.0125579833984375 215.447601318359375 220.4930877685546875 190.67333984375 125.11721038818359375 27.377592086791992188 211.8918304443359375 267.53619384765625 83.60404205322265625 24.469320297241210938 276.61212158203125 96.15157318115234375 334.65655517578125 200.3265838623046875 211.48712158203125 199.29498291015625 35.625873565673828125 32.845813751220703125 30.042589187622070312 82.645263671875 209.6839599609375 53.45025634765625 34.148956298828125 51.370849609375 83.11934661865234375 39.267604827880859375 40.181423187255859375 41.988140106201171875 40.980106353759765625 38.809886932373046875 33.940845489501953125 219.6765594482421875 277.010040283203125 279.58782958984375 281.356475830078125 73.07799530029296875 33.05831146240234375 33.2010040283203125 26.317180633544921875 15.8670654296875 17.2517547607421875 23.162914276123046875 31.518665313720703125 35.73879241943359375 33.304218292236328125 9.9883394241333007812 13.576466560363769531 36.792621612548828125 37.631343841552734375 34.106075286865234375 24.676546096801757812 34.022029876708984375 33.4379425048828125 40.938632965087890625 39.5194854736328125 39.5194854736328125 41.043056488037109375 41.889537811279296875 45.037418365478515625 45.456417083740234375 20.635644912719726562 47.15776824951171875 
29.483476638793945312 31.653911590576171875 27.984569549560546875 219.0349578857421875 310.434326171875 288.63653564453125 278.78265380859375 283.265167236328125 343.70086669921875 33.322113037109375 33.0123138427734375 50.64981842041015625 22.848009109497070312 33.77742767333984375 35.839488983154296875 39.5194854736328125 52.056270599365234375 20.90531158447265625 29.796098709106445312 30.80450439453125 38.171245574951171875 39.823596954345703125 31.005306243896484375 68.8718719482421875 157.908721923828125 69.3367156982421875 138.905731201171875 113.97324371337890625 168.7412261962890625 17.742746353149414062 29.908512115478515625 107.81740570068359375 322.809234619140625 35.086765289306640625 52.507213592529296875 63.199127197265625 69.616241455078125 248.32794189453125 241.6539306640625 204.27337646484375 397.046875 31.829919815063476562 38.584636688232421875 130.1994171142578125 61.062664031982421875 197.0637664794921875 235.515625 46.8758087158203125 43.36199188232421875 39.6817474365234375 38.385921478271484375 77.4253692626953125 25.250286102294921875 44.789287567138671875 79.05445098876953125 97.0959930419921875 273.663787841796875 317.54730224609375 207.0236968994140625 377.749237060546875 73.7713470458984375 32.289714813232421875 26.0578460693359375 19.313190460205078125 19.97937774658203125 22.2555084228515625 25.600193023681640625 32.300533294677734375 35.067668914794921875 34.189281463623046875 17.140199661254882812 8.5365839004516601562 34.790740966796875 35.172428131103515625 19.9836578369140625 29.68885040283203125 32.79463958740234375 34.21215057373046875 66.6615142822265625 39.5194854736328125 39.5194854736328125 46.43053436279296875 19.882001876831054688 48.081390380859375 45.687442779541015625 27.604595184326171875 38.209247589111328125 
38.8736572265625 20.818910598754882812 17.08892059326171875 75.2527008056640625 408.047637939453125 106.85372161865234375 121.2840728759765625 289.87750244140625 26.845521926879882812 34.01108551025390625 33.458251953125 38.878025054931640625 39.462322235107421875 44.610260009765625 42.992462158203125 41.410053253173828125 37.211391448974609375 23.602098464965820312 31.100271224975585938 40.507843017578125 36.2064056396484375 37.745655059814453125 263.24017333984375 206.20855712890625 28.118694305419921875 94.9288177490234375 34.64996337890625 19.888456344604492188 33.972774505615234375 13.722225189208984375 32.38031768798828125 57.7629852294921875 317.183624267578125 247.860565185546875 63.400997161865234375 131.7606201171875 415.99749755859375 293.776275634765625 130.65191650390625 60.1133270263671875 73.2202911376953125 69.2081451416015625 48.17376708984375 100.99900054931640625 147.0682525634765625 142.635650634765625 54.349090576171875 85.5980224609375 40.062755584716796875 40.23056793212890625 41.196910858154296875 29.097383499145507812 91.011138916015625 40.431549072265625 45.14459991455078125 46.9237060546875 171.0829010009765625 469.71624755859375 329.195892333984375 202.7745208740234375 32.29778289794921875 32.90821075439453125 30.903163909912109375 30.661163330078125 31.448629379272460938 23.820529937744140625 26.613477706909179688 32.759433746337890625 34.569934844970703125 36.469127655029296875 34.958072662353515625 6.1655421257019042969 7.8424477577209472656 8.0479106903076171875 12.8338470458984375 31.349447250366210938 15.859040260314941406 6.7123575210571289062 46.28392791748046875 38.957057952880859375 39.68578338623046875 39.73529815673828125 43.23484039306640625 44.111255645751953125 33.7415924072265625 18.339193344116210938 32.37929534912109375 
43.95838165283203125 58.70684814453125 59.94022369384765625 138.81817626953125 358.926605224609375 70.02935028076171875 234.56768798828125 57.1453704833984375 21.703189849853515625 34.754486083984375 33.279693603515625 39.00322723388671875 39.668041229248046875 40.425106048583984375 42.652400970458984375 39.7637939453125 36.709369659423828125 28.837408065795898438 41.649829864501953125 39.586864471435546875 39.6781463623046875 112.60169219970703125 185.1956329345703125 53.084499359130859375 25.5025177001953125 30.041017532348632812 30.781553268432617188 32.01129913330078125 69.02295684814453125 14.947220802307128906 19.493804931640625 34.32454681396484375 66.67633819580078125 76.279296875 37.029998779296875 79.07160186767578125 226.98486328125 256.074493408203125 131.7952117919921875 43.943279266357421875 35.612060546875 32.120304107666015625 50.710926055908203125 74.4817657470703125 20.870454788208007812 69.58144378662109375 23.668720245361328125 44.005496978759765625 122.88623046875 24.830966949462890625 30.96726226806640625 30.639293670654296875 39.948230743408203125 33.26540374755859375 144.0900115966796875 149.191558837890625 217.0092010498046875 375.31427001953125 149.907318115234375 365.92254638671875 270.894927978515625 35.2474517822265625 34.479747772216796875 30.0069427490234375 30.218763351440429688 48.363323211669921875 36.935089111328125 34.650737762451171875 35.278438568115234375 36.4783172607421875 34.033542633056640625 2.3817229270935058594 2.3817229270935058594 49.44594573974609375 194.7551116943359375 17.127033233642578125 12.495144844055175781 8.2524232864379882812 20.72434234619140625 28.040233612060546875 16.0020599365234375 40.4664764404296875 41.681179046630859375 26.814405441284179688 2.3817229270935058594 26.207065582275390625 45.736087799072265625 
32.659816741943359375 48.607753753662109375 170.849456787109375 173.693328857421875 313.989593505859375 200.9312744140625 266.50311279296875 21.807819366455078125 30.164514541625976562 31.32834625244140625 36.98635101318359375 42.449527740478515625 35.22895050048828125 34.89324951171875 44.192020416259765625 41.157062530517578125 38.80944061279296875 39.02999114990234375 39.150547027587890625 39.5194854736328125 39.5194854736328125 89.47498321533203125 231.2195892333984375 33.629608154296875 32.84522247314453125 32.406158447265625 40.6569366455078125 38.80979156494140625 347.80438232421875 12.292428970336914062 25.043872833251953125 37.843494415283203125 44.1626129150390625 174.608245849609375 72.6212158203125 39.079273223876953125 152.2683868408203125 197.682220458984375 156.3594970703125 114.46396636962890625 174.2490081787109375 151.578033447265625 67.46009063720703125 154.7769317626953125 102.82085418701171875 278.549468994140625 135.95867919921875 2.3817229270935058594 124.95902252197265625 89.17311859130859375 181.1013336181640625 40.471942901611328125 39.354053497314453125 68.69402313232421875 35.46288299560546875 117.23407745361328125 140.905059814453125 207.369354248046875 142.1823272705078125 280.463592529296875 189.1092987060546875 69.08901214599609375 39.89977264404296875 43.745880126953125 34.990207672119140625 45.663555145263671875 36.729457855224609375 34.7034912109375 43.921295166015625 38.2739715576171875 36.52458953857421875 13.587626457214355469 17.907850265502929688 169.19512939453125 84.3448028564453125 32.416652679443359375 29.58281707763671875 10.364959716796875 23.093196868896484375 31.756626129150390625 29.9941864013671875 46.732379913330078125 31.724016189575195312 2.3817229270935058594 2.3817229270935058594 28.342485427856445312 38.66461181640625 
40.17696380615234375 58.650814056396484375 196.7267303466796875 396.225830078125 250.113800048828125 266.83453369140625 89.196502685546875 12.364400863647460938 25.922557830810546875 32.831569671630859375 35.53548431396484375 37.37787628173828125 37.49465179443359375 36.813568115234375 42.9795074462890625 47.527950286865234375 39.7311859130859375 39.987094879150390625 40.502857208251953125 39.5194854736328125 39.3387603759765625 35.311443328857421875 111.25238037109375 32.808147430419921875 33.12277984619140625 66.167236328125 173.3450469970703125 271.42657470703125 2.3817229270935058594 23.793443679809570312 34.50090789794921875 37.688381195068359375 42.923046112060546875 152.7224884033203125 101.3123016357421875 67.46298980712890625 47.10382080078125 80.93180084228515625 83.65203857421875 125.7013702392578125 34.757373809814453125 132.8639068603515625 101.7234344482421875 48.301647186279296875 102.65685272216796875 207.801513671875 104.4021148681640625 2.3817229270935058594 169.47882080078125 86.56119537353515625 29.696699142456054688 18.791812896728515625 37.58725738525390625 51.7579345703125 79.27237701416015625 186.6619415283203125 124.6118621826171875 111.76839447021484375 421.307830810546875 197.9618377685546875 232.430511474609375 14.375782012939453125 52.818477630615234375 19.525972366333007812 15.125672340393066406 42.01617431640625 36.244365692138671875 40.544765472412109375 31.944599151611328125 18.146343231201171875 38.5269317626953125 36.145465850830078125 36.866535186767578125 115.43149566650390625 40.779705047607421875 26.364574432373046875 15.250957489013671875 17.891080856323242188 28.51520538330078125 32.37561798095703125 36.3343048095703125 44.9723052978515625 34.928436279296875 2.3817229270935058594 4.7028331756591796875 33.1812591552734375 34.62116241455078125 
29.628004074096679688 141.8950347900390625 258.02825927734375 164.19244384765625 163.6894378662109375 199.4089202880859375 185.8830413818359375 22.844079971313476562 27.528783798217773438 38.431064605712890625 41.160129547119140625 44.65538787841796875 42.06981658935546875 44.798885345458984375 44.5838165283203125 38.762447357177734375 39.162036895751953125 39.5194854736328125 39.5194854736328125 40.66881561279296875 43.20245361328125 39.56217193603515625 33.467456817626953125 33.04132080078125 96.20417022705078125 318.95977783203125 355.356353759765625 423.424041748046875 250.73077392578125 24.143253326416015625 35.39644622802734375 35.10176849365234375 65.6353607177734375 102.7640838623046875 109.84173583984375 121.68938446044921875 95.7958831787109375 165.7382354736328125 120.6749725341796875 33.3256683349609375 165.263671875 58.388652801513671875 37.57984161376953125 34.36083221435546875 35.965961456298828125 165.26678466796875 36.4411773681640625 182.2069244384765625 267.20928955078125 30.816410064697265625 16.717412948608398438 32.493541717529296875 91.02361297607421875 116.56833648681640625 69.32862091064453125 110.81343841552734375 153.4277191162109375 422.960357666015625 244.82745361328125 453.654541015625 240.4129791259765625 175.5869293212890625 30.023990631103515625 16.07953643798828125 20.242696762084960938 23.50630950927734375 20.362298965454101562 28.703870773315429688 19.304492950439453125 12.736181259155273438 23.053361892700195312 26.475416183471679688 34.203174591064453125 138.4309844970703125 104.2516632080078125 20.659458160400390625 7.9447946548461914062 11.958269119262695312 15.033106803894042969 19.742221832275390625 28.52028656005859375 36.355224609375 24.600294113159179688 2.3817229270935058594 11.666163444519042969 32.750171661376953125 34.62116241455078125 
89.8169708251953125 360.32275390625 302.6881103515625 32.19652557373046875 231.005859375 131.8166656494140625 144.3096160888671875 21.421092987060546875 29.216825485229492188 35.8187713623046875 36.68590545654296875 40.442646026611328125 44.798885345458984375 41.26107025146484375 45.052143096923828125 39.284526824951171875 41.783771514892578125 38.7697906494140625 41.5253753662109375 37.398082733154296875 34.25350189208984375 35.217315673828125 35.278530120849609375 201.55279541015625 63.43841552734375 362.542327880859375 31.203012466430664062 196.3284454345703125 41.983013153076171875 32.452625274658203125 40.8901519775390625 76.3159332275390625 187.6187896728515625 31.6693267822265625 145.858123779296875 82.3694000244140625 38.299770355224609375 76.66350555419921875 59.956859588623046875 34.12053680419921875 72.11220550537109375 32.159854888916015625 30.939052581787109375 32.28176116943359375 46.957523345947265625 76.511749267578125 29.262002944946289062 235.8833770751953125 2.3817229270935058594 2.3817229270935058594 10.278084754943847656 27.060754776000976562 42.6016998291015625 44.568836212158203125 41.538272857666015625 138.324310302734375 361.147613525390625 358.654022216796875 157.00634765625 58.31261444091796875 112.13092803955078125 112.97168731689453125 35.210357666015625 18.805471420288085938 26.69903564453125 31.885534286499023438 32.432178497314453125 27.385229110717773438 34.68495941162109375 33.530063629150390625 37.69730377197265625 53.84694671630859375 80.628753662109375 69.85660552978515625 47.55205535888671875 22.989969253540039062 27.599239349365234375 30.182596206665039062 22.174585342407226562 16.600049972534179688 23.756053924560546875 32.218654632568359375 22.10570526123046875 2.3817229270935058594 2.3817229270935058594 14.971039772033691406 34.00661468505859375 
156.185577392578125 320.3209228515625 201.57196044921875 33.8739013671875 108.516632080078125 186.747222900390625 220.2346038818359375 30.067474365234375 30.574268341064453125 39.09407806396484375 38.159900665283203125 39.542636871337890625 42.37264251708984375 40.2504425048828125 44.9721832275390625 39.72682952880859375 44.8825531005859375 40.47609710693359375 75.9001617431640625 139.3079071044921875 33.94533538818359375 34.74617767333984375 225.10260009765625 209.5432281494140625 32.994518280029296875 30.353380203247070312 36.7507476806640625 196.9515838623046875 34.231227874755859375 35.686676025390625 31.566812515258789062 183.531005859375 248.3141021728515625 20.605516433715820312 19.916341781616210938 2.3817229270935058594 26.3303070068359375 28.715074539184570312 32.901149749755859375 23.583965301513671875 30.160429000854492188 33.336139678955078125 29.779735565185546875 76.39208984375 119.81915283203125 40.776027679443359375 18.175359725952148438 57.41184234619140625 14.081393241882324219 26.865823745727539062 8.2524232864379882812 9.7812795639038085938 40.166652679443359375 40.7968597412109375 41.793060302734375 49.94805908203125 227.066497802734375 212.3341064453125 260.58673095703125 33.671314239501953125 35.982326507568359375 26.588687896728515625 23.719539642333984375 31.040191650390625 28.570606231689453125 14.672276496887207031 21.115919113159179688 34.36447906494140625 34.040966033935546875 36.25772857666015625 39.720569610595703125 35.53379058837890625 43.1920623779296875 30.664930343627929688 34.451366424560546875 35.989139556884765625 27.762571334838867188 26.953802108764648438 24.176942825317382812 27.954519271850585938 35.10555267333984375 29.240621566772460938 30.367307662963867188 25.681703567504882812 9.3450536727905273438 36.135005950927734375 34.62116241455078125 
225.80255126953125 449.916259765625 95.5399017333984375 33.99187469482421875 48.055511474609375 228.1012725830078125 342.678009033203125 253.5135650634765625 31.992527008056640625 33.839824676513671875 36.712627410888671875 37.419219970703125 40.004787445068359375 48.53858184814453125 47.351306915283203125 46.38880157470703125 48.059185028076171875 41.27744293212890625 59.65496826171875 133.5103607177734375 35.683574676513671875 59.57706451416015625 169.98193359375 296.995086669921875 39.42230987548828125 69.26903533935546875 54.326625823974609375 42.397045135498046875 26.045320510864257812 30.30358123779296875 29.16362762451171875 240.8045501708984375 124.933380126953125 33.16777801513671875 25.632127761840820312 2.3817229270935058594 8.0673656463623046875 45.025432586669921875 33.374279022216796875 83.0188446044921875 36.873218536376953125 28.221784591674804688 28.457647323608398438 30.199781417846679688 33.96776580810546875 21.1128387451171875 25.805591583251953125 22.751817703247070312 31.865207672119140625 8.1690416336059570312 11.187773704528808594 28.98329925537109375 37.59803009033203125 27.912874221801757812 40.992919921875 112.52837371826171875 93.54785919189453125 284.245941162109375 277.220184326171875 34.382110595703125 61.01873016357421875 141.25732421875 46.8396759033203125 34.282440185546875 28.473196029663085938 325.485504150390625 120.4395599365234375 34.971042633056640625 34.78340911865234375 36.92398834228515625 37.358043670654296875 35.16259002685546875 36.980678558349609375 30.692316055297851562 15.960049629211425781 20.42767333984375 8.6064853668212890625 10.256537437438964844 8.3282375335693359375 16.458868026733398438 14.246157646179199219 98.02208709716796875 42.4887542724609375 58.450286865234375 18.270883560180664062 28.17812347412109375 32.80904388427734375 
363.4964599609375 237.88836669921875 33.985744476318359375 36.675701141357421875 35.76038360595703125 35.937953948974609375 287.44659423828125 244.802398681640625 316.777679443359375 32.182865142822265625 36.6619415283203125 35.169353485107421875 37.031284332275390625 36.06320953369140625 40.749034881591796875 37.658935546875 39.91522979736328125 35.6265411376953125 42.105274200439453125 42.091617584228515625 35.109943389892578125 41.622272491455078125 103.133331298828125 166.3494110107421875 49.72913360595703125 70.32410430908203125 50.19948577880859375 30.965190887451171875 25.782604217529296875 39.715465545654296875 124.46913909912109375 59.632991790771484375 22.540546417236328125 36.110149383544921875 27.346979141235351562 36.4738616943359375 2.3817229270935058594 36.91222381591796875 41.572845458984375 32.22023773193359375 34.428924560546875 30.857126235961914062 25.204298019409179688 31.107372283935546875 36.01407623291015625 45.445621490478515625 36.516765594482421875 35.719112396240234375 11.277981758117675781 2.3817229270935058594 28.423666000366210938 35.962032318115234375 31.454814910888671875 13.495766639709472656 25.012033462524414062 44.299076080322265625 37.6243438720703125 188.6832733154296875 120.6966094970703125 155.719512939453125 111.842926025390625 195.44677734375 206.995513916015625 77.93914031982421875 102.01360321044921875 52.57608795166015625 205.0432586669921875 46.08563995361328125 40.8298492431640625 36.949676513671875 38.008296966552734375 33.581096649169921875 22.508142471313476562 44.59229278564453125 30.213449478149414062 22.142009735107421875 2.3817229270935058594 9.1100950241088867188 2.3817229270935058594 23.684869766235351562 28.958677291870117188 40.19766998291015625 69.95626068115234375 45.793895721435546875 29.823726654052734375 2.3817229270935058594 2.3817229270935058594 
477.727020263671875 144.0244293212890625 48.437641143798828125 47.38445281982421875 44.55266571044921875 36.766925811767578125 189.5618896484375 263.029052734375 222.9182891845703125 31.186960220336914062 32.400234222412109375 34.9845123291015625 35.610301971435546875 36.85602569580078125 36.604450225830078125 35.58056640625 32.96582794189453125 32.132556915283203125 40.05182647705078125 35.861324310302734375 36.50952911376953125 42.4277496337890625 122.19640350341796875 139.6990814208984375 77.6926422119140625 121.05042266845703125 13.52211761474609375 48.095653533935546875 53.504825592041015625 158.4496307373046875 165.85638427734375 133.5995025634765625 43.95787811279296875 17.867124557495117188 22.130662918090820312 35.09604644775390625 22.144475936889648438 37.239696502685546875 34.935375213623046875 24.6351776123046875 21.149969100952148438 15.621789932250976562 24.220829010009765625 28.497884750366210938 33.6076507568359375 36.0060577392578125 35.1487579345703125 94.66231536865234375 2.3817229270935058594 4.5083260536193847656 20.428068161010742188 20.462293624877929688 10.72406768798828125 2.3817229270935058594 21.41847991943359375 40.661449432373046875 43.846149444580078125 82.49318695068359375 456.879974365234375 526.64080810546875 347.886199951171875 85.793121337890625 87.673309326171875 211.09808349609375 169.9826202392578125 189.3185272216796875 180.27862548828125 149.607086181640625 40.229160308837890625 49.113529205322265625 40.5681915283203125 40.379276275634765625 37.0407562255859375 38.06214141845703125 20.67362213134765625 23.036756515502929688 22.038885116577148438 36.207271575927734375 8.9292249679565429688 28.054607391357421875 20.434238433837890625 28.345081329345703125 37.66631317138671875 23.651758193969726562 33.343006134033203125 12.026895523071289062 2.3817229270935058594 
421.46356201171875 138.2959747314453125 45.676044464111328125 42.5956573486328125 43.824138641357421875 46.86795806884765625 291.933807373046875 142.5874786376953125 272.019989013671875 355.695709228515625 136.567718505859375 33.249622344970703125 35.900623321533203125 36.911441802978515625 40.6808319091796875 35.7192840576171875 34.164104461669921875 31.528120040893554688 37.1161041259765625 36.798923492431640625 34.73834228515625 59.884410858154296875 221.752593994140625 46.83266448974609375 76.42649078369140625 71.948822021484375 26.843332290649414062 39.960041046142578125 26.414081573486328125 138.306610107421875 112.82678985595703125 74.4303741455078125 193.3038482666015625 175.9234161376953125 39.5766143798828125 38.7223968505859375 39.3203582763671875 56.8449249267578125 33.214809417724609375 16.847286224365234375 18.351377487182617188 17.951566696166992188 52.360919952392578125 25.7589263916015625 32.824810028076171875 37.87911224365234375 50.5106658935546875 27.365198135375976562 2.3817229270935058594 6.634929656982421875 34.016262054443359375 7.452800750732421875 16.214685440063476562 2.3817229270935058594 19.336805343627929688 36.645030975341796875 35.729339599609375 164.2803802490234375 281.25018310546875 420.829620361328125 380.0234375 63.8140869140625 46.001811981201171875 83.2441558837890625 127.1916656494140625 77.55037689208984375 51.0317535400390625 163.163055419921875 117.6474609375 123.2656707763671875 58.53057098388671875 37.05515289306640625 46.5620880126953125 20.264009475708007812 31.203092575073242188 14.656041145324707031 31.402036666870117188 118.25225067138671875 30.324510574340820312 27.024562835693359375 4.7028331756591796875 39.767608642578125 37.30596160888671875 14.001424789428710938 23.546030044555664062 12.088758468627929688 2.3817229270935058594 
345.648895263671875 61.447406768798828125 44.284404754638671875 41.57672119140625 43.41944122314453125 44.8574676513671875 172.2540740966796875 34.443286895751953125 32.6137542724609375 284.7418212890625 204.1917877197265625 104.28497314453125 33.659145355224609375 37.419219970703125 44.1678466796875 40.10192108154296875 41.039997100830078125 37.4905548095703125 40.20073699951171875 38.8329925537109375 44.514728546142578125 194.6137847900390625 110.791656494140625 31.14669036865234375 24.97585296630859375 24.554651260375976562 64.83658599853515625 12.96012115478515625 27.793767929077148438 36.8115234375 37.1071624755859375 63.3388824462890625 29.12847137451171875 115.3443756103515625 28.230672836303710938 29.07352447509765625 47.201625823974609375 47.779209136962890625 19.389318466186523438 28.90523529052734375 21.46567535400390625 22.044187545776367188 5.9513335227966308594 20.385234832763671875 36.004352569580078125 35.4496612548828125 63.68195343017578125 2.3817229270935058594 2.3817229270935058594 16.107341766357421875 28.63690185546875 29.584371566772460938 32.689037322998046875 2.3817229270935058594 7.1095180511474609375 23.456050872802734375 35.451572418212890625 170.919677734375 540.9197998046875 364.125885009765625 295.4678955078125 38.0457916259765625 41.154632568359375 45.80249786376953125 38.151233673095703125 40.877750396728515625 36.431781768798828125 32.880062103271484375 79.58379364013671875 112.36016845703125 131.0063629150390625 35.19869232177734375 43.866580963134765625 38.714641571044921875 35.021984100341796875 24.054279327392578125 37.275787353515625 33.611690521240234375 25.903469085693359375 39.39476776123046875 9.3450536727905273438 23.677026748657226562 39.666301727294921875 36.97286224365234375 33.44470977783203125 29.094175338745117188 18.917612075805664062 
450.803131103515625 198.5928192138671875 41.827442169189453125 42.5956573486328125 43.824138641357421875 42.744659423828125 39.60135650634765625 36.350215911865234375 33.0714111328125 348.41436767578125 526.25054931640625 33.12279510498046875 35.281620025634765625 38.766765594482421875 42.46421051025390625 42.09131622314453125 41.998928070068359375 37.405635833740234375 42.042285919189453125 46.04064178466796875 174.326080322265625 116.4346466064453125 35.028484344482421875 33.088733673095703125 23.879077911376953125 39.920742034912109375 29.860059738159179688 34.000835418701171875 31.68347930908203125 104.57784271240234375 80.9258880615234375 86.09838104248046875 10.0291595458984375 30.754045486450195312 23.172590255737304688 20.671642303466796875 30.835514068603515625 6.7284946441650390625 28.766828536987304688 20.498834609985351562 32.06023406982421875 31.956216812133789062 24.832408905029296875 35.343372344970703125 36.4479522705078125 42.742893218994140625 31.494939804077148438 6.1940355300903320312 6.1623511314392089844 32.680095672607421875 22.067266464233398438 2.3817229270935058594 2.3817229270935058594 31.839006423950195312 33.909229278564453125 12.972834587097167969 20.160776138305664062 20.647340774536132812 173.1190948486328125 496.57586669921875 151.4293060302734375 133.866180419921875 100.853607177734375 38.1107635498046875 38.785297393798828125 38.175994873046875 35.967411041259765625 35.884983062744140625 29.531591415405273438 22.453098297119140625 14.874840736389160156 35.198352813720703125 40.4140625 32.451374053955078125 25.32302093505859375 21.552415847778320312 21.5690155029296875 21.416818618774414062 29.10176849365234375 21.9703216552734375 27.579030990600585938 19.46977996826171875 7.050411224365234375 15.983403205871582031 29.465122222900390625 27.935373306274414062 2.3817229270935058594 
84.3313140869140625 39.90151214599609375 43.448825836181640625 43.379924774169921875 42.038646697998046875 45.5329132080078125 43.7122344970703125 34.687740325927734375 33.214450836181640625 273.57537841796875 288.4984130859375 286.96148681640625 35.750705718994140625 35.898101806640625 38.20068359375 34.93331146240234375 43.097637176513671875 37.02036285400390625 42.18670654296875 156.7888031005859375 72.09247589111328125 35.14900970458984375 42.40320587158203125 58.18976593017578125 29.431272506713867188 41.73072052001953125 28.123353958129882812 38.659725189208984375 43.6224517822265625 41.39532470703125 38.08960723876953125 37.28644561767578125 6.3428955078125 12.713224411010742188 20.657186508178710938 22.73279571533203125 95.94210052490234375 18.791812896728515625 22.005918502807617188 18.72280120849609375 38.647830963134765625 11.719099044799804688 25.698696136474609375 32.059719085693359375 41.71195220947265625 37.21814727783203125 16.908105850219726562 2.3817229270935058594 23.173761367797851562 39.902652740478515625 32.9491119384765625 17.630544662475585938 37.305419921875 45.878658294677734375 35.640350341796875 25.822046279907226562 32.485538482666015625 33.86399078369140625 352.44085693359375 148.885833740234375 146.1716156005859375 241.3692169189453125 164.1800384521484375 121.97064971923828125 39.056751251220703125 41.0357818603515625 99.87105560302734375 237.56610107421875 210.56005859375 4.2196826934814453125 6.5971221923828125 31.686307907104492188 34.858776092529296875 38.729339599609375 33.076251983642578125 30.218456268310546875 31.650766372680664062 31.16573333740234375 30.447889328002929688 18.862031936645507812 15.913447380065917969 21.959306716918945312 27.972822189331054688 35.4216766357421875 28.128133773803710938 15.09893798828125 2.3817229270935058594 
41.788211822509765625 41.055110931396484375 42.68909454345703125 39.7318267822265625 43.8543701171875 45.302478790283203125 40.42707061767578125 34.79311370849609375 89.22592926025390625 206.90887451171875 226.86474609375 420.52154541015625 69.94234466552734375 35.62145233154296875 36.012027740478515625 40.28873443603515625 40.899658203125 38.026519775390625 40.636566162109375 124.18534088134765625 108.00371551513671875 35.232666015625 77.26923370361328125 39.570133209228515625 134.78448486328125 43.863109588623046875 25.216547012329101562 49.088504791259765625 223.3987884521484375 50.623004913330078125 163.6747894287109375 176.56121826171875 12.911812782287597656 12.164715766906738281 5.9432568550109863281 6.3498558998107910156 26.3311004638671875 15.398261070251464844 33.03948211669921875 65.3662872314453125 224.856292724609375 10.294198036193847656 29.570865631103515625 25.627054214477539062 37.77875518798828125 34.6228790283203125 41.8139801025390625 12.589418411254882812 36.327785491943359375 32.9357147216796875 31.098310470581054688 41.03430938720703125 45.92093658447265625 44.298614501953125 127.52112579345703125 47.13311004638671875 33.988643646240234375 199.0103912353515625 261.10845947265625 198.9617919921875 255.164947509765625 124.13367462158203125 136.772125244140625 114.670166015625 34.492015838623046875 41.59453582763671875 62.931976318359375 74.12279510498046875 21.972686767578125 32.01985931396484375 92.31439208984375 9.0998754501342773438 29.699438095092773438 23.909444808959960938 26.1540374755859375 17.581785202026367188 24.636445999145507812 22.45592498779296875 16.343450546264648438 19.807790756225585938 14.157353401184082031 33.142101287841796875 36.109981536865234375 33.380336761474609375 37.94843292236328125 37.398120880126953125 33.792633056640625 
39.89404296875 38.939136505126953125 38.9042510986328125 39.2118682861328125 38.927738189697265625 35.32585906982421875 135.96368408203125 297.744171142578125 175.4909210205078125 171.1395263671875 133.8614959716796875 71.25244140625 108.5778656005859375 36.625637054443359375 35.323711395263671875 33.353328704833984375 39.982883453369140625 34.13832855224609375 43.5584716796875 38.090091705322265625 48.32813262939453125 41.960803985595703125 46.776477813720703125 47.578948974609375 56.98770904541015625 4.7028331756591796875 33.0286712646484375 41.64386749267578125 63.442844390869140625 39.48233795166015625 50.681430816650390625 67.8543243408203125 23.715940475463867188 6.7787652015686035156 31.766252517700195312 9.37390899658203125 18.245306015014648438 26.574247360229492188 50.834506988525390625 97.7389068603515625 67.3144989013671875 20.73841094970703125 22.063344955444335938 17.38494873046875 25.703878402709960938 43.187976837158203125 39.234584808349609375 28.397006988525390625 36.5227508544921875 35.979213714599609375 37.83221435546875 38.477447509765625 42.9564208984375 42.24233245849609375 35.23479461669921875 184.6657562255859375 287.963348388671875 79.18828582763671875 71.78179168701171875 25.7657318115234375 15.342082977294921875 18.791812896728515625 36.317798614501953125 14.747700691223144531 19.87891387939453125 30.637971878051757812 309.718963623046875 56.460735321044921875 23.018877029418945312 20.77559661865234375 60.935741424560546875 2.3817229270935058594 6.6090726852416992188 20.067274093627929688 31.193058013916015625 32.639438629150390625 22.19255828857421875 20.658355712890625 6.3126463890075683594 4.5122418403625488281 14.981654167175292969 49.279888153076171875 163.571502685546875 31.843044281005859375 26.65370941162109375 36.57460784912109375 36.384456634521484375 
51.4014892578125 38.13720703125 39.5194854736328125 38.9042510986328125 39.766696929931640625 38.2513275146484375 109.8715362548828125 234.566864013671875 221.12457275390625 158.2339324951171875 84.72235870361328125 38.5350341796875 36.197010040283203125 34.681423187255859375 30.42708587646484375 13.47373199462890625 31.991720199584960938 33.42545318603515625 37.74126434326171875 45.0670623779296875 47.36699676513671875 40.66986083984375 47.0876922607421875 40.36920928955078125 38.57568359375 13.139119148254394531 27.364831924438476562 20.720184326171875 21.055145263671875 63.984722137451171875 145.2053985595703125 133.49798583984375 317.594818115234375 15.185273170471191406 20.338314056396484375 27.599256515502929688 33.683971405029296875 35.46492767333984375 137.96038818359375 65.87244415283203125 162.8925018310546875 104.2820281982421875 20.621892929077148438 18.221027374267578125 23.815601348876953125 127.52635955810546875 33.347698211669921875 33.32513427734375 38.869007110595703125 39.58176422119140625 41.264316558837890625 41.70743560791015625 34.5406341552734375 31.485738754272460938 44.95680999755859375 269.824249267578125 466.567901611328125 48.938198089599609375 330.582244873046875 113.5614776611328125 111.29346466064453125 17.536863327026367188 16.179338455200195312 11.984518051147460938 35.418853759765625 29.835886001586914062 86.77516937255859375 20.312896728515625 8.0415439605712890625 31.068145751953125 34.659168243408203125 9.3550968170166015625 14.428969383239746094 14.798605918884277344 20.531675338745117188 19.173206329345703125 12.191699028015136719 13.342202186584472656 9.715854644775390625 23.04587554931640625 27.775577545166015625 36.400066375732421875 36.28302001953125 23.73754119873046875 39.646663665771484375 35.074825286865234375 18.528039932250976562 
104.10626983642578125 38.65880584716796875 38.9042510986328125 39.2118682861328125 39.19168853759765625 36.441524505615234375 75.9426422119140625 357.344879150390625 285.8099365234375 106.3315582275390625 72.12755584716796875 35.8117828369140625 37.35007476806640625 29.641962051391601562 31.014862060546875 37.98874664306640625 32.99073028564453125 36.26397705078125 43.838100433349609375 46.3724517822265625 41.834621429443359375 35.090740203857421875 20.661623001098632812 30.686136245727539062 32.62395477294921875 34.2518463134765625 12.739421844482421875 14.033084869384765625 4.1860432624816894531 10.203768730163574219 32.505771636962890625 256.03118896484375 253.892242431640625 45.8968963623046875 76.86576080322265625 35.7308502197265625 29.364839553833007812 51.497837066650390625 101.15116119384765625 6.5407929420471191406 10.739045143127441406 36.728519439697265625 44.14635467529296875 19.930238723754882812 59.297153472900390625 68.238006591796875 31.436603546142578125 34.170764923095703125 34.600978851318359375 35.282062530517578125 38.727123260498046875 36.235599517822265625 33.41358184814453125 237.4864501953125 197.8571624755859375 189.0034332275390625 35.24637603759765625 95.5925750732421875 220.395904541015625 94.34357452392578125 24.981786727905273438 15.362404823303222656 18.871698379516601562 28.979763031005859375 12.137725830078125 90.1856689453125 129.7917022705078125 175.6313629150390625 4.7028331756591796875 16.7864990234375 110.74652862548828125 34.335216522216796875 10.092240333557128906 20.159017562866210938 6.5035119056701660156 38.021331787109375 33.858509063720703125 19.522985458374023438 18.047170639038085938 13.987274169921875 35.0435638427734375 36.823841094970703125 37.342777252197265625 19.907764434814453125 39.284549713134765625 26.970663070678710938 14.123124122619628906 
50.963047027587890625 39.70676422119140625 40.32199859619140625 39.39699554443359375 42.88678741455078125 40.63187408447265625 170.5692596435546875 232.4713897705078125 129.0137786865234375 40.26628875732421875 44.691539764404296875 16.577035903930664062 13.195688247680664062 4.7028331756591796875 13.423842430114746094 36.955291748046875 33.465518951416015625 39.09699249267578125 48.024322509765625 45.630458831787109375 44.167476654052734375 27.882596969604492188 31.46169281005859375 32.156749725341796875 16.526851654052734375 169.2717132568359375 46.529743194580078125 14.364877700805664062 2.3817229270935058594 49.493656158447265625 133.1563873291015625 196.2704620361328125 59.923313140869140625 91.4699554443359375 77.20360565185546875 19.697473526000976562 2.3817229270935058594 18.761648178100585938 84.77079010009765625 116.36447906494140625 4.8323359489440917969 21.038906097412109375 38.423198699951171875 145.30706787109375 34.133869171142578125 33.598552703857421875 121.47667694091796875 33.8568115234375 32.99430084228515625 33.0702667236328125 33.116634368896484375 35.614429473876953125 33.9646148681640625 205.276611328125 126.4611358642578125 43.574703216552734375 21.434421539306640625 25.784109115600585938 73.8683624267578125 91.1319580078125 24.19448089599609375 19.974788665771484375 16.673505783081054688 20.5338134765625 30.672224044799804688 209.0701751708984375 63.87088775634765625 286.650238037109375 79.05580902099609375 40.20025634765625 12.865685462951660156 6.6218051910400390625 2.3817229270935058594 2.3817229270935058594 16.308383941650390625 167.226715087890625 27.32384490966796875 23.769754409790039062 10.994123458862304688 18.704647064208984375 30.049663543701171875 37.738338470458984375 39.108917236328125 27.804433822631835938 29.528699874877929688 21.43325042724609375 16.883340835571289062 
160.094085693359375 38.254093170166015625 41.30633544921875 40.24002838134765625 37.175609588623046875 87.41400146484375 305.94171142578125 215.015380859375 52.897708892822265625 40.858062744140625 39.007190704345703125 33.82720947265625 23.014345169067382812 21.949039459228515625 20.958465576171875 36.1118316650390625 32.600399017333984375 35.641750335693359375 42.302196502685546875 175.5214691162109375 39.297351837158203125 21.174589157104492188 24.316646575927734375 14.089795112609863281 20.391847610473632812 28.113359451293945312 13.472576141357421875 30.337558746337890625 11.663286209106445312 35.970226287841796875 130.3437347412109375 187.0355987548828125 159.9766693115234375 96.1603240966796875 34.49556732177734375 12.052044868469238281 8.57135009765625 169.2642059326171875 238.7660064697265625 134.0798797607421875 5.7932286262512207031 33.78082275390625 49.8989410400390625 54.1501312255859375 33.16864776611328125 34.520721435546875 33.7478485107421875 110.78763580322265625 33.487995147705078125 33.45456695556640625 32.809764862060546875 112.39943695068359375 228.553558349609375 71.13126373291015625 72.7754058837890625 28.300699234008789062 23.030809402465820312 111.88751220703125 286.46893310546875 191.393768310546875 18.804622650146484375 16.999673843383789062 9.799152374267578125 74.77077484130859375 115.1787567138671875 110.537872314453125 128.943756103515625 241.32861328125 71.09528350830078125 24.032140731811523438 2.3817229270935058594 2.3817229270935058594 2.3817229270935058594 2.3817229270935058594 4.7028331756591796875 22.17908477783203125 11.33126068115234375 16.456190109252929688 34.35410308837890625 24.54737091064453125 20.615095138549804688 34.8505401611328125 38.83423614501953125 36.81737518310546875 33.762332916259765625 27.659275054931640625 25.322696685791015625 
38.45085906982421875 41.0870513916015625 44.903873443603515625 39.719547271728515625 49.030353546142578125 214.55267333984375 181.4062347412109375 35.832000732421875 42.506557464599609375 36.96080780029296875 32.54558563232421875 18.645038604736328125 22.30615997314453125 20.985784530639648438 58.00629425048828125 121.70639801025390625 32.623199462890625 170.6619873046875 68.978302001953125 41.32575225830078125 43.862628936767578125 27.284029006958007812 15.060070037841796875 32.11800384521484375 27.667348861694335938 25.452833175659179688 13.060674667358398438 15.945162773132324219 2.3817229270935058594 102.12537384033203125 33.18291473388671875 18.444080352783203125 18.304941177368164062 30.382061004638671875 27.023088455200195312 19.6974945068359375 14.461478233337402344 231.2251739501953125 7.7265377044677734375 7.0239434242248535156 18.573886871337890625 33.44843292236328125 35.44509124755859375 40.715396881103515625 43.23967742919921875 34.823909759521484375 35.214504241943359375 36.214447021484375 171.5762939453125 94.69964599609375 33.33316802978515625 159.3518524169921875 250.1235504150390625 123.98824310302734375 200.3345794677734375 27.401693344116210938 57.7495269775390625 183.9487457275390625 159.5671234130859375 170.9225311279296875 22.344024658203125 28.183759689331054688 43.576381683349609375 38.67737579345703125 35.074481964111328125 40.7281646728515625 58.15924835205078125 110.24094390869140625 37.0272369384765625 33.626514434814453125 4.4576549530029296875 2.3817229270935058594 2.3817229270935058594 2.3817229270935058594 2.3817229270935058594 11.666163444519042969 11.183012962341308594 20.988317489624023438 20.288339614868164062 31.523027420043945312 24.488536834716796875 39.131683349609375 32.82549285888671875 37.105182647705078125 36.999996185302734375 16.301311492919921875 18.2399749755859375 
49.34732818603515625 48.437641143798828125 43.20648956298828125 35.73382568359375 169.8143463134765625 329.52935791015625 328.862335205078125 45.962566375732421875 34.30379486083984375 43.37488555908203125 32.047527313232421875 18.256343841552734375 30.75121307373046875 27.346860885620117188 174.4217681884765625 63.857891082763671875 33.149662017822265625 41.37432861328125 16.303997039794921875 169.2752532958984375 256.88427734375 128.0835723876953125 31.370004653930664062 34.4241790771484375 8.1619739532470703125 2.3817229270935058594 2.3817229270935058594 78.24950408935546875 13.90740203857421875 35.42572784423828125 14.3846282958984375 2.3817229270935058594 2.3817229270935058594 2.3817229270935058594 7.7189755439758300781 10.395407676696777344 21.144865036010742188 18.7363128662109375 15.332227706909179688 20.894464492797851562 10.560149192810058594 13.087816238403320312 39.03841400146484375 132.693328857421875 128.5754852294921875 35.27785491943359375 34.2066650390625 32.45948028564453125 179.082550048828125 146.105865478515625 23.243963241577148438 215.3143310546875 91.51324462890625 268.195465087890625 230.7283172607421875 162.97625732421875 29.8777313232421875 283.317626953125 7.88503265380859375 35.171092987060546875 204.41192626953125 42.09644317626953125 36.893733978271484375 33.221935272216796875 35.873615264892578125 45.6291961669921875 138.26513671875 163.8609466552734375 149.9798431396484375 47.093021392822265625 161.2169952392578125 46.53238677978515625 2.3817229270935058594 2.3817229270935058594 2.3817229270935058594 6.5071530342102050781 11.277258872985839844 7.0371770858764648438 11.543672561645507812 28.39556121826171875 18.265415191650390625 23.027029037475585938 19.496610641479492188 17.5949554443359375 27.579935073852539062 27.608873367309570312 18.592828750610351562 
47.021457672119140625 39.251972198486328125 43.008579254150390625 144.158782958984375 308.429473876953125 345.866943359375 77.48383331298828125 34.041088104248046875 26.927175521850585938 18.874742507934570312 24.776567459106445312 13.61011505126953125 31.941558837890625 31.622808456420898438 31.241819381713867188 25.612957000732421875 30.816677093505859375 53.631824493408203125 61.8484344482421875 50.53729248046875 143.0307464599609375 51.125865936279296875 75.6921234130859375 30.305456161499023438 10.961362838745117188 2.3817229270935058594 34.506908416748046875 223.5860748291015625 9.357921600341796875 60.233036041259765625 162.657958984375 4.5803422927856445312 2.3817229270935058594 30.76511383056640625 5.2855811119079589844 8.1256475448608398438 16.237457275390625 47.012294769287109375 21.960643768310546875 17.89116668701171875 71.43747711181640625 2.3817229270935058594 118.07769775390625 148.7037506103515625 76.74684906005859375 33.984954833984375 33.81790924072265625 33.753955841064453125 230.702117919921875 126.95635986328125 161.006805419921875 48.611240386962890625 25.224851608276367188 18.079816818237304688 53.993000030517578125 188.51336669921875 10.95310211181640625 137.17437744140625 37.464740753173828125 161.535491943359375 234.6870269775390625 37.738189697265625 36.209827423095703125 32.732212066650390625 35.31684112548828125 36.418987274169921875 142.8583984375 82.848388671875 159.0892791748046875 24.722726821899414062 162.977874755859375 58.840534210205078125 4.5803422927856445312 2.3817229270935058594 2.3817229270935058594 2.3817229270935058594 4.7028331756591796875 2.3817229270935058594 7.0239434242248535156 25.331411361694335938 13.523064613342285156 2.3817229270935058594 2.3817229270935058594 2.3817229270935058594 9.9688501358032226562 32.841098785400390625 34.1029052734375 
37.627872467041015625 40.107303619384765625 57.7989654541015625 363.888671875 220.5947113037109375 96.9801483154296875 39.133251190185546875 29.319269180297851562 16.995922088623046875 19.23101043701171875 17.234838485717773438 18.6541290283203125 35.3441314697265625 28.984554290771484375 20.8879547119140625 16.571699142456054688 21.498498916625976562 16.999448776245117188 2.3817229270935058594 8.6187572479248046875 25.13239288330078125 30.822828292846679688 119.36785888671875 22.738986968994140625 29.11972808837890625 28.010601043701171875 72.82352447509765625 117.072906494140625 2.3817229270935058594 174.60906982421875 82.54801177978515625 35.9523468017578125 18.1151123046875 2.3817229270935058594 5.029998779296875 2.3817229270935058594 2.3817229270935058594 209.7515411376953125 13.892941474914550781 31.327266693115234375 137.540985107421875 4.5830640792846679688 49.0671539306640625 175.5054473876953125 37.172595977783203125 33.233798980712890625 33.83991241455078125 56.214870452880859375 87.40218353271484375 27.511648178100585938 19.39081573486328125 9.2908496856689453125 10.136855125427246094 13.106266021728515625 178.9470367431640625 137.0313720703125 9.1118841171264648438 168.542449951171875 388.637420654296875 130.6451416015625 72.38994598388671875 34.338542938232421875 117.8962249755859375 36.19895172119140625 36.10985565185546875 49.5548095703125 79.83136749267578125 44.21431732177734375 346.58319091796875 36.255847930908203125 133.6449737548828125 127.72442626953125 54.68317413330078125 137.7074737548828125 4.3330683708190917969 2.3817229270935058594 2.3817229270935058594 2.3817229270935058594 4.7028331756591796875 27.9708709716796875 13.29775238037109375 2.3817229270935058594 2.3817229270935058594 4.4073843955993652344 18.289808273315429688 33.40921783447265625 41.69869232177734375 
45.083705902099609375 38.619220733642578125 71.81145477294921875 395.86920166015625 346.293121337890625 34.77813720703125 27.997129440307617188 33.756351470947265625 32.10150909423828125 25.588247299194335938 26.558353424072265625 25.169782638549804688 13.72045135498046875 25.142930984497070312 16.319644927978515625 224.1730804443359375 43.10720062255859375 25.906162261962890625 28.966215133666992188 35.92572784423828125 20.290979385375976562 17.294317245483398438 10.663155555725097656 28.833032608032226562 26.046421051025390625 31.732114791870117188 37.981174468994140625 56.303356170654296875 59.94195556640625 57.009479522705078125 26.6823577880859375 29.521869659423828125 19.397573471069335938 13.229012489318847656 7.0239434242248535156 2.3817229270935058594 7.1987156867980957031 9.2946043014526367188 9.3327226638793945312 4.7902193069458007812 7.4617013931274414062 50.4463043212890625 51.471263885498046875 34.739803314208984375 33.471500396728515625 29.348421096801757812 27.506801605224609375 15.090810775756835938 32.038516998291015625 32.344013214111328125 33.21665191650390625 33.19528961181640625 35.40975189208984375 38.599506378173828125 80.71752166748046875 238.053253173828125 36.294826507568359375 116.5778045654296875 111.062286376953125 182.8458404541015625 33.338909149169921875 51.53615570068359375 224.2726287841796875 35.404369354248046875 38.05638885498046875 46.65021514892578125 33.6104278564453125 34.084835052490234375 34.752269744873046875 29.5365447998046875 96.73715972900390625 83.03981781005859375 105.6053009033203125 95.72127532958984375 14.821858406066894531 8.154506683349609375 2.3817229270935058594 10.976991653442382812 7.775234222412109375 29.427560806274414062 14.872457504272460938 2.3817229270935058594 2.3817229270935058594 38.92415618896484375 31.831232070922851562 40.81744384765625 41.32578277587890625 
40.594348907470703125 48.41179656982421875 323.2940673828125 197.8198089599609375 35.07959747314453125 21.525579452514648438 10.525379180908203125 23.95763397216796875 13.752219200134277344 6.1258387565612792969 195.2030181884765625 24.345964431762695312 27.942182540893554688 33.67822265625 18.098407745361328125 55.102855682373046875 167.259124755859375 28.813657760620117188 31.530626296997070312 29.958263397216796875 37.895832061767578125 26.87413787841796875 22.2500152587890625 33.983097076416015625 22.018085479736328125 25.702131271362304688 23.959857940673828125 23.493501663208007812 15.901708602905273438 24.264617919921875 14.940690040588378906 2.3817229270935058594 2.3817229270935058594 2.3817229270935058594 13.523051261901855469 10.467607498168945312 16.354818344116210938 10.229946136474609375 12.586979866027832031 26.071653366088867188 10.635300636291503906 66.244354248046875 24.3074188232421875 27.873401641845703125 15.686902999877929688 29.335065841674804688 33.706356048583984375 41.89406585693359375 32.718475341796875 36.91748046875 32.040252685546875 32.87857818603515625 42.604427337646484375 44.18593597412109375 51.300106048583984375 45.5567474365234375 48.1889495849609375 219.065185546875 386.326751708984375 70.57854461669921875 133.0094146728515625 52.350921630859375 78.64232635498046875 25.486309051513671875 33.4201507568359375 34.77259063720703125 39.574245452880859375 30.85582733154296875 36.34290313720703125 23.315216064453125 38.34018707275390625 173.3353118896484375 142.410186767578125 24.818431854248046875 83.9239501953125 66.00079345703125 19.997772216796875 18.482191085815429688 84.4192047119140625 25.993623733520507812 19.194673538208007812 2.3817229270935058594 7.1214270591735839844 286.944091796875 35.3839111328125 40.669475555419921875 39.42205047607421875 
52.72967529296875 190.18328857421875 243.315185546875 126.19965362548828125 31.060194015502929688 26.112133026123046875 22.24964141845703125 14.162725448608398438 15.47690582275390625 13.124828338623046875 20.816019058227539062 24.005846023559570312 27.613378524780273438 31.26998138427734375 29.501409530639648438 31.039674758911132812 69.53833770751953125 36.376285552978515625 26.188966751098632812 34.419406890869140625 25.53821563720703125 2.3817229270935058594 26.913349151611328125 33.89933013916015625 6.5316677093505859375 27.116512298583984375 5.2384738922119140625 7.21185302734375 2.3817229270935058594 2.3817229270935058594 8.5889949798583984375 2.3817229270935058594 2.3817229270935058594 17.855791091918945312 22.378978729248046875 9.7012166976928710938 4.7160668373107910156 8.8567829132080078125 2.3817229270935058594 10.000351905822753906 12.962532997131347656 22.72476959228515625 33.511260986328125 34.228641510009765625 33.387241363525390625 34.376190185546875 32.393276214599609375 33.959621429443359375 33.34619140625 34.81478118896484375 33.236995697021484375 32.812999725341796875 39.31845855712890625 42.264980316162109375 39.419952392578125 41.622455596923828125 42.434505462646484375 57.253833770751953125 186.601409912109375 4.983516693115234375 31.411806106567382812 112.95580291748046875 143.2727203369140625 32.953227996826171875 33.4869232177734375 59.546871185302734375 36.312652587890625 32.576877593994140625 15.679315567016601562 34.314983367919921875 34.508335113525390625 126.98822784423828125 118.52945709228515625 33.6635589599609375 142.00732421875 144.908905029296875 15.845232963562011719 46.513797760009765625 164.7026214599609375 22.291942596435546875 23.950029373168945312 33.379222869873046875 40.3647613525390625 109.89611053466796875 173.54534912109375 36.92205047607421875 42.34508514404296875 
135.659454345703125 202.5260162353515625 116.40311431884765625 295.74566650390625 32.5003509521484375 35.580963134765625 194.6164703369140625 95.15735626220703125 33.813579559326171875 42.970905303955078125 174.8487396240234375 104.52330780029296875 93.4558868408203125 220.9310302734375 30.142881393432617188 21.880222320556640625 31.399168014526367188 17.221666336059570312 21.176939010620117188 33.05626678466796875 22.486898422241210938 2.3817229270935058594 2.3817229270935058594 9.5017080307006835938 13.359373092651367188 10.416797637939453125 18.498926162719726562 16.089870452880859375 58.4321136474609375 178.116790771484375 8.5003900527954101562 4.9886765480041503906 2.3817229270935058594 15.43561553955078125 17.057216644287109375 12.618440628051757812 2.3817229270935058594 2.3817229270935058594 85.5628662109375 32.131488800048828125 22.507329940795898438 42.7752532958984375 31.40723419189453125 34.071269989013671875 33.614017486572265625 38.304203033447265625 49.86696624755859375 117.38248443603515625 38.339202880859375 26.14638519287109375 28.394895553588867188 33.9437408447265625 24.672672271728515625 25.60594940185546875 40.9621429443359375 42.09008026123046875 44.430500030517578125 43.049407958984375 25.836793899536132812 16.43827056884765625 35.05957794189453125 51.886295318603515625 321.51171875 99.62438201904296875 45.06496429443359375 36.207019805908203125 40.14228057861328125 20.1415252685546875 24.075275421142578125 36.42041015625 78.43047332763671875 102.1366729736328125 35.416263580322265625 36.7765045166015625 102.55303955078125 29.277055740356445312 24.726688385009765625 39.94760894775390625 61.780269622802734375 14.594470024108886719 37.769657135009765625 55.84485626220703125 55.343784332275390625 52.80907440185546875 68.92462158203125 81.2089385986328125 84.118133544921875 
124.47745513916015625 211.8557281494140625 111.8564605712890625 40.20951080322265625 33.222827911376953125 34.29636383056640625 36.003116607666015625 14.792881965637207031 70.95905303955078125 129.7007293701171875 182.2152557373046875 133.350189208984375 44.798221588134765625 146.2337646484375 196.3237152099609375 22.880754470825195312 31.241182327270507812 40.15056610107421875 35.13773345947265625 34.21866607666015625 17.386556625366210938 16.225374221801757812 167.9429473876953125 18.260911941528320312 21.319471359252929688 13.066636085510253906 81.347442626953125 76.33254241943359375 127.6945648193359375 107.34244537353515625 263.789337158203125 138.952484130859375 8.7394123077392578125 2.3817229270935058594 2.3817229270935058594 4.8323359489440917969 9.607212066650390625 7.2829489707946777344 9.704654693603515625 23.47347259521484375 57.866367340087890625 124.0114898681640625 37.382328033447265625 114.16413116455078125 37.903839111328125 33.82276153564453125 74.6029815673828125 62.57108306884765625 15.764018058776855469 15.287839889526367188 2.3817229270935058594 6.5923428535461425781 2.3817229270935058594 2.3817229270935058594 28.083805084228515625 38.40995025634765625 40.591503143310546875 35.284679412841796875 35.513477325439453125 51.067897796630859375 114.83103179931640625 130.899383544921875 164.64141845703125 151.4474639892578125 38.028507232666015625 37.68520355224609375 40.128467559814453125 21.270624160766601562 32.550983428955078125 65.6945343017578125 143.2870330810546875 17.6187591552734375 23.97083282470703125 117.7726898193359375 182.104644775390625 20.568897247314453125 24.822954177856445312 39.092601776123046875 42.550899505615234375 26.411256790161132812 20.327333450317382812 19.00981903076171875 18.940639495849609375 34.963878631591796875 44.478908538818359375 43.43657684326171875 25.86452484130859375 
209.2472381591796875 317.352142333984375 38.984638214111328125 42.54065704345703125 34.9250335693359375 38.29754638671875 181.49188232421875 26.990795135498046875 138.9788818359375 117.9414215087890625 222.009521484375 94.4040679931640625 19.12822723388671875 67.75600433349609375 29.881994247436523438 24.473724365234375 30.550014495849609375 34.9998321533203125 151.2336883544921875 8.4670162200927734375 33.677303314208984375 25.122110366821289062 34.97837066650390625 26.032266616821289062 6.0954990386962890625 30.36309814453125 27.2503509521484375 155.70465087890625 94.12926483154296875 51.20916748046875 92.21852874755859375 5.7707624435424804688 2.3817229270935058594 19.494104385375976562 2.3817229270935058594 104.0995330810546875 185.533416748046875 31.392618179321289062 60.963352203369140625 14.34665679931640625 42.6718597412109375 485.73101806640625 40.195529937744140625 51.376552581787109375 41.00897216796875 39.120471954345703125 40.927898406982421875 36.830448150634765625 34.7349700927734375 19.134744644165039062 2.3817229270935058594 2.3817229270935058594 2.3817229270935058594 2.3817229270935058594 35.71201324462890625 40.085407257080078125 40.562740325927734375 38.39166259765625 36.507045745849609375 33.178070068359375 128.1717681884765625 144.131134033203125 179.048919677734375 51.329723358154296875 39.367908477783203125 41.645275115966796875 38.93442535400390625 23.406469345092773438 33.84317779541015625 73.74114227294921875 59.891681671142578125 10.822653770446777344 16.355070114135742188 34.36890411376953125 23.18103790283203125 30.106969833374023438 22.778730392456054688 35.4975738525390625 36.1295928955078125 38.4635009765625 38.094516754150390625 17.14048004150390625 24.954837799072265625 38.8970794677734375 40.5348968505859375 42.52776336669921875 25.86452484130859375 
316.837921142578125 151.45953369140625 48.101589202880859375 42.482456207275390625 37.16764068603515625 32.957263946533203125 188.9189605712890625 23.676885604858398438 15.722655296325683594 25.00856781005859375 69.38974761962890625 162.7432403564453125 25.462749481201171875 27.526844024658203125 16.8804473876953125 2.3817229270935058594 26.204433441162109375 15.395018577575683594 6.67725372314453125 71.28183746337890625 211.03192138671875 2.3817229270935058594 32.995571136474609375 6.0579519271850585938 6.7298765182495117188 102.26007843017578125 10.67657470703125 28.57452392578125 49.803775787353515625 35.4333648681640625 40.388446807861328125 27.7854156494140625 15.365914344787597656 36.47293853759765625 104.25252532958984375 18.812314987182617188 190.333099365234375 22.822689056396484375 24.651041030883789062 2.3817229270935058594 10.187104225158691406 34.508487701416015625 39.698680877685546875 42.370807647705078125 39.613124847412109375 38.617061614990234375 39.5194854736328125 35.855377197265625 44.00860595703125 14.123124122619628906 2.3817229270935058594 2.3817229270935058594 2.3817229270935058594 2.3817229270935058594 38.371692657470703125 38.646907806396484375 43.59990692138671875 40.213634490966796875 37.289661407470703125 34.53589630126953125 37.408336639404296875 139.990142822265625 183.4626922607421875 42.0661163330078125 38.664615631103515625 39.913745880126953125 40.46761322021484375 55.742504119873046875 40.91172027587890625 124.99927520751953125 13.83708953857421875 10.278084754943847656 25.234102249145507812 31.135332107543945312 34.17810821533203125 28.97176361083984375 30.255771636962890625 38.264404296875 40.161651611328125 39.69007110595703125 38.537128448486328125 38.001251220703125 17.190443038940429688 43.230499267578125 36.845157623291015625 24.408216476440429688 2.3817229270935058594 
131.2961578369140625 88.59355926513671875 43.41979217529296875 39.295505523681640625 111.176239013671875 32.857879638671875 74.08959197998046875 66.35552978515625 54.446132659912109375 47.982166290283203125 32.604419708251953125 128.911102294921875 38.63848876953125 35.29653167724609375 35.82022857666015625 32.610790252685546875 9.8403635025024414062 22.140956878662109375 34.424297332763671875 19.8269195556640625 155.9735107421875 2.3817229270935058594 2.3817229270935058594 2.3817229270935058594 2.3817229270935058594 147.5272216796875 135.9639434814453125 47.3616180419921875 88.6920166015625 54.241180419921875 48.81114959716796875 20.443700790405273438 205.5269622802734375 321.528594970703125 32.960445404052734375 31.069890975952148438 36.090789794921875 2.3817229270935058594 4.82344818115234375 6.1686177253723144531 14.769303321838378906 34.39865875244140625 34.6904754638671875 33.835086822509765625 39.4183349609375 39.5194854736328125 39.5194854736328125 23.562114715576171875 21.023122787475585938 22.073179244995117188 2.3817229270935058594 2.3817229270935058594 2.3817229270935058594 27.627628326416015625 29.367994308471679688 38.1215667724609375 37.82854461669921875 38.340091705322265625 39.67618560791015625 37.660888671875 40.029155731201171875 41.793766021728515625 110.494903564453125 54.777210235595703125 123.30538177490234375 38.320037841796875 41.07721710205078125 80.2722015380859375 152.0848388671875 68.2474517822265625 12.269860267639160156 25.058984756469726562 23.048337936401367188 28.786144256591796875 25.015230178833007812 32.9746246337890625 32.794429779052734375 37.26985931396484375 39.66381072998046875 34.26203155517578125 38.98906707763671875 41.277477264404296875 39.093395233154296875 39.377994537353515625 40.50994873046875 29.930940628051757812 23.407564163208007812 
72.361083984375 44.426860809326171875 39.77074432373046875 49.1563720703125 231.3958587646484375 89.965057373046875 125.3718414306640625 160.8572845458984375 2.3817229270935058594 12.222191810607910156 28.338779449462890625 31.432041168212890625 37.677623748779296875 38.672519683837890625 21.933237075805664062 24.245931625366210938 15.935876846313476562 19.783782958984375 19.111597061157226562 5.0269255638122558594 2.3817229270935058594 2.3817229270935058594 2.3817229270935058594 2.3817229270935058594 70.37990570068359375 138.7571258544921875 80.694732666015625 64.26739501953125 95.0546722412109375 310.337646484375 146.2049713134765625 94.83943939208984375 39.08058929443359375 333.247222900390625 182.0140380859375 45.95859527587890625 147.4952545166015625 2.3817229270935058594 2.3817229270935058594 2.3817229270935058594 29.230228424072265625 33.840366363525390625 33.9392547607421875 41.032535552978515625 41.329681396484375 41.8007659912109375 41.558284759521484375 26.255998611450195312 2.3817229270935058594 2.3817229270935058594 2.3817229270935058594 2.3817229270935058594 2.3817229270935058594 2.3817229270935058594 30.980924606323242188 37.02062225341796875 37.65462493896484375 39.06060791015625 34.55011749267578125 37.030925750732421875 41.573619842529296875 42.907550811767578125 34.663471221923828125 38.554805755615234375 116.14270782470703125 34.07204437255859375 36.53635406494140625 167.1790313720703125 206.077972412109375 26.986186981201171875 34.276874542236328125 40.835186004638671875 41.225681304931640625 41.126068115234375 45.481357574462890625 42.806705474853515625 32.53420257568359375 24.91965484619140625 35.491504669189453125 95.93677520751953125 40.17945098876953125 44.957820892333984375 39.595149993896484375 41.738056182861328125 47.15064239501953125 40.10160064697265625 46.789066314697265625 
44.305126190185546875 41.951496124267578125 35.287204742431640625 34.84197998046875 34.347751617431640625 96.42658233642578125 193.05548095703125 31.88854217529296875 31.912839889526367188 31.634304046630859375 35.884372711181640625 27.492031097412109375 35.055332183837890625 27.304416656494140625 31.447788238525390625 20.314441680908203125 2.3817229270935058594 2.3817229270935058594 2.3817229270935058594 2.3817229270935058594 2.3817229270935058594 2.3817229270935058594 90.84279632568359375 75.55289459228515625 184.49993896484375 249.29046630859375 27.169647216796875 102.64765167236328125 187.8777923583984375 59.562587738037109375 151.2450408935546875 19.013814926147460938 33.727924346923828125 29.308691024780273438 199.7149200439453125 380.340545654296875 314.590911865234375 19.36667633056640625 2.3817229270935058594 7.5115823745727539062 35.8354949951171875 35.271556854248046875 40.355304718017578125 32.53205108642578125 31.252553939819335938 27.631622314453125 39.5194854736328125 25.076068878173828125 2.3817229270935058594 2.3817229270935058594 2.3817229270935058594 2.3817229270935058594 2.3817229270935058594 2.3817229270935058594 28.141727447509765625 35.288700103759765625 41.497653961181640625 41.78534698486328125 41.116058349609375 39.848377227783203125 96.1307220458984375 82.58722686767578125 40.20690155029296875 88.656402587890625 279.751739501953125 63.828723907470703125 170.530517578125 102.497772216796875 152.463531494140625 18.794778823852539062 32.42529296875 42.878177642822265625 42.0258636474609375 41.828479766845703125 42.76911163330078125 39.1038970947265625 14.590548515319824219 23.439088821411132812 23.438692092895507812 29.389190673828125 41.424983978271484375 43.784259796142578125 39.68578338623046875 40.68140411376953125 43.266819000244140625 40.448757171630859375 49.117527008056640625 
52.037853240966796875 57.3998870849609375 35.047359466552734375 38.983722686767578125 37.740779876708984375 37.67031097412109375 71.39218902587890625 38.201801300048828125 35.767353057861328125 35.531795501708984375 40.604053497314453125 39.328685760498046875 36.719631195068359375 34.448825836181640625 23.327688217163085938 12.013424873352050781 2.3817229270935058594 2.3817229270935058594 2.3817229270935058594 113.13178253173828125 125.64911651611328125 179.7747344970703125 53.389019012451171875 88.4068756103515625 50.78253936767578125 40.862026214599609375 34.240726470947265625 75.674530029296875 103.1645355224609375 42.446781158447265625 29.2332763671875 10.586767196655273438 22.22400665283203125 33.083370208740234375 31.871067047119140625 33.447479248046875 14.473469734191894531 5.0495448112487792969 18.986309051513671875 31.67009735107421875 36.51288604736328125 36.7076568603515625 39.9013214111328125 31.914438247680664062 33.82216644287109375 23.667327880859375 18.193082809448242188 14.369992256164550781 2.3817229270935058594 15.078156471252441406 24.957056045532226562 2.3817229270935058594 12.13472747802734375 16.028375625610351562 34.09686279296875 37.62065887451171875 33.473804473876953125 40.60015106201171875 36.690914154052734375 35.73827362060546875 43.29840850830078125 75.3839569091796875 176.1862945556640625 138.183319091796875 124.836578369140625 146.71771240234375 160.4666900634765625 82.74401092529296875 76.35491180419921875 16.807157516479492188 35.192089080810546875 41.590190887451171875 40.551395416259765625 37.596752166748046875 36.208950042724609375 16.859737396240234375 2.3817229270935058594 14.862763404846191406 84.6332244873046875 28.925426483154296875 31.670166015625 43.3813323974609375 40.625034332275390625 41.16373443603515625 46.634258270263671875 40.637664794921875 42.0881500244140625 
39.359710693359375 64.4463653564453125 74.5601348876953125 41.888950347900390625 43.063083648681640625 20.411865234375 40.2127532958984375 40.921764373779296875 39.325069427490234375 15.800573348999023438 35.051273345947265625 38.5615234375 19.927885055541992188 17.77130126953125 12.641442298889160156 2.3817229270935058594 2.3817229270935058594 12.558668136596679688 82.9290924072265625 253.5608367919921875 145.8242645263671875 17.91778564453125 7.6730279922485351562 29.844850540161132812 43.606170654296875 41.4906158447265625 45.0706634521484375 43.753170013427734375 36.751499176025390625 42.794345855712890625 13.873792648315429688 6.0582375526428222656 31.440746307373046875 34.942657470703125 22.105016708374023438 33.146884918212890625 12.636394500732421875 8.0808811187744140625 31.428741455078125 38.12014007568359375 38.365917205810546875 44.13753509521484375 43.09271240234375 42.938274383544921875 49.319538116455078125 63.767444610595703125 30.79949188232421875 2.3817229270935058594 8.3703155517578125 41.405315399169921875 60.29500579833984375 29.897001266479492188 25.192264556884765625 33.436504364013671875 56.31696319580078125 68.78562164306640625 83.1572723388671875 38.30284881591796875 34.568134307861328125 28.475439071655273438 76.40567779541015625 127.10649871826171875 113.4620819091796875 106.063934326171875 46.317295074462890625 37.905284881591796875 47.55777740478515625 97.5184173583984375 124.1086578369140625 33.94158935546875 33.43780517578125 42.364574432373046875 42.475948333740234375 37.6686859130859375 28.62444305419921875 23.223089218139648438 35.976348876953125 37.404483795166015625 42.546009063720703125 39.62084197998046875 6.897937774658203125 28.789457321166992188 42.919002532958984375 65.9197540283203125 45.976810455322265625 139.3267669677734375 462.741943359375 
44.34439849853515625 41.339878082275390625 41.56342315673828125 41.27869415283203125 32.549694061279296875 34.759456634521484375 64.47686004638671875 38.922924041748046875 33.682971954345703125 12.835575103759765625 22.271305084228515625 25.6271514892578125 16.895244598388671875 10.166449546813964844 34.389469146728515625 2.3817229270935058594 2.3817229270935058594 2.3817229270935058594 171.21087646484375 204.444122314453125 235.6458587646484375 135.8015289306640625 124.34503936767578125 36.44219970703125 39.47229766845703125 41.145931243896484375 40.010135650634765625 40.6292877197265625 36.69305419921875 39.5382537841796875 26.33681488037109375 34.574069976806640625 32.8610076904296875 32.805877685546875 33.60524749755859375 27.594373703002929688 4.5802340507507324219 25.131071090698242188 37.42197418212890625 38.803089141845703125 45.385303497314453125 45.2481231689453125 40.367198944091796875 74.35430908203125 105.5204925537109375 19.244413375854492188 6.0287728309631347656 2.3817229270935058594 33.645061492919921875 84.65586090087890625 81.94675445556640625 22.429647445678710938 36.426723480224609375 69.129364013671875 72.9694976806640625 155.9974365234375 46.35772705078125 36.489227294921875 28.077396392822265625 30.924730300903320312 55.90019989013671875 172.195037841796875 125.81630706787109375 40.448223114013671875 41.637371063232421875 40.34588623046875 38.399692535400390625 34.752956390380859375 31.826551437377929688 76.587432861328125 37.512298583984375 41.79410552978515625 33.585056304931640625 27.161134719848632812 35.413326263427734375 39.920742034912109375 39.98416900634765625 39.2514801025390625 39.783355712890625 28.31980133056640625 13.592336654663085938 35.273845672607421875 116.55928802490234375 236.0631561279296875 135.53363037109375 121.73201751708984375 101.20816802978515625 
98.42223358154296875 50.864917755126953125 44.535655975341796875 48.508747100830078125 31.548389434814453125 41.1352081298828125 115.650421142578125 112.56383514404296875 97.1956787109375 45.68581390380859375 4.7028331756591796875 7.4251999855041503906 7.8264570236206054688 2.3817229270935058594 2.3817229270935058594 2.3817229270935058594 2.3817229270935058594 151.780364990234375 212.5117950439453125 110.817230224609375 38.774028778076171875 23.655614852905273438 129.7167510986328125 208.055694580078125 40.7423553466796875 44.65566253662109375 41.88820648193359375 41.86769866943359375 15.204441070556640625 43.92098236083984375 46.7930908203125 22.431379318237304688 22.44408416748046875 25.5179595947265625 36.161022186279296875 30.313037872314453125 17.097612380981445312 37.1265411376953125 39.034450531005859375 44.736827850341796875 35.48372650146484375 35.01148223876953125 35.162937164306640625 61.496646881103515625 32.203899383544921875 21.363185882568359375 4.3656249046325683594 10.054894447326660156 40.9038543701171875 26.198637008666992188 21.758687973022460938 29.202470779418945312 27.43978118896484375 31.04817962646484375 36.714076995849609375 141.85198974609375 40.887882232666015625 37.8131561279296875 52.5868377685546875 249.0275726318359375 40.806980133056640625 50.188198089599609375 79.0967864990234375 38.199005126953125 38.869770050048828125 36.805133819580078125 37.29190826416015625 35.88458251953125 32.72426605224609375 176.21484375 34.349742889404296875 37.2171173095703125 39.278835296630859375 39.89493560791015625 43.1858978271484375 85.215240478515625 129.6175689697265625 105.58963775634765625 121.8216552734375 131.337249755859375 164.64093017578125 275.147735595703125 165.7796630859375 154.9618072509765625 190.02044677734375 93.75919342041015625 84.095123291015625 
46.846668243408203125 41.320301055908203125 42.72475433349609375 60.39443206787109375 39.411548614501953125 49.236553192138671875 100.34099578857421875 105.59391021728515625 125.20258331298828125 24.554639816284179688 8.480739593505859375 13.046812057495117188 2.3817229270935058594 2.3817229270935058594 137.2666168212890625 2.3817229270935058594 135.306732177734375 166.3023834228515625 108.50339508056640625 40.427745819091796875 18.988800048828125 24.558248519897460938 68.1358795166015625 213.845184326171875 49.448360443115234375 40.52965545654296875 44.275585174560546875 39.857875823974609375 40.600765228271484375 43.490962982177734375 43.19132232666015625 36.566188812255859375 34.45792388916015625 37.1845245361328125 33.45319366455078125 21.260763168334960938 29.7625579833984375 42.248088836669921875 35.81897735595703125 24.08905029296875 23.40643310546875 19.348886489868164062 13.693165779113769531 28.655416488647460938 32.6194610595703125 32.051845550537109375 13.66839599609375 22.553503036499023438 30.65895843505859375 52.0913238525390625 34.2827911376953125 6.3495268821716308594 2.3817229270935058594 2.3817229270935058594 4.4142627716064453125 7.1089720726013183594 33.847370147705078125 34.335765838623046875 48.78459930419921875 185.16229248046875 33.449008941650390625 34.882953643798828125 41.02642059326171875 40.409107208251953125 40.826862335205078125 41.61373138427734375 39.942333221435546875 33.89566802978515625 210.1099853515625 211.4275665283203125 111.90699005126953125 43.14752197265625 101.37958526611328125 132.10687255859375 44.8390045166015625 54.13994598388671875 45.657390594482421875 47.850414276123046875 166.901702880859375 122.050750732421875 206.2186279296875 158.1779327392578125 223.62030029296875 110.45413970947265625 144.7896881103515625 135.361083984375 51.30538177490234375 
44.630153656005859375 42.779827117919921875 45.2429962158203125 125.120941162109375 146.687652587890625 100.43338775634765625 69.16660308837890625 35.323177337646484375 9.860950469970703125 15.6915130615234375 34.28882598876953125 9.0115976333618164062 7.0239434242248535156 2.3817229270935058594 5.5284023284912109375 18.1626129150390625 38.3079071044921875 42.5176849365234375 91.14298248291015625 46.51364898681640625 31.9991912841796875 27.70172882080078125 64.67031097412109375 278.861907958984375 40.4213104248046875 40.245555877685546875 38.747955322265625 40.510311126708984375 42.395954132080078125 2.3817229270935058594 25.416881561279296875 26.395338058471679688 209.9144744873046875 37.952571868896484375 29.4966583251953125 20.220788955688476562 32.125339508056640625 34.906963348388671875 20.05503082275390625 21.152528762817382812 2.3817229270935058594 2.3817229270935058594 9.9914264678955078125 30.166604995727539062 32.5913543701171875 31.865161895751953125 31.624225616455078125 33.058643341064453125 36.055011749267578125 37.058624267578125 32.467685699462890625 4.2669634819030761719 2.3817229270935058594 2.3817229270935058594 2.3817229270935058594 24.359933853149414062 33.08194732666015625 33.142608642578125 83.82814788818359375 202.553253173828125 33.95264434814453125 34.857105255126953125 35.881130218505859375 41.774959564208984375 38.631778717041015625 41.320865631103515625 37.518100738525390625 44.315616607666015625 167.7398529052734375 82.1751251220703125 217.5286102294921875 121.3093109130859375 128.9652252197265625 111.249725341796875 56.182525634765625 42.1729736328125 39.6846466064453125 92.5161285400390625 81.4777679443359375 123.45861053466796875 119.84027862548828125 50.0777435302734375 115.55254364013671875 69.60051727294921875 160.323577880859375 44.68506622314453125 50.39569854736328125 
43.6833953857421875 40.508617401123046875 45.3750762939453125 93.9854736328125 195.777374267578125 43.924407958984375 93.9711151123046875 2.3817229270935058594 6.0576424598693847656 47.97979736328125 2.3817229270935058594 2.3817229270935058594 2.3817229270935058594 2.3817229270935058594 2.3817229270935058594 15.331704139709472656 20.240133285522460938 14.811760902404785156 186.3338165283203125 296.848358154296875 23.717662811279296875 114.8606109619140625 98.3681793212890625 91.8776092529296875 44.19820404052734375 39.8831787109375 43.45186614990234375 41.382537841796875 11.396075248718261719 2.3817229270935058594 21.881452560424804688 490.21337890625 17.846813201904296875 31.956409454345703125 2.3817229270935058594 24.90526580810546875 29.525743484497070312 24.75316619873046875 21.958765029907226562 2.3817229270935058594 2.3817229270935058594 2.3817229270935058594 17.487514495849609375 32.672760009765625 30.890422821044921875 32.58190155029296875 22.59096527099609375 33.072994232177734375 31.990098953247070312 32.6937103271484375 32.1752777099609375 15.430375099182128906 2.3817229270935058594 2.3817229270935058594 4.2669634819030761719 33.52053070068359375 32.807308197021484375 33.18665313720703125 61.117229461669921875 196.759613037109375 35.110134124755859375 54.0814056396484375 52.188053131103515625 39.937313079833984375 52.0864410400390625 267.9140625 36.482921600341796875 37.88260650634765625 78.9046478271484375 46.27375030517578125 54.03420257568359375 97.43268585205078125 44.42545318603515625 39.14452362060546875 44.15283203125 42.411472320556640625 35.036617279052734375 124.71077728271484375 125.02233123779296875 123.3179168701171875 54.260601043701171875 166.2509307861328125 57.669342041015625 47.075984954833984375 43.14664459228515625 39.072124481201171875 43.9345703125 
43.924945831298828125 42.13156890869140625 44.16443634033203125 45.4982147216796875 121.47179412841796875 21.776399612426757812 2.3817229270935058594 28.08257293701171875 104.971893310546875 143.1331787109375 24.486263275146484375 2.3817229270935058594 2.3817229270935058594 2.3817229270935058594 2.3817229270935058594 65.30142974853515625 32.47338104248046875 35.22660064697265625 20.835779190063476562 242.91461181640625 38.143436431884765625 89.17124176025390625 38.49291229248046875 34.4059906005859375 40.425907135009765625 37.1484832763671875 43.109813690185546875 41.091033935546875 14.101776123046875 4.2669634819030761719 23.281833648681640625 71.6589202880859375 9.2197637557983398438 12.022653579711914062 4.3330683708190917969 25.1088714599609375 33.7679443359375 19.887407302856445312 2.3817229270935058594 2.3817229270935058594 2.3817229270935058594 4.7159390449523925781 26.104108810424804688 32.83254241943359375 32.456241607666015625 30.541151046752929688 50.1975555419921875 65.15035247802734375 33.18790435791015625 31.915205001831054688 32.55916595458984375 33.063365936279296875 8.4913454055786132812 2.3817229270935058594 19.312976837158203125 33.273250579833984375 33.471721649169921875 32.704502105712890625 146.2003631591796875 133.8621368408203125 40.05596923828125 64.3441162109375 49.52028656005859375 44.224514007568359375 38.081394195556640625 141.3751068115234375 52.626125335693359375 120.92575836181640625 190.0506591796875 98.7845306396484375 39.0643310546875 48.89609527587890625 55.648830413818359375 38.69535064697265625 38.478305816650390625 36.35870361328125 33.514911651611328125 46.293121337890625 81.645843505859375 74.36392974853515625 40.5901336669921875 51.74153900146484375 47.671260833740234375 44.71265411376953125 40.10160064697265625 41.906597137451171875 45.98394012451171875 
40.342227935791015625 43.375270843505859375 43.901531219482421875 41.059963226318359375 18.513462066650390625 128.0303955078125 56.25677490234375 6.3495268821716308594 57.45635223388671875 41.06600189208984375 22.717075347900390625 2.3817229270935058594 2.3817229270935058594 2.3817229270935058594 2.3817229270935058594 13.658438682556152344 19.66705322265625 33.139156341552734375 20.089914321899414062 170.2165985107421875 55.668300628662109375 187.361175537109375 22.748609542846679688 34.9711761474609375 37.1013946533203125 41.944721221923828125 41.225433349609375 30.7419586181640625 4.8436789512634277344 23.772100448608398438 26.71294403076171875 2.3817229270935058594 4.3330683708190917969 21.845907211303710938 10.087721824645996094 28.769788742065429688 33.64862060546875 7.155033111572265625 2.3817229270935058594 8.1804628372192382812 29.79735565185546875 33.428066253662109375 33.3017730712890625 31.94725799560546875 32.881618499755859375 33.28081512451171875 29.102115631103515625 11.98590850830078125 23.500537872314453125 32.27500152587890625 32.5783843994140625 33.414188385009765625 31.05837249755859375 27.33867645263671875 34.37137603759765625 75.0015716552734375 32.273845672607421875 34.277133941650390625 60.363162994384765625 60.807422637939453125 56.322330474853515625 33.895755767822265625 36.520435333251953125 39.284893035888671875 34.0670013427734375 32.49666595458984375 38.461505889892578125 38.909503936767578125 49.842906951904296875 40.053619384765625 39.194469451904296875 43.683300018310546875 38.98464202880859375 43.593074798583984375 34.448017120361328125 36.566349029541015625 39.930774688720703125 41.714038848876953125 41.418209075927734375 38.802974700927734375 44.878513336181640625 45.608001708984375 48.615665435791015625 45.9299468994140625 44.31280517578125 46.18569183349609375 49.08045196533203125 
38.493572235107421875 41.704143524169921875 35.08763885498046875 23.066434860229492188 33.589641571044921875 35.4493408203125 29.09543609619140625 51.749298095703125 35.01755523681640625 28.187610626220703125 4.3679299354553222656 2.3817229270935058594 2.3817229270935058594 2.3817229270935058594 2.3817229270935058594 9.9244279861450195312 30.134119033813476562 24.414594650268554688 19.626493453979492188 16.89423370361328125 74.6998443603515625 136.317047119140625 33.782108306884765625 208.6904296875 199.0814056396484375 38.167766571044921875 39.390842437744140625 19.29235076904296875 13.158139228820800781 33.75251007080078125 20.360681533813476562 2.3817229270935058594 15.096163749694824219 22.21535491943359375 4.5122418403625488281 37.71089935302734375 33.346141815185546875 10.171388626098632812 2.3817229270935058594 25.34342193603515625 33.005710601806640625 61.80936431884765625 51.5094146728515625 32.95723724365234375 32.6586761474609375 32.55699920654296875 12.677623748779296875 27.80950927734375 13.890614509582519531 33.40250396728515625 30.225744247436523438 30.6672821044921875 32.6696624755859375 32.494838714599609375 33.660144805908203125 84.43373870849609375 32.762569427490234375 41.197574615478515625 39.655368804931640625 35.562602996826171875 40.183086395263671875 37.339111328125 38.8631591796875 32.629604339599609375 29.83544921875 34.17754364013671875 34.48577117919921875 44.203639984130859375 44.701610565185546875 40.239635467529296875 162.6566314697265625 92.02854156494140625 48.08817291259765625 53.62628936767578125 37.1018829345703125 35.0183258056640625 37.34970855712890625 44.96136474609375 44.18395233154296875 41.5843505859375 43.0759124755859375 47.837421417236328125 47.9113922119140625 46.924243927001953125 42.780078887939453125 44.011829376220703125 43.76209259033203125 
43.756458282470703125 31.82979583740234375 19.102643966674804688 25.07120513916015625 29.408063888549804688 182.6475067138671875 49.5191192626953125 78.358154296875 38.7646484375 24.637149810791015625 2.3817229270935058594 2.3817229270935058594 10.046483993530273438 2.3817229270935058594 2.3817229270935058594 75.8110198974609375 447.2015380859375 37.837432861328125 43.7412261962890625 32.03836822509765625 26.638639450073242188 33.8717498779296875 37.44237518310546875 201.9897918701171875 31.038425445556640625 31.756151199340820312 35.64496612548828125 36.728824615478515625 33.5304107666015625 20.455595016479492188 22.018085479736328125 8.3104114532470703125 2.3817229270935058594 12.913042068481445312 43.432582855224609375 53.34734344482421875 33.349090576171875 22.523969650268554688 13.723562240600585938 30.505605697631835938 31.494413375854492188 32.5528564453125 32.473514556884765625 34.35173797607421875 32.258663177490234375 23.817707061767578125 25.84163665771484375 16.44298553466796875 25.893041610717773438 29.996183395385742188 17.0814971923828125 28.476812362670898438 33.757297515869140625 34.510601043701171875 34.4923553466796875 34.334934234619140625 40.29721832275390625 40.341655731201171875 38.448665618896484375 35.118144989013671875 41.9745635986328125 35.982021331787109375 32.9713287353515625 30.50246429443359375 41.088695526123046875 36.111240386962890625 34.747562408447265625 174.543487548828125 91.144378662109375 65.5406341552734375 59.844623565673828125 37.706394195556640625 30.637256622314453125 31.518445968627929688 35.050373077392578125 35.431255340576171875 35.464305877685546875 41.053348541259765625 47.29360198974609375 41.5843505859375 88.4909515380859375 48.619480133056640625 45.024936676025390625 53.798206329345703125 46.556118011474609375 45.922618865966796875 44.2357177734375 
48.15193939208984375 273.387542724609375 20.989362716674804688 21.588331222534179688 25.20320892333984375 180.1547698974609375 171.972137451171875 22.93114471435546875 32.55414581298828125 2.3817229270935058594 2.3817229270935058594 4.5775594711303710938 26.644771575927734375 4.1624898910522460938 2.3817229270935058594 2.3817229270935058594 279.601654052734375 127.6589202880859375 163.7677459716796875 198.0665130615234375 128.3701629638671875 47.4320831298828125 261.754150390625 139.0228271484375 35.074558258056640625 33.62731170654296875 44.062061309814453125 39.132648468017578125 22.8380126953125 25.7826690673828125 4.5803422927856445312 2.3817229270935058594 2.3817229270935058594 19.72254180908203125 32.458827972412109375 31.390039443969726562 33.2387542724609375 36.217830657958984375 28.6740875244140625 32.053546905517578125 31.361417770385742188 31.274961471557617188 40.16020965576171875 121.43312835693359375 33.60730743408203125 20.38422393798828125 18.196746826171875 33.5719146728515625 18.913011550903320312 34.142948150634765625 33.70705413818359375 33.314525604248046875 33.47513580322265625 33.7592315673828125 52.7216644287109375 39.801105499267578125 25.305562973022460938 133.3576812744140625 46.8558807373046875 24.5937652587890625 36.95827484130859375 34.41650390625 34.425006866455078125 30.765878677368164062 38.023250579833984375 36.688262939453125 54.957012176513671875 216.71063232421875 82.5827789306640625 40.6936798095703125 41.593719482421875 39.908000946044921875 27.146915435791015625 22.275106430053710938 34.5581207275390625 34.15375518798828125 46.917938232421875 38.5121002197265625 41.851718902587890625 42.106739044189453125 74.96142578125 41.8583221435546875 42.29192352294921875 47.08681488037109375 55.19071197509765625 39.32391357421875 44.656810760498046875 
37.16025543212890625 34.67266082763671875 14.409195899963378906 26.409280776977539062 36.585147857666015625 34.41664886474609375 34.76993560791015625 31.970127105712890625 34.38060760498046875 2.3817229270935058594 2.3817229270935058594 4.82344818115234375 17.769052505493164062 4.2669634819030761719 2.3817229270935058594 50.05596160888671875 97.65331268310546875 32.4758758544921875 136.2276611328125 203.5697174072265625 152.9578704833984375 230.9786224365234375 131.3688507080078125 34.524868011474609375 34.97750091552734375 42.3181610107421875 39.89257049560546875 28.996213912963867188 26.2852630615234375 17.612920761108398438 4.4073843955993652344 2.3817229270935058594 14.621494293212890625 20.029294967651367188 29.739681243896484375 14.313459396362304688 17.885496139526367188 26.575634002685546875 31.8253326416015625 32.006072998046875 31.51059722900390625 33.257537841796875 55.164813995361328125 80.9574737548828125 34.212493896484375 33.776561737060546875 32.46750640869140625 31.810302734375 32.4005889892578125 32.212055206298828125 44.984691619873046875 33.892574310302734375 34.772129058837890625 34.30556488037109375 86.872589111328125 40.40847015380859375 38.2995452880859375 39.860408782958984375 43.770191192626953125 41.710697174072265625 28.912878036499023438 42.269512176513671875 41.6617889404296875 38.948383331298828125 45.1774749755859375 41.436252593994140625 74.42800140380859375 224.1784210205078125 50.81865692138671875 39.6045684814453125 42.971248626708984375 40.876857757568359375 32.810710906982421875 33.636474609375 34.346164703369140625 34.244052886962890625 35.93984222412109375 61.308734893798828125 40.346538543701171875 79.93349456787109375 91.388275146484375 46.758174896240234375 51.64124298095703125 56.78238677978515625 40.12247467041015625 40.96997833251953125 43.034244537353515625 
226.6365814208984375 34.3757476806640625 18.981296539306640625 12.016412734985351562 19.435674667358398438 22.007497787475585938 34.5276031494140625 36.074054718017578125 7.21185302734375 2.3817229270935058594 2.3817229270935058594 129.3392333984375 197.224609375 10.335927009582519531 32.3682708740234375 16.843206405639648438 2.3817229270935058594 34.638164520263671875 44.949310302734375 39.6559295654296875 33.5027618408203125 118.4057464599609375 247.656097412109375 23.075551986694335938 39.854839324951171875 38.54937744140625 37.49908447265625 21.795793533325195312 16.785129547119140625 11.430191993713378906 2.3817229270935058594 8.5597286224365234375 20.382457733154296875 30.80290985107421875 20.093694686889648438 2.3817229270935058594 2.3817229270935058594 2.3817229270935058594 21.110696792602539062 32.8764801025390625 32.6336822509765625 33.35826873779296875 32.295803070068359375 32.15955352783203125 32.9207763671875 33.903362274169921875 31.904005050659179688 33.3846435546875 33.264621734619140625 33.782451629638671875 116.46550750732421875 33.35550689697265625 33.932949066162109375 33.685497283935546875 37.716518402099609375 39.827434539794921875 42.297191619873046875 39.41487884521484375 44.89197540283203125 35.379413604736328125 7.349613189697265625 51.989238739013671875 50.133243560791015625 31.405513763427734375 118.72118377685546875 220.403472900390625 198.704010009765625 200.97265625 49.2398529052734375 48.853298187255859375 72.39699554443359375 41.48079681396484375 34.37009429931640625 33.104892730712890625 32.459461212158203125 34.162448883056640625 36.662776947021484375 101.5316619873046875 39.774505615234375 42.973537445068359375 133.8809661865234375 76.6219024658203125 97.9601287841796875 36.6762847900390625 37.211090087890625 38.850963592529296875 39.598236083984375 
68.94370269775390625 32.36602783203125 25.261074066162109375 23.866891860961914062 11.597503662109375 18.257175445556640625 31.23078155517578125 19.170701980590820312 2.3817229270935058594 2.3817229270935058594 5.0269255638122558594 109.285736083984375 20.49230194091796875 30.62645721435546875 28.42989349365234375 4.2605371475219726562 7.1799526214599609375 35.02542877197265625 44.8167572021484375 38.89757537841796875 34.575107574462890625 44.2220458984375 43.2284088134765625 35.11809539794921875 33.9345855712890625 37.930042266845703125 15.919116973876953125 35.17264556884765625 9.71163177490234375 2.3817229270935058594 4.2575016021728515625 14.082242965698242188 19.275369644165039062 34.37989044189453125 31.607723236083984375 16.593080520629882812 2.3817229270935058594 2.3817229270935058594 15.894448280334472656 143.5084991455078125 32.455623626708984375 32.84815216064453125 31.334714889526367188 31.4975128173828125 32.98211669921875 30.286283493041992188 32.389827728271484375 34.478786468505859375 33.920825958251953125 37.592876434326171875 34.701038360595703125 32.006389617919921875 32.69219970703125 33.759243011474609375 42.9461212158203125 41.45635986328125 40.686534881591796875 40.90110015869140625 40.01438140869140625 18.112703323364257812 2.3817229270935058594 2.3817229270935058594 2.3817229270935058594 2.3817229270935058594 13.320272445678710938 174.6272735595703125 166.468536376953125 131.1806182861328125 37.298229217529296875 83.657562255859375 35.712139129638671875 34.85654449462890625 33.421016693115234375 33.162445068359375 33.2687835693359375 35.875537872314453125 47.241909027099609375 69.67772674560546875 44.405796051025390625 94.2564239501953125 64.96982574462890625 33.50569915771484375 9.5077219009399414062 33.476284027099609375 34.762298583984375 36.1108245849609375 35.15531158447265625 
267.62933349609375 92.18536376953125 21.714105606079101562 19.624139785766601562 34.536945343017578125 22.561792373657226562 39.107936859130859375 15.700856208801269531 20.950603485107421875 181.5688934326171875 149.2473297119140625 56.64373016357421875 226.4080963134765625 36.69403076171875 2.3817229270935058594 15.545630455017089844 33.06118011474609375 36.4354095458984375 36.96782684326171875 34.386371612548828125 34.082546234130859375 33.975799560546875 36.7066497802734375 37.204784393310546875 36.795902252197265625 33.07208251953125 30.322805404663085938 36.402515411376953125 11.019043922424316406 4.7028331756591796875 2.3817229270935058594 18.519968032836914062 32.6903076171875 33.74932861328125 33.55202484130859375 26.774669647216796875 2.3817229270935058594 2.3817229270935058594 26.462083816528320312 35.048099517822265625 32.880523681640625 31.493679046630859375 33.172576904296875 31.374698638916015625 31.455287933349609375 19.355512619018554688 31.5422821044921875 32.272167205810546875 33.052738189697265625 34.173336029052734375 33.956203460693359375 34.114498138427734375 35.961627960205078125 33.91901397705078125 38.127155303955078125 39.1663360595703125 38.39067840576171875 38.26349639892578125 17.166555404663085938 8.7999277114868164062 14.498923301696777344 15.158576011657714844 21.394674301147460938 128.6366119384765625 138.874542236328125 113.41967010498046875 179.3076171875 59.779815673828125 34.87859344482421875 134.97869873046875 33.898822784423828125 33.6212005615234375 33.576694488525390625 33.387821197509765625 35.37383270263671875 37.72344970703125 39.5350494384765625 39.28470611572265625 46.853046417236328125 47.222690582275390625 44.150257110595703125 14.665624618530273438 9.9326715469360351562 19.644519805908203125 32.983165740966796875 31.93509674072265625 35.267498016357421875 
65.118621826171875 21.6922149658203125 30.743251800537109375 21.195352554321289062 25.779329299926757812 34.712314605712890625 27.651311874389648438 7.0239434242248535156 8.2524232864379882812 210.0847015380859375 130.7688751220703125 21.046133041381835938 7.0239434242248535156 7.0239434242248535156 2.3817229270935058594 33.405727386474609375 24.832735061645507812 45.528308868408203125 37.869998931884765625 36.374622344970703125 33.91036224365234375 35.164859771728515625 40.8252105712890625 40.493648529052734375 35.343708038330078125 29.684251785278320312 13.759288787841796875 2.3817229270935058594 2.3817229270935058594 2.3817229270935058594 2.3817229270935058594 25.286224365234375 23.900424957275390625 35.30536651611328125 33.5536041259765625 34.1125640869140625 4.5294880867004394531 26.251306533813476562 78.76995849609375 40.541271209716796875 37.56805419921875 33.612049102783203125 32.595653533935546875 30.194305419921875 30.641155242919921875 25.21796417236328125 34.486446380615234375 32.884128570556640625 23.1788787841796875 54.45630645751953125 90.94672393798828125 34.800464630126953125 33.42731475830078125 147.693695068359375 33.690509796142578125 33.4205474853515625 33.56012725830078125 25.3500213623046875 2.3817229270935058594 21.302799224853515625 12.283063888549804688 2.3817229270935058594 26.480419158935546875 51.43070220947265625 126.570220947265625 30.317808151245117188 66.9044952392578125 33.9015960693359375 33.573657989501953125 34.26264190673828125 32.597934722900390625 34.526081085205078125 33.890956878662109375 32.639514923095703125 37.3216094970703125 39.449573516845703125 33.962543487548828125 41.55048370361328125 45.55092620849609375 43.896389007568359375 42.6687774658203125 34.42249298095703125 2.3817229270935058594 4.2312541007995605469 34.4849090576171875 35.087017059326171875 33.797245025634765625 
82.08202362060546875 18.765888214111328125 32.43994140625 12.456731796264648438 23.4236907958984375 42.491924285888671875 147.379913330078125 161.0268707275390625 17.893102645874023438 56.6435699462890625 26.395755767822265625 5.0039000511169433594 2.3817229270935058594 43.307891845703125 4.9074416160583496094 19.177143096923828125 2.3817229270935058594 40.355197906494140625 38.713581085205078125 25.0713958740234375 30.847909927368164062 33.190624237060546875 44.160190582275390625 39.371189117431640625 34.46543121337890625 4.972873687744140625 2.3817229270935058594 2.3817229270935058594 4.174167633056640625 2.3817229270935058594 2.3817229270935058594 15.9194793701171875 19.16374969482421875 32.555164337158203125 32.169910430908203125 34.69257354736328125 25.654371261596679688 181.14251708984375 42.61197662353515625 40.5941162109375 34.905223846435546875 33.347316741943359375 32.192951202392578125 32.00919342041015625 32.062530517578125 33.163051605224609375 21.939603805541992188 12.215226173400878906 6.2896871566772460938 2.3817229270935058594 18.8625030517578125 34.4546051025390625 34.13027191162109375 60.0012359619140625 194.9394073486328125 33.214183807373046875 35.83126068115234375 16.903707504272460938 2.3817229270935058594 4.5303902626037597656 2.3817229270935058594 42.074825286865234375 68.61365509033203125 121.27274322509765625 109.60071563720703125 95.226776123046875 33.96340179443359375 32.731548309326171875 34.433330535888671875 33.50650787353515625 33.68158721923828125 32.18337249755859375 32.244205474853515625 33.930011749267578125 47.45267486572265625 132.57025146484375 71.621490478515625 38.315853118896484375 47.858814239501953125 42.6241302490234375 44.794818878173828125 25.704957962036132812 19.626729965209960938 13.789690971374511719 35.561004638671875 34.47870635986328125 33.334712982177734375 
17.737413406372070312 29.9496917724609375 23.87036895751953125 20.384471893310546875 24.169626235961914062 40.532672882080078125 159.63165283203125 26.458637237548828125 21.228542327880859375 14.557959556579589844 21.434659957885742188 9.513217926025390625 22.079803466796875 2.3817229270935058594 4.3085198402404785156 17.17299652099609375 2.3817229270935058594 40.23693084716796875 37.586956024169921875 31.825878143310546875 36.99703216552734375 35.376369476318359375 30.972921371459960938 34.438446044921875 112.39690399169921875 95.5222015380859375 4.3330683708190917969 8.3829317092895507812 2.3817229270935058594 2.3817229270935058594 2.3817229270935058594 10.585476875305175781 11.570140838623046875 30.696538925170898438 54.142486572265625 32.533184051513671875 35.129924774169921875 40.206363677978515625 39.5250244140625 43.95767974853515625 35.4875335693359375 28.013639450073242188 33.045444488525390625 30.669376373291015625 15.403784751892089844 10.257491111755371094 21.706417083740234375 2.3817229270935058594 10.197650909423828125 13.743920326232910156 2.3817229270935058594 33.256336212158203125 33.999073028564453125 33.11325836181640625 73.9002532958984375 43.286182403564453125 28.332920074462890625 2.3817229270935058594 8.54537200927734375 21.932664871215820312 13.597563743591308594 29.779262542724609375 33.174007415771484375 44.033504486083984375 32.985485076904296875 33.578857421875 33.78858184814453125 33.993961334228515625 33.18177032470703125 33.340057373046875 32.456256866455078125 34.043354034423828125 33.889301300048828125 35.199306488037109375 33.3577728271484375 140.76702880859375 45.05112457275390625 40.273681640625 42.218883514404296875 40.49779510498046875 43.926723480224609375 44.3852691650390625 42.443340301513671875 34.774089813232421875 37.291957855224609375 37.84410858154296875 41.783100128173828125 
28.590312957763671875 40.539562225341796875 20.364776611328125 29.485965728759765625 20.014539718627929688 68.45844268798828125 143.9983673095703125 16.445024490356445312 34.931018829345703125 13.744584083557128906 35.02072906494140625 20.985965728759765625 96.863128662109375 19.161046981811523438 2.3817229270935058594 16.308383941650390625 38.34426116943359375 33.609928131103515625 42.750850677490234375 35.48116302490234375 39.871265411376953125 90.00189971923828125 102.6186676025390625 35.198886871337890625 15.150409698486328125 4.394153594970703125 2.3817229270935058594 2.3817229270935058594 2.3817229270935058594 2.3817229270935058594 2.3817229270935058594 2.3817229270935058594 7.8264570236206054688 14.135621070861816406 79.08431243896484375 33.41686248779296875 36.86945343017578125 42.088275909423828125 36.013134002685546875 44.095142364501953125 32.63912200927734375 32.652034759521484375 32.547016143798828125 24.9507598876953125 2.3817229270935058594 2.3817229270935058594 2.3817229270935058594 10.229875564575195312 32.969005584716796875 34.904247283935546875 33.305019378662109375 35.124172210693359375 32.207523345947265625 33.7494354248046875 30.569681167602539062 29.975317001342773438 28.426305770874023438 4.394153594970703125 14.132168769836425781 31.22794342041015625 17.730846405029296875 24.130207061767578125 34.20049285888671875 45.430164337158203125 33.592372894287109375 33.789180755615234375 29.876802444458007812 27.2143707275390625 33.956218719482421875 36.230564117431640625 34.72919464111328125 33.1194610595703125 34.70996856689453125 34.168300628662109375 33.0218353271484375 33.948093414306640625 33.777233123779296875 169.195037841796875 43.745761871337890625 39.798065185546875 42.838787078857421875 93.33597564697265625 40.0157318115234375 40.196323394775390625 36.60800933837890625 36.00719451904296875 41.276523590087890625 
16.988454818725585938 24.356748580932617188 17.267374038696289062 8.9893312454223632812 6.3502016067504882812 43.020130157470703125 18.593919754028320312 2.3817229270935058594 13.114490509033203125 16.263849258422851562 25.267263412475585938 12.184175491333007812 8.623630523681640625 17.821559906005859375 12.302507400512695312 22.584573745727539062 37.0699920654296875 30.03850555419921875 40.460369110107421875 42.91654205322265625 40.96150970458984375 52.4200286865234375 72.867401123046875 72.90575408935546875 14.779894828796386719 2.3817229270935058594 4.5803422927856445312 4.7028331756591796875 2.3817229270935058594 4.3006949424743652344 6.9014525413513183594 2.3817229270935058594 7.0239434242248535156 19.790296554565429688 29.446126937866210938 194.5987701416015625 53.860721588134765625 32.1279144287109375 100.89685821533203125 31.936124801635742188 31.434780120849609375 33.275943756103515625 33.259998321533203125 33.18523406982421875 27.281768798828125 21.291749954223632812 20.09195709228515625 33.42487335205078125 34.363025665283203125 41.233707427978515625 37.7238922119140625 28.832738876342773438 35.30579376220703125 28.13356781005859375 21.31781768798828125 28.348794937133789062 31.8049774169921875 32.846141815185546875 32.019405364990234375 32.2040863037109375 24.646717071533203125 15.330241203308105469 32.827358245849609375 34.23773956298828125 20.347043991088867188 31.206110000610351562 35.155853271484375 32.351573944091796875 28.478433609008789062 34.027317047119140625 33.30963897705078125 33.462940216064453125 32.638698577880859375 32.711597442626953125 34.344760894775390625 34.04354095458984375 54.353668212890625 156.5845184326171875 46.306575775146484375 50.48378753662109375 38.167324066162109375 152.6755828857421875 35.89269256591796875 34.96929168701171875 33.707660675048828125 36.5205535888671875 32.33712005615234375 
24.594335556030273438 94.799713134765625 134.6950225830078125 52.97734832763671875 23.007459640502929688 32.29344940185546875 2.3817229270935058594 2.3817229270935058594 25.65151214599609375 10.266256332397460938 89.6414337158203125 2.3817229270935058594 2.3817229270935058594 2.3817229270935058594 2.3817229270935058594 29.408082962036132812 26.079095840454101562 19.909967422485351562 43.527801513671875 42.583995819091796875 48.376445770263671875 264.102569580078125 227.3191070556640625 96.64078521728515625 22.388189315795898438 13.387249946594238281 10.025075912475585938 6.7789616584777832031 16.060596466064453125 13.962449073791503906 5.9944677352905273438 4.7028331756591796875 2.3817229270935058594 17.8292388916015625 103.549072265625 65.80507659912109375 48.94223785400390625 36.87294769287109375 42.957977294921875 91.09781646728515625 35.711460113525390625 33.393711090087890625 33.07753753662109375 33.06053924560546875 32.252044677734375 30.667798995971679688 32.293758392333984375 34.695926666259765625 35.8791351318359375 34.463775634765625 152.5128631591796875 50.6713714599609375 34.985820770263671875 25.726808547973632812 9.898769378662109375 7.459560394287109375 73.75323486328125 96.0789947509765625 32.869777679443359375 32.45697021484375 15.268901824951171875 35.484729766845703125 35.287860870361328125 34.980579376220703125 34.748870849609375 33.583690643310546875 30.494213104248046875 26.26094818115234375 13.218400955200195312 33.521785736083984375 32.478641510009765625 33.505962371826171875 32.973300933837890625 35.31040191650390625 35.664974212646484375 36.526302337646484375 73.48077392578125 137.7341156005859375 46.564327239990234375 39.0673370361328125 8.9479875564575195312 16.884326934814453125 31.339061737060546875 32.817836761474609375 33.4981536865234375 33.182201385498046875 34.4874267578125 
29.953815460205078125 23.671367645263671875 275.3018798828125 16.416204452514648438 149.8221893310546875 8.4929018020629882812 2.3817229270935058594 17.997655868530273438 19.052675247192382812 23.556690216064453125 163.3921051025390625 4.8323359489440917969 2.3817229270935058594 2.3817229270935058594 5.0039000511169433594 23.021724700927734375 24.22467803955078125 37.94451141357421875 42.926494598388671875 45.238994598388671875 47.911273956298828125 120.8978118896484375 36.055248260498046875 39.87963104248046875 33.73421478271484375 198.3077545166015625 225.7438201904296875 16.44683837890625 14.152558326721191406 2.3817229270935058594 4.5803422927856445312 12.447023391723632812 2.3817229270935058594 32.265804290771484375 56.72322845458984375 26.233594894409179688 31.516172409057617188 33.337177276611328125 147.9230499267578125 88.94322967529296875 36.644680023193359375 33.216175079345703125 33.767177581787109375 33.041072845458984375 33.04630279541015625 31.1310272216796875 32.42353057861328125 32.171581268310546875 37.166400909423828125 34.519683837890625 191.9539947509765625 58.596729278564453125 34.76393890380859375 20.965490341186523438 19.304594039916992188 31.243452072143554688 286.142974853515625 146.7044219970703125 27.339975357055664062 32.986682891845703125 19.66513824462890625 33.840911865234375 33.48319244384765625 37.44649505615234375 38.99053955078125 40.70711517333984375 38.466495513916015625 19.3388214111328125 28.321680068969726562 32.0042877197265625 32.236675262451171875 32.904632568359375 43.60413360595703125 34.267307281494140625 36.30156707763671875 37.675594329833984375 36.137836456298828125 51.33062744140625 32.61176300048828125 32.11020660400390625 26.528045654296875 30.980279922485351562 29.43546295166015625 116.8893585205078125 33.765758514404296875 33.126102447509765625 34.285797119140625 
17.030817031860351562 25.773052215576171875 81.34151458740234375 56.094390869140625 54.628131866455078125 29.749681472778320312 20.93199920654296875 24.554864883422851562 135.1019287109375 43.355327606201171875 91.2200927734375 19.659454345703125 2.3817229270935058594 6.554027557373046875 11.205417633056640625 14.769223213195800781 28.276632308959960938 39.940647125244140625 45.501270294189453125 46.679752349853515625 58.3297119140625 44.19417572021484375 46.4269561767578125 42.068851470947265625 80.7919769287109375 131.4710540771484375 54.259185791015625 164.0549774169921875 19.8939056396484375 26.561231613159179688 2.3817229270935058594 11.082765579223632812 7.0239434242248535156 4.7028331756591796875 113.28887176513671875 63.70996856689453125 29.741727828979492188 34.7049102783203125 49.928859710693359375 122.10871124267578125 35.13019561767578125 36.87546539306640625 33.740657806396484375 31.322702407836914062 31.171949386596679688 30.679065704345703125 30.134115219116210938 33.891139984130859375 33.38494110107421875 35.088085174560546875 57.702426910400390625 30.334268569946289062 26.86067962646484375 6.1598286628723144531 15.357392311096191406 40.914524078369140625 89.6972503662109375 84.58774566650390625 160.2253875732421875 21.6673431396484375 4.2669634819030761719 5.3170733451843261719 4.4835577011108398438 23.03722381591796875 28.233682632446289062 23.046094894409179688 21.372348785400390625 12.50696563720703125 37.70825958251953125 35.7330780029296875 32.712078094482421875 34.764392852783203125 15.338240623474121094 29.555202484130859375 36.880458831787109375 35.970600128173828125 33.6229095458984375 95.84175872802734375 138.858306884765625 56.30088043212890625 143.0619659423828125 30.80512237548828125 19.877283096313476562 13.650065422058105469 27.966800689697265625 15.367876052856445312 26.374025344848632812 
15.032736778259277344 209.6888885498046875 155.1258087158203125 126.55542755126953125 27.306676864624023438 54.437465667724609375 7.6001234054565429688 26.912454605102539062 41.3614044189453125 44.151409149169921875 182.03106689453125 82.6230926513671875 2.3817229270935058594 17.845439910888671875 26.102403640747070312 13.815240859985351562 34.622592926025390625 38.392093658447265625 45.176300048828125 46.756824493408203125 195.9402008056640625 46.442340850830078125 45.997035980224609375 41.893230438232421875 142.2653961181640625 204.261627197265625 14.05980682373046875 176.6124114990234375 21.177577972412109375 26.79335784912109375 2.3817229270935058594 11.127671241760253906 4.7028331756591796875 2.3817229270935058594 15.798417091369628906 4.421619415283203125 21.87795257568359375 33.86590576171875 33.64678955078125 35.457790374755859375 35.595684051513671875 35.684574127197265625 34.254108428955078125 32.82109832763671875 31.793870925903320312 32.365234375 35.77152252197265625 33.1045684814453125 33.215587615966796875 32.326000213623046875 34.169063568115234375 31.008333206176757812 13.328695297241210938 2.3817229270935058594 2.3817229270935058594 15.887076377868652344 33.38857269287109375 26.316652297973632812 21.3165740966796875 55.4397735595703125 128.645904541015625 300.61151123046875 11.753362655639648438 13.609270095825195312 24.156908035278320312 14.503720283508300781 5.9501142501831054688 17.264148712158203125 44.564395904541015625 33.3854522705078125 32.98541259765625 23.691823959350585938 13.624639511108398438 25.797567367553710938 33.24704742431640625 36.810085296630859375 33.65871429443359375 34.661716461181640625 46.06249237060546875 33.056324005126953125 32.230182647705078125 27.767486572265625 29.39727783203125 65.49892425537109375 152.1612548828125 35.7538299560546875 32.446491241455078125 
13.562198638916015625 24.336147308349609375 120.79404449462890625 173.4814605712890625 25.426721572875976562 100.20813751220703125 71.0777435302734375 23.25492095947265625 32.38092803955078125 156.8854827880859375 130.6393280029296875 52.291645050048828125 33.912960052490234375 2.3817229270935058594 18.088531494140625 2.3817229270935058594 29.270826339721679688 42.51706695556640625 46.390773773193359375 51.986927032470703125 138.026336669921875 43.620929718017578125 42.367885589599609375 55.1887664794921875 157.86846923828125 49.2580108642578125 128.320953369140625 170.1434326171875 45.276805877685546875 18.733167648315429688 19.819507598876953125 25.95632171630859375 14.718088150024414062 2.3817229270935058594 2.3817229270935058594 2.3817229270935058594 79.32480621337890625 34.32416534423828125 44.577709197998046875 48.5289154052734375 37.52690887451171875 33.49604034423828125 31.585933685302734375 31.748224258422851562 31.1549072265625 33.955188751220703125 34.928806304931640625 33.103328704833984375 33.3775787353515625 33.032550811767578125 117.5090484619140625 30.277605056762695312 5.9903631210327148438 2.3817229270935058594 4.2575016021728515625 95.64501953125 91.14817047119140625 6.3287415504455566406 19.822256088256835938 136.1475677490234375 63.133056640625 132.441131591796875 161.173614501953125 40.97736358642578125 29.573467254638671875 63.75644683837890625 46.73014068603515625 35.568691253662109375 131.3848876953125 32.173381805419921875 32.68410491943359375 21.997995376586914062 19.8680877685546875 2.3817229270935058594 18.499021530151367188 32.77628326416015625 55.377407073974609375 142.0276641845703125 33.061260223388671875 34.230533599853515625 35.77545166015625 34.27321624755859375 34.8903656005859375 33.777896881103515625 35.306568145751953125 34.937793731689453125 34.723388671875 
28.3810882568359375 44.62596893310546875 6.7022738456726074219 71.58106231689453125 31.373193740844726562 29.440975189208984375 2.3817229270935058594 229.7364349365234375 33.492603302001953125 49.3801727294921875 157.705780029296875 335.942474365234375 11.692631721496582031 6.3495268821716308594 15.730190277099609375 23.222402572631835938 18.981502532958984375 43.744449615478515625 43.280731201171875 40.16033935546875 72.75034332275390625 26.3650665283203125 17.291635513305664062 58.4414825439453125 182.276947021484375 95.5265655517578125 102.51580047607421875 11.648219108581542969 35.9592132568359375 31.437358856201171875 33.02692413330078125 34.03945159912109375 34.996006011962890625 140.963653564453125 23.406709671020507812 10.288144111633300781 85.7588958740234375 30.167394638061523438 52.822803497314453125 37.020542144775390625 34.148204803466796875 36.91994476318359375 32.3227386474609375 33.775848388671875 34.59668731689453125 35.0459747314453125 37.18386077880859375 34.577610015869140625 35.30133056640625 35.77971649169921875 366.39910888671875 42.90785980224609375 6.4526743888854980469 2.3817229270935058594 62.2860260009765625 75.08158111572265625 28.925294876098632812 2.3817229270935058594 227.3477020263671875 32.129001617431640625 41.454822540283203125 26.758611679077148438 393.648956298828125 11.804071426391601562 122.2437744140625 52.824939727783203125 32.050548553466796875 36.2060394287109375 32.08740997314453125 33.018787384033203125 32.90708160400390625 33.031795501708984375 239.710968017578125 126.55373382568359375 20.277212142944335938 31.507028579711914062 26.93570709228515625 33.31148529052734375 33.87591552734375 35.831470489501953125 34.487506866455078125 34.5115203857421875 35.32271575927734375 36.552249908447265625 35.921474456787109375 36.432285308837890625 36.557277679443359375 
99.87267303466796875 45.589385986328125 86.49599456787109375 66.29305267333984375 12.585588455200195312 2.3817229270935058594 20.803644180297851562 106.018463134765625 86.52390289306640625 286.214447021484375 151.6604461669921875 88.49274444580078125 11.356245994567871094 29.3963775634765625 26.211122512817382812 11.173143386840820312 20.747615814208984375 22.4005889892578125 22.555631637573242188 27.763347625732421875 44.15727996826171875 4.2833771705627441406 10.128907203674316406 36.465343475341796875 139.8757171630859375 43.7020263671875 24.970849990844726562 32.754852294921875 35.912662506103515625 36.19054412841796875 35.237247467041015625 34.771366119384765625 34.07332611083984375 69.39579010009765625 22.551422119140625 11.906586647033691406 15.450682640075683594 26.4244384765625 88.331817626953125 34.405147552490234375 35.85213470458984375 34.110591888427734375 33.30893707275390625 33.34752655029296875 33.789440155029296875 32.6906890869140625 34.5565185546875 33.459133148193359375 33.31163787841796875 34.393077850341796875 42.49428558349609375 89.53066253662109375 7.9689183235168457031 17.796594619750976562 12.232835769653320312 2.3817229270935058594 14.765343666076660156 51.91620635986328125 110.5985107421875 56.69673919677734375 59.929340362548828125 19.123220443725585938 95.730712890625 134.2212371826171875 149.389190673828125 32.537994384765625 32.423442840576171875 33.48081207275390625 33.821170806884765625 33.594493865966796875 25.378236770629882812 28.89733123779296875 25.950555801391601562 45.6853485107421875 22.568450927734375 34.7086029052734375 33.136814117431640625 33.7798309326171875 36.93524932861328125 35.613605499267578125 34.998828887939453125 35.6183013916015625 36.104763031005859375 34.944026947021484375 35.584255218505859375 36.76395416259765625 32.620868682861328125 
25.012317657470703125 27.515050888061523438 151.840057373046875 17.634489059448242188 20.681550979614257812 2.3817229270935058594 20.962459564208984375 28.132513046264648438 13.662461280822753906 135.79315185546875 117.688995361328125 269.390472412109375 24.472869873046875 25.94873809814453125 30.63536834716796875 2.3817229270935058594 34.095287322998046875 30.584928512573242188 33.893718719482421875 20.041582107543945312 120.39415740966796875 2.3817229270935058594 14.4244384765625 49.24613189697265625 86.2115631103515625 165.790771484375 29.9277801513671875 59.065914154052734375 35.483264923095703125 35.07105255126953125 26.626256942749023438 50.974822998046875 145.5057525634765625 149.0413055419921875 11.896876335144042969 6.2487349510192871094 33.54886627197265625 92.38556671142578125 51.4314422607421875 33.589000701904296875 34.994396209716796875 33.0796966552734375 33.249866485595703125 109.71692657470703125 90.9811248779296875 74.13782501220703125 64.3349761962890625 137.13055419921875 65.50281524658203125 179.6295623779296875 154.38232421875 72.39766693115234375 119.5523834228515625 52.34088897705078125 19.66957855224609375 195.683319091796875 222.169525146484375 139.72283935546875 133.2000732421875 125.32129669189453125 323.922393798828125 78.4473419189453125 33.1492156982421875 33.121356964111328125 32.657146453857421875 32.2440185546875 32.71297454833984375 33.0093841552734375 34.168792724609375 20.902315139770507812 4.335704803466796875 28.8618011474609375 21.485734939575195312 32.43810272216796875 24.813274383544921875 33.95215606689453125 33.963470458984375 34.116481781005859375 35.32617950439453125 34.641357421875 36.709461212158203125 35.301166534423828125 35.181797027587890625 35.25145721435546875 35.4871978759765625 31.705850601196289062 10.75795745849609375 
17.789812088012695312 61.12145233154296875 99.79367828369140625 24.83023834228515625 11.531833648681640625 11.757318496704101562 6.1743021011352539062 9.253910064697265625 2.3817229270935058594 188.1040802001953125 111.19589996337890625 190.0876007080078125 38.327831268310546875 29.86156463623046875 34.875492095947265625 35.24681854248046875 29.92877197265625 29.550745010375976562 25.191385269165039062 263.798309326171875 165.126495361328125 32.78635406494140625 20.83443450927734375 199.85882568359375 111.4496612548828125 56.394069671630859375 31.242376327514648438 44.553302764892578125 38.411319732666015625 33.465961456298828125 16.957571029663085938 196.7534027099609375 89.4680328369140625 177.498291015625 6.378055572509765625 2.3817229270935058594 25.294464111328125 29.178491592407226562 70.11133575439453125 95.1019744873046875 43.0540618896484375 33.126613616943359375 32.87418365478515625 32.902553558349609375 129.3500823974609375 54.84844970703125 32.74221038818359375 44.14862823486328125 44.646442413330078125 83.470550537109375 72.79034423828125 183.06182861328125 152.0060272216796875 87.34577178955078125 42.6896209716796875 80.210723876953125 53.510650634765625 21.470272064208984375 41.156894683837890625 110.3905487060546875 32.80773162841796875 32.683895111083984375 33.640285491943359375 33.139644622802734375 31.915872573852539062 32.794628143310546875 33.026760101318359375 33.18192291259765625 23.758859634399414062 8.7025890350341796875 28.933721542358398438 33.619739532470703125 31.229368209838867188 32.321590423583984375 17.020990371704101562 31.37880706787109375 33.34333038330078125 34.079143524169921875 33.580821990966796875 35.8984222412109375 35.98232269287109375 34.810443878173828125 34.2770233154296875 33.4069061279296875 34.31470489501953125 17.19942474365234375 18.597408294677734375 
10.117476463317871094 103.88195037841796875 315.17510986328125 105.71854400634765625 244.7847747802734375 13.161284446716308594 5.6996946334838867188 108.99976348876953125 33.3482666015625 34.818355560302734375 77.8654327392578125 32.83898162841796875 35.49834442138671875 2.3817229270935058594 31.845582962036132812 29.553960800170898438 38.899890899658203125 10.853719711303710938 30.139963150024414062 139.509674072265625 64.5252838134765625 278.12249755859375 35.101497650146484375 32.73748016357421875 36.043972015380859375 33.302173614501953125 33.27789306640625 33.804779052734375 34.931941986083984375 28.293405532836914062 17.865192413330078125 179.7332916259765625 339.425994873046875 100.64502716064453125 10.251989364624023438 2.3817229270935058594 14.379618644714355469 24.309000015258789062 33.21903228759765625 43.261707305908203125 32.68878173828125 32.695774078369140625 32.95816802978515625 33.070903778076171875 33.640468597412109375 33.320186614990234375 33.179271697998046875 34.414947509765625 34.26663970947265625 31.629468917846679688 33.339931488037109375 32.429363250732421875 33.7759552001953125 33.58286285400390625 33.89199066162109375 34.025669097900390625 33.15918731689453125 4.335704803466796875 26.1056060791015625 23.174388885498046875 28.969102859497070312 35.314907073974609375 34.30731201171875 34.417919158935546875 34.058940887451171875 35.278591156005859375 32.586360931396484375 31.87860107421875 17.59039306640625 16.070047378540039062 17.116886138916015625 14.105614662170410156 33.56067657470703125 35.88434600830078125 30.829526901245117188 33.512493133544921875 33.87784576416015625 33.778507232666015625 33.760883331298828125 34.913005828857421875 35.2354888916015625 35.296062469482421875 34.445404052734375 26.258481979370117188 25.955934524536132812 55.908908843994140625 161.2052001953125 
21.044137954711914062 139.5236358642578125 90.75469207763671875 144.7107696533203125 158.109222412109375 229.150604248046875 21.302967071533203125 37.891323089599609375 245.941558837890625 35.533458709716796875 29.59563446044921875 35.347026824951171875 29.574787139892578125 2.3817229270935058594 18.745571136474609375 17.120044708251953125 20.473104476928710938 16.893526077270507812 36.1785125732421875 20.960947036743164062 23.35999298095703125 34.47420501708984375 42.73532867431640625 30.626190185546875 72.2703704833984375 64.86809539794921875 42.36086273193359375 31.31366729736328125 121.85848236083984375 193.5066070556640625 52.219329833984375 44.829158782958984375 134.567840576171875 6.3473963737487792969 2.3817229270935058594 2.3817229270935058594 18.104879379272460938 44.396648406982421875 33.8052978515625 33.6950531005859375 32.966220855712890625 33.329517364501953125 21.484493255615234375 32.697536468505859375 32.092403411865234375 33.044452667236328125 34.175327301025390625 33.431488037109375 33.052936553955078125 34.030033111572265625 33.45787811279296875 32.279056549072265625 32.58914947509765625 32.77916717529296875 32.866283416748046875 15.91898345947265625 4.1736216545104980469 4.3679299354553222656 25.633281707763671875 2.3817229270935058594 17.100292205810546875 35.015750885009765625 34.40460205078125 35.1930084228515625 35.520843505859375 36.948719024658203125 33.91937255859375 30.885221481323242188 19.640621185302734375 10.21439361572265625 6.3001003265380859375 4.335704803466796875 35.679889678955078125 35.65708160400390625 32.193302154541015625 34.023235321044921875 35.125274658203125 34.63939666748046875 37.646709442138671875 34.636516571044921875 34.087932586669921875 34.86096954345703125 33.86318206787109375 28.832492828369140625 29.744960784912109375 167.8511810302734375 301.875885009765625 
11.965828895568847656 31.205455780029296875 35.99627685546875 4.3656249046325683594 31.453296661376953125 38.02367401123046875 39.973155975341796875 44.8508148193359375 60.0156707763671875 43.92449951171875 24.794958114624023438 22.13177490234375 5.7502188682556152344 94.45269775390625 16.377691268920898438 20.83458709716796875 26.475065231323242188 21.458292007446289062 35.511783599853515625 36.377574920654296875 35.1414947509765625 34.4282379150390625 14.836395263671875 18.845308303833007812 16.02561187744140625 119.8918304443359375 165.323486328125 166.9202117919921875 58.230167388916015625 154.2901458740234375 42.626922607421875 52.3413848876953125 25.360088348388671875 2.3817229270935058594 2.3817229270935058594 2.3817229270935058594 4.4870328903198242188 47.55980682373046875 34.501567840576171875 33.309612274169921875 33.61236572265625 33.507953643798828125 29.999464035034179688 31.656293869018554688 32.9131011962890625 34.0139617919921875 34.308856964111328125 29.917802810668945312 33.86313629150390625 32.01775360107421875 32.04285430908203125 33.46250152587890625 32.575260162353515625 32.99080657958984375 31.809185028076171875 2.3817229270935058594 2.3817229270935058594 6.3541369438171386719 18.969182968139648438 2.3817229270935058594 6.1598286628723144531 33.344249725341796875 33.320125579833984375 34.094501495361328125 34.6387939453125 32.68355560302734375 34.757312774658203125 10.497103691101074219 2.3817229270935058594 25.837800979614257812 20.250112533569335938 24.515481948852539062 34.310821533203125 33.4026947021484375 33.40285491943359375 34.527683258056640625 34.12253570556640625 33.783416748046875 47.401607513427734375 33.69556427001953125 41.775028228759765625 34.14447021484375 34.01615142822265625 34.140720367431640625 34.25415802001953125 112.078704833984375 33.7311859130859375 
32.408115386962890625 31.577442169189453125 22.605255126953125 4.1880950927734375 20.496004104614257812 44.1579437255859375 42.625286102294921875 52.381092071533203125 26.852582931518554688 33.4666290283203125 5.4765362739562988281 32.9359283447265625 26.529895782470703125 19.801660537719726562 15.928819656372070312 27.19384002685546875 41.607715606689453125 27.2082672119140625 29.648101806640625 25.606164932250976562 31.946943283081054688 2.3817229270935058594 9.2197637557983398438 25.930788040161132812 36.365345001220703125 38.92681121826171875 26.292768478393554688 89.01543426513671875 197.640045166015625 216.7534637451171875 103.14142608642578125 89.5727996826171875 48.65877532958984375 29.600299835205078125 26.122556686401367188 35.356632232666015625 23.3573455810546875 35.338779449462890625 35.842884063720703125 34.53498077392578125 33.24320220947265625 32.5004425048828125 28.495096206665039062 33.119983673095703125 33.289218902587890625 33.91229248046875 34.318912506103515625 31.291986465454101562 22.299657821655273438 33.1316375732421875 34.788333892822265625 34.1207122802734375 25.806461334228515625 30.517749786376953125 23.325853347778320312 6.3782944679260253906 2.3817229270935058594 4.5350885391235351562 4.3679299354553222656 2.3817229270935058594 2.3817229270935058594 33.446376800537109375 32.326221466064453125 34.3531341552734375 32.31743621826171875 32.3946685791015625 21.341419219970703125 2.3817229270935058594 12.262310981750488281 24.70839691162109375 32.99124908447265625 31.689922332763671875 33.14060211181640625 34.351612091064453125 27.962263107299804688 29.5702362060546875 33.720531463623046875 67.80199432373046875 161.076568603515625 103.4921722412109375 52.556804656982421875 33.32248687744140625 32.015140533447265625 33.0700836181640625 33.55776214599609375 33.988887786865234375 34.393009185791015625 
33.8493499755859375 10.948740005493164062 43.250308990478515625 6.3169703483581542969 30.306682586669921875 84.42486572265625 99.91595458984375 34.5799407958984375 34.66085052490234375 21.618824005126953125 39.413127899169921875 39.477176666259765625 7.0239434242248535156 2.3817229270935058594 2.3817229270935058594 4.3483977317810058594 30.015228271484375 24.839496612548828125 33.25206756591796875 28.491199493408203125 25.422931671142578125 16.29969024658203125 28.710374832153320312 31.651844024658203125 38.87355804443359375 35.863452911376953125 30.579401016235351562 92.32331085205078125 112.63915252685546875 102.671417236328125 37.442333221435546875 39.5194854736328125 37.98548126220703125 40.874950408935546875 38.847507476806640625 30.910844802856445312 25.929058074951171875 35.713665008544921875 39.206470489501953125 34.26064300537109375 32.44570159912109375 34.214557647705078125 29.48410797119140625 33.834995269775390625 33.14417266845703125 33.117923736572265625 32.168796539306640625 33.131710052490234375 34.031665802001953125 36.825927734375 18.8592681884765625 29.619293212890625 33.495868682861328125 33.660888671875 33.555942535400390625 34.457477569580078125 23.128879547119140625 35.62204742431640625 8.1566438674926757812 6.2305111885070800781 21.586269378662109375 29.891798019409179688 32.816310882568359375 35.197864532470703125 31.074460983276367188 24.03717041015625 15.795132637023925781 2.3817229270935058594 8.1457929611206054688 32.994129180908203125 34.275188446044921875 34.8430938720703125 33.05741119384765625 32.69661712646484375 19.877271652221679688 11.666163444519042969 11.666163444519042969 33.32125091552734375 32.222469329833984375 33.787776947021484375 34.555042266845703125 32.700286865234375 33.275836944580078125 33.3917083740234375 32.466770172119140625 33.6803131103515625 34.622570037841796875 
36.55712890625 2.3817229270935058594 2.3817229270935058594 105.3956298828125 52.403514862060546875 38.209255218505859375 36.51955413818359375 42.09009552001953125 41.537471771240234375 18.666233062744140625 42.630157470703125 21.278379440307617188 16.308383941650390625 11.5005035400390625 15.637932777404785156 2.3817229270935058594 23.071668624877929688 23.636182785034179688 34.791172027587890625 16.16304779052734375 21.049268722534179688 37.8911895751953125 39.5898284912109375 18.0909271240234375 57.22463226318359375 37.72216033935546875 39.57437896728515625 119.1621246337890625 59.721401214599609375 57.286136627197265625 44.46491241455078125 39.796871185302734375 39.5194854736328125 40.939556121826171875 37.821956634521484375 19.50472259521484375 22.421085357666015625 40.69000244140625 34.415081024169921875 34.651477813720703125 33.102939605712890625 34.04409027099609375 31.040008544921875 33.954952239990234375 27.02294921875 29.802785873413085938 31.911157608032226562 34.023952484130859375 33.646209716796875 20.528654098510742188 7.87223052978515625 34.2592315673828125 28.035135269165039062 32.558742523193359375 34.05300140380859375 33.2544403076171875 25.446645736694335938 29.92945098876953125 6.1840677261352539062 13.429776191711425781 11.630515098571777344 33.770954132080078125 34.16847991943359375 33.86675262451171875 19.576200485229492188 2.3817229270935058594 2.3817229270935058594 12.566666603088378906 11.988507270812988281 33.24892425537109375 33.896091461181640625 36.09845733642578125 33.5846710205078125 32.987457275390625 21.426984786987304688 2.3817229270935058594 24.581033706665039062 33.8014678955078125 33.430286407470703125 33.507953643798828125 33.30904388427734375 33.65077972412109375 33.02813720703125 33.27349090576171875 32.892711639404296875 29.616626739501953125 25.554540634155273438 
35.421787261962890625 2.3817229270935058594 2.3817229270935058594 17.730909347534179688 35.57553863525390625 40.727977752685546875 45.307933807373046875 84.954620361328125 40.378875732421875 23.118448257446289062 26.858675003051757812 5.3170733451843261719 4.7028331756591796875 21.095853805541992188 14.1251373291015625 4.2605371475219726562 23.738084793090820312 20.728689193725585938 26.499681472778320312 35.894954681396484375 21.91777801513671875 47.68505096435546875 32.366565704345703125 43.0422210693359375 112.07773590087890625 25.524351119995117188 31.061367034912109375 62.143138885498046875 101.636566162109375 45.584259033203125 36.6636505126953125 43.6558837890625 40.172649383544921875 37.40016937255859375 31.65570068359375 27.470211029052734375 30.967615127563476562 42.3392181396484375 37.867504119873046875 33.56374359130859375 34.833995819091796875 33.792377471923828125 34.438602447509765625 33.504344940185546875 31.395910263061523438 30.693384170532226562 20.067121505737304688 21.827375411987304688 2.3817229270935058594 16.467172622680664062 6.5764737129211425781 34.212005615234375 34.885395050048828125 33.79553985595703125 30.390033721923828125 29.691152572631835938 32.556003570556640625 17.349666595458984375 26.453319549560546875 32.645458221435546875 31.519876480102539062 32.373340606689453125 32.270648956298828125 33.033527374267578125 20.484178543090820312 19.16611480712890625 14.146640777587890625 34.14231109619140625 30.420597076416015625 35.39624786376953125 37.1205596923828125 34.867359161376953125 32.7679443359375 34.09256744384765625 8.2364292144775390625 11.268751144409179688 34.880336761474609375 33.631221771240234375 33.3446502685546875 33.4758148193359375 33.52657318115234375 32.857574462890625 33.3836517333984375 33.29128265380859375 21.763675689697265625 4.2519197463989257812 10.197650909423828125 
31.598352432250976562 2.3817229270935058594 2.3817229270935058594 17.793720245361328125 38.27573394775390625 41.813018798828125 52.51790618896484375 39.00461578369140625 45.65618133544921875 4.1624898910522460938 13.297712326049804688 2.3817229270935058594 4.3330683708190917969 23.418216705322265625 15.150281906127929688 2.3817229270935058594 6.3346047401428222656 22.606164932250976562 11.451303482055664062 21.601472854614257812 22.4810028076171875 36.16924285888671875 42.48963165283203125 34.908107757568359375 170.79205322265625 19.105276107788085938 33.7021942138671875 47.615276336669921875 122.67055511474609375 51.9705047607421875 34.08080291748046875 42.005786895751953125 40.56060028076171875 30.467573165893554688 28.557891845703125 90.49272918701171875 40.706310272216796875 38.741443634033203125 35.4418487548828125 35.08666229248046875 35.919269561767578125 30.873785018920898438 27.508209228515625 35.47426605224609375 28.54241943359375 19.86823272705078125 6.2131371498107910156 2.3817229270935058594 2.3817229270935058594 4.2655181884765625 8.6211919784545898438 33.4005584716796875 32.81392669677734375 33.808624267578125 33.08676910400390625 34.758922576904296875 33.73236846923828125 33.13092041015625 33.492404937744140625 31.78131866455078125 30.940023422241210938 29.92101287841796875 31.238651275634765625 34.3116455078125 34.933135986328125 34.74089813232421875 33.9590606689453125 34.231700897216796875 35.18642425537109375 33.923664093017578125 34.313457489013671875 33.655853271484375 33.26790618896484375 22.093309402465820312 2.3817229270935058594 27.708551406860351562 33.91388702392578125 34.93085479736328125 34.094982147216796875 34.4341278076171875 33.866455078125 30.96033477783203125 33.293376922607421875 33.447479248046875 33.99040985107421875 33.8329925537109375 16.716913223266601562 
2.3817229270935058594 2.3817229270935058594 2.3817229270935058594 21.649036407470703125 40.777767181396484375 38.4157867431640625 34.13327789306640625 41.28743743896484375 24.888704299926757812 2.3817229270935058594 10.187104225158691406 2.3817229270935058594 12.950494766235351562 33.130115509033203125 9.6636381149291992188 2.3817229270935058594 10.025445938110351562 26.526525497436523438 40.547222137451171875 43.9120330810546875 34.909137725830078125 47.444431304931640625 43.6321563720703125 41.240589141845703125 33.360645294189453125 33.48339080810546875 39.090946197509765625 73.57605743408203125 89.0479736328125 72.70203399658203125 34.28089141845703125 41.731464385986328125 42.33631134033203125 31.669925689697265625 41.47528839111328125 17.569540023803710938 26.265314102172851562 33.592529296875 39.127620697021484375 38.60849761962890625 33.957942962646484375 32.866641998291015625 27.351253509521484375 33.51468658447265625 33.43910980224609375 2.3817229270935058594 2.3817229270935058594 2.3817229270935058594 2.3817229270935058594 2.3817229270935058594 6.1493139266967773438 31.793386459350585938 33.149383544921875 32.5813751220703125 33.920948028564453125 32.185855865478515625 33.926395416259765625 31.1101531982421875 31.90069580078125 29.46352386474609375 29.46352386474609375 30.3878631591796875 31.585973739624023438 29.46352386474609375 35.0754852294921875 32.47228240966796875 34.698558807373046875 32.728496551513671875 35.44315338134765625 34.38916015625 35.88317108154296875 35.614315032958984375 29.231405258178710938 2.3817229270935058594 2.3817229270935058594 30.048051834106445312 35.906337738037109375 33.067073822021484375 34.182281494140625 17.829578399658203125 18.681215286254882812 14.705430030822753906 23.011478424072265625 33.5539398193359375 34.0472869873046875 32.688716888427734375 2.3817229270935058594 
