ncols        87
nrows        107
xllcorner    508536.404131802963
yllcorner    5265618.997906560078
cellsize     120.000000000000
NODATA_value -9999
0.012005000375211238861 0.012005000375211238861 0.012005000375211238861 0.012005000375211238861 0.012005000375211238861 0.012005000375211238861 0.012005000375211238861 0.012005000375211238861 0.012005000375211238861 0.012005000375211238861 0.012005000375211238861 0.012005000375211238861 0.012005000375211238861 0.012005000375211238861 0.012005000375211238861 0.012005000375211238861 0.012005000375211238861 0.012005000375211238861 0.012005000375211238861 0.012005000375211238861 0.012005000375211238861 0.012005000375211238861 0.012005000375211238861 0.012005000375211238861 0.012005000375211238861 0.012005000375211238861 0.012005000375211238861 0.012005000375211238861 0.012005000375211238861 0.012005000375211238861 0.012005000375211238861 0.012005000375211238861 0.012005000375211238861 0.012005000375211238861 0.012005000375211238861 0.012005000375211238861 0.012005000375211238861 0.012005000375211238861 0.012005000375211238861 0.012005000375211238861 0.012005000375211238861 0.012005000375211238861 0.012005000375211238861 0.012005000375211238861 0.012005000375211238861 0.012005000375211238861 0.012005000375211238861 0.012005000375211238861 0.012005000375211238861 0.012005000375211238861 0.012005000375211238861 0.012005000375211238861 0.012005000375211238861 0.012005000375211238861 0.012005000375211238861 0.012005000375211238861 0.012005000375211238861 0.012005000375211238861 0.012005000375211238861 0.012005000375211238861 0.012005000375211238861 0.012005000375211238861 0.012005000375211238861 0.012005000375211238861 0.012005000375211238861 0.012005000375211238861 0.023102438077330589294 0.08132769167423248291 0.12081068754196166992 0.12205068767070770264 0.6989600062370300293 1.6594271659851074219 2.1999869346618652344 4.4150204658508300781 2.2071485519409179688 0.31318426132202148438 2.1003444194793701172 1.6918433904647827148 0.67199373245239257812 2.9637091159820556641 3.3123757839202880859 2.2643792629241943359 4.4401936531066894531 3.0603125095367431641 2.4161443710327148438 2.7660548686981201172 3.4715917110443115234 
0.012005000375211238861 0.012005000375211238861 0.012005000375211238861 0.012005000375211238861 0.012005000375211238861 0.012005000375211238861 0.012005000375211238861 0.012005000375211238861 0.012005000375211238861 0.012005000375211238861 0.012005000375211238861 0.012005000375211238861 0.012005000375211238861 0.012005000375211238861 0.012005000375211238861 0.012005000375211238861 0.012005000375211238861 0.012005000375211238861 0.012005000375211238861 0.012005000375211238861 0.012005000375211238861 0.012005000375211238861 0.012005000375211238861 0.012005000375211238861 0.012005000375211238861 0.012005000375211238861 0.012005000375211238861 0.012005000375211238861 0.012005000375211238861 0.012005000375211238861 0.012005000375211238861 0.012005000375211238861 0.012005000375211238861 0.012005000375211238861 0.012005000375211238861 0.012005000375211238861 0.012005000375211238861 0.012005000375211238861 0.012005000375211238861 0.012005000375211238861 0.012005000375211238861 0.012005000375211238861 0.012005000375211238861 0.012005000375211238861 0.012005000375211238861 0.012005000375211238861 0.012005000375211238861 0.012005000375211238861 0.012005000375211238861 0.012005000375211238861 0.012005000375211238861 0.012005000375211238861 0.012005000375211238861 0.012005000375211238861 0.012005000375211238861 0.012005000375211238861 0.012005000375211238861 0.012005000375211238861 0.012005000375211238861 0.012005000375211238861 0.012005000375211238861 0.012005000375211238861 0.012005000375211238861 0.012005000375211238861 0.012005000375211238861 0.023102438077330589294 0.41940149664878845215 0.38587319850921630859 0.95825439691543579102 0.82051134109497070312 2.6511838436126708984 4.4490866661071777344 3.9116528034210205078 3.18531036376953125 4.1299333572387695312 1.7108803987503051758 2.0181865692138671875 3.0595457553863525391 3.8609151840209960938 3.1432025432586669922 1.7677477598190307617 0.87312477827072143555 1.0115944147109985352 1.7057372331619262695 1.1838667392730712891 2.4416184425354003906 0.16142350435256958008 
0.012005000375211238861 0.012005000375211238861 0.012005000375211238861 0.012005000375211238861 0.012005000375211238861 0.012005000375211238861 0.012005000375211238861 0.012005000375211238861 0.012005000375211238861 0.012005000375211238861 0.012005000375211238861 0.012005000375211238861 0.012005000375211238861 0.012005000375211238861 0.012005000375211238861 0.012005000375211238861 0.012005000375211238861 0.012005000375211238861 0.012005000375211238861 0.012005000375211238861 0.012005000375211238861 0.012005000375211238861 0.012005000375211238861 0.012005000375211238861 0.012005000375211238861 0.012005000375211238861 0.012005000375211238861 0.012005000375211238861 0.012005000375211238861 0.012005000375211238861 0.012005000375211238861 0.012005000375211238861 0.012005000375211238861 0.012005000375211238861 0.012005000375211238861 0.012005000375211238861 0.012005000375211238861 0.012005000375211238861 0.012005000375211238861 0.012005000375211238861 0.012005000375211238861 0.012005000375211238861 0.012005000375211238861 0.012005000375211238861 0.012005000375211238861 0.012005000375211238861 0.012005000375211238861 0.012005000375211238861 0.012005000375211238861 0.012005000375211238861 0.012005000375211238861 0.012005000375211238861 0.012005000375211238861 0.012005000375211238861 0.012005000375211238861 0.012005000375211238861 0.012005000375211238861 0.012005000375211238861 0.012005000375211238861 0.060192499309778213501 0.094863936305046081543 0.035389188677072525024 0.012005000375211238861 0.012005000375211238861 0.012005000375211238861 0.054223444312810897827 0.14476574957370758057 0.13467654585838317871 0.8392098546028137207 1.9649130105972290039 3.866062164306640625 5.5429525375366210938 5.5106482505798339844 4.9783582687377929688 3.3401422500610351562 1.6783596277236938477 1.2246944904327392578 4.4495520591735839844 2.6860039234161376953 4.3798012733459472656 1.9299453496932983398 2.3041448593139648438 3.4235713481903076172 3.4789826869964599609 3.0681557655334472656 1.0615253448486328125 0.012005000375211238861 
0.012005000375211238861 0.012005000375211238861 0.012005000375211238861 0.012005000375211238861 0.012005000375211238861 0.012005000375211238861 0.012005000375211238861 0.012005000375211238861 0.012005000375211238861 0.012005000375211238861 0.012005000375211238861 0.012005000375211238861 0.012005000375211238861 0.012005000375211238861 0.012005000375211238861 0.012005000375211238861 0.012005000375211238861 0.012005000375211238861 0.012005000375211238861 0.012005000375211238861 0.012005000375211238861 0.012005000375211238861 0.012005000375211238861 0.012005000375211238861 0.012005000375211238861 0.012005000375211238861 0.012005000375211238861 0.012005000375211238861 0.012005000375211238861 0.012005000375211238861 0.012005000375211238861 0.012005000375211238861 0.012005000375211238861 0.012005000375211238861 0.012005000375211238861 0.012005000375211238861 0.012005000375211238861 0.012005000375211238861 0.012005000375211238861 0.012005000375211238861 0.012005000375211238861 0.012005000375211238861 0.012005000375211238861 0.012005000375211238861 0.012005000375211238861 0.012005000375211238861 0.012005000375211238861 0.012005000375211238861 0.012005000375211238861 0.012005000375211238861 0.012005000375211238861 0.012005000375211238861 0.012005000375211238861 0.012005000375211238861 0.012005000375211238861 0.012005000375211238861 0.012005000375211238861 0.012005000375211238861 0.034199874848127365112 0.18165105581283569336 0.14856356382369995117 0.012005000375211238861 0.04785981401801109314 0.012005000375211238861 0.012005000375211238861 0.085987918078899383545 2.1519308090209960938 0.16109192371368408203 1.3538190126419067383 3.7593469619750976562 3.4286415576934814453 5.0888147354125976562 4.4846463203430175781 3.2956800460815429688 2.7344548702239990234 2.8941831588745117188 2.1855778694152832031 4.1803317070007324219 1.4487227201461791992 3.6115126609802246094 2.5959188938140869141 3.5973429679870605469 1.8257148265838623047 3.1640107631683349609 1.5071358680725097656 0.28746563196182250977 0.058661002665758132935 
0.012005000375211238861 0.012005000375211238861 0.012005000375211238861 0.012005000375211238861 0.012005000375211238861 0.012005000375211238861 0.012005000375211238861 0.012005000375211238861 0.012005000375211238861 0.012005000375211238861 0.012005000375211238861 0.012005000375211238861 0.012005000375211238861 0.012005000375211238861 0.012005000375211238861 0.012005000375211238861 0.012005000375211238861 0.012005000375211238861 0.012005000375211238861 0.012005000375211238861 0.012005000375211238861 0.012005000375211238861 0.012005000375211238861 0.012005000375211238861 0.012005000375211238861 0.012005000375211238861 0.012005000375211238861 0.012005000375211238861 0.012005000375211238861 0.012005000375211238861 0.012005000375211238861 0.012005000375211238861 0.012005000375211238861 0.046533249318599700928 1.1088670492172241211 0.82795363664627075195 0.012005000375211238861 0.012005000375211238861 0.012005000375211238861 0.012005000375211238861 0.012005000375211238861 0.012005000375211238861 0.012005000375211238861 0.012005000375211238861 0.012005000375211238861 0.012005000375211238861 0.012005000375211238861 0.012005000375211238861 0.012005000375211238861 0.012005000375211238861 0.012005000375211238861 0.012005000375211238861 0.012005000375211238861 0.012005000375211238861 0.012005000375211238861 0.012005000375211238861 0.012005000375211238861 0.045297313481569290161 0.069045186042785644531 0.086936876177787780762 0.012005000375211238861 0.012005000375211238861 0.035481125116348266602 0.1024530753493309021 0.012005000375211238861 0.012005000375211238861 0.13523086905479431152 0.21309581398963928223 1.4434733390808105469 3.7524607181549072266 2.2464511394500732422 3.6942148208618164062 3.7814061641693115234 2.6305651664733886719 2.961963653564453125 4.4238629341125488281 3.7711930274963378906 3.0641005039215087891 0.3074671328067779541 2.1888689994812011719 0.96922910213470458984 4.6727986335754394531 3.032993316650390625 3.3720879554748535156 0.75747770071029663086 0.036382690072059631348 0.061981000006198883057 
0.012005000375211238861 0.012005000375211238861 0.012005000375211238861 0.012005000375211238861 0.012005000375211238861 0.012005000375211238861 0.012005000375211238861 0.012005000375211238861 0.012005000375211238861 0.012005000375211238861 0.012005000375211238861 0.012005000375211238861 0.012005000375211238861 0.012005000375211238861 0.012005000375211238861 0.012005000375211238861 0.012005000375211238861 0.012005000375211238861 0.012005000375211238861 0.012005000375211238861 0.012005000375211238861 0.012005000375211238861 0.012005000375211238861 0.012005000375211238861 0.012005000375211238861 0.012005000375211238861 0.012005000375211238861 0.012005000375211238861 0.012005000375211238861 0.012005000375211238861 0.012005000375211238861 0.012005000375211238861 0.095175065100193023682 0.33488106727600097656 0.27119076251983642578 2.0955691337585449219 0.012005000375211238861 0.012005000375211238861 0.012005000375211238861 0.012005000375211238861 0.012005000375211238861 0.012005000375211238861 0.012005000375211238861 0.012005000375211238861 0.012005000375211238861 0.012005000375211238861 0.012005000375211238861 0.012005000375211238861 0.012005000375211238861 0.012005000375211238861 0.012005000375211238861 0.012005000375211238861 0.012005000375211238861 0.035481125116348266602 0.059650376439094543457 0.095596127212047576904 0.12287243455648422241 0.47084474563598632812 0.10045881569385528564 0.14738993346691131592 0.49253100156784057617 0.81242126226425170898 0.10657537728548049927 0.19126239418983459473 0.048403315246105194092 0.012005000375211238861 0.16362208127975463867 0.20997843146324157715 0.13532818853855133057 1.7615642547607421875 1.2430994510650634766 3.5838754177093505859 3.4563069343566894531 3.6350047588348388672 3.8820853233337402344 4.0965704917907714844 3.323513031005859375 2.3562035560607910156 0.21009181439876556396 0.46149095892906188965 3.6139464378356933594 3.7203731536865234375 2.9956078529357910156 1.3247165679931640625 0.081840872764587402344 0.012005000375211238861 0.012005000375211238861 
0.012005000375211238861 0.012005000375211238861 0.012005000375211238861 0.012005000375211238861 0.012005000375211238861 0.012005000375211238861 0.012005000375211238861 0.012005000375211238861 0.012005000375211238861 0.012005000375211238861 0.012005000375211238861 0.012005000375211238861 0.012005000375211238861 0.012005000375211238861 0.012005000375211238861 0.012005000375211238861 0.012005000375211238861 0.012005000375211238861 0.012005000375211238861 0.012005000375211238861 0.012005000375211238861 0.012005000375211238861 0.012005000375211238861 0.012005000375211238861 0.012005000375211238861 0.012005000375211238861 0.012005000375211238861 0.012005000375211238861 0.012005000375211238861 0.012005000375211238861 0.012005000375211238861 1.6677016019821166992 0.73781001567840576172 0.1116051897406578064 0.036377813667058944702 0.04925206303596496582 0.012005000375211238861 0.012005000375211238861 0.012005000375211238861 0.012005000375211238861 0.012005000375211238861 0.012005000375211238861 0.012005000375211238861 0.012005000375211238861 0.012005000375211238861 0.012005000375211238861 0.012005000375211238861 0.012005000375211238861 0.012005000375211238861 0.012005000375211238861 0.012005000375211238861 0.079825565218925476074 0.061429124325513839722 0.085043251514434814453 0.18559706211090087891 0.19726400077342987061 0.21322700381278991699 1.1997565031051635742 3.1430997848510742188 1.5968283414840698242 0.14514356851577758789 0.17128349840641021729 0.11118262261152267456 0.21119269728660583496 1.2586408853530883789 0.10610289871692657471 0.2118301689624786377 0.21180142462253570557 0.17172624170780181885 0.11058656126260757446 0.14584612846374511719 2.9297888278961181641 4.1312127113342285156 2.8623783588409423828 3.7996816635131835938 3.6618204116821289062 5.35584259033203125 0.67160433530807495117 0.64728856086730957031 2.4374554157257080078 4.2203378677368164062 4.322265625 3.4145433902740478516 1.3811981678009033203 3.7867228984832763672 1.400128483772277832 0.49115523695945739746 
0.012005000375211238861 0.012005000375211238861 0.012005000375211238861 0.012005000375211238861 0.012005000375211238861 0.012005000375211238861 0.012005000375211238861 0.012005000375211238861 0.012005000375211238861 0.012005000375211238861 0.012005000375211238861 0.012005000375211238861 0.012005000375211238861 0.012005000375211238861 0.012005000375211238861 0.012005000375211238861 0.012005000375211238861 0.012005000375211238861 0.012005000375211238861 0.012005000375211238861 0.012005000375211238861 0.012005000375211238861 0.012005000375211238861 0.012005000375211238861 0.012005000375211238861 0.012005000375211238861 0.035596437752246856689 0.060333937406539916992 0.024248501285910606384 0.44590243697166442871 0.94343352317810058594 0.84816700220108032227 0.057947751134634017944 0.099687747657299041748 0.075108811259269714355 0.012005000375211238861 0.012005000375211238861 0.012005000375211238861 0.012005000375211238861 0.012005000375211238861 0.012005000375211238861 0.012005000375211238861 0.012005000375211238861 0.012005000375211238861 0.012005000375211238861 0.012005000375211238861 0.012005000375211238861 0.012005000375211238861 0.012005000375211238861 0.023102438077330589294 0.092381879687309265137 0.099274754524230957031 0.46827706694602966309 1.7866266965866088867 0.20223906636238098145 0.20847749710083007812 0.20918856561183929443 0.19962474703788757324 2.8106319904327392578 4.2665653228759765625 0.14570568501949310303 0.19248889386653900146 0.15168815851211547852 0.9817702174186706543 0.6943308711051940918 0.076066553592681884766 0.21420949697494506836 0.794635772705078125 0.96071583032608032227 0.52379977703094482422 1.8602089881896972656 3.7740061283111572266 3.2389430999755859375 2.3309724330902099609 1.2549184560775756836 2.4973423480987548828 4.5443634986877441406 0.21080231666564941406 1.5409023761749267578 4.1705527305603027344 4.3281569480895996094 3.6584820747375488281 2.5778145790100097656 2.3863570690155029297 3.1367733478546142578 4.2764029502868652344 4.6981248855590820312 
0.012005000375211238861 0.012005000375211238861 0.012005000375211238861 0.012005000375211238861 0.012005000375211238861 0.012005000375211238861 0.012005000375211238861 0.012005000375211238861 0.012005000375211238861 0.012005000375211238861 0.012005000375211238861 0.012005000375211238861 0.012005000375211238861 0.012005000375211238861 0.012005000375211238861 0.012005000375211238861 0.012005000375211238861 0.012005000375211238861 0.012005000375211238861 0.012005000375211238861 0.012005000375211238861 0.012005000375211238861 0.012005000375211238861 0.012005000375211238861 0.067492187023162841797 0.13122369349002838135 0.19202244281768798828 0.12439525127410888672 0.012005000375211238861 1.9130070209503173828 0.33872383832931518555 0.071325503289699554443 0.096850939095020294189 0.075257189571857452393 0.037305876612663269043 0.012005000375211238861 0.012005000375211238861 0.012005000375211238861 0.012005000375211238861 0.012005000375211238861 0.012005000375211238861 0.012005000375211238861 0.012005000375211238861 0.012005000375211238861 0.012005000375211238861 0.012005000375211238861 0.012005000375211238861 0.012005000375211238861 0.046850312501192092896 0.057947751134634017944 0.023102438077330589294 0.1583779454231262207 0.13536787033081054688 0.12471374869346618652 0.50337290763854980469 0.15965369343757629395 0.21200338006019592285 0.20063962042331695557 1.206578373908996582 4.5515313148498535156 0.96725469827651977539 0.18468493223190307617 2.9923238754272460938 2.3527238368988037109 0.036923374980688095093 0.02400431409478187561 0.21211948990821838379 2.9227342605590820312 2.8177306652069091797 1.8118808269500732422 3.2866363525390625 3.2448003292083740234 2.7242777347564697266 1.6771920919418334961 0.71289795637130737305 0.79008525609970092773 3.4384605884552001953 0.19723705947399139404 0.46825623512268066406 0.19734138250350952148 1.4861882925033569336 2.6153268814086914062 3.7627768516540527344 1.4525473117828369141 1.3652207851409912109 0.1392053067684173584 2.0251867771148681641 
0.012005000375211238861 0.012005000375211238861 0.012005000375211238861 0.012005000375211238861 0.012005000375211238861 0.012005000375211238861 0.012005000375211238861 0.012005000375211238861 0.012005000375211238861 0.012005000375211238861 0.012005000375211238861 0.012005000375211238861 0.012005000375211238861 0.012005000375211238861 0.012005000375211238861 0.012005000375211238861 0.012005000375211238861 0.012005000375211238861 0.012005000375211238861 0.012005000375211238861 0.012005000375211238861 0.012005000375211238861 0.081710062921047210693 0.12765762209892272949 2.7522881031036376953 0.086138002574443817139 0.1695391237735748291 0.15882343053817749023 0.1214796900749206543 0.33753451704978942871 0.024291750043630599976 0.14285168051719665527 0.059086062014102935791 0.037305876612663269043 0.012005000375211238861 0.012005000375211238861 0.012005000375211238861 0.012005000375211238861 0.012005000375211238861 0.012005000375211238861 0.012005000375211238861 0.012005000375211238861 0.012005000375211238861 0.012005000375211238861 0.012005000375211238861 0.012005000375211238861 0.012005000375211238861 0.069324873387813568115 0.15720693767070770264 0.99887579679489135742 0.75509727001190185547 1.2556912899017333984 0.21423462033271789551 0.54510521888732910156 1.5951982736587524414 0.2128848731517791748 0.21742711961269378662 0.79043573141098022461 2.2183766365051269531 4.8991551399230957031 0.17134112119674682617 0.17249700427055358887 1.3786344528198242188 3.6335589885711669922 3.7486901283264160156 0.060499001294374465942 0.21103388071060180664 2.1702845096588134766 1.0216323137283325195 1.164488673210144043 0.19688537716865539551 3.7449924945831298828 3.5027956962585449219 1.6637722253799438477 0.98354375362396240234 3.6119797229766845703 2.7981600761413574219 0.12376987189054489136 0.77772092819213867188 0.13574112951755523682 1.3839266300201416016 2.0766694545745849609 2.1719117164611816406 2.9397134780883789062 0.012005000375211238861 0.52160912752151489258 3.2398843765258789062 
0.012005000375211238861 0.012005000375211238861 0.012005000375211238861 0.012005000375211238861 0.012005000375211238861 0.012005000375211238861 0.012005000375211238861 0.012005000375211238861 0.012005000375211238861 0.012005000375211238861 0.012005000375211238861 0.012005000375211238861 0.012005000375211238861 0.012005000375211238861 0.012005000375211238861 0.012005000375211238861 0.012005000375211238861 0.012005000375211238861 0.012005000375211238861 0.012005000375211238861 0.034199874848127365112 0.13206912577152252197 0.17871643602848052979 0.19269268214702606201 0.12144693732261657715 0.18000525236129760742 0.20533868670463562012 0.12340756505727767944 0.13543850183486938477 1.906796574592590332 0.35462617874145507812 0.17120137810707092285 0.036898937076330184937 0.012005000375211238861 0.012005000375211238861 0.012005000375211238861 0.012005000375211238861 0.012005000375211238861 0.012005000375211238861 0.012005000375211238861 0.012005000375211238861 0.012005000375211238861 0.012005000375211238861 0.012005000375211238861 0.012005000375211238861 0.012005000375211238861 0.045297313481569290161 0.51438128948211669922 1.545376896858215332 1.4881223440170288086 1.0032021999359130859 2.1440525054931640625 0.5192438960075378418 3.6395580768585205078 1.1978945732116699219 0.21455587446689605713 0.21608674526214599609 2.3995718955993652344 0.8842951655387878418 2.9694838523864746094 0.18143142759799957275 0.14539225399494171143 3.2301533222198486328 2.4531874656677246094 4.22891998291015625 0.88280314207077026367 0.19421775639057159424 2.7980787754058837891 2.6407217979431152344 4.0247273445129394531 1.245408177375793457 2.2587387561798095703 3.2992589473724365234 2.261806488037109375 1.6065429449081420898 0.72942852973937988281 0.34175455570220947266 0.086686752736568450928 1.7818089723587036133 1.0228263139724731445 1.936133265495300293 1.4288231134414672852 0.92914825677871704102 1.7643983364105224609 0.20595605671405792236 0.10041612386703491211 4.1504955291748046875 
0.012005000375211238861 0.012005000375211238861 0.012005000375211238861 0.012005000375211238861 0.012005000375211238861 0.012005000375211238861 0.012005000375211238861 0.012005000375211238861 0.012005000375211238861 0.012005000375211238861 0.012005000375211238861 0.012005000375211238861 0.012005000375211238861 0.012005000375211238861 0.012005000375211238861 0.012005000375211238861 0.012005000375211238861 0.012005000375211238861 0.012005000375211238861 0.012005000375211238861 0.10421100258827209473 0.15778613090515136719 0.16818456351757049561 0.14517731964588165283 0.12051131576299667358 0.20586918294429779053 0.20611268281936645508 0.2083918154239654541 0.13707499206066131592 0.50765663385391235352 0.99497491121292114258 0.048222750425338745117 0.02465543895959854126 0.012005000375211238861 0.012005000375211238861 0.012005000375211238861 0.012005000375211238861 0.012005000375211238861 0.012005000375211238861 0.012005000375211238861 0.012005000375211238861 0.012005000375211238861 0.012005000375211238861 0.012005000375211238861 0.012005000375211238861 0.012005000375211238861 0.45253762602806091309 0.13366305828094482422 0.21059636771678924561 0.3245493769645690918 0.35672926902770996094 2.9066574573516845703 2.9088454246520996094 0.82500946521759033203 0.60578519105911254883 0.2115853726863861084 0.75897818803787231445 0.21575000882148742676 2.4678049087524414062 2.4153664112091064453 1.5494176149368286133 0.012005000375211238861 3.2688009738922119141 1.510318756103515625 2.6434342861175537109 0.7741038203239440918 1.3258295059204101562 0.21247349679470062256 3.6624176502227783203 3.9954276084899902344 0.95437920093536376953 0.93133258819580078125 3.4488422870635986328 1.8527493476867675781 0.84252077341079711914 0.13626593351364135742 0.072611875832080841064 0.62714433670043945312 0.66684752702713012695 2.5632159709930419922 2.0815799236297607422 1.0956799983978271484 0.10831612348556518555 0.10910549759864807129 0.56158363819122314453 0.78712320327758789062 2.7882680892944335938 
0.012005000375211238861 0.012005000375211238861 0.012005000375211238861 0.012005000375211238861 0.012005000375211238861 0.012005000375211238861 0.012005000375211238861 0.012005000375211238861 0.012005000375211238861 0.012005000375211238861 0.012005000375211238861 0.012005000375211238861 0.012005000375211238861 0.012005000375211238861 0.012005000375211238861 0.012005000375211238861 0.012005000375211238861 0.012005000375211238861 0.012005000375211238861 0.023102438077330589294 0.11242225021123886108 0.074340499937534332275 0.14743430912494659424 0.1444835662841796875 0.11168881505727767944 0.20639862120151519775 0.20810212194919586182 0.21392355859279632568 0.061247501522302627563 0.048355501145124435425 0.085954375565052032471 0.060864813625812530518 0.02465543895959854126 0.012005000375211238861 0.012005000375211238861 0.012005000375211238861 0.012005000375211238861 0.012005000375211238861 0.012005000375211238861 0.012005000375211238861 0.012005000375211238861 0.012005000375211238861 0.012005000375211238861 0.012005000375211238861 0.045297313481569290161 0.11006619036197662354 0.1923376917839050293 0.20626999437808990479 0.51962476968765258789 2.7441008090972900391 2.8321998119354248047 4.7417392730712890625 2.3869659900665283203 1.6602441072463989258 4.4547448158264160156 0.87758010625839233398 1.0408293008804321289 0.55068570375442504883 1.6673187017440795898 1.995837092399597168 0.51113265752792358398 0.012005000375211238861 0.51387226581573486328 1.6576901674270629883 0.30348190665245056152 0.9995975494384765625 3.8949306011199951172 2.0422639846801757812 2.3505859375 0.89545267820358276367 0.17331694066524505615 0.15639324486255645752 0.10946087539196014404 0.95036166906356811523 1.7348171472549438477 0.3495438694953918457 0.57003396749496459961 1.7148705720901489258 1.839547276496887207 2.5148859024047851562 0.89488637447357177734 0.2095839381217956543 0.20485407114028930664 0.2067105025053024292 0.15586350858211517334 1.4072459936141967773 1.4244434833526611328 
0.012005000375211238861 0.012005000375211238861 0.012005000375211238861 0.012005000375211238861 0.012005000375211238861 0.012005000375211238861 0.012005000375211238861 0.012005000375211238861 0.012005000375211238861 0.012005000375211238861 0.012005000375211238861 0.012005000375211238861 0.012005000375211238861 0.012005000375211238861 0.012005000375211238861 0.012005000375211238861 0.012005000375211238861 0.012005000375211238861 0.023102438077330589294 0.15472406148910522461 0.19637112319469451904 0.13828924298286437988 0.21132381260395050049 0.1845041811466217041 0.15937405824661254883 0.19381643831729888916 0.20683750510215759277 0.17174044251441955566 0.12377993762493133545 0.09858874976634979248 0.13846631348133087158 0.11157512664794921875 0.012005000375211238861 0.012005000375211238861 0.012005000375211238861 0.012005000375211238861 0.012005000375211238861 0.012005000375211238861 0.012005000375211238861 0.012005000375211238861 0.012005000375211238861 0.012005000375211238861 0.034199874848127365112 0.047751937061548233032 0.60495102405548095703 0.21162356436252593994 0.2064316868782043457 0.20916843414306640625 2.6420300006866455078 2.3749847412109375 2.2895109653472900391 4.8510847091674804688 4.1051483154296875 0.83467310667037963867 1.4572905302047729492 0.72196137905120849609 2.5371344089508056641 1.4114052057266235352 0.49966526031494140625 0.93585044145584106445 0.37316429615020751953 0.034199874848127365112 0.44821643829345703125 2.0130345821380615234 2.0786645412445068359 1.5398838520050048828 0.44008925557136535645 1.4584915637969970703 0.95136785507202148438 0.13551269471645355225 0.19339674711227416992 0.43999919295310974121 1.2794305086135864258 2.3726067543029785156 1.3086898326873779297 2.7319405078887939453 1.4780573844909667969 0.63347917795181274414 1.548487544059753418 3.3728706836700439453 2.0368268489837646484 0.20624455809593200684 0.19896081089973449707 0.20829306542873382568 0.10431606322526931763 0.16261112689971923828 0.2124989926815032959 
0.012005000375211238861 0.012005000375211238861 0.012005000375211238861 0.012005000375211238861 0.012005000375211238861 0.012005000375211238861 0.012005000375211238861 0.012005000375211238861 0.012005000375211238861 0.012005000375211238861 0.012005000375211238861 0.012005000375211238861 0.012005000375211238861 0.012005000375211238861 0.012005000375211238861 0.012005000375211238861 0.012005000375211238861 0.012005000375211238861 0.067492187023162841797 0.20568905770778656006 0.20687568187713623047 0.13662943243980407715 0.21205624938011169434 0.19460049271583557129 0.14906075596809387207 0.20729531347751617432 0.18171069025993347168 0.11163337528705596924 1.5000902414321899414 0.40069168806076049805 0.12193406373262405396 0.073704190552234649658 0.012005000375211238861 0.012005000375211238861 0.012005000375211238861 0.012005000375211238861 0.012005000375211238861 0.012005000375211238861 0.012005000375211238861 0.012005000375211238861 0.012005000375211238861 0.12369044125080108643 1.5826932191848754883 0.71819633245468139648 1.5603717565536499023 0.21065662801265716553 0.20783950388431549072 0.70905143022537231445 0.88602507114410400391 0.71914249658584594727 3.1075983047485351562 3.0128889083862304688 1.0400049686431884766 0.84032005071640014648 0.74443000555038452148 0.21057844161987304688 1.8755244016647338867 3.5215468406677246094 3.8757753372192382812 2.6457030773162841797 0.076061084866523742676 0.05639475211501121521 0.11124130338430404663 3.6434018611907958984 3.3801283836364746094 0.21034224331378936768 0.21185761690139770508 0.74230146408081054688 0.19919918477535247803 0.13647636771202087402 0.15233668684959411621 0.88905668258666992188 1.7116967439651489258 3.2047784328460693359 3.3760511875152587891 2.73041534423828125 0.58920609951019287109 0.14819481968879699707 0.47591051459312438965 1.6404393911361694336 0.72615593671798706055 0.34083905816078186035 0.20689757168292999268 0.2077490687370300293 0.15935938060283660889 0.21281237900257110596 2.6816730499267578125 
0.012005000375211238861 0.012005000375211238861 0.012005000375211238861 0.012005000375211238861 0.012005000375211238861 0.012005000375211238861 0.012005000375211238861 0.012005000375211238861 0.012005000375211238861 0.012005000375211238861 0.012005000375211238861 0.012005000375211238861 0.012005000375211238861 0.012005000375211238861 0.012005000375211238861 0.012005000375211238861 0.012005000375211238861 0.012005000375211238861 0.10600006580352783203 0.21244856715202331543 0.21006211638450622559 0.14309231936931610107 0.15496294200420379639 0.12117893993854522705 0.12974256277084350586 0.12207768857479095459 1.3534748554229736328 0.16235455870628356934 2.8644118309020996094 1.2970023155212402344 0.086529441177845001221 0.012005000375211238861 0.012005000375211238861 0.012005000375211238861 0.012005000375211238861 0.012005000375211238861 0.012005000375211238861 0.012005000375211238861 0.012005000375211238861 0.012005000375211238861 0.046850312501192092896 1.0371351242065429688 2.4481263160705566406 1.4845485687255859375 0.18422362208366394043 0.21177686750888824463 0.92832893133163452148 4.8696808815002441406 1.3816201686859130859 2.6432108879089355469 0.19889287650585174561 0.050134625285863876343 0.049788936972618103027 0.024429313838481903076 0.12477774918079376221 1.7646993398666381836 1.0311826467514038086 4.0730104446411132812 1.3085362911224365234 0.086542874574661254883 0.25757074356079101562 0.13428187370300292969 2.0981383323669433594 2.7963874340057373047 3.3970417976379394531 1.366306304931640625 0.2134780585765838623 2.4653506278991699219 0.56968706846237182617 0.14586000144481658936 0.19457887113094329834 0.073445312678813934326 0.087068878114223480225 1.9125308990478515625 3.5283238887786865234 2.0591971874237060547 2.3240239620208740234 0.21072550117969512939 0.15915706753730773926 2.6704134941101074219 0.21203899383544921875 0.17109331488609313965 0.13369780778884887695 0.17157755792140960693 0.91510808467864990234 0.73911970853805541992 2.1540384292602539062 
0.012005000375211238861 0.012005000375211238861 0.012005000375211238861 0.012005000375211238861 0.012005000375211238861 0.012005000375211238861 0.012005000375211238861 0.012005000375211238861 0.012005000375211238861 0.012005000375211238861 0.012005000375211238861 0.012005000375211238861 0.012005000375211238861 0.012005000375211238861 0.012005000375211238861 0.012005000375211238861 0.012005000375211238861 0.012005000375211238861 0.11821006238460540771 0.12271893769502639771 0.13533380627632141113 0.16254724562168121338 0.45299261808395385742 0.089687064290046691895 0.079870879650115966797 0.024499000981450080872 0.36390513181686401367 0.12323162704706192017 0.72872704267501831055 0.73353374004364013672 0.02465543895959854126 0.012005000375211238861 0.012005000375211238861 0.012005000375211238861 0.012005000375211238861 0.012005000375211238861 0.023102438077330589294 0.024612750858068466187 0.062899999320507049561 0.39217686653137207031 0.11001906543970108032 0.11043199896812438965 0.19611099362373352051 0.049404252320528030396 0.12345018982887268066 0.18045225739479064941 0.4259433746337890625 1.6406954526901245117 2.6731209754943847656 0.95234292745590209961 0.21189293265342712402 0.024689562618732452393 0.012005000375211238861 0.012005000375211238861 0.062867999076843261719 0.31525155901908874512 3.6972930431365966797 4.0030384063720703125 1.2468706369400024414 0.4232216179370880127 1.6402968168258666992 1.2778720855712890625 3.8978128433227539062 2.0508563518524169922 3.2936320304870605469 0.77279567718505859375 1.9781991243362426758 1.0892060995101928711 0.56905817985534667969 0.18140561878681182861 0.18368011713027954102 0.11043681204319000244 0.14965049922466278076 2.5441248416900634766 3.3584685325622558594 0.98534464836120605469 1.1207966804504394531 0.14653880894184112549 2.7880511283874511719 2.7681956291198730469 0.21469268202781677246 0.08665962517261505127 0.024205313995480537415 0.036405626684427261353 0.14888775348663330078 2.2656285762786865234 3.6644947528839111328 
0.012005000375211238861 0.012005000375211238861 0.012005000375211238861 0.012005000375211238861 0.012005000375211238861 0.012005000375211238861 0.012005000375211238861 0.012005000375211238861 0.012005000375211238861 0.012005000375211238861 0.012005000375211238861 0.012005000375211238861 0.012005000375211238861 0.012005000375211238861 0.012005000375211238861 0.012005000375211238861 0.012005000375211238861 0.046850312501192092896 0.18113481998443603516 0.16119137406349182129 0.20629912614822387695 0.20109437406063079834 0.14901800453662872314 0.12554188072681427002 0.10928118973970413208 0.072605565190315246582 0.21832349896430969238 1.0179462432861328125 0.94070225954055786133 0.075257189571857452393 0.012005000375211238861 0.012005000375211238861 0.012005000375211238861 0.012005000375211238861 0.012005000375211238861 0.023102438077330589294 0.11188194155693054199 2.0941073894500732422 0.98178046941757202148 1.9497928619384765625 0.13483299314975738525 0.012005000375211238861 0.099682621657848358154 0.074353560805320739746 2.1990222930908203125 0.012005000375211238861 0.012005000375211238861 0.11401999741792678833 0.46289038658142089844 0.15003205835819244385 0.20681518316268920898 0.012005000375211238861 0.012005000375211238861 0.012005000375211238861 0.099772065877914428711 1.5728735923767089844 4.22100067138671875 1.6872179508209228516 4.0561046600341796875 1.30898284912109375 1.4709566831588745117 1.3753632307052612305 3.12755584716796875 3.7143914699554443359 3.2627470493316650391 1.8767895698547363281 0.4819990694522857666 0.36219811439514160156 2.231533050537109375 0.090920113027095794678 0.14939968287944793701 0.14987418055534362793 0.17486524581909179688 0.80557233095169067383 0.63082373142242431641 0.17429612576961517334 1.1999232769012451172 1.9568548202514648438 3.1082811355590820312 0.68105036020278930664 0.21401549875736236572 0.16387937963008880615 0.072820067405700683594 0.086139127612113952637 1.0529035329818725586 1.6091501712799072266 0.60281801223754882812 
0.012005000375211238861 0.012005000375211238861 0.012005000375211238861 0.012005000375211238861 0.012005000375211238861 0.012005000375211238861 0.012005000375211238861 0.012005000375211238861 0.012005000375211238861 0.012005000375211238861 0.012005000375211238861 0.012005000375211238861 0.012005000375211238861 0.012005000375211238861 0.012005000375211238861 0.012005000375211238861 0.023102438077330589294 0.11814819276332855225 0.19591730833053588867 0.19948911666870117188 0.20637300610542297363 0.20824606716632843018 0.16554138064384460449 0.097642622888088226318 0.12398044019937515259 0.11216406524181365967 0.633769989013671875 0.61216449737548828125 1.7862157821655273438 2.5879254341125488281 0.012005000375211238861 0.012005000375211238861 0.012005000375211238861 0.012005000375211238861 0.012005000375211238861 0.034199874848127365112 0.14205612242221832275 0.33285042643547058105 0.18138900399208068848 0.89226633310317993164 1.5562336444854736328 0.024429313838481903076 0.036796502768993377686 0.086150437593460083008 0.67043358087539672852 0.012005000375211238861 0.012005000375211238861 0.012005000375211238861 0.09818693995475769043 0.1237460598349571228 0.098128378391265869141 0.09917268902063369751 0.06194706261157989502 0.023102438077330589294 0.073308624327182769775 2.0330381393432617188 3.2869198322296142578 2.3429002761840820312 1.7971472740173339844 0.80606848001480102539 3.1025586128234863281 3.1769685745239257812 4.0440201759338378906 2.1086139678955078125 1.2032319307327270508 0.46395614743232727051 3.3987114429473876953 1.1023603677749633789 0.52934449911117553711 0.061759497970342636108 0.012005000375211238861 0.043183915317058563232 0.16918165981769561768 0.12353543937206268311 0.17236812412738800049 0.1585343778133392334 0.17007181048393249512 0.98946964740753173828 3.9318614006042480469 0.63857883214950561523 0.16076125204563140869 0.12277631461620330811 0.098237067461013793945 0.56326186656951904297 2.9558076858520507812 0.81505978107452392578 0.45874676108360290527 
0.012005000375211238861 0.012005000375211238861 0.012005000375211238861 0.012005000375211238861 0.012005000375211238861 0.012005000375211238861 0.012005000375211238861 0.012005000375211238861 0.012005000375211238861 0.012005000375211238861 0.012005000375211238861 0.012005000375211238861 0.012005000375211238861 0.012005000375211238861 0.012005000375211238861 0.012005000375211238861 0.05639475211501121521 0.18009462952613830566 0.17465962469577789307 0.17404624819755554199 0.17617893218994140625 0.10030056536197662354 0.14719536900520324707 0.098652809858322143555 0.05912537500262260437 0.13733093440532684326 0.42450550198554992676 0.10843593627214431763 2.3808906078338623047 1.3176896572113037109 0.012005000375211238861 0.012005000375211238861 0.012005000375211238861 0.012005000375211238861 0.80280512571334838867 0.12665250897407531738 0.20264568924903869629 0.20475806295871734619 0.17525494098663330078 0.047709502279758453369 0.70156395435333251953 0.012005000375211238861 0.012005000375211238861 0.06232931092381477356 0.060618501156568527222 0.012005000375211238861 0.086143374443054199219 0.012005000375211238861 0.20984050631523132324 0.21201050281524658203 0.18338249623775482178 0.11026081442832946777 0.37946113944053649902 0.10695831477642059326 0.072628378868103027344 1.230733036994934082 1.7321339845657348633 2.4431133270263671875 2.3193085193634033203 0.6184393763542175293 2.7775902748107910156 1.988869786262512207 2.2053322792053222656 0.20658600330352783203 0.20580659806728363037 0.21034888923168182373 3.7941334247589111328 3.6708292961120605469 3.9945254325866699219 1.4999779462814331055 0.76742756366729736328 0.044831831008195877075 0.070923462510108947754 0.1101838722825050354 0.13599488139152526855 0.085021123290061950684 0.059667687863111495972 1.5607235431671142578 3.8513519763946533203 1.7698889970779418945 0.072580248117446899414 0.072633564472198486328 0.072509750723838806152 0.18379750847816467285 0.46745580434799194336 0.095684684813022613525 0.1495857536792755127 
0.012005000375211238861 0.012005000375211238861 0.012005000375211238861 0.012005000375211238861 0.012005000375211238861 0.012005000375211238861 0.012005000375211238861 0.012005000375211238861 0.012005000375211238861 0.012005000375211238861 0.012005000375211238861 0.012005000375211238861 0.012005000375211238861 0.012005000375211238861 0.012005000375211238861 0.012005000375211238861 0.091614067554473876953 0.19493792951107025146 0.18858487904071807861 0.187168121337890625 0.15013149380683898926 0.17586219310760498047 0.19707562029361724854 0.11136981099843978882 0.085841059684753417969 0.19193893671035766602 2.6901230812072753906 1.3824306726455688477 2.4837918281555175781 0.55121976137161254883 0.012005000375211238861 0.012005000375211238861 0.012005000375211238861 0.20815037190914154053 0.90138334035873413086 0.1995439380407333374 0.20439362525939941406 0.20729355514049530029 0.21122244000434875488 0.04745100066065788269 0.14852499961853027344 0.012005000375211238861 0.012005000375211238861 0.012005000375211238861 0.012005000375211238861 0.012005000375211238861 0.024136876687407493591 0.036762375384569168091 0.20718050003051757812 0.19559206068515777588 0.14898388087749481201 0.90394538640975952148 0.68863224983215332031 0.11047012358903884888 0.061456248164176940918 0.034199874848127365112 1.6381816864013671875 0.15196089446544647217 1.2869150638580322266 2.2159597873687744141 1.4151853322982788086 0.45536574721336364746 0.20803248882293701172 0.20961786806583404541 1.1679890155792236328 3.1108770370483398438 3.9458363056182861328 3.3581871986389160156 1.4141521453857421875 0.18297806382179260254 0.11994668841361999512 0.10737700015306472778 0.13372957706451416016 0.11032105982303619385 0.060411624610424041748 0.13622862100601196289 0.43090069293975830078 0.85194414854049682617 1.8115307092666625977 1.8082717657089233398 0.058048188686370849609 0.070887185633182525635 0.11981093883514404297 0.20887587964534759521 0.16794000566005706787 0.14565412700176239014 0.15664625167846679688 
0.012005000375211238861 0.012005000375211238861 0.012005000375211238861 0.012005000375211238861 0.012005000375211238861 0.012005000375211238861 0.012005000375211238861 0.012005000375211238861 0.012005000375211238861 0.012005000375211238861 0.012005000375211238861 0.012005000375211238861 0.012005000375211238861 0.012005000375211238861 0.012005000375211238861 0.11469119042158126831 0.20536606013774871826 0.21220311522483825684 0.20858700573444366455 0.21107880771160125732 0.2114356309175491333 0.21070431172847747803 0.15050680935382843018 0.17069631814956665039 0.18433700501918792725 0.21182224154472351074 0.67740136384963989258 3.6566982269287109375 1.6735322475433349609 0.18023537099361419678 0.012005000375211238861 1.2164140939712524414 0.12369044125080108643 0.012005000375211238861 0.16247950494289398193 0.21115349233150482178 0.20457050204277038574 0.20823900401592254639 0.80792123079299926758 0.17298619449138641357 0.174379691481590271 0.012005000375211238861 0.012005000375211238861 0.036889877170324325562 0.012005000375211238861 0.012005000375211238861 0.037618439644575119019 0.099126689136028289795 0.20835356414318084717 0.14865311980247497559 0.087070502340793609619 0.19861944019794464111 1.6515538692474365234 0.14819969236850738525 0.061349626630544662476 2.117656707763671875 1.6242622137069702148 2.2925431728363037109 0.86271810531616210938 4.3523883819580078125 1.7384914159774780273 0.2087716907262802124 0.19367019832134246826 0.20963600277900695801 3.5802931785583496094 0.52173215150833129883 1.4585798978805541992 0.56987452507019042969 2.0222268104553222656 0.20866893231868743896 0.20822605490684509277 0.18714487552642822266 0.076867833733558654785 0.11830318719148635864 0.11266587674617767334 0.16919620335102081299 0.14929859340190887451 0.42586413025856018066 0.54201567173004150391 0.085726439952850341797 0.046486627310514450073 0.012005000375211238861 0.098944440484046936035 0.15852074325084686279 0.10985906422138214111 0.14710724353790283203 0.16318275034427642822 
0.012005000375211238861 0.012005000375211238861 0.012005000375211238861 0.012005000375211238861 0.012005000375211238861 0.012005000375211238861 0.012005000375211238861 0.012005000375211238861 0.012005000375211238861 0.012005000375211238861 0.012005000375211238861 0.012005000375211238861 0.012005000375211238861 0.012005000375211238861 0.034199874848127365112 0.08014262467622756958 0.18499644100666046143 0.20915268361568450928 0.21056187152862548828 0.2083308100700378418 0.20980431139469146729 0.21336424350738525391 0.13782218098640441895 1.3550552129745483398 0.46574482321739196777 0.085513189435005187988 0.37901327013969421387 1.3896666765213012695 2.2499763965606689453 2.5264444351196289062 0.012005000375211238861 2.7851855754852294922 2.0720527172088623047 0.10759700089693069458 1.031334996223449707 0.21168625354766845703 0.45310285687446594238 1.0406856536865234375 1.716754913330078125 0.21292455494403839111 0.19733674824237823486 1.7065546512603759766 1.9194853305816650391 0.20454175770282745361 0.20658287405967712402 0.42686450481414794922 0.13105838000774383545 0.19479843974113464355 0.20181630551815032959 0.20664656162261962891 0.44338881969451904297 0.44693282246589660645 0.13604906201362609863 0.098549000918865203857 0.084595315158367156982 0.60950529575347900391 0.17265368998050689697 2.571529388427734375 0.21174183487892150879 4.1534075736999511719 1.9441989660263061523 1.2388411760330200195 0.64814704656600952148 0.84397929906845092773 3.1438665390014648438 2.9288983345031738281 0.19774074852466583252 0.19803887605667114258 0.18777689337730407715 0.18591865897178649902 0.18377105891704559326 0.012005000375211238861 0.012005000375211238861 0.14457868039608001709 0.18436633050441741943 0.20107512176036834717 0.71871227025985717773 1.4485038518905639648 0.57129406929016113281 0.18654887378215789795 0.20907594263553619385 0.17178824543952941895 0.1439962536096572876 0.19995842874050140381 0.13493500649929046631 0.16783200204372406006 0.012005000375211238861 
0.012005000375211238861 0.012005000375211238861 0.012005000375211238861 0.012005000375211238861 0.012005000375211238861 0.012005000375211238861 0.012005000375211238861 0.012005000375211238861 0.012005000375211238861 0.012005000375211238861 0.012005000375211238861 0.012005000375211238861 0.012005000375211238861 0.060646813362836837769 0.20543181896209716797 0.12286562472581863403 0.12965387105941772461 0.21108111739158630371 0.20793493092060089111 0.20915831625461578369 0.20988480746746063232 0.18661999702453613281 1.0133751630783081055 0.45261308550834655762 2.4140245914459228516 1.2059050798416137695 0.49769201874732971191 1.786719202995300293 1.1180449724197387695 1.9823441505432128906 0.67924457788467407227 2.7660226821899414062 0.10929387807846069336 0.24278105795383453369 0.39151450991630554199 0.31341668963432312012 2.5671718120574951172 0.43597939610481262207 0.085287064313888549805 0.11074731498956680298 0.13263587653636932373 0.34501925110816955566 0.23813131451606750488 0.20635350048542022705 0.21308775246143341064 0.17635717988014221191 0.073829002678394317627 0.096867442131042480469 0.20705893635749816895 0.2118561863899230957 0.19977718591690063477 0.18664018809795379639 0.42829018831253051758 0.13498300313949584961 0.19812799990177154541 0.20989155769348144531 0.20756706595420837402 0.51325327157974243164 1.6097457408905029297 4.2424001693725585938 3.2366747856140136719 2.6033041477203369141 1.7468278408050537109 0.60066133737564086914 0.64460802078247070312 2.0961630344390869141 0.21218858659267425537 0.19412982463836669922 0.12559157609939575195 0.17546541988849639893 0.1924823373556137085 0.16015283763408660889 0.14948722720146179199 0.14203058183193206787 0.2036622464656829834 0.32117688655853271484 2.25450897216796875 0.45580661296844482422 0.20624150335788726807 0.21298649907112121582 0.21292600035667419434 0.18759524822235107422 0.094564937055110931396 0.212355002760887146 0.14711780846118927002 0.11104399710893630981 0.012005000375211238861 
0.012005000375211238861 0.012005000375211238861 0.012005000375211238861 0.012005000375211238861 0.012005000375211238861 0.046400189399719238281 0.099246688187122344971 0.94174033403396606445 0.26858362555503845215 0.012005000375211238861 0.012005000375211238861 0.012005000375211238861 0.023102438077330589294 0.20674699544906616211 0.21183337271213531494 0.21033874154090881348 0.20880086719989776611 0.2093537449836730957 0.21007737517356872559 0.20984481275081634521 0.20781062543392181396 0.12488081306219100952 0.14985843002796173096 1.1727709770202636719 0.77057605981826782227 0.060402374714612960815 1.1918859481811523438 1.0081644058227539062 1.499731898307800293 4.1241345405578613281 1.9629598855972290039 3.1305015087127685547 2.6299571990966796875 2.08907318115234375 3.4188132286071777344 2.6206576824188232422 2.6535575389862060547 1.7591891288757324219 0.74185758829116821289 0.96357131004333496094 0.69031429290771484375 0.19729743897914886475 0.20468574762344360352 0.2053070068359375 0.18528324365615844727 0.098731689155101776123 0.049178186804056167603 0.13353018462657928467 0.20960968732833862305 0.21204838156700134277 0.21158044040203094482 1.1548359394073486328 2.3203458786010742188 0.11159987747669219971 0.21032187342643737793 0.21214799582958221436 0.55272531509399414062 0.20945325493812561035 2.5698521137237548828 4.5072255134582519531 2.5996000766754150391 1.0054134130477905273 0.14340493083000183105 1.818675994873046875 0.18651175498962402344 0.13493345677852630615 0.058952666819095611572 0.11011832952499389648 0.042431417852640151978 0.10901933163404464722 0.0878640785813331604 0.10973349958658218384 0.095437251031398773193 0.13597531616687774658 0.19616350531578063965 0.19837449491024017334 0.17646014690399169922 0.16825753450393676758 0.20770956575870513916 0.21434111893177032471 0.21180574595928192139 0.086640998721122741699 0.095551311969757080078 0.21119856834411621094 0.21080394089221954346 0.18046468496322631836 0.012005000375211238861 
0.012005000375211238861 0.012005000375211238861 0.012005000375211238861 0.023102438077330589294 0.11712574958801269531 0.18448406457901000977 0.18993163108825683594 2.8440091609954833984 2.0716726779937744141 0.048739250749349594116 0.012005000375211238861 0.012005000375211238861 0.11188194155693054199 0.20409688353538513184 0.20519125461578369141 0.20943967998027801514 0.21037362515926361084 0.2075300067663192749 0.1851552426815032959 0.18523530662059783936 0.096101686358451843262 0.17328475415706634521 0.096881441771984100342 1.2416169643402099609 0.14629887044429779053 0.085803061723709106445 1.4902096986770629883 2.1750552654266357422 4.0818524360656738281 4.5371947288513183594 4.1709342002868652344 0.62440770864486694336 1.1952418088912963867 0.15884393453598022461 0.133785247802734375 0.7201645970344543457 2.3282563686370849609 2.1931540966033935547 0.74288183450698852539 1.347637176513671875 0.30912044644355773926 0.17542780935764312744 0.21116362512111663818 0.2102960050106048584 0.16154606640338897705 0.036696374416351318359 0.1137681230902671814 0.21193993091583251953 0.20924282073974609375 0.21238812804222106934 0.21130137145519256592 0.8184064030647277832 0.74720245599746704102 0.19891837239265441895 0.21072205901145935059 1.4946016073226928711 2.7293584346771240234 3.3849961757659912109 3.5427489280700683594 4.6416959762573242188 1.6246665716171264648 0.17110143601894378662 0.20964519679546356201 0.068398140370845794678 1.5334093570709228516 0.21315124630928039551 0.17176049947738647461 0.20887169241905212402 0.19487464427947998047 0.18936809897422790527 0.18035793304443359375 0.15762308239936828613 0.65978527069091796875 2.6034283638000488281 0.13602337241172790527 0.20324143767356872559 0.034199874848127365112 0.1716950833797454834 0.20899343490600585938 0.21420787274837493896 0.21222019195556640625 0.10891725122928619385 0.19447194039821624756 0.21177299320697784424 0.19811005890369415283 0.19719237089157104492 0.012005000375211238861 
0.012005000375211238861 0.046906877309083938599 0.11015906184911727905 0.17124219238758087158 0.18571937084197998047 0.10022325068712234497 0.65296536684036254883 0.57681596279144287109 0.12596650421619415283 0.2093610614538192749 0.034199874848127365112 0.012005000375211238861 0.15627169609069824219 0.20950250327587127686 0.20625588297843933105 0.20640824735164642334 0.20730394124984741211 0.14733700454235076904 0.095289997756481170654 0.11128818988800048828 0.060681190341711044312 0.17178793251514434814 0.070757560431957244873 0.06110868602991104126 0.071892313659191131592 0.061472438275814056396 1.5120167732238769531 2.9318137168884277344 5.3881440162658691406 4.5803971290588378906 2.4899394512176513672 1.1412729024887084961 0.47091412544250488281 0.16169218719005584717 0.17462481558322906494 1.1921362876892089844 0.53833824396133422852 1.731442570686340332 0.060470875352621078491 0.099677123129367828369 0.036563374102115631104 0.20216575264930725098 0.21007680892944335938 0.20659950375556945801 0.21313956379890441895 0.037220437079668045044 0.67470538616180419922 1.0065008401870727539 0.21185338497161865234 0.20911456644535064697 0.21166144311428070068 0.21205869317054748535 0.20978325605392456055 0.21172693371772766113 0.21232087910175323486 0.21007594466209411621 1.5300108194351196289 0.35022515058517456055 2.2625422477722167969 4.0136046409606933594 0.20587724447250366211 0.20910930633544921875 0.19995136559009552002 0.46468076109886169434 0.078678496181964874268 0.11292958259582519531 0.11077441275119781494 0.13104693591594696045 0.13368684053421020508 0.1268530040979385376 0.13125246763229370117 0.15009009838104248047 0.58786165714263916016 0.41062831878662109375 0.16925287246704101562 0.20148031413555145264 0.012005000375211238861 0.13765700161457061768 0.21294574439525604248 0.17569224536418914795 0.21486155688762664795 0.070643752813339233398 0.19711680710315704346 0.12508413195610046387 0.12377862632274627686 0.20400905609130859375 0.05639475211501121521 
0.18441693484783172607 0.19766737520694732666 1.8265708684921264648 2.1876409053802490234 0.1228372529149055481 0.20872618257999420166 0.146921500563621521 1.3979016542434692383 0.92206972837448120117 1.7945619821548461914 0.034199874848127365112 0.012005000375211238861 0.18689431250095367432 0.211912497878074646 0.20579332113265991211 0.19904249906539916992 0.15108005702495574951 0.14875499904155731201 0.12242306023836135864 0.17303662002086639404 0.049013376235961914062 0.11112162470817565918 0.035481125116348266602 0.12137037515640258789 0.097970999777317047119 0.15269844233989715576 1.1335386037826538086 2.0076317787170410156 2.9980859756469726562 0.47307613492012023926 1.2009255886077880859 0.85568541288375854492 2.0841097831726074219 0.20065861940383911133 0.21416461467742919922 1.4994446039199829102 1.3261368274688720703 2.3052034378051757812 0.062149375677108764648 0.085505001246929168701 0.3300527036190032959 0.44223123788833618164 0.21197631955146789551 0.209537506103515625 0.21178649365901947021 0.16224962472915649414 0.7852808833122253418 0.1672576218843460083 0.21023668348789215088 0.20816594362258911133 0.20434938371181488037 0.20650756359100341797 0.20831681787967681885 0.21318668127059936523 2.72199249267578125 0.71941477060317993164 2.2024259567260742188 2.2373290061950683594 2.9960813522338867188 3.83446502685546875 0.20892167091369628906 0.210817679762840271 0.12151589244604110718 0.15097910165786743164 0.12520132958889007568 0.1928008347749710083 0.14255757629871368408 0.11883977800607681274 0.17985533177852630615 0.11085166782140731812 0.20990866422653198242 0.15263222157955169678 0.19562807679176330566 0.13088825345039367676 0.15441900491714477539 0.19531650841236114502 0.012005000375211238861 0.19336932897567749023 0.18861187994480133057 0.19679443538188934326 0.21328149735927581787 0.11754518747329711914 0.024429313838481903076 0.012005000375211238861 0.060903064906597137451 0.20241361856460571289 0.1062267497181892395 
0.21304656565189361572 0.19323225319385528564 0.14699649810791015625 0.78642600774765014648 0.11113825440406799316 0.1844072490930557251 0.18058724701404571533 1.0225324630737304688 1.1338113546371459961 2.7063128948211669922 0.012005000375211238861 0.023102438077330589294 0.18766050040721893311 0.13659837841987609863 0.14678956568241119385 0.149087563157081604 0.15755294263362884521 0.18956400454044342041 0.08612743765115737915 0.1742095649242401123 0.060433249920606613159 1.4999166727066040039 0.14812606573104858398 0.097866684198379516602 0.098819628357887268066 0.94781005382537841797 0.48722508549690246582 1.0196462869644165039 1.9262611865997314453 1.0222983360290527344 1.3280922174453735352 0.53163683414459228516 2.4657158851623535156 0.21252937614917755127 0.19972093403339385986 0.037066750228404998779 0.012005000375211238861 0.012005000375211238861 0.047879938036203384399 0.14729462563991546631 0.012005000375211238861 1.0091290473937988281 0.20946700870990753174 0.20946837961673736572 0.19894774258136749268 0.21336431801319122314 0.02400431409478187561 1.7716100215911865234 1.344451904296875 0.20616981387138366699 0.20395262539386749268 0.20507450401782989502 0.20835137367248535156 2.6961886882781982422 1.0843243598937988281 0.21055850386619567871 1.1605131626129150391 3.7928926944732666016 3.8572089672088623047 4.4448633193969726562 1.236972808837890625 0.21017530560493469238 0.17405493557453155518 0.14498344063758850098 0.17027732729911804199 0.19425100088119506836 0.14143209159374237061 0.19586506485939025879 0.21256056427955627441 0.13440687954425811768 0.11348149925470352173 0.13407830893993377686 0.19735881686210632324 0.20906387269496917725 0.1429808884859085083 0.20211938023567199707 0.20747825503349304199 0.21173168718814849854 0.19935600459575653076 0.19668774306774139404 0.20897425711154937744 0.096528314054012298584 0.012005000375211238861 0.012005000375211238861 0.074477441608905792236 0.15124513208866119385 0.20343574881553649902 
0.18824131786823272705 0.18209806084632873535 0.12503486871719360352 0.13546630740165710449 0.17228074371814727783 0.19759200513362884521 0.67149263620376586914 1.8898422718048095703 2.1873173713684082031 1.4517186880111694336 0.012005000375211238861 0.13407681882381439209 0.10643343627452850342 0.1570653766393661499 0.13199205696582794189 0.19402869045734405518 0.19340775907039642334 0.18956400454044342041 0.19776256382465362549 0.1336924433708190918 0.20732305943965911865 0.21158161759376525879 1.2368941307067871094 0.12319868803024291992 0.14904725551605224609 0.13571281731128692627 1.7770044803619384766 2.5572805404663085938 0.8613541722297668457 0.56692010164260864258 1.2265449762344360352 0.99940180778503417969 2.0437641143798828125 2.5295391082763671875 0.12406268715858459473 0.15897731482982635498 0.012005000375211238861 0.012005000375211238861 0.13729637861251831055 0.87464857101440429688 1.0264853239059448242 1.0727891921997070312 0.21351243555545806885 0.21482563018798828125 0.21211074292659759521 0.074150562286376953125 0.07594168931245803833 1.8916363716125488281 0.21151880919933319092 0.20253013074398040771 0.19849225878715515137 0.20732669532299041748 0.20747269690036773682 0.81951558589935302734 0.33346056938171386719 0.20782187581062316895 0.53216505050659179688 4.9734334945678710938 3.0473859310150146484 3.2956836223602294922 0.70377951860427856445 0.10016124695539474487 0.071681998670101165771 0.097474753856658935547 0.1603177487850189209 0.12896174192428588867 0.11219858378171920776 0.16100046038627624512 0.20460368692874908447 0.17435462772846221924 0.012005000375211238861 0.012005000375211238861 0.13440556824207305908 0.20602962374687194824 0.16628266870975494385 0.20882657170295715332 0.20771600306034088135 0.20769318938255310059 0.20817744731903076172 0.20858743786811828613 0.20795169472694396973 0.060806252062320709229 0.012005000375211238861 0.012005000375211238861 0.012005000375211238861 0.081858873367309570312 0.19779574871063232422 
0.19417843222618103027 0.12311081588268280029 0.43601146340370178223 0.12947487831115722656 0.15983894467353820801 0.17366175353527069092 0.80389887094497680664 2.8043780326843261719 2.4253876209259033203 0.012005000375211238861 0.13656063377857208252 0.18097418546676635742 1.3972954750061035156 0.18355780839920043945 0.14789950847625732422 0.19084525108337402344 0.19162194430828094482 0.19166412949562072754 0.16149531304836273193 0.16895799338817596436 0.21002699434757232666 0.21070656180381774902 0.049799874424934387207 0.12118956446647644043 0.19611050188541412354 0.17606775462627410889 2.3627269268035888672 3.0960366725921630859 2.9177966117858886719 0.30891150236129760742 0.50829064846038818359 0.66611790657043457031 1.767617344856262207 3.3601174354553222656 0.19881993532180786133 0.11132562160491943359 0.036500375717878341675 0.1359615623950958252 0.21101281046867370605 0.70783066749572753906 0.047642875462770462036 0.15105538070201873779 0.21191418170928955078 0.21119400858879089355 0.21171075105667114258 0.12485487759113311768 0.024867562577128410339 0.29577481746673583984 0.20325744152069091797 0.19438037276268005371 0.19943262636661529541 0.20086449384689331055 0.20611150562763214111 0.21162599325180053711 0.20679825544357299805 0.78891360759735107422 0.21022999286651611328 4.550048828125 2.3620564937591552734 4.8391265869140625 3.2588849067687988281 0.21228775382041931152 0.15833967924118041992 0.11061975359916687012 0.15181770920753479004 0.14984489977359771729 0.149530068039894104 0.1983941197395324707 0.21090818941593170166 0.21362380683422088623 0.050000499933958053589 0.061962500214576721191 0.21076686680316925049 0.20999568700790405273 0.20730775594711303711 1.9132589101791381836 0.147043570876121521 0.20671349763870239258 0.16132475435733795166 0.20946675539016723633 0.20761574804782867432 0.19587881863117218018 0.15770387649536132812 0.15997649729251861572 0.17109225690364837646 0.17305906116962432861 0.10682574659585952759 
0.21300418674945831299 1.4088377952575683594 1.8563731908798217773 0.56502300500869750977 0.29655382037162780762 0.34102904796600341797 1.5169658660888671875 3.5504636764526367188 0.66115069389343261719 0.046807624399662017822 0.15304812788963317871 0.13456718623638153076 1.3145589828491210938 0.071448877453804016113 0.15868081152439117432 0.19162194430828094482 0.2953707575798034668 0.19696493446826934814 0.24072319269180297852 0.6072228550910949707 0.20407237112522125244 0.21019050478935241699 0.18544243276119232178 0.073352314531803131104 0.11958881467580795288 0.21420356631278991699 1.3946356773376464844 2.1085147857666015625 2.89008331298828125 0.84290844202041625977 0.10613268613815307617 0.51480793952941894531 0.18748162686824798584 1.009381413459777832 0.46356680989265441895 0.21264818310737609863 0.21139293909072875977 0.44693380594253540039 0.73084908723831176758 0.86773663759231567383 0.63420617580413818359 0.45816680788993835449 0.21243074536323547363 0.21614287793636322021 0.48043867945671081543 0.97998702526092529297 0.097661063075065612793 0.060779627412557601929 0.19729880988597869873 0.16030937433242797852 0.20434619486331939697 0.19398956000804901123 0.20830449461936950684 0.20986124873161315918 0.20999993383884429932 0.21033293008804321289 1.9399638175964355469 3.5182290077209472656 3.4078288078308105469 3.5754272937774658203 0.75501799583435058594 0.21371224522590637207 0.21302899718284606934 0.20017631351947784424 0.21136556565761566162 0.21222046017646789551 0.19194959104061126709 0.21371605992317199707 0.21427905559539794922 0.21450719237327575684 0.075452126562595367432 0.11291312426328659058 0.20936612784862518311 0.20875456929206848145 0.21146953105926513672 1.1242711544036865234 1.0075700283050537109 0.14781031012535095215 0.17187666893005371094 0.20318119227886199951 0.20254243910312652588 0.21379663050174713135 0.21101887524127960205 0.20846362411975860596 0.21169038116931915283 0.13659943640232086182 0.21487399935722351074 
0.16067586839199066162 0.34752181172370910645 0.90445482730865478516 0.61901396512985229492 1.9752603769302368164 1.0101065635681152344 0.92573595046997070312 0.012005000375211238861 1.9568480253219604492 0.13589937984943389893 0.12097287178039550781 1.6022943258285522461 0.19298730790615081787 0.10994268953800201416 0.19383737444877624512 0.18956400454044342041 0.31840124726295471191 0.56481748819351196289 0.13761906325817108154 0.16736912727355957031 0.20714056491851806641 0.19905386865139007568 0.21354575455188751221 0.12468668818473815918 1.2599341869354248047 1.1170402765274047852 2.8056249618530273438 1.9369633197784423828 1.6968125104904174805 1.1952395439147949219 0.15509806573390960693 2.6385390758514404297 2.0256030559539794922 0.60137033462524414062 0.14712455868721008301 2.8126928806304931641 0.67988610267639160156 2.8745715618133544922 2.8426723480224609375 1.4720988273620605469 1.9439225196838378906 0.21263211965560913086 0.20025543868541717529 0.185106620192527771 0.96981674432754516602 2.6221015453338623047 1.0042755603790283203 0.18642574548721313477 0.32776719331741333008 0.56816267967224121094 0.19637112319469451904 0.1973889470100402832 0.20334644615650177002 0.20921568572521209717 0.20892550051212310791 0.21173800528049468994 1.6180312633514404297 3.8628213405609130859 3.3993966579437255859 2.0719666481018066406 0.50942748785018920898 0.21366444230079650879 0.20960606634616851807 0.16382545232772827148 0.096347168087959289551 0.086588151752948760986 0.13928021490573883057 0.19276385009288787842 0.21389931440353393555 0.21566998958587646484 0.062743246555328369141 0.072277560830116271973 0.2019859999418258667 0.20900993049144744873 0.21031811833381652832 0.12821869552135467529 0.2121915966272354126 0.21208105981349945068 0.19432356953620910645 0.18956400454044342041 0.18956400454044342041 0.20643706619739532471 0.18689849972724914551 0.21272313594818115234 0.21182180941104888916 0.094327561557292938232 0.2046959996223449707 
0.17017699778079986572 0.17448337376117706299 0.63983404636383056641 2.6496675014495849609 3.0779712200164794922 1.8307235240936279297 2.3554451465606689453 2.6352858543395996094 2.6425943374633789062 0.2075831294059753418 0.20858156681060791016 0.54013723134994506836 0.10967644304037094116 0.18412899971008300781 0.18142099678516387939 0.18956400454044342041 0.37569794058799743652 0.10783181339502334595 0.14609062671661376953 0.16814255714416503906 0.2101329416036605835 0.21051031351089477539 0.18792299926280975342 0.9282124638557434082 1.8649095296859741211 0.6440601348876953125 1.855767369270324707 1.21381378173828125 0.96365338563919067383 0.098508372902870178223 0.18269750475883483887 1.5375932455062866211 1.8715977668762207031 0.21343968808650970459 0.60761409997940063477 1.0518376827239990234 0.91364496946334838867 2.9554002285003662109 2.002513885498046875 3.2735159397125244141 4.163867950439453125 0.19927112758159637451 0.4007765352725982666 1.4619449377059936523 0.86736780405044555664 3.2005534172058105469 1.8539302349090576172 0.36359423398971557617 0.20442418754100799561 0.19657981395721435547 0.19646862149238586426 0.4732074439525604248 0.10850463062524795532 0.39420038461685180664 1.4805272817611694336 1.1333547830581665039 2.6419579982757568359 3.2497780323028564453 3.5375580787658691406 3.5564856529235839844 0.50667536258697509766 0.21225012838840484619 0.16907021403312683105 0.1183711513876914978 0.092880778014659881592 0.12374531477689743042 0.15082170069217681885 0.19692276418209075928 0.21300680935382843018 0.21430924534797668457 0.099451377987861633301 0.049990437924861907959 0.18606144189834594727 0.20034381747245788574 0.12380193918943405151 0.19065840542316436768 0.18619036674499511719 0.21281099319458007812 0.52834832668304443359 0.18956400454044342041 0.18956400454044342041 0.2020371854305267334 0.08709068596363067627 0.21131256222724914551 0.20376312732696533203 0.12897469103336334229 0.20347449183464050293 
0.20445694029331207275 0.10885506123304367065 0.081645190715789794922 1.2968449592590332031 3.8798935413360595703 0.77431851625442504883 1.6459891796112060547 2.2080667018890380859 0.15808506309986114502 0.20744162797927856445 0.20945593714714050293 0.20892031490802764893 0.21086974442005157471 0.20901530981063842773 0.20689462125301361084 0.20336832106113433838 0.21080850064754486084 0.13012249767780303955 0.17173668742179870605 0.20395731925964355469 0.20760375261306762695 0.39555191993713378906 2.9918453693389892578 1.9815485477447509766 0.16104793548583984375 0.88872897624969482422 0.37185719609260559082 0.12302549928426742554 0.21034850180149078369 0.087019622325897216797 0.19586418569087982178 0.73517453670501708984 3.3482265472412109375 2.2964196205139160156 0.96287554502487182617 1.9796688556671142578 3.9208130836486816406 3.0578916072845458984 1.756114959716796875 0.78468972444534301758 0.53067493438720703125 1.3490706682205200195 0.57772088050842285156 1.1389981508255004883 1.1858314275741577148 2.2329821586608886719 0.51247268915176391602 1.2163337469100952148 0.20363025367259979248 0.1939633786678314209 0.20142681896686553955 0.15606993436813354492 0.73375797271728515625 0.20969018340110778809 0.4179897606372833252 0.57562285661697387695 0.9196834564208984375 4.3287324905395507812 3.7852017879486083984 2.9895296096801757812 0.21219199895858764648 0.21031816303730010986 0.19915905594825744629 0.18508630990982055664 0.19848637282848358154 0.13663612306118011475 0.14644706249237060547 0.19896206259727478027 0.21163855493068695068 0.21143293380737304688 0.21094593405723571777 0.036703374236822128296 0.048577811568975448608 0.049726624041795730591 0.082160428166389465332 0.18845149874687194824 0.087143875658512115479 0.040246214717626571655 0.38086718320846557617 0.191632881760597229 0.19290319085121154785 0.19061312079429626465 0.19124862551689147949 0.19539438188076019287 0.1479037553071975708 0.092434935271739959717 0.14767749607563018799 
0.20878443121910095215 0.48934218287467956543 0.39422157406806945801 2.5944483280181884766 3.6989619731903076172 0.61568981409072875977 2.5430772304534912109 0.37894237041473388672 0.11054493486881256104 0.20820750296115875244 0.20700781047344207764 0.20928299427032470703 0.20831887423992156982 0.21096900105476379395 0.21142749488353729248 0.20944987237453460693 0.21315263211727142334 0.15717369318008422852 0.20699250698089599609 0.19153131544589996338 0.19707080721855163574 1.4254301786422729492 1.8963091373443603516 0.41097941994667053223 0.1501111835241317749 0.18695475161075592041 0.19980224967002868652 0.19816750288009643555 0.44616714119911193848 0.082661561667919158936 0.10845037549734115601 0.1697769463062286377 0.97454142570495605469 1.2313675880432128906 0.20589587092399597168 0.58167350292205810547 2.2150909900665283203 3.3310420513153076172 1.4669482707977294922 0.53756165504455566406 0.20874875783920288086 0.19848261773586273193 0.34855973720550537109 0.89855360984802246094 0.11013294011354446411 0.81890523433685302734 0.13522194325923919678 0.71777391433715820312 1.1737058162689208984 0.13405250012874603271 0.17275124788284301758 0.15832819044589996338 0.18447355926036834717 0.29114899039268493652 2.7928011417388916016 2.1515538692474365234 2.3060150146484375 3.2767474651336669922 3.1061022281646728516 3.8613114356994628906 2.5898406505584716797 0.20859475433826446533 0.20426268875598907471 0.18952889740467071533 0.17030687630176544189 0.20743399858474731445 0.21197174489498138428 0.21400524675846099854 0.20694138109683990479 0.1995570063591003418 0.19360950589179992676 0.012005000375211238861 0.012005000375211238861 0.33464443683624267578 1.9186055660247802734 0.092700585722923278809 0.061750374734401702881 0.036405626684427261353 0.10973674803972244263 0.14521025121212005615 0.084106937050819396973 0.19630943238735198975 0.20893655717372894287 0.13153336942195892334 0.012005000375211238861 0.1240822523832321167 0.20522250235080718994 
0.14724594354629516602 0.61692351102828979492 1.2875146865844726562 3.2842893600463867188 2.4816968441009521484 2.2818505764007568359 3.2498924732208251953 0.12234281003475189209 0.1697018742561340332 0.20455318689346313477 0.21410575509071350098 0.20904469490051269531 0.21353662014007568359 0.21759387850761413574 0.21054713428020477295 0.21036544442176818848 0.20780549943447113037 0.19639168679714202881 0.19681812822818756104 0.18956400454044342041 0.18956400454044342041 1.1699876785278320312 1.7215447425842285156 0.21104519069194793701 0.21313393115997314453 0.19949612021446228027 0.39475986361503601074 0.37996780872344970703 1.9176758527755737305 0.071443878114223480225 0.16189655661582946777 0.18618631362915039062 0.54274451732635498047 2.6291301250457763672 0.62416130304336547852 0.20960399508476257324 2.147975921630859375 2.933391571044921875 1.2499244213104248047 2.3646235466003417969 2.5410466194152832031 1.4531989097595214844 1.0509483814239501953 1.6721378564834594727 1.9589926004409790039 2.5343170166015625 1.0923632383346557617 0.012005000375211238861 2.0351712703704833984 0.63996183872222900391 1.0262736082077026367 0.18981939554214477539 0.20884175598621368408 0.73909002542495727539 0.21166144311428070068 1.1318160295486450195 2.1052813529968261719 3.8936543464660644531 2.9304320812225341797 3.5532400608062744141 2.6008379459381103516 0.4415861964225769043 0.56180536746978759766 0.58701229095458984375 0.2127313762903213501 0.20877587795257568359 0.21188788115978240967 0.2130578160285949707 0.20838750898838043213 0.19648706912994384766 0.20677863061428070068 0.074219189584255218506 0.11098825186491012573 1.4564185142517089844 0.84031152725219726562 0.21131014823913574219 0.15773531794548034668 0.059398312121629714966 0.13137206435203552246 0.15840543806552886963 0.15778131783008575439 0.20701238512992858887 0.166772499680519104 0.012005000375211238861 0.012005000375211238861 0.1527185589075088501 0.21006500720977783203 
0.1829481273889541626 0.47912475466728210449 3.2211833000183105469 3.2544198036193847656 2.4864923954010009766 2.8577005863189697266 1.2378851175308227539 0.072517246007919311523 0.16706718504428863525 0.20853462815284729004 0.21171987056732177734 0.21497049927711486816 0.21242450177669525146 0.21605724096298217773 0.21184575557708740234 0.20853450894355773926 0.19522006809711456299 0.19275143742561340332 0.19166412949562072754 0.18956400454044342041 0.19672843813896179199 0.21090543270111083984 0.76083862781524658203 0.21211068332195281982 0.21040917932987213135 0.64487975835800170898 2.4304094314575195312 2.9398157596588134766 0.012005000375211238861 0.13502356410026550293 0.21217000484466552734 0.20840130746364593506 0.20483824610710144043 1.1287430524826049805 0.6994609832763671875 1.1277976036071777344 0.50277149677276611328 1.6643769741058349609 1.4220705032348632812 1.515932917594909668 0.21196131408214569092 2.0612168312072753906 1.9309439659118652344 0.56090497970581054688 0.69832670688629150391 2.5890188217163085938 1.1285558938980102539 0.012005000375211238861 3.5095803737640380859 1.1528782844543457031 0.14342166483402252197 0.085794247686862945557 0.21186281740665435791 0.68265783786773681641 1.4541221857070922852 3.2957003116607666016 2.9091234207153320312 2.7902619838714599609 4.7051911354064941406 4.6654534339904785156 2.0954205989837646484 0.08334687352180480957 0.35447362065315246582 0.10650943964719772339 0.096221752464771270752 0.21016106009483337402 0.21160662174224853516 0.2109368741512298584 0.18536537885665893555 0.090876378118991851807 0.20376431941986083984 0.1966721266508102417 0.32866486907005310059 1.2545871734619140625 0.19523024559020996094 0.16155537962913513184 0.087087623775005340576 0.089712083339691162109 0.14698863029479980469 0.15703330934047698975 0.1809971928596496582 0.20449624955654144287 0.17728793621063232422 0.012005000375211238861 0.023102438077330589294 0.19327631592750549316 0.20434150099754333496 
0.14513850212097167969 2.6800761222839355469 3.0354471206665039062 1.1024422645568847656 1.8528771400451660156 2.2854187488555908203 2.0334789752960205078 0.12299931049346923828 0.17316150665283203125 0.21515700221061706543 0.21317024528980255127 0.20967249572277069092 0.21250799298286437988 0.21052125096321105957 0.20837299525737762451 0.19970244169235229492 0.19288724660873413086 0.18956400454044342041 0.18956400454044342041 0.19111612439155578613 0.20487943291664123535 0.21129094064235687256 0.21228931844234466553 0.2092952430248260498 0.84202200174331665039 3.254665374755859375 2.3325936794281005859 3.3887922763824462891 2.1337432861328125 0.14769631624221801758 0.21052980422973632812 0.20865719020366668701 1.0864074230194091797 2.0393991470336914062 1.5003824234008789062 1.0488331317901611328 1.888926386833190918 1.3695112466812133789 2.4010889530181884766 0.21347025036811828613 1.3374156951904296875 0.89470613002777099609 0.21068118512630462646 0.21162387728691101074 0.21097624301910400391 1.6493763923645019531 0.42257821559906005859 2.1341879367828369141 2.5986242294311523438 0.2418308258056640625 0.10173099488019943237 0.17330931127071380615 0.76967787742614746094 1.7045543193817138672 1.0650744438171386719 1.7211185693740844727 3.3064529895782470703 4.34648895263671875 2.5211784839630126953 3.9427430629730224609 2.5622334480285644531 1.1490972042083740234 0.16966624557971954346 0.085310436785221099854 0.11091533303260803223 0.14516550302505493164 0.12616993486881256104 0.14593891799449920654 0.1111008375883102417 0.05981141701340675354 0.12634392082691192627 0.13877862691879272461 0.2123425900936126709 0.74184107780456542969 1.3139696121215820312 0.1229232102632522583 0.045045997947454452515 0.07264222949743270874 0.082927562296390533447 0.10848737508058547974 0.15642456710338592529 0.19245450198650360107 0.12800100445747375488 0.012005000375211238861 0.05639475211501121521 0.19402094185352325439 0.20434150099754333496 
0.85258769989013671875 3.9436023235321044922 2.4539968967437744141 0.20465987920761108398 2.8780348300933837891 1.9682371616363525391 1.6403023004531860352 0.1223465651273727417 0.18361644446849822998 0.21459774672985076904 0.21287462115287780762 0.2089264988899230957 0.21052125096321105957 0.21295812726020812988 0.20554549992084503174 0.19162194430828094482 0.20293293893337249756 0.19277037680149078369 0.19365869462490081787 0.19911393523216247559 0.21349062025547027588 0.21341218054294586182 0.21412843465805053711 1.6279916763305664062 0.94211488962173461914 3.1109302043914794922 0.27969905734062194824 4.3768601417541503906 0.46162307262420654297 0.18542155623435974121 0.211055755615234375 1.5607293844223022461 2.055233001708984375 0.14016881585121154785 1.019618988037109375 0.76038038730621337891 0.48924374580383300781 0.89980280399322509766 0.9166584014892578125 0.195635184645652771 0.7101523280143737793 0.19556306302547454834 0.16894312202930450439 0.18339568376541137695 0.56399393081665039062 1.6571761369705200195 0.83108299970626831055 2.8055732250213623047 0.012005000375211238861 0.012005000375211238861 0.049268189817667007446 0.13704624772071838379 0.21116718649864196777 0.2123082578182220459 0.2109925001859664917 1.718625187873840332 4.2098927497863769531 5.767498016357421875 2.1717560291290283203 0.76653015613555908203 0.98869490623474121094 0.80693483352661132812 0.20767635107040405273 0.10939724743366241455 0.15060278773307800293 0.19125710427761077881 0.19040074944496154785 0.13141135871410369873 0.20254850387573242188 0.20902781188488006592 0.20922192931175231934 0.49148407578468322754 0.67069399356842041016 0.4322382509708404541 0.20817321538925170898 0.12172424793243408203 0.15888631343841552734 0.17369425296783447266 0.12313018739223480225 0.097115814685821533203 0.1349760591983795166 0.18313486874103546143 0.11954500526189804077 0.012005000375211238861 0.012005000375211238861 0.085096627473831176758 0.20618849992752075195 
1.685272216796875 3.7750747203826904297 2.0672254562377929688 0.21199811995029449463 1.0694907903671264648 2.2007403373718261719 3.2093472480773925781 0.18595618009567260742 0.18320700526237487793 0.21167631447315216064 0.21112562716007232666 0.21407049894332885742 0.21187162399291992188 0.21383249759674072266 0.20548582077026367188 0.19968937337398529053 0.20535993576049804688 0.19542062282562255859 0.81616944074630737305 1.88726806640625 0.21265256404876708984 0.21702574193477630615 1.743853449821472168 1.4864379167556762695 0.20710843801498413086 0.17231549322605133057 0.62329131364822387695 1.6971935033798217773 0.64559251070022583008 0.19849756360054016113 0.17431825399398803711 3.5199418067932128906 2.3603475093841552734 0.10062181204557418823 0.10110112279653549194 0.012005000375211238861 0.12622618675231933594 0.16240862011909484863 0.1963253021240234375 0.13627538084983825684 0.18442824482917785645 0.19455619156360626221 0.15538793802261352539 0.84644210338592529297 1.8464921712875366211 0.36455366015434265137 0.36614376306533813477 1.0576796531677246094 0.07463731616735458374 0.16310806572437286377 0.036405626684427261353 0.049292750656604766846 0.19833205640316009521 0.2075287550687789917 0.21152675151824951172 0.57102024555206298828 4.1290907859802246094 4.6754016876220703125 3.7908434867858886719 0.42768424749374389648 0.20445939898490905762 0.15946783125400543213 0.12213443219661712646 0.18458437919616699219 0.15354149043560028076 0.082218125462532043457 0.12493958324193954468 0.18265356123447418213 0.20133374631404876709 0.21171317994594573975 0.20926968753337860107 0.20952868461608886719 0.20800319314002990723 0.15499825775623321533 0.17743831872940063477 0.20412708818912506104 0.15640041232109069824 0.15803931653499603271 0.13553637266159057617 0.17038293182849884033 0.19672393798828125 0.14610624313354492188 0.1683540046215057373 0.13443274796009063721 0.045297313481569290161 0.20594899356365203857 0.20434150099754333496 
2.9440953731536865234 3.6414906978607177734 0.58324885368347167969 0.21336637437343597412 0.54095280170440673828 2.6000435352325439453 3.5619959831237792969 3.0912249088287353516 0.20751118659973144531 0.21169418096542358398 0.21626937389373779297 0.21478450298309326172 0.21194900572299957275 0.20766012370586395264 0.20888701081275939941 0.2093048095703125 0.21390230953693389893 0.19769431650638580322 0.74095779657363891602 1.7948894500732421875 0.2157745659351348877 0.53310507535934448242 1.3096709251403808594 2.18709564208984375 0.2107728123664855957 1.0735983848571777344 1.0671733617782592773 0.35286724567413330078 0.32630968093872070312 0.15947394073009490967 0.14999118447303771973 3.4969074726104736328 1.4074056148529052734 0.16469880938529968262 0.11319380998611450195 0.012005000375211238861 0.037134561687707901001 0.2143977433443069458 0.19810643792152404785 0.93096220493316650391 0.20540343225002288818 0.16434340178966522217 0.16946870088577270508 0.17151862382888793945 0.19849175214767456055 0.22383986413478851318 0.14305408298969268799 0.12245213985443115234 0.18243624269962310791 0.049294061958789825439 0.04860593751072883606 0.14598381519317626953 0.18276493251323699951 0.13774281740188598633 0.21042962372303009033 2.1219077110290527344 1.6506828069686889648 1.9837791919708251953 1.8393243551254272461 0.18286879360675811768 0.98427331447601318359 1.294161677360534668 0.54316169023513793945 0.19965055584907531738 0.38377118110656738281 2.0492141246795654297 0.97841292619705200195 0.21234786510467529297 0.20978474617004394531 0.21225394308567047119 0.21248844265937805176 0.2120068967342376709 0.18395146727561950684 0.14604625105857849121 0.076774835586547851562 0.1082126423716545105 0.053931001573801040649 0.057484615594148635864 0.047215752303600311279 0.098136939108371734619 0.08451893925666809082 1.382343292236328125 0.33846864104270935059 0.6176140904426574707 0.094154000282287597656 0.17164774239063262939 0.21079300343990325928 
3.74530029296875 1.7445532083511352539 0.20999380946159362793 0.21394306421279907227 0.21587075293064117432 0.21111656725406646729 4.2826566696166992188 3.9870343208312988281 2.9434790611267089844 0.20582924783229827881 0.21336287260055541992 0.21356275677680969238 0.21329912543296813965 0.21523436903953552246 0.21360599994659423828 0.21341687440872192383 0.20857575535774230957 0.21022112667560577393 0.21218219399452209473 0.39387500286102294922 0.21390081942081451416 0.20634706318378448486 1.0372632741928100586 1.4073380231857299805 0.43029493093490600586 0.46305298805236816406 0.34016048908233642578 0.18287837505340576172 0.13585956394672393799 0.21149630844593048096 1.6465613842010498047 0.91941601037979125977 0.13581643998622894287 0.16414906084537506104 0.13702468574047088623 0.17205281555652618408 0.012005000375211238861 0.18924161791801452637 0.43412506580352783203 0.3302211761474609375 0.21262399852275848389 0.18597662448883056641 0.12989836931228637695 0.19440166652202606201 0.21113912761211395264 0.20828600227832794189 0.21327024698257446289 0.19870768487453460693 0.061951186507940292358 0.012005000375211238861 0.15004518628120422363 0.18568880856037139893 0.16207163035869598389 0.074573621153831481934 0.13596306741237640381 0.20931662619113922119 0.20992505550384521484 1.9498713016510009766 1.6003491878509521484 2.6953542232513427734 1.8413027524948120117 2.7490386962890625 2.8169915676116943359 0.67327713966369628906 0.99856954813003540039 0.45617604255676269531 3.3160831928253173828 0.38022413849830627441 0.20923474431037902832 0.20961737632751464844 0.20989055931568145752 0.18246249854564666748 0.11883333325386047363 0.20876306295394897461 0.12797075510025024414 0.10895431041717529297 0.012005000375211238861 0.047355249524116516113 0.012005000375211238861 0.13533388078212738037 0.17040936648845672607 0.38056606054306030273 0.66071659326553344727 0.45014330744743347168 0.17153519392013549805 0.012005000375211238861 0.012005000375211238861 
4.1054062843322753906 0.99525547027587890625 0.20787225663661956787 0.20768575370311737061 0.20849850773811340332 0.21125662326812744141 1.7090628147125244141 3.3692250251770019531 2.684967041015625 0.20601218938827514648 0.20995724201202392578 0.21289999783039093018 0.21007013320922851562 0.21307300031185150146 0.2137575000524520874 0.21043075621128082275 0.20811374485492706299 0.21062412858009338379 0.21278862655162811279 0.21565861999988555908 0.21544675529003143311 0.20584893226623535156 1.9779797792434692383 1.153702855110168457 1.3867701292037963867 1.9398156404495239258 0.061099939048290252686 1.0593787431716918945 0.34357681870460510254 1.0925613641738891602 3.1543521881103515625 1.1294003725051879883 0.54598098993301391602 0.087221935391426086426 0.09949512779712677002 0.18575899302959442139 0.12364511936902999878 0.21137955784797668457 0.20916925370693206787 0.14704968035221099854 0.11940000206232070923 0.086829625070095062256 0.14423692226409912109 0.17155779898166656494 0.21135275065898895264 0.2136061936616897583 0.20146393775939941406 0.64684426784515380859 0.012005000375211238861 0.02465543895959854126 0.12073207646608352661 0.11079890280961990356 0.061672188341617584229 0.012005000375211238861 0.098363123834133148193 0.20986224710941314697 0.39258980751037597656 0.91040593385696411133 3.3792889118194580078 4.5673551559448242188 3.3728663921356201172 1.8288964033126831055 1.5456550121307373047 3.1778523921966552734 1.7087697982788085938 2.2188620567321777344 3.9031376838684082031 2.0120027065277099609 0.20778733491897583008 0.56649661064147949219 0.21020212769508361816 0.20902436971664428711 0.20130300521850585938 0.19277307391166687012 0.11034483462572097778 0.11393987387418746948 0.22603668272495269775 0.29396125674247741699 0.049489062279462814331 0.15538950264453887939 0.10983793437480926514 0.15969069302082061768 0.21040275692939758301 0.1365464329719543457 0.21084731817245483398 0.074038878083229064941 0.012005000375211238861 
3.7955729961395263672 0.85546791553497314453 0.20601037144660949707 0.20128050446510314941 0.20348624885082244873 0.20814406871795654297 2.5836617946624755859 1.6112952232360839844 2.7366757392883300781 3.148162841796875 1.0843062400817871094 0.21199600398540496826 0.21360275149345397949 0.21304030716419219971 0.21233361959457397461 0.21434293687343597412 0.20970399677753448486 0.20722943544387817383 0.21290162205696105957 0.21142649650573730469 0.21019993722438812256 0.80769097805023193359 3.3863651752471923828 0.48591813445091247559 1.5169382095336914062 0.47298055887222290039 0.14916418492794036865 0.61872649192810058594 0.15922756493091583252 2.1242060661315917969 2.3714759349822998047 0.54908901453018188477 2.2037360668182373047 1.3691089153289794922 0.21151974797248840332 0.21157418191432952881 0.21195812523365020752 0.71770089864730834961 0.19701506197452545166 0.097485378384590148926 0.11102131009101867676 0.11047158390283584595 0.69506782293319702148 0.15665033459663391113 0.21047294139862060547 0.21199937164783477783 0.54245728254318237305 0.16577649116516113281 0.012005000375211238861 0.037305876612663269043 0.21121899783611297607 0.045830499380826950073 0.099825873970985412598 0.012005000375211238861 0.099311441183090209961 0.21246324479579925537 0.2105493694543838501 1.5201009511947631836 4.0379343032836914062 3.9767804145812988281 3.1639065742492675781 0.44603136181831359863 0.20735919475555419922 1.3476940393447875977 2.5494875907897949219 1.1588704586029052734 0.64266341924667358398 1.7573685646057128906 2.3179376125335693359 2.4637696743011474609 0.79605633020401000977 0.21150781214237213135 0.20830430090427398682 0.10902450233697891235 0.1917289048433303833 0.083512872457504272461 0.41589587926864624023 0.64167249202728271484 0.15861313045024871826 0.13824981451034545898 0.023102438077330589294 0.20264868438243865967 0.19867956638336181641 0.085814937949180603027 0.1508788764476776123 0.074386812746524810791 0.012005000375211238861 
2.3988285064697265625 0.73818862438201904297 0.20379656553268432617 0.19833806157112121582 0.20164668560028076172 0.20311574637889862061 1.3803795576095581055 0.20718100666999816895 0.20579637587070465088 4.0649366378784179688 3.0880157947540283203 0.7207749485969543457 0.20774719119071960449 0.21478450298309326172 0.21166700124740600586 0.21507506072521209717 0.21292343735694885254 0.21014675498008728027 0.20566694438457489014 0.20689669251441955566 0.51966202259063720703 3.0281617641448974609 2.1188108921051025391 0.18542550504207611084 0.14840087294578552246 0.14156968891620635986 0.52200758457183837891 0.17477399110794067383 0.15639850497245788574 0.20838782191276550293 0.32675719261169433594 0.86406719684600830078 0.1319961845874786377 0.92172986268997192383 0.16971412301063537598 0.16040681302547454834 0.49840232729911804199 0.49414825439453125 0.11175180971622467041 0.13553962111473083496 0.12412231415510177612 0.13578838109970092773 0.036003626883029937744 0.13133600354194641113 0.20909768342971801758 0.21066606044769287109 0.42182868719100952148 0.012005000375211238861 0.012005000375211238861 0.098886251449584960938 0.1781911700963973999 0.16263875365257263184 0.19422525167465209961 0.012005000375211238861 0.036157250404357910156 0.13619475066661834717 0.21227231621742248535 1.1309529542922973633 4.4998321533203125 4.1242351531982421875 2.1879527568817138672 0.30785468220710754395 0.20607331395149230957 0.29280045628547668457 0.30036157369613647461 0.21075087785720825195 0.21105462312698364258 0.19478324055671691895 0.82662510871887207031 2.1783032417297363281 1.5988472700119018555 0.20983606576919555664 0.20940124988555908203 0.20888100564479827881 0.20280762016773223877 0.14725981652736663818 0.19640906155109405518 0.21137037873268127441 0.1323919445276260376 0.19484125077724456787 0.045297313481569290161 0.13320893049240112305 0.18263718485832214355 0.20605388283729553223 0.19637149572372436523 0.171216621994972229 0.10700749605894088745 
3.3418352603912353516 1.4427083730697631836 0.19938506186008453369 0.20128050446510314941 0.20348624885082244873 0.19587093591690063477 0.21129156649112701416 0.21426449716091156006 0.20739899575710296631 3.2222905158996582031 3.6753997802734375 0.20750656723976135254 0.20903988182544708252 0.21109974384307861328 0.21315611898899078369 0.21342350542545318604 0.21438531577587127686 0.21122062206268310547 0.20251232385635375977 0.44736400246620178223 2.3458967208862304688 0.6430270075798034668 0.21353605389595031738 0.1983537524938583374 0.12056662887334823608 0.19084525108337402344 0.2698523104190826416 0.16048762202262878418 0.15931999683380126953 1.623631596565246582 0.48907676339149475098 1.7519327402114868164 0.060965124517679214478 0.18299244344234466553 0.13262531161308288574 0.11288230866193771362 0.15996518731117248535 0.035964999347925186157 0.1608079373836517334 0.10728858411312103271 0.19922374188899993896 0.19783180952072143555 0.16206625103950500488 0.18681199848651885986 0.18621399998664855957 0.35295975208282470703 0.17317524552345275879 0.036569625139236450195 0.034494668245315551758 0.19999280571937561035 0.13067333400249481201 0.012005000375211238861 0.012005000375211238861 0.13617180287837982178 0.1734927445650100708 0.073055312037467956543 0.12248106300830841064 0.12387868762016296387 3.071125030517578125 4.4457349777221679688 1.2803943157196044922 1.462884068489074707 0.88236039876937866211 0.20663075149059295654 0.19642181694507598877 0.20293667912483215332 0.20673425495624542236 0.20564943552017211914 0.15890830755233764648 0.16136045753955841064 0.075889669358730316162 0.20857180655002593994 0.2119611203670501709 0.17918480932712554932 0.14199087023735046387 0.12365449965000152588 0.12453949451446533203 0.13822725415229797363 0.1484381258487701416 0.1206048130989074707 0.13470175862312316895 0.09243443608283996582 0.036993000656366348267 0.085006996989250183105 0.15170080959796905518 0.13769762217998504639 0.012005000375211238861 
0.87575197219848632812 0.19990088045597076416 0.2044833749532699585 0.2019303739070892334 0.20071575045585632324 0.2065006941556930542 0.20913112163543701172 0.21328887343406677246 0.20666049420833587646 3.4802715778350830078 2.8998353481292724609 1.8376189470291137695 0.21138900518417358398 0.21352855861186981201 0.21222649514675140381 0.20663462579250335693 0.21389774978160858154 0.21115992963314056396 0.19819331169128417969 1.7259448766708374023 1.2243883609771728516 0.21215556561946868896 0.28708562254905700684 0.42228686809539794922 0.14836825430393218994 0.20492906868457794189 0.13464206457138061523 0.19734913110733032227 0.2126099318265914917 0.21389099955558776855 0.19972981512546539307 0.2084522545337677002 0.036761064082384109497 0.071557812392711639404 0.12079143524169921875 0.13582174479961395264 0.66245555877685546875 0.085794247686862945557 0.10888075083494186401 0.11035637557506561279 0.20428681373596191406 0.061981000006198883057 0.13415187597274780273 0.17431749403476715088 0.19764205813407897949 0.216040000319480896 0.086676687002182006836 0.012005000375211238861 0.12975841760635375977 0.212023124098777771 0.1749661862850189209 0.097593374550342559814 0.16329032182693481445 0.21058724820613861084 0.19821088016033172607 0.14901024103164672852 0.1958939284086227417 0.21277831494808197021 3.5996377468109130859 3.0634381771087646484 1.6276732683181762695 2.6430723667144775391 1.2336983680725097656 0.73115122318267822266 0.20518900454044342041 0.20615337789058685303 0.81745868921279907227 1.3063976764678955078 1.8747872114181518555 0.024291750043630599976 0.035325374454259872437 0.18262730538845062256 0.21140661835670471191 0.20756450295448303223 0.19420924782752990723 0.18499955534934997559 0.18366692960262298584 0.18641175329685211182 0.15993875265121459961 0.093696810305118560791 0.080099940299987792969 0.12362568825483322144 0.15933106839656829834 0.1984576880931854248 0.13532368838787078857 0.083829253911972045898 0.012005000375211238861 
0.20528687536716461182 0.20701231062412261963 0.19822369515895843506 0.19785806536674499512 0.20390781760215759277 0.20820568501949310303 0.20702731609344482422 0.20891988277435302734 1.6982042789459228516 2.8120846748352050781 3.4833109378814697266 3.2378041744232177734 0.47286832332611083984 0.21408055722713470459 0.21087343990802764893 0.21094661951065063477 0.21341294050216674805 0.21249511837959289551 0.20325537025928497314 1.1368260383605957031 0.63387572765350341797 0.21082849800586700439 0.54612380266189575195 0.20977075397968292236 1.4519388675689697266 0.53085857629776000977 0.12869305908679962158 0.81759369373321533203 2.6019487380981445312 0.61893963813781738281 1.8903439044952392578 1.4020327329635620117 0.073910564184188842773 0.075476497411727905273 0.036016251891851425171 0.037925601005554199219 0.1356325000524520874 0.092115700244903564453 0.18231430649757385254 0.62188225984573364258 1.8550086021423339844 0.063147999346256256104 0.17719107866287231445 0.14201416075229644775 0.32884514331817626953 0.17427225410938262939 0.18861709535121917725 0.072727099061012268066 0.21431387960910797119 0.20367774367332458496 0.1882146298885345459 0.2115856856107711792 0.21223138272762298584 0.21228957176208496094 1.1645210981369018555 0.54991626739501953125 0.208006247878074646 2.4722421169281005859 4.3740763664245605469 4.3136997222900390625 3.3725261688232421875 1.5695077180862426758 1.7067888975143432617 1.3794053792953491211 0.31274023652076721191 0.20212644338607788086 1.0776653289794921875 0.92211878299713134766 0.1345386207103729248 0.4855473637580871582 0.62847983837127685547 0.046479064971208572388 0.16969375312328338623 0.1366183161735534668 0.15883219242095947266 0.11050625145435333252 0.13110424578189849854 0.13506349921226501465 0.084940247237682342529 0.097134560346603393555 0.071881875395774841309 0.19873030483722686768 0.21045275032520294189 0.21225662529468536377 0.19845087826251983643 0.21137918531894683838 0.21233275532722473145 
0.20207524299621582031 0.19692049920558929443 0.19325712323188781738 0.19141057133674621582 0.19524125754833221436 0.20533268153667449951 1.1076818704605102539 3.5019359588623046875 2.3551688194274902344 2.0180993080139160156 1.33295440673828125 0.57638436555862426758 0.80216962099075317383 0.21238531172275543213 0.21023599803447723389 0.19869031012058258057 0.21423393487930297852 0.20981000363826751709 0.45169579982757568359 0.21123962104320526123 0.21481856703758239746 0.2022456824779510498 0.21165287494659423828 0.21428637206554412842 0.37070906162261962891 0.023102438077330589294 0.54200690984725952148 0.91537427902221679688 0.69135898351669311523 0.20197081565856933594 0.50720560550689697266 1.0219368934631347656 0.11106719076633453369 0.035381626337766647339 0.17904362082481384277 0.054510571062564849854 0.11317116767168045044 0.15051312744617462158 0.44021090865135192871 1.2408425807952880859 1.3976087570190429688 0.11900118738412857056 0.11189675331115722656 0.097981140017509460449 0.13301762938499450684 0.21130743622779846191 0.21219225227832794189 0.17347174882888793945 0.21410761773586273193 0.2153313755989074707 0.21519938111305236816 0.21441224217414855957 0.20891831815242767334 0.20961850881576538086 0.21425282955169677734 2.5394117832183837891 2.4877560138702392578 1.5348482131958007812 1.5541260242462158203 0.1618442535400390625 0.08096825331449508667 0.085794247686862945557 0.24222670495510101318 0.099340498447418212891 0.1027842983603477478 0.15924850106239318848 3.0129520893096923828 0.63360071182250976562 0.14698749780654907227 0.12286406010389328003 0.43073350191116333008 0.012005000375211238861 0.035748627036809921265 0.12108631432056427002 0.1842851787805557251 0.19701805710792541504 0.13559755682945251465 0.12281575053930282593 0.036898937076330184937 0.024535875767469406128 0.085698746144771575928 0.46427750587463378906 1.2582167387008666992 0.18544755876064300537 0.14785519242286682129 0.21125937998294830322 0.20764274895191192627 
0.30679962038993835449 0.20680962502956390381 0.18956400454044342041 0.19325712323188781738 0.19100782275199890137 0.21283192932605743408 1.5280961990356445312 3.4866082668304443359 3.1071214675903320312 2.2842261791229248047 0.64555829763412475586 0.20739018917083740234 0.2108415067195892334 0.21086125075817108154 0.19859850406646728516 0.07296231389045715332 0.18485881388187408447 0.20841218531131744385 0.21124956011772155762 0.20688168704509735107 0.21419756114482879639 0.20504543185234069824 0.21204906702041625977 0.21232187747955322266 0.1988318711519241333 0.061030250042676925659 0.20661118626594543457 0.18666543066501617432 0.10743600130081176758 0.43471586704254150391 2.0456445217132568359 2.1932516098022460938 1.9567924737930297852 0.082570500671863555908 0.10263168811798095703 0.17761631309986114502 0.21036018431186676025 0.20890730619430541992 2.4234516620635986328 0.89026141166687011719 1.3096581697463989258 0.69077950716018676758 0.11080862581729888916 0.11318124830722808838 0.13461586833000183105 1.0025640726089477539 0.21002987027168273926 0.21162468194961547852 0.2101128697395324707 0.21190787851810455322 0.21108207106590270996 0.20934094488620758057 0.20965605974197387695 0.20785579085350036621 1.1959421634674072266 3.9527153968811035156 3.4169757366180419922 0.59332561492919921875 2.8536741733551025391 2.2001125812530517578 0.75287657976150512695 0.080795377492904663086 0.08093528449535369873 0.051849301904439926147 0.17045637965202331543 0.15942999720573425293 1.0921903848648071289 0.13625374436378479004 0.049037501215934753418 0.19415043294429779053 0.40604612231254577637 0.049432814121246337891 0.082826249301433563232 0.084619998931884765625 0.12064249813556671143 0.10851893573999404907 0.073960565030574798584 0.08563899993896484375 0.048235062509775161743 0.1219640001654624939 0.15914331376552581787 0.20906250178813934326 0.21079868078231811523 0.13202913105487823486 0.19673243165016174316 0.18458555638790130615 0.11060299724340438843 
0.70702278614044189453 0.1999886929988861084 0.19325712323188781738 0.19141057133674621582 0.19879105687141418457 0.21031393110752105713 1.2685694694519042969 3.2450087070465087891 2.9780852794647216797 0.75818598270416259766 0.43097236752510070801 0.18083268404006958008 0.20972669124603271484 0.18649943172931671143 0.18486106395721435547 0.21250474452972412109 0.21090625226497650146 0.21139767765998840332 0.21016350388526916504 0.21241655945777893066 0.21090093255043029785 0.17379818856716156006 0.10013956576585769653 0.17084012925624847412 0.18481037020683288574 0.19517600536346435547 0.071518689393997192383 0.21713419258594512939 0.024248501285910606384 0.048829939216375350952 0.46631273627281188965 2.7457060813903808594 2.077327728271484375 0.50726562738418579102 0.64217466115951538086 0.20262894034385681152 0.17133730649948120117 0.61425119638442993164 2.0709471702575683594 0.035389188677072525024 0.063159868121147155762 0.18932269513607025146 0.21142043173313140869 0.098042219877243041992 0.40393343567848205566 0.62689000368118286133 0.20438620448112487793 0.20997349917888641357 0.21667432785034179688 0.20922411978244781494 0.203884124755859375 0.20602530241012573242 0.21229816973209381104 2.9301419258117675781 2.0691845417022705078 2.3155541419982910156 0.20897436141967773438 1.1555711030960083008 3.2691385746002197266 1.4975221157073974609 0.14547991752624511719 0.091759696602821350098 0.10801500082015991211 0.17672407627105712891 0.071556687355041503906 1.1969293355941772461 2.3730940818786621094 1.5609279870986938477 0.023102438077330589294 0.30051651597023010254 1.2210247516632080078 0.2032423168420791626 0.059595063328742980957 0.10539187490940093994 0.036325562745332717896 0.77127695083618164062 0.39432281255722045898 0.10930649936199188232 0.09774093329906463623 0.067492187023162841797 0.17070831358432769775 0.20254181325435638428 0.20867718756198883057 0.10610231012105941772 0.1782280653715133667 0.14614400267601013184 0.060806252062320709229 
0.44346913695335388184 0.19581963121891021729 0.19212649762630462646 0.19082932174205780029 0.20428881049156188965 0.20839169621467590332 2.1839926242828369141 3.1753149032592773438 1.1021058559417724609 0.19371850788593292236 0.5256404876708984375 0.0836542472243309021 0.072099559009075164795 0.023102438077330589294 0.075858749449253082275 0.21002319455146789551 0.21196374297142028809 0.21478912234306335449 0.21192787587642669678 0.21001955866813659668 0.21264612674713134766 0.16935944557189941406 0.19695675373077392578 0.19557687640190124512 0.099714189767837524414 2.0203957557678222656 0.33114069700241088867 0.086099870502948760986 0.012005000375211238861 0.593662261962890625 2.3644659519195556641 2.7411158084869384766 0.41453227400779724121 1.0898079872131347656 1.3679829835891723633 0.12197211384773254395 0.012005000375211238861 0.10953757911920547485 1.6746497154235839844 1.6516509056091308594 0.028387334197759628296 0.11018692702054977417 0.20784050226211547852 0.97587358951568603516 0.20713874697685241699 0.21103599667549133301 1.7361137866973876953 0.21039906144142150879 0.20845706760883331299 0.20630049705505371094 0.2092952430248260498 0.20735186338424682617 0.2071927487850189209 3.2169375419616699219 1.5929813385009765625 0.50688815116882324219 0.13513062894344329834 0.16393746435642242432 1.2686852216720581055 1.3869178295135498047 0.14440232515335083008 0.12381228804588317871 0.093563079833984375 0.10699816793203353882 0.51443868875503540039 2.2591836452484130859 1.2720850706100463867 2.9507412910461425781 0.61685824394226074219 0.39030730724334716797 0.070657752454280853271 0.035435814410448074341 0.012005000375211238861 0.012005000375211238861 0.078589625656604766846 0.92255491018295288086 0.15546381473541259766 0.13489630818367004395 0.061851624399423599243 0.098431810736656188965 0.18344330787658691406 0.20992769300937652588 0.21037738025188446045 0.14419156312942504883 0.13843330740928649902 0.11855587363243103027 0.10845825076103210449 
1.6955652236938476562 0.19922231137752532959 0.19835706055164337158 0.19255800545215606689 0.20832118391990661621 0.68563359975814819336 3.7162115573883056641 2.2477626800537109375 0.40947693586349487305 0.19275231659412384033 0.20115718245506286621 0.1811968684196472168 0.13460393249988555908 0.13598462939262390137 0.11041618883609771729 0.21054013073444366455 0.21039225161075592041 0.21249587833881378174 0.33711799979209899902 1.3891030550003051758 0.19682487845420837402 0.12221174687147140503 0.13567744195461273193 0.086550876498222351074 0.12496431171894073486 0.14322713017463684082 0.074362836778163909912 0.18180170655250549316 0.061284251511096954346 0.71028906106948852539 1.8437745571136474609 1.3919663429260253906 1.2100613117218017578 0.67876660823822021484 0.19482192397117614746 0.065032735466957092285 0.041598167270421981812 1.1827487945556640625 2.7959084510803222656 0.77229452133178710938 0.033930998295545578003 0.20926649868488311768 0.61486339569091796875 0.66425657272338867188 0.20653592050075531006 0.21126100420951843262 0.21065360307693481445 0.89182519912719726562 0.21150815486907958984 0.20703399181365966797 0.21092715859413146973 2.2688555717468261719 3.1124262809753417969 0.47659793496131896973 0.47724315524101257324 0.17895746231079101562 0.13007910549640655518 1.5879397392272949219 3.5143780708312988281 2.8504045009613037109 0.11127880215644836426 0.10839562863111495972 0.056059665977954864502 0.73426830768585205078 1.5685790777206420898 1.5705455541610717773 1.4444074630737304688 1.8253943920135498047 0.65086978673934936523 0.14373025298118591309 0.012005000375211238861 0.012005000375211238861 0.012005000375211238861 0.012005000375211238861 0.023102438077330589294 0.10299025475978851318 0.057019688189029693604 0.095814935863018035889 0.19560024142265319824 0.13414768874645233154 0.12226162105798721313 0.20880168676376342773 0.21230749785900115967 0.2030102461576461792 0.18336500227451324463 0.1615146249532699585 0.16055475175380706787 
0.19541950523853302002 0.20910862088203430176 0.20763055980205535889 0.20662349462509155273 0.56392270326614379883 2.1860086917877197266 2.7682569026947021484 0.19946537911891937256 0.20762842893600463867 0.19002705812454223633 0.16365374624729156494 0.11011049896478652954 0.13457499444484710693 0.12071381509304046631 0.40051704645156860352 1.7851135730743408203 0.21157293021678924561 2.2657003402709960938 0.41896963119506835938 0.21156693994998931885 0.21451500058174133301 0.30504474043846130371 0.085936434566974639893 0.19539088010787963867 0.15959382057189941406 0.14175792038440704346 0.074060499668121337891 0.084375500679016113281 0.012005000375211238861 1.250310063362121582 0.63679003715515136719 0.11078140139579772949 0.11098862439393997192 0.16640840470790863037 0.16058386862277984619 0.10768016427755355835 0.084207996726036071777 1.1753696203231811523 0.19070170819759368896 0.034199874848127365112 0.11055830121040344238 0.20633991062641143799 0.21137699484825134277 0.2127828747034072876 0.4159005582332611084 0.21042643487453460693 0.21170000731945037842 0.20883999764919281006 3.8280975818634033203 1.7203266620635986328 0.20993556082248687744 2.587188720703125 3.8817338943481445312 2.5028393268585205078 3.6622974872589111328 0.17161005735397338867 0.84213918447494506836 3.12865447998046875 2.1576323509216308594 2.4536597728729248047 0.13582837581634521484 0.15592958033084869385 0.20798012614250183105 0.21082849800586700439 0.21063330769538879395 0.20972019433975219727 0.82436597347259521484 1.50237274169921875 0.19750794768333435059 0.2214002460241317749 0.02428418770432472229 0.012005000375211238861 0.012005000375211238861 0.012005000375211238861 0.012005000375211238861 0.05639475211501121521 0.05758406221866607666 0.12003649771213531494 0.12133699655532836914 0.19482180476188659668 0.12290325015783309937 0.2094678729772567749 0.2120183110237121582 0.21120819449424743652 0.21064493060111999512 0.099536061286926269531 0.11175374686717987061 
0.20721000432968139648 0.20787225663661956787 0.2057215571403503418 0.21204605698585510254 2.5602569580078125 2.9396123886108398438 2.6562390327453613281 0.20752775669097900391 0.18696255981922149658 0.20919837057590484619 0.19623380899429321289 0.11113505810499191284 0.18319849669933319092 0.17339561879634857178 1.6567602157592773438 0.97972559928894042969 0.19885650277137756348 0.43619838356971740723 0.097546376287937164307 2.0496413707733154297 3.1558330059051513672 2.2659585475921630859 0.19744338095188140869 0.20928193628787994385 0.049796875566244125366 0.012005000375211238861 0.012005000375211238861 0.55784660577774047852 0.076950781047344207764 0.40037709474563598633 0.26501888036727905273 0.012005000375211238861 0.012005000375211238861 0.012005000375211238861 0.044813334941864013672 0.061428330838680267334 0.12983079254627227783 0.1107837483286857605 0.087026998400688171387 0.12328808009624481201 0.061659500002861022949 0.075170829892158508301 0.20592060685157775879 1.6503820419311523438 2.5530016422271728516 0.21203030645847320557 0.2120351940393447876 0.20897889137268066406 3.6800899505615234375 1.6744152307510375977 0.14285744726657867432 2.5027642250061035156 1.7246931791305541992 3.2102274894714355469 2.7503757476806640625 1.7356353998184204102 0.53378438949584960938 2.8775072097778320312 0.043129418045282363892 0.48564580082893371582 2.3156037330627441406 0.21185763180255889893 0.21162712574005126953 0.21271038055419921875 0.21264487504959106445 0.37831768393516540527 2.4933862686157226562 1.5839182138442993164 1.1516526937484741211 0.31958270072937011719 1.1916404962539672852 0.31385308504104614258 0.012005000375211238861 0.012005000375211238861 0.012005000375211238861 0.035345938056707382202 0.059027250856161117554 0.035596437752246856689 0.057660065591335296631 0.16628618538379669189 0.1101934388279914856 0.1378539353609085083 0.12616606056690216064 0.11348149925470352173 0.17615525424480438232 0.17566956579685211182 0.11303775012493133545 
0.20509068667888641357 0.19447362422943115234 0.20900630950927734375 1.8093740940093994141 3.2743737697601318359 3.3570556640625 0.47951018810272216797 0.17269299924373626709 0.13635762035846710205 0.10844681411981582642 0.14677543938159942627 0.071340128779411315918 0.19566993415355682373 0.19678525626659393311 0.18615774810314178467 0.16196961700916290283 0.18196342885494232178 0.37151688337326049805 1.0577393770217895508 0.67702859640121459961 1.8410983085632324219 0.35442620515823364258 0.48281642794609069824 0.18168263137340545654 0.062008250504732131958 0.012005000375211238861 0.70245826244354248047 3.1389110088348388672 0.057235442101955413818 0.43636721372604370117 1.2026150226593017578 0.024367751553654670715 0.012005000375211238861 0.80129641294479370117 0.025208933278918266296 0.048397563397884368896 0.081317573785781860352 0.80523723363876342773 0.11749544739723205566 0.10979833453893661499 0.75623077154159545898 0.012005000375211238861 1.9130021333694458008 2.964962005615234375 0.65349209308624267578 0.20998011529445648193 0.21112021803855895996 0.21088737249374389648 3.731456756591796875 0.85666745901107788086 2.34714508056640625 0.89320129156112670898 0.14783570170402526855 0.13358725607395172119 0.53073745965957641602 1.9228996038436889648 0.061841625720262527466 1.7603915929794311523 0.84189134836196899414 3.7865817546844482422 3.8947632312774658203 0.21146793663501739502 0.21096925437450408936 0.2104460597038269043 0.21042643487453460693 0.20878012478351593018 2.9418094158172607422 0.95216208696365356445 1.6303795576095581055 0.28917735815048217773 2.4493660926818847656 0.88243544101715087891 0.024367751553654670715 0.012005000375211238861 0.012005000375211238861 0.012005000375211238861 0.023102438077330589294 0.012005000375211238861 0.034199874848127365112 0.14611449837684631348 0.07371606677770614624 0.012005000375211238861 0.012005000375211238861 0.012005000375211238861 0.06207250058650970459 0.21360298991203308105 0.21316599845886230469 
0.18325819075107574463 0.19446094334125518799 0.71737617254257202148 4.1320405006408691406 2.7090799808502197266 1.399804234504699707 0.20748324692249298096 0.14691087603569030762 0.098943814635276794434 0.10743118822574615479 0.097620502114295959473 0.10811506211757659912 0.1972560584545135498 0.16942037642002105713 0.12395274639129638672 0.097161434590816497803 0.12060662358999252319 0.097461998462677001953 0.012005000375211238861 0.04934762418270111084 0.14850975573062896729 0.48414206504821777344 1.2253371477127075195 0.12292633205652236938 0.18142180144786834717 0.16400861740112304688 1.3396279811859130859 2.4881560802459716797 0.012005000375211238861 3.4535944461822509766 1.4744007587432861328 0.26943364739418029785 0.24733117222785949707 0.012005000375211238861 0.027634833008050918579 0.012005000375211238861 0.012005000375211238861 1.2256886959075927734 0.078198552131652832031 0.35348057746887207031 1.7428853511810302734 0.026413857936859130859 0.60149991512298583984 2.1128489971160888672 0.21085137128829956055 0.21174199879169464111 0.21182236075401306152 0.96191740036010742188 1.6782889366149902344 0.32008913159370422363 0.11787053942680358887 0.053673930466175079346 0.054667785763740539551 0.078123003244400024414 1.7267744541168212891 2.7529296875 0.049723900854587554932 3.6400117874145507812 4.5662660598754882812 3.0251338481903076172 0.52058899402618408203 0.21006111800670623779 2.226329803466796875 0.20850230753421783447 0.20755319297313690186 0.64695441722869873047 1.540139317512512207 0.54457676410675048828 2.3027598857879638672 0.43514326214790344238 3.0316169261932373047 1.7973767518997192383 0.99599725008010864258 2.2006349563598632812 0.024429313838481903076 0.012005000375211238861 0.012005000375211238861 0.012005000375211238861 0.023102438077330589294 0.14339344203472137451 0.071997500956058502197 0.012005000375211238861 0.012005000375211238861 0.024867562577128410339 0.10990706086158752441 0.21138568222522735596 0.21340650320053100586 
0.2035731971263885498 0.20764519274234771729 1.1420546770095825195 4.0607914924621582031 2.9160015583038330078 0.17914368212223052979 0.14860093593597412109 0.1827646791934967041 0.1859311908483505249 0.15849106013774871826 0.16122299432754516602 0.16253955662250518799 0.087173186242580413818 0.14664530754089355469 0.095938310027122497559 1.6943445205688476562 0.60232877731323242188 0.15756249427795410156 0.174162253737449646 0.17095924913883209229 0.097738377749919891357 0.09022159874439239502 0.061484750360250473022 0.15071658790111541748 0.14305730164051055908 0.17732027173042297363 0.20732033252716064453 0.40132465958595275879 0.41170334815979003906 0.93814778327941894531 0.16569688916206359863 0.38871866464614868164 0.10756666958332061768 0.076486796140670776367 0.034199874848127365112 0.012005000375211238861 0.04466066509485244751 0.050751198083162307739 0.049100626260042190552 0.028332833200693130493 0.040735229849815368652 1.0482050180435180664 0.622043609619140625 0.20747131109237670898 0.20913007855415344238 0.18351499736309051514 0.17010429501533508301 0.095610916614532470703 0.20910239219665527344 0.20708930492401123047 0.18370744585990905762 0.21063110232353210449 0.19135810434818267822 0.21061530709266662598 1.6424595117568969727 2.6533915996551513672 0.19970718026161193848 2.3059206008911132812 2.2845251560211181641 3.1752383708953857422 0.19766475260257720947 0.64181756973266601562 3.4066443443298339844 0.21015550196170806885 0.20906044542789459229 0.44580593705177307129 0.20709843933582305908 0.20939356088638305664 0.19930243492126464844 0.161126747727394104 1.5148972272872924805 1.8217644691467285156 0.71550774574279785156 1.0162204504013061523 0.085362061858177185059 0.048219624906778335571 0.012005000375211238861 0.059557314962148666382 0.048502374440431594849 0.17062087357044219971 0.073817938566207885742 0.012005000375211238861 0.012005000375211238861 0.5535182952880859375 0.1960140615701675415 0.20695081353187561035 0.20191150903701782227 
0.20546768605709075928 0.53669857978820800781 3.6046214103698730469 2.6563436985015869141 0.19685050845146179199 0.12355706095695495605 0.061351124197244644165 0.13575261831283569336 0.073838189244270324707 0.036574061959981918335 1.6896617412567138672 0.15112662315368652344 0.17465649545192718506 0.2108739316463470459 0.10944662243127822876 0.74912649393081665039 1.4383420944213867188 0.17126618325710296631 0.19657455384731292725 0.18348975479602813721 0.21001435816287994385 0.16094200313091278076 0.12601932883262634277 0.18563893437385559082 0.11148709803819656372 0.14200650155544281006 0.12498299777507781982 0.12198992073535919189 0.078535787761211395264 0.12913490831851959229 0.08248650282621383667 0.012005000375211238861 0.012005000375211238861 0.012005000375211238861 0.065272703766822814941 0.061177831143140792847 0.097819127142429351807 0.0613592490553855896 0.073746189475059509277 0.16021899878978729248 0.06089687347412109375 1.7879106998443603516 0.14215132594108581543 0.15136690437793731689 0.08689899742603302002 0.18520568311214447021 0.20929661393165588379 0.20696599781513214111 0.20758350193500518799 0.20850361883640289307 0.18730799853801727295 0.2079544365406036377 0.21319350600242614746 0.21123825013637542725 0.53801959753036499023 0.43991482257843017578 0.44915941357612609863 4.015960693359375 3.4863145351409912109 1.2968225479125976562 1.3722432851791381836 0.65368902683258056641 1.2793489694595336914 0.15838775038719177246 0.19765692949295043945 0.20207799971103668213 0.19753181934356689453 0.17861956357955932617 0.18828906118869781494 0.11083143949508666992 0.21408756077289581299 2.3335273265838623047 1.4665060043334960938 0.14758788049221038818 0.75732243061065673828 0.62905049324035644531 0.10884749889373779297 0.098683558404445648193 0.90005159378051757812 0.14658224582672119141 0.098090626299381256104 0.012005000375211238861 0.036404564976692199707 2.7297308444976806641 0.21302361786365509033 0.20922650396823883057 0.2089697420597076416 
0.61849874258041381836 2.3792145252227783203 2.0662827491760253906 0.65908640623092651367 0.17077194154262542725 0.13638313114643096924 0.13781143724918365479 0.08651819080114364624 0.096647247672080993652 0.072257503867149353027 0.12400331348180770874 0.14818550646305084229 0.16201375424861907959 0.19849906861782073975 0.16031700372695922852 0.19735580682754516602 0.44822481274604797363 0.19827193021774291992 0.16017474234104156494 0.20906563103199005127 0.15786658227443695068 0.012005000375211238861 0.14608940482139587402 0.19538712501525878906 0.034216556698083877563 0.13919489085674285889 0.025663385167717933655 0.037155374884605407715 0.012005000375211238861 0.012005000375211238861 0.043460249900817871094 0.012005000375211238861 0.012005000375211238861 0.085987918078899383545 0.10761369764804840088 0.057525921612977981567 0.024499000981450080872 0.049238875508308410645 0.012005000375211238861 0.061131164431571960449 0.078452996909618377686 0.13833950459957122803 0.20867237448692321777 0.2125113755464553833 0.20911930501461029053 0.21203993260860443115 0.20890899002552032471 0.21160428225994110107 0.20890174806118011475 0.20777431130409240723 0.21068432927131652832 0.21004208922386169434 0.20854781568050384521 0.20741382241249084473 0.1972252577543258667 0.19427181780338287354 0.20725564658641815186 1.0749342441558837891 2.6047792434692382812 0.028570750728249549866 0.15854643285274505615 1.6281670331954956055 1.3868801593780517578 0.21183849871158599854 0.21088819205760955811 0.39445975422859191895 0.20531718432903289795 0.17258755862712860107 0.075322687625885009766 0.16282480955123901367 0.21108587086200714111 2.4942445755004882812 1.4698286056518554688 0.1977453082799911499 1.3415116071701049805 1.5074864625930786133 0.096171058714389801025 0.49356374144554138184 2.0858795642852783203 0.12307555973529815674 0.13604624569416046143 0.15988130867481231689 0.20866243541240692139 1.5704482793807983398 3.3737981319427490234 0.20964580774307250977 0.21508924663066864014 
1.5757832527160644531 3.9944646358489990234 1.8332343101501464844 2.5514202117919921875 0.20796062052249908447 0.21153081953525543213 1.4303569793701171875 1.1471853256225585938 0.20978419482707977295 0.41668161749839782715 1.92128753662109375 0.62414407730102539062 1.8133072853088378906 2.4423875808715820312 0.19560837745666503906 0.12085112184286117554 0.18642868101596832275 0.085265122354030609131 0.12472793459892272949 0.20399068295955657959 0.1431986689567565918 0.012005000375211238861 0.012005000375211238861 0.055753666907548904419 0.071390897035598754883 0.053712002933025360107 0.10038455575704574585 0.083913378417491912842 0.65242922306060791016 1.6620062589645385742 0.050419598817825317383 0.026312001049518585205 0.012005000375211238861 0.098898112773895263672 0.095003448426723480225 0.073665373027324676514 0.012005000375211238861 0.012005000375211238861 0.54365497827529907227 0.19291108846664428711 0.13568374514579772949 0.41877332329750061035 0.20655050873756408691 0.20939800143241882324 0.21003581583499908447 0.21132858097553253174 0.66046905517578125 1.1085110902786254883 0.2075726240873336792 0.16080705821514129639 0.17992345988750457764 0.2080421149730682373 0.13894474506378173828 0.13247013092041015625 0.20116919279098510742 0.19590075314044952393 0.20357362926006317139 0.20651924610137939453 0.13640099763870239258 0.08536961674690246582 0.21066130697727203369 0.89488261938095092773 3.6390614509582519531 0.69412910938262939453 0.50753962993621826172 0.20428912341594696045 0.20355069637298583984 0.1089986264705657959 0.13399180769920349121 0.18727213144302368164 1.2755026817321777344 1.8790220022201538086 0.21090924739837646484 0.21291805803775787354 0.89807206392288208008 0.17336387932300567627 0.13488693535327911377 0.2104415595531463623 0.51420092582702636719 0.085328564047813415527 0.17153494060039520264 0.63972514867782592773 0.79808706045150756836 0.35263037681579589844 0.95429468154907226562 0.5784886479377746582 1.3686082363128662109 
2.3492708206176757812 3.7665653228759765625 0.75499814748764038086 0.20975975692272186279 0.21117655932903289795 0.21031700074672698975 0.44625368714332580566 0.072335064411163330078 1.2938846349716186523 2.0059964656829833984 2.3341870307922363281 1.0425021648406982422 0.40933302044868469238 2.4399914741516113281 1.6423869132995605469 0.11822374910116195679 0.16948369145393371582 0.20771437883377075195 0.20661237835884094238 0.21154068410396575928 0.098788186907768249512 0.10008587688207626343 2.1306083202362060547 0.1094207465648651123 0.11736033111810684204 0.077902778983116149902 0.72973424196243286133 0.54144757986068725586 2.5474672317504882812 2.0321931838989257812 3.5954043865203857422 0.69863873720169067383 0.047751937061548233032 0.012005000375211238861 0.012005000375211238861 0.028387334197759628296 0.060988500714302062988 0.044769667088985443115 0.05554866790771484375 0.14556166529655456543 0.87118899822235107422 1.8521447181701660156 0.4330024421215057373 1.6249315738677978516 0.2058490067720413208 0.20782923698425292969 1.0998591184616088867 0.85231244564056396484 0.08660392463207244873 0.073063939809799194336 0.012005000375211238861 0.036654125899076461792 0.012005000375211238861 0.012005000375211238861 0.16730591654777526855 0.21142829954624176025 0.21039538085460662842 0.21000050008296966553 0.21126554906368255615 0.66124880313873291016 1.1587932109832763672 2.6313903331756591797 3.4512174129486083984 3.1590001583099365234 0.2099523693323135376 0.20471818745136260986 0.20442312955856323242 0.10554643720388412476 0.19625505805015563965 1.0044124126434326172 2.9800574779510498047 0.11215180903673171997 0.11049374938011169434 1.7213021516799926758 1.2987890243530273438 0.12308906018733978271 0.13536874949932098389 0.20854038000106811523 0.20989100635051727295 0.14381700754165649414 0.10959743708372116089 0.085430875420570373535 0.085020378232002258301 0.17128844559192657471 0.20882269740104675293 0.19637513160705566406 0.10960750281810760498 
3.2286350727081298828 3.1121363639831542969 0.21106955409049987793 0.20921631157398223877 0.21065056324005126953 0.36701768636703491211 1.4835020303726196289 0.15941561758518218994 1.2056351900100708008 1.3401206731796264648 1.3351246118545532227 0.49524405598640441895 0.11019368469715118408 0.44041904807090759277 0.30469992756843566895 0.13660533726215362549 0.16798575222492218018 0.21110512316226959229 2.21843719482421875 0.052595600485801696777 0.38686519861221313477 0.1452248692512512207 0.20560619235038757324 0.16434477269649505615 0.029760900884866714478 0.15287221968173980713 0.16945479810237884521 1.5475367307662963867 0.61437237262725830078 0.92602676153182983398 0.78812760114669799805 0.030604101717472076416 0.012005000375211238861 0.27067011594772338867 0.012005000375211238861 1.0581270456314086914 1.4678519964218139648 0.39432537555694580078 0.54994857311248779297 0.076730914413928985596 0.43356347084045410156 3.2015182971954345703 0.19794337451457977295 0.58763766288757324219 0.39313080906867980957 0.19545143842697143555 0.19269287586212158203 0.20324487984180450439 0.18945741653442382812 0.086637124419212341309 0.012005000375211238861 0.012005000375211238861 0.012005000375211238861 0.012005000375211238861 0.21240541338920593262 0.21001210808753967285 0.20628568530082702637 0.21088431775569915771 0.21235486865043640137 0.2058315575122833252 1.4976999759674072266 3.0547955036163330078 3.8447103500366210938 0.65082943439483642578 0.20903369784355163574 0.19846844673156738281 0.1931581348180770874 0.11581656336784362793 0.1950502544641494751 1.1994805335998535156 0.90561598539352416992 0.062126811593770980835 0.087855875492095947266 0.18370950222015380859 0.14729636907577514648 0.1844552457332611084 0.12268730998039245605 0.20791737735271453857 0.20520687103271484375 0.19500055909156799316 0.19418038427829742432 0.097036123275756835938 0.11026975512504577637 0.21009944379329681396 0.20875543355941772461 0.19608712196350097656 0.10960750281810760498 
3.678874969482421875 1.155240178108215332 0.20666837692260742188 0.21019881963729858398 0.21204175055027008057 0.21417725086212158203 1.1410632133483886719 0.1476675570011138916 0.099015377461910247803 0.14781093597412109375 1.2671308517456054688 1.5128325223922729492 0.14584892988204956055 0.15931962430477142334 0.091175101697444915771 0.012005000375211238861 0.13202124834060668945 0.086554497480392456055 0.036061499267816543579 1.1636890172958374023 2.7816267013549804688 0.012005000375211238861 0.20672412216663360596 0.036777500063180923462 0.039965216070413589478 0.58647835254669189453 0.060985833406448364258 0.18560849130153656006 0.6923230290412902832 0.20976480841636657715 0.21045581996440887451 0.14027807116508483887 0.085693001747131347656 0.80373817682266235352 1.7903429269790649414 0.086464747786521911621 2.4351172447204589844 0.13474762439727783203 0.12546585500240325928 0.012005000375211238861 0.061702251434326171875 0.20586287975311279297 0.19886250793933868408 0.19897179305553436279 0.19269181787967681885 0.19405981898307800293 0.18956400454044342041 0.19924400746822357178 0.20838125050067901611 0.060806252062320709229 0.012005000375211238861 0.012005000375211238861 0.012005000375211238861 0.012005000375211238861 0.21132600307464599609 0.20860438048839569092 0.20895512402057647705 0.20960500836372375488 0.21203625202178955078 0.20624130964279174805 0.2103900611400604248 2.93793487548828125 3.8859691619873046875 0.20744700729846954346 0.20991969108581542969 0.20184481143951416016 0.20279219746589660645 0.46993857622146606445 0.24441193044185638428 1.828412175178527832 0.071698248386383056641 0.049268189817667007446 0.13752150535583496094 0.17208719253540039062 0.18634618818759918213 0.15563049912452697754 0.15941618382930755615 0.20545843243598937988 0.19121743738651275635 0.1923818737268447876 0.19502969086170196533 0.19765649735927581787 0.086755372583866119385 0.2093623727560043335 0.20984911918640136719 0.13410000503063201904 0.012005000375211238861 
2.6229267120361328125 0.51374375820159912109 0.20982113480567932129 0.21069474518299102783 1.0181070566177368164 0.21469774842262268066 0.48446944355964660645 0.73298108577728271484 1.0678980350494384766 0.67155045270919799805 0.20941044390201568604 1.0632417201995849609 0.21083219349384307861 0.19764506816864013672 0.17931461334228515625 0.17259205877780914307 0.056753769516944885254 0.12656874954700469971 0.17901207506656646729 0.15212300419807434082 1.4298961162567138672 0.012005000375211238861 0.012005000375211238861 0.012005000375211238861 0.012005000375211238861 3.0934786796569824219 1.5642633438110351562 0.52952635288238525391 1.7194625139236450195 0.58222752809524536133 0.58682030439376831055 0.1079140007495880127 2.8915390968322753906 3.6173758506774902344 0.18739177286624908447 0.17130200564861297607 0.20859669148921966553 0.012005000375211238861 0.027339152991771697998 0.0371664389967918396 0.085783496499061584473 0.21012730896472930908 0.21024160087108612061 0.20684146881103515625 0.1923983842134475708 0.18956400454044342041 0.18956400454044342041 0.12665009498596191406 0.13456268608570098877 0.14368225634098052979 0.012005000375211238861 0.012005000375211238861 0.012005000375211238861 0.14539678394794464111 0.15525233745574951172 0.20304608345031738281 0.20793549716472625732 0.2086162567138671875 0.21036875247955322266 0.21242406964302062988 0.21124061942100524902 0.45890349149703979492 2.1542937755584716797 0.67927777767181396484 1.3801968097686767578 0.20950105786323547363 0.21090075373649597168 1.08184051513671875 2.3949499130249023438 0.6341622471809387207 0.073982626199722290039 0.1246185004711151123 0.12327818572521209717 0.14891043305397033691 0.12316887825727462769 0.18271775543689727783 0.19650894403457641602 0.20687331259250640869 0.19478274881839752197 0.17106224596500396729 0.20541806519031524658 0.20817674696445465088 0.20048131048679351807 0.20141656696796417236 0.20742087066173553467 0.17041818797588348389 0.1051959991455078125 
0.47462260723114013672 0.20998725295066833496 0.2095387578010559082 0.41889774799346923828 2.3967928886413574219 0.92920249700546264648 1.8503676652908325195 2.8026750087738037109 0.012005000375211238861 0.061982624232769012451 0.17213131487369537354 0.18559272587299346924 0.20890435576438903809 0.19803456962108612061 0.10935918986797332764 0.12602800130844116211 0.083395920693874359131 0.11081209778785705566 0.10622774809598922729 0.028617000207304954529 0.012005000375211238861 0.012005000375211238861 0.012005000375211238861 0.012005000375211238861 1.5039520263671875 2.9444832801818847656 1.2254343032836914062 0.89835131168365478516 1.8149484395980834961 3.0460822582244873047 2.408702850341796875 1.4542201757431030273 0.54592204093933105469 2.1352963447570800781 0.90300750732421875 0.61369287967681884766 2.0233130455017089844 0.012005000375211238861 0.012005000375211238861 0.012005000375211238861 0.17263524234294891357 0.20823289453983306885 0.20897299051284790039 0.20587912201881408691 0.19459950923919677734 0.28510892391204833984 0.39074000716209411621 0.12615007162094116211 0.012005000375211238861 0.012005000375211238861 0.012005000375211238861 0.012005000375211238861 0.012005000375211238861 0.012005000375211238861 0.18431200087070465088 0.20889681577682495117 0.2075166851282119751 0.20776268839836120605 0.21361294388771057129 0.20949612557888031006 0.21115550398826599121 0.20494349300861358643 0.20942650735378265381 0.21313862502574920654 1.120062708854675293 0.21157674491405487061 0.21236331760883331299 3.46938323974609375 2.1947138309478759766 0.13338875770568847656 0.20907999575138092041 0.20992587506771087646 0.21207162737846374512 0.21083837747573852539 0.21014769375324249268 0.20885387063026428223 0.17390331625938415527 0.13213443756103515625 0.16847200691699981689 0.56142467260360717773 0.20754075050354003906 0.20649118721485137939 0.20017987489700317383 0.19860269129276275635 0.20712937414646148682 0.19038288295269012451 0.20022174715995788574 
0.3937212526798248291 0.21511381864547729492 0.21088261902332305908 0.21180525422096252441 0.20913313329219818115 0.94477558135986328125 1.92104339599609375 0.18666861951351165771 0.18510112166404724121 0.18659749627113342285 0.19842225313186645508 0.16708511114120483398 0.19636487960815429688 0.15853719413280487061 0.16316233575344085693 0.10579791665077209473 0.012005000375211238861 0.012005000375211238861 0.012005000375211238861 0.012005000375211238861 0.012005000375211238861 0.012005000375211238861 1.0778986215591430664 1.7202640771865844727 3.8926322460174560547 2.6326413154602050781 0.14712062478065490723 1.9298421144485473633 4.2824587821960449219 1.2817221879959106445 1.0225865840911865234 0.11158533394336700439 0.19411116838455200195 0.176012381911277771 1.7199907302856445312 3.0400893688201904297 3.6238849163055419922 0.36107140779495239258 0.012005000375211238861 0.044377665966749191284 0.20714841783046722412 0.20942120254039764404 0.20493650436401367188 0.14592069387435913086 0.15283413231372833252 0.32415539026260375977 0.18956400454044342041 0.12408118695020675659 0.012005000375211238861 0.012005000375211238861 0.012005000375211238861 0.012005000375211238861 0.012005000375211238861 0.012005000375211238861 0.15954500436782836914 0.20744855701923370361 0.20545569062232971191 0.20408111810684204102 0.20624043047428131104 0.20768074691295623779 0.7960936427116394043 0.57593953609466552734 0.32617643475532531738 1.6968119144439697266 2.5267355442047119141 0.93799096345901489258 2.3947670459747314453 1.6864042282104492188 1.2606050968170166016 0.094663314521312713623 0.20778661966323852539 0.21361918747425079346 0.20526374876499176025 0.21131056547164916992 0.21196012198925018311 0.21248231828212738037 0.08621943742036819458 0.11958062648773193359 0.12053325027227401733 0.14626550674438476562 0.20992374420166015625 0.20619787275791168213 0.19290319085121154785 0.19517375528812408447 0.19712124764919281006 0.19325968623161315918 0.2034972459077835083 
0.31700485944747924805 0.78077089786529541016 0.21311424672603607178 0.21142105758190155029 0.20978069305419921875 0.19588224589824676514 1.1185641288757324219 0.21258156001567840576 0.21137800812721252441 0.19584894180297851562 0.21098162233829498291 0.21025612950325012207 0.20988187193870544434 0.19294506311416625977 0.12680707871913909912 0.060181915760040283203 0.012005000375211238861 0.012005000375211238861 0.012005000375211238861 2.4509389400482177734 1.8381536006927490234 2.6599667072296142578 0.93171453475952148438 0.97956764698028564453 0.32399749755859375 0.22223119437694549561 0.17619313299655914307 1.1724007129669189453 1.8826082944869995117 0.24152316153049468994 0.23832038044929504395 0.048899624496698379517 0.13815775513648986816 0.20849806070327758789 0.19647306203842163086 0.19186624884605407715 0.086511813104152679443 0.026283856481313705444 0.11842276901006698608 0.19722917675971984863 0.20667231082916259766 0.2069740593433380127 0.20798525214195251465 0.16012324392795562744 0.18365755677223205566 0.1368671804666519165 0.096234060823917388916 0.085654184222221374512 0.012005000375211238861 0.073550000786781311035 0.13076074421405792236 0.012005000375211238861 0.073358878493309020996 0.098431371152400970459 0.20932355523109436035 0.20787356793880462646 0.20609550178050994873 0.20373493432998657227 0.20913606882095336914 0.21056006848812103271 0.20865194499492645264 1.3959600925445556641 3.7899916172027587891 2.8271551132202148438 2.456104278564453125 1.8520635366439819336 1.8473370075225830078 0.57524758577346801758 0.53201562166213989258 0.098258934915065765381 0.21138781309127807617 0.21194399893283843994 0.21285444498062133789 0.2115271836519241333 0.20993180572986602783 0.099775433540344238281 0.012005000375211238861 0.085719063878059387207 0.51493918895721435547 0.14721156656742095947 0.14652100205421447754 0.19836388528347015381 0.19918875396251678467 0.19830881059169769287 0.20312280952930450439 0.19100868701934814453 0.19617775082588195801 
0.2101322561502456665 0.59209364652633666992 0.85681110620498657227 0.21314355731010437012 0.21475781500339508057 0.11191750317811965942 0.21312768757343292236 0.21265207231044769287 0.21269324421882629395 0.086413249373435974121 0.19629980623722076416 0.19449813663959503174 0.11017449945211410522 0.10912299901247024536 0.076750330626964569092 0.012005000375211238861 0.012005000375211238861 0.072512939572334289551 1.6211260557174682617 4.2076091766357421875 2.2101314067840576172 0.095875576138496398926 0.045095164328813552856 0.17068631947040557861 0.20030875504016876221 0.20915493369102478027 0.2128385007381439209 0.20468331873416900635 0.20207518339157104492 0.19681863486766815186 0.069921873509883880615 0.036155249923467636108 0.17447331547737121582 0.20810599625110626221 0.13708774745464324951 0.21022625267505645752 0.07824716717004776001 0.044909916818141937256 0.1852194368839263916 0.20860537886619567871 0.21021518111228942871 0.21177731454372406006 0.20845800638198852539 0.20878243446350097656 0.51864951848983764648 0.98516637086868286133 0.19939093291759490967 0.012005000375211238861 0.037417750805616378784 0.19858938455581665039 0.70789551734924316406 0.16892455518245697021 0.14637799561023712158 0.76161837577819824219 1.0981496572494506836 1.5064970254898071289 1.748263239860534668 0.4139843285083770752 0.2084967494010925293 0.184233054518699646 1.2461034059524536133 1.9525067806243896484 1.7114773988723754883 1.1294524669647216797 0.21446524560451507568 0.21122887730598449707 0.3889828026294708252 0.58215004205703735352 0.90247607231140136719 0.24122905731201171875 0.20791237056255340576 0.21162518858909606934 0.20842462778091430664 0.18713581562042236328 0.12731106579303741455 0.12307268381118774414 0.19332718849182128906 0.19710512459278106689 0.20163674652576446533 0.19902031123638153076 0.036892127245664596558 0.13487124443054199219 0.20463581383228302002 0.40343269705772399902 0.20984944701194763184 0.89818590879440307617 2.5055372714996337891 
0.21087437868118286133 0.19349668920040130615 0.20480149984359741211 0.21349519491195678711 0.16231200098991394043 0.18730874359607696533 0.42386189103126525879 0.20951531827449798584 0.19977061450481414795 0.078500665724277496338 0.12503892183303833008 0.14165833592414855957 0.091250598430633544922 0.06001437455415725708 0.68670862913131713867 0.012005000375211238861 0.012005000375211238861 0.012005000375211238861 2.2680394649505615234 2.9946234226226806641 3.6419997215270996094 1.1079385280609130859 1.7084810733795166016 0.39252561330795288086 0.21050444245338439941 0.21079343557357788086 0.20817361772060394287 0.21437694132328033447 0.2105630040168762207 0.21247212588787078857 0.12149644643068313599 0.19718849658966064453 0.21009024977684020996 0.20911224186420440674 0.21073655784130096436 0.17003045976161956787 0.025878999382257461548 0.14866387844085693359 0.20833306014537811279 0.18405906856060028076 0.2086706310510635376 0.21032443642616271973 0.19806306064128875732 1.1972450017929077148 1.930920720100402832 0.12382562458515167236 0.035966124385595321655 0.012005000375211238861 0.38267430663108825684 1.9757115840911865234 1.2109578847885131836 0.13353887200355529785 0.20251737534999847412 1.0410860776901245117 1.1609290838241577148 1.3102246522903442383 0.71265304088592529297 0.20253781974315643311 0.17232961952686309814 0.18500794470310211182 0.81999343633651733398 1.0548926591873168945 1.3492735624313354492 0.21041537821292877197 0.20960538089275360107 0.2115930020809173584 0.20237368345260620117 0.19663530588150024414 0.17409569025039672852 0.84321242570877075195 0.20949712395668029785 0.21073162555694580078 0.19805106520652770996 0.14255143702030181885 0.16799494624137878418 0.19084525108337402344 0.19510850310325622559 0.19945538043975830078 0.19950374960899353027 0.15143881738185882568 0.06900250166654586792 0.20010875165462493896 1.4581650495529174805 2.5577991008758544922 2.3870909214019775391 2.4889676570892333984 1.7901582717895507812 
1.8739570379257202148 0.71436023712158203125 0.21158100664615631104 0.21698462963104248047 0.15126824378967285156 0.21352086961269378662 0.93811476230621337891 0.71799188852310180664 1.778853297233581543 0.31965032219886779785 0.023102438077330589294 0.035481125116348266602 0.036762375384569168091 0.012005000375211238861 0.012005000375211238861 0.012005000375211238861 0.012005000375211238861 3.2698268890380859375 4.6708803176879882812 1.596581578254699707 0.49752160906791687012 0.14352725446224212646 2.6675059795379638672 1.93024444580078125 0.21273712813854217529 0.21169275045394897461 0.20738950371742248535 0.20662625133991241455 0.080095835030078887939 0.20739050209522247314 0.2125701606273651123 0.12255583703517913818 0.13685467839241027832 0.16073149442672729492 0.21187074482440948486 0.17915958166122436523 0.09593893587589263916 0.20911411941051483154 0.21071843802928924561 0.20767268538475036621 0.1984583735466003418 0.19885949790477752686 0.20814381539821624756 0.88758194446563720703 0.20871219038963317871 0.13441474735736846924 0.024464000016450881958 0.061807375401258468628 0.38586670160293579102 0.30143395066261291504 0.11739025264978408813 0.1844682544469833374 0.17417986690998077393 0.19871950149536132812 0.19578737020492553711 0.78477954864501953125 0.20191168785095214844 0.20473761856555938721 0.69691944122314453125 2.7977690696716308594 0.38868406414985656738 0.60785603523254394531 0.95053923130035400391 0.21085786819458007812 0.20851056277751922607 0.20968607068061828613 0.21074606478214263916 0.20931731164455413818 0.19640438258647918701 1.7350658178329467773 0.21092405915260314941 0.20962375402450561523 0.20756855607032775879 0.20785118639469146729 0.20367681980133056641 1.4735856056213378906 1.7836339473724365234 1.9520483016967773438 2.2698018550872802734 1.2858312129974365234 1.3952928781509399414 1.9869893789291381836 3.3263032436370849609 3.2424771785736083984 3.542484283447265625 1.6103731393814086914 0.61870026588439941406 
0.4220066368579864502 0.21197418868541717529 0.21353393793106079102 0.63690543174743652344 0.19971287250518798828 0.32108011841773986816 0.8243668675422668457 1.2247917652130126953 1.7447867393493652344 0.12694683670997619629 0.048100188374519348145 0.072700925171375274658 0.012005000375211238861 0.012005000375211238861 1.3509135246276855469 0.012005000375211238861 1.6786272525787353516 3.9975020885467529297 1.4450285434722900391 0.52344048023223876953 0.12228337675333023071 0.14421962201595306396 1.090638279914855957 3.0882050991058349609 0.44784450531005859375 0.21060062944889068604 0.21190437674522399902 0.20784050226211547852 0.19467306137084960938 0.20758950710296630859 0.20550100505352020264 0.17942941188812255859 0.20986512303352355957 0.20868766307830810547 0.20762406289577484131 0.12457074970006942749 0.15474237501621246338 0.21019925177097320557 0.20847968757152557373 0.15041206777095794678 0.14895674586296081543 0.12429687380790710449 0.086866244673728942871 0.18506199121475219727 0.21060661971569061279 0.20766448974609375 0.085855744779109954834 0.13172081112861633301 0.14716343581676483154 0.39434376358985900879 0.20806474983692169189 0.036922998726367950439 0.012005000375211238861 0.012005000375211238861 0.023708438500761985779 0.036265000700950622559 0.2084407508373260498 0.21169199049472808838 0.64131224155426025391 2.0507218837738037109 0.20794437825679779053 0.19495424628257751465 0.20876137912273406982 0.21177756786346435547 0.20765481889247894287 0.21064887940883636475 0.21088688075542449951 0.19731575250625610352 1.6204061508178710938 2.5162751674652099609 1.5093088150024414062 0.44574856758117675781 1.4125877618789672852 1.7023980617523193359 0.47587177157402038574 0.66888326406478881836 0.2054093778133392334 0.46067705750465393066 2.9464390277862548828 2.3921561241149902344 3.8338685035705566406 2.9168534278869628906 3.4900910854339599609 2.3061161041259765625 3.1159343719482421875 1.2306122779846191406 0.21664275228977203369 
0.20934006571769714355 0.21234756708145141602 0.21620517969131469727 1.7142404317855834961 1.6456724405288696289 2.076564788818359375 1.2207255363464355469 0.52777725458145141602 0.061947625130414962769 0.085425749421119689941 0.21031586825847625732 0.048555500805377960205 0.034199874848127365112 0.012005000375211238861 0.03149050101637840271 0.11135162413120269775 0.20671300590038299561 0.20907525718212127686 0.55867969989776611328 0.3559176325798034668 0.17820328474044799805 0.16616110503673553467 1.0336357355117797852 3.5483586788177490234 0.21457618474960327148 0.2092027515172958374 0.21144688129425048828 0.2087215036153793335 0.20757569372653961182 0.012005000375211238861 0.13699129223823547363 0.12554188072681427002 1.3821431398391723633 0.21278364956378936768 0.16012381017208099365 0.12142312526702880859 0.19402462244033813477 0.21110361814498901367 0.12524387240409851074 0.13539199531078338623 0.012005000375211238861 0.012005000375211238861 0.061909437179565429688 0.19518761336803436279 0.20981636643409729004 0.20683011412620544434 0.20364142954349517822 0.21004217863082885742 0.2100213170051574707 0.19928437471389770508 0.20814606547355651855 0.024481875821948051453 0.012005000375211238861 0.012005000375211238861 0.012005000375211238861 0.15741999447345733643 0.2071854323148727417 0.20850506424903869629 1.4846796989440917969 2.8630337715148925781 0.2097829282283782959 0.1857233196496963501 0.21087631583213806152 0.21080544590950012207 0.21227087080478668213 0.2103926241397857666 0.20743450522422790527 0.41988080739974975586 1.4423404932022094727 1.8063387870788574219 3.2619416713714599609 2.3276436328887939453 2.0396745204925537109 0.88526803255081176758 0.63371878862380981445 0.20262587070465087891 0.20280975103378295898 0.64228701591491699219 1.2110041379928588867 2.4548962116241455078 2.2616140842437744141 0.32001519203186035156 0.90093463659286499023 1.1878650188446044922 2.3981544971466064453 0.21030737459659576416 0.21122649312019348145 
0.20409025251865386963 0.20995199680328369141 0.31640636920928955078 1.5426447391510009766 1.1645998954772949219 0.48303675651550292969 0.49407187104225158691 0.012005000375211238861 0.036578498780727386475 0.52510625123977661133 0.012005000375211238861 0.012005000375211238861 0.012005000375211238861 0.012005000375211238861 0.012005000375211238861 0.086550690233707427979 0.1121844947338104248 0.084982126951217651367 2.2594411373138427734 2.1238772869110107422 0.14104628562927246094 1.3179450035095214844 2.0476708412170410156 0.90632528066635131836 0.21346306800842285156 0.21150712668895721436 0.21008706092834472656 0.2119137495756149292 0.059893000870943069458 0.012005000375211238861 0.14004206657409667969 3.0194544792175292969 0.11070187389850616455 0.17440187931060791016 0.012005000375211238861 0.16093631088733673096 0.18487393856048583984 0.14949469268321990967 0.13754637539386749268 0.012005000375211238861 0.012005000375211238861 0.012005000375211238861 0.11005393415689468384 0.21200099587440490723 0.19738286733627319336 0.20963393151760101318 0.14417318999767303467 0.20948806405067443848 0.20326687395572662354 0.20871968567371368408 0.20865711569786071777 0.097930245101451873779 0.012005000375211238861 0.012005000375211238861 0.024481875821948051453 0.20593605935573577881 0.20662386715412139893 0.20968012511730194092 1.0404595136642456055 2.8293013572692871094 0.20972168445587158203 0.34411782026290893555 0.60280150175094604492 0.19710355997085571289 0.59163933992385864258 1.8375198841094970703 0.20810306072235107422 0.21194612979888916016 0.67050826549530029297 0.68073076009750366211 0.70284390449523925781 0.80413645505905151367 0.40256398916244506836 0.1979831308126449585 0.20912994444370269775 0.20264899730682373047 0.20925724506378173828 1.0192726850509643555 1.3564420938491821289 1.4588761329650878906 0.64466691017150878906 2.7625691890716552734 0.66720753908157348633 0.2127176821231842041 0.19896619021892547607 0.19267974793910980225 0.21317724883556365967 
0.2052306830883026123 0.2095686793327331543 0.31843531131744384766 0.43378680944442749023 0.63755184412002563477 0.12154543399810791016 0.012005000375211238861 0.13353107869625091553 0.6698557734489440918 0.88629204034805297852 0.11025317013263702393 0.012005000375211238861 0.012005000375211238861 0.012005000375211238861 0.012005000375211238861 0.61969166994094848633 0.18423473834991455078 0.21029849350452423096 0.12847983837127685547 2.1661236286163330078 0.4340133368968963623 1.395981907844543457 0.39308005571365356445 0.20987711846828460693 0.21218006312847137451 0.21114100515842437744 0.21241712570190429688 0.20950718224048614502 0.078148253262042999268 0.024481875821948051453 0.14873905479907989502 0.5136922001838684082 0.049053937196731567383 0.074439376592636108398 0.024429313838481903076 0.16208112239837646484 0.21002869307994842529 0.12286274880170822144 0.012005000375211238861 0.012005000375211238861 0.012005000375211238861 0.024463251233100891113 0.16685393452644348145 0.20964899659156799316 0.20901992917060852051 0.19444893300533294678 0.68518686294555664062 1.0227694511413574219 0.21069699525833129883 0.20711605250835418701 0.21084018051624298096 0.21220031380653381348 0.04823556169867515564 0.012005000375211238861 0.12247612327337265015 0.20901069045066833496 0.20700900256633758545 0.21122787892818450928 2.2796149253845214844 2.0467469692230224609 0.21068137884140014648 1.0754805803298950195 0.40915912389755249023 0.20919881761074066162 0.20713600516319274902 1.3575763702392578125 0.52751725912094116211 1.5534467697143554688 1.8134696483612060547 1.2634536027908325195 0.20507544279098510742 0.29258668422698974609 0.6180089116096496582 0.20668569207191467285 0.20907518267631530762 0.20900668203830718994 0.20869205892086029053 0.29990425705909729004 0.82354664802551269531 0.46370860934257507324 0.21328081190586090088 0.51556026935577392578 0.21022425591945648193 0.20649862289428710938 0.19038288295269012451 0.19931943714618682861 0.21787500381469726562 
0.20503762364387512207 0.1988556981086730957 0.20381493866443634033 0.19867956638336181641 0.085720129311084747314 0.97499603033065795898 0.3907000124454498291 0.036922998726367950439 0.56143218278884887695 0.19689649343490600586 0.12329343706369400024 0.012005000375211238861 0.012005000375211238861 0.012005000375211238861 0.012005000375211238861 0.10217750072479248047 0.11082737892866134644 0.1963491290807723999 0.2864989936351776123 1.436115264892578125 0.73892396688461303711 1.9393601417541503906 0.13447150588035583496 0.20369169116020202637 0.21287068724632263184 0.21059037744998931885 0.20954293012619018555 0.16136549413204193115 0.024613562971353530884 0.14512616395950317383 0.16170233488082885742 0.012005000375211238861 0.024429313838481903076 0.13580381870269775391 0.062222748994827270508 0.18557187914848327637 0.20902693271636962891 0.036492064595222473145 0.012005000375211238861 0.048708811402320861816 0.1839148104190826416 0.20604437589645385742 0.20858575403690338135 0.1953188776969909668 0.20840850472450256348 0.20919623970985412598 0.1847772449254989624 0.073521934449672698975 0.14937025308609008789 0.20833194255828857422 0.2065404355525970459 0.20806817710399627686 0.19456943869590759277 0.17192606627941131592 0.20863018929958343506 1.2573552131652832031 0.20998150110244750977 0.20878581702709197998 0.89240807294845581055 0.95866566896438598633 0.6753622889518737793 0.20699399709701538086 0.21032206714153289795 0.20686855912208557129 0.19400317966938018799 0.20047943294048309326 0.20629537105560302734 0.3680623173713684082 0.41506817936897277832 0.2091967463493347168 0.20314861834049224854 0.20235094428062438965 0.19433450698852539062 0.43798288702964782715 0.20933255553245544434 0.21231606602668762207 0.20972900092601776123 0.20131482183933258057 0.19588200747966766357 0.19485688209533691406 0.20884318649768829346 0.20671325922012329102 0.20882563292980194092 0.20813894271850585938 0.20136375725269317627 0.20797675848007202148 0.211362496018409729 
0.20939888060092926025 0.21101462841033935547 0.17373587191104888916 0.1186022534966468811 0.18291981518268585205 0.55497467517852783203 0.18506224453449249268 0.36908906698226928711 0.20939306914806365967 0.16489821672439575195 0.023727376013994216919 0.012005000375211238861 0.012005000375211238861 0.012005000375211238861 0.012005000375211238861 0.062137376517057418823 0.17325474321842193604 0.13601318001747131348 0.11104109883308410645 0.19392113387584686279 1.2597430944442749023 1.4208136796951293945 0.19524885714054107666 1.8076336383819580078 1.2263244390487670898 0.20820537209510803223 0.21121187508106231689 0.11074680089950561523 0.073002539575099945068 0.20997484028339385986 0.1186393052339553833 0.012005000375211238861 0.086985751986503601074 0.12144881486892700195 0.024535875767469406128 0.6585114598274230957 0.21069730818271636963 0.061668749898672103882 0.012005000375211238861 0.15639950335025787354 0.20866486430168151855 0.90858423709869384766 0.6356995701789855957 0.20881313085556030273 0.20566356182098388672 0.20743961632251739502 0.074219815433025360107 0.17572906613349914551 0.084873877465724945068 0.20473536849021911621 0.19440111517906188965 0.19949606060981750488 0.21165643632411956787 0.20739062130451202393 0.20740662515163421631 1.4351470470428466797 0.2064898759126663208 0.20359756052494049072 0.19575557112693786621 0.20304112136363983154 0.20425462722778320312 0.21020518243312835693 0.20897412300109863281 0.20634837448596954346 0.18335594236850738525 0.1946573108434677124 0.20946006476879119873 0.36631283164024353027 0.20037725567817687988 0.20807930827140808105 1.5394464731216430664 1.1797643899917602539 0.91634511947631835938 0.78526693582534790039 0.21063281595706939697 0.2093035578727722168 0.20937655866146087646 0.20278656482696533203 0.20089763402938842773 0.19516062736511230469 0.20621694624423980713 0.21388812363147735596 0.20947863161563873291 0.20808012783527374268 0.20153605937957763672 0.20734444260597229004 0.21331626176834106445 
0.21333606541156768799 0.14605168998241424561 0.097355879843235015869 0.14849574863910675049 0.17357343435287475586 3.1280124187469482422 0.53754639625549316406 1.1550741195678710938 0.20957124233245849609 0.10878000408411026001 0.012005000375211238861 0.012005000375211238861 0.061236500740051269531 0.012005000375211238861 0.012005000375211238861 0.80279880762100219727 3.2894432544708251953 0.21097888052463531494 0.41965824365615844727 0.18894049525260925293 0.14783293008804321289 0.20902992784976959229 0.2098553776741027832 3.1427855491638183594 0.20126968622207641602 0.19786094129085540771 0.21149368584156036377 0.21015499532222747803 0.19007769227027893066 0.1249017864465713501 0.11148709803819656372 0.048753377050161361694 0.012005000375211238861 0.073953814804553985596 0.6458797454833984375 0.69770395755767822266 0.21090574562549591064 0.13601380586624145508 0.084525123238563537598 0.20103025436401367188 0.20405618846416473389 0.2070798724889755249 0.20983237028121948242 0.20650418102741241455 0.20631194114685058594 0.14571981132030487061 0.15997663140296936035 0.097184620797634124756 0.15509681403636932373 0.19368319213390350342 0.10754936933517456055 0.17014262080192565918 0.21023194491863250732 0.20819556713104248047 0.20929162204265594482 0.20805367827415466309 0.19823156297206878662 0.20025238394737243652 0.19881480932235717773 0.18044275045394897461 0.19751825928688049316 0.20350724458694458008 0.21066181361675262451 0.19849993288516998291 0.20744824409484863281 0.20829287171363830566 0.21042956411838531494 1.1952568292617797852 1.0053368806838989258 0.70198154449462890625 0.40638563036918640137 0.18471887707710266113 0.15309512615203857422 0.18415024876594543457 0.21160274744033813477 0.21116624772548675537 0.20998193323612213135 0.2044817507266998291 0.20845337212085723877 0.19516062736511230469 1.1298478841781616211 0.20985375344753265381 0.20592030882835388184 0.29072806239128112793 0.33470448851585388184 0.20647925138473510742 0.19989524781703948975 
0.72987723350524902344 2.3965318202972412109 0.12387081235647201538 0.12202243506908416748 0.14847324788570404053 1.5581022500991821289 0.82253706455230712891 0.13568487763404846191 0.15865233540534973145 0.012005000375211238861 0.012005000375211238861 0.026078214868903160095 0.15690332651138305664 0.024010626599192619324 0.012005000375211238861 0.012005000375211238861 3.5886087417602539062 0.91914182901382446289 1.5497826337814331055 1.8780673742294311523 1.0101969242095947266 0.52699166536331176758 3.8986690044403076172 1.9813774824142456055 0.21002830564975738525 0.17138506472110748291 0.20799313485622406006 0.20849816501140594482 0.13792443275451660156 0.14954400062561035156 0.024367751553654670715 0.012005000375211238861 0.012005000375211238861 0.12274393439292907715 0.20979392528533935547 0.19736762344837188721 0.21002937853336334229 0.21007037162780761719 0.18224862217903137207 0.20902818441390991211 0.20731200277805328369 0.2051280587911605835 0.54793345928192138672 1.9537630081176757812 0.20991468429565429688 0.12065756320953369141 0.10772287100553512573 0.20443242788314819336 0.1063885614275932312 0.18557663261890411377 0.20807349681854248047 0.20900143682956695557 0.20884075760841369629 0.20896124839782714844 0.62145411968231201172 0.20904880762100219727 0.13203130662441253662 1.2048883438110351562 0.2836329340934753418 0.43166762590408325195 0.19170281291007995605 0.20399037003517150879 0.20629930496215820312 0.18487855792045593262 0.20985563099384307861 0.21025231480598449707 0.74470508098602294922 3.0897848606109619141 1.3770242929458618164 0.2051839977502822876 0.19736419618129730225 0.18323406577110290527 0.16051831841468811035 0.13667619228363037109 0.20806974172592163086 0.21180719137191772461 0.41719025373458862305 0.20503368973731994629 0.19523081183433532715 0.19614018499851226807 1.3037853240966796875 0.30422800779342651367 0.19848132133483886719 0.39432770013809204102 1.016217350959777832 0.19116425514221191406 0.20279151201248168945 
0.19678349792957305908 0.20970687270164489746 0.084727123379707336426 0.15647737681865692139 0.2104981839656829834 0.20933650434017181396 0.2112125009298324585 0.16148950159549713135 0.15887500345706939697 0.012005000375211238861 0.012005000375211238861 0.027339152991771697998 0.11101280152797698975 0.024481875821948051453 0.012005000375211238861 1.1660587787628173828 1.2449963092803955078 0.21191643178462982178 1.1933679580688476562 2.6410310268402099609 2.3648710250854492188 2.5337476730346679688 1.4750245809555053711 0.21232150495052337646 0.21213300526142120361 0.20966887474060058594 0.20785124599933624268 0.16676542162895202637 0.14425174891948699951 0.10468280315399169922 0.024867562577128410339 0.012005000375211238861 0.08518575131893157959 0.124127998948097229 0.18438056111335754395 0.086096748709678649902 0.11259556561708450317 0.17085975408554077148 0.2085459977388381958 0.20742850005626678467 0.20578624308109283447 0.21096962690353393555 0.79611873626708984375 1.4680585861206054688 0.21023517847061157227 0.20878867805004119873 0.20679612457752227783 0.20524418354034423828 0.20800830423831939697 0.20861612260341644287 0.53000152111053466797 0.20954230427742004395 0.20984630286693572998 0.20990712940692901611 1.5008380413055419922 0.20265024900436401367 0.20923955738544464111 0.21024262905120849609 0.20881262421607971191 0.20613050460815429688 0.1718632429838180542 0.4223925471305847168 0.36858081817626953125 0.20889593660831451416 0.21398524940013885498 0.21297012269496917725 1.1730111837387084961 2.6980686187744140625 0.54543715715408325195 0.19632793962955474854 0.20061574876308441162 0.19215512275695800781 0.2040983736515045166 0.2087052464485168457 0.20972587168216705322 0.2087106853723526001 0.20801912248134613037 0.78807342052459716797 0.1909148097038269043 0.90074175596237182617 2.0046250820159912109 0.3052634894847869873 0.67685782909393310547 0.35135343670845031738 0.20204724371433258057 0.1955941319465637207 0.19850599765777587891 
2.8858716487884521484 0.21055588126182556152 0.11076512187719345093 0.061196438968181610107 0.10661418735980987549 0.13625437021255493164 0.21004700660705566406 0.18531362712383270264 0.037155374884605407715 0.012005000375211238861 0.012005000375211238861 2.1880247592926025391 2.9360210895538330078 0.061137624084949493408 0.63380819559097290039 0.36218732595443725586 0.012005000375211238861 0.20925863087177276611 0.21197500824928283691 0.21231193840503692627 0.21186755597591400146 1.2788455486297607422 2.6228260993957519531 0.14485408365726470947 0.20835758745670318604 0.20985050499439239502 0.17570792138576507568 0.13676862418651580811 0.094983749091625213623 0.060089752078056335449 0.012005000375211238861 0.04873612523078918457 0.12145887315273284912 0.19951368868350982666 0.12346731126308441162 0.012005000375211238861 0.012005000375211238861 0.012005000375211238861 0.13578112423419952393 0.20872049033641815186 0.20485806465148925781 0.21023294329643249512 0.21045480668544769287 0.20427761971950531006 0.20943868160247802734 0.20849174261093139648 0.20566380023956298828 0.21065942943096160889 0.21119000017642974854 0.21077013015747070312 1.4029788970947265625 0.21069969236850738525 0.2090981900691986084 0.20546093583106994629 0.2039467543363571167 0.19114913046360015869 0.20229668915271759033 0.2033398747444152832 0.20797318220138549805 0.1809482574462890625 0.035908751189708709717 0.74170815944671630859 0.7319965362548828125 0.17123375833034515381 1.0770515203475952148 3.2139153480529785156 3.5239350795745849609 2.8092885017395019531 0.68426823616027832031 0.57468378543853759766 1.3202322721481323242 0.1972198188304901123 0.20747855305671691895 0.20996774733066558838 0.20810656249523162842 0.20729899406433105469 0.21069380640983581543 0.87094122171401977539 0.19047337770462036133 0.50029444694519042969 2.7240374088287353516 1.0223473310470581055 1.0356630086898803711 0.20668256282806396484 0.20821681618690490723 0.20501731336116790771 0.20111501216888427734 
1.1221776008605957031 0.21037212014198303223 0.1595566868782043457 0.13550487160682678223 0.060261875391006469727 0.09842662513256072998 0.1823005378246307373 0.10970974713563919067 0.012005000375211238861 0.012005000375211238861 0.028617000207304954529 1.3864817619323730469 0.12355528771877288818 0.17353925108909606934 0.35514059662818908691 0.024501062929630279541 0.036557812243700027466 0.2127857506275177002 0.20787701010704040527 0.210605621337890625 0.21016769111156463623 0.42240706086158752441 0.41849213838577270508 0.21121937036514282227 0.19580605626106262207 0.19709931313991546631 0.10086400061845779419 0.21090525388717651367 0.057522386312484741211 0.012005000375211238861 0.024612125009298324585 0.085073687136173248291 0.11140944063663482666 0.20710530877113342285 0.19765000045299530029 0.099365748465061187744 0.012005000375211238861 0.012005000375211238861 0.098355248570442199707 0.69441890716552734375 0.20543313026428222656 0.20372062921524047852 0.20187611877918243408 0.20492199063301086426 0.20889312028884887695 0.19421650469303131104 0.2083155512809753418 0.20805893838405609131 0.20865938067436218262 0.20903293788433074951 0.20582830905914306641 0.20635624229907989502 0.2068634331226348877 0.20812174677848815918 0.20686925947666168213 0.20100162923336029053 0.19892919063568115234 0.19232031702995300293 0.19397306442260742188 0.090833127498626708984 0.012005000375211238861 0.012005000375211238861 0.012005000375211238861 0.012005000375211238861 0.23758624494075775146 2.1313934326171875 2.37671661376953125 2.1238496303558349609 0.41484838724136352539 0.69028306007385253906 0.20756618678569793701 0.20487231016159057617 0.21077656745910644531 0.21178987622261047363 0.20866055786609649658 0.20788468420505523682 0.3240909576416015625 0.43425324559211730957 0.24668394029140472412 1.368825078010559082 0.97486025094985961914 0.45825988054275512695 0.047637626528739929199 0.19604744017124176025 0.20723843574523925781 0.20830737054347991943 0.20480400323867797852 
1.7952699661254882812 1.2879059314727783203 0.1349795609712600708 0.10798781365156173706 0.20549169182777404785 0.13690799474716186523 0.19544871151447296143 0.087019376456737518311 0.10078450292348861694 4.1425752639770507812 1.8598359823226928711 1.2792059183120727539 2.2998750209808349609 0.17516325414180755615 0.012005000375211238861 0.084296748042106628418 0.18603837490081787109 0.21077112853527069092 0.2080084383487701416 0.20931261777877807617 0.21228837966918945312 0.21160562336444854736 0.2093700021505355835 0.20546224713325500488 0.20853000879287719727 0.19668518006801605225 0.18917083740234375 0.21138924360275268555 0.060161314904689788818 0.023102438077330589294 0.012005000375211238861 0.10872325301170349121 0.19792824983596801758 0.20852500200271606445 0.20884367823600769043 0.17076081037521362305 0.012005000375211238861 0.012005000375211238861 0.15939874947071075439 0.20325224101543426514 0.20786012709140777588 0.20642118155956268311 0.20757693052291870117 0.2003600001335144043 0.19582462310791015625 0.12234206497669219971 0.20404312014579772949 0.20271211862564086914 0.20011143386363983154 0.20885674655437469482 0.20912280678749084473 0.21181055903434753418 0.20955237746238708496 0.20888969302177429199 0.20761688053607940674 0.20224750041961669922 0.20111906528472900391 0.20361287891864776611 0.095645874738693237305 0.048672936856746673584 0.084388442337512969971 0.086170189082622528076 0.12332575023174285889 1.1806060075759887695 1.2758009433746337891 1.1342091560363769531 2.0707604885101318359 0.83591759204864501953 0.20929375290870666504 1.2528922557830810547 0.20920462906360626221 0.21017080545425415039 0.21158906817436218262 0.20740550756454467773 0.20884594321250915527 0.20383937656879425049 0.20649768412113189697 0.21130006015300750732 0.21501886844635009766 0.20974206924438476562 0.21065494418144226074 0.074353501200675964355 0.061497624963521957397 0.12232181429862976074 0.20992305874824523926 0.2030836939811706543 0.21178075671195983887 
0.42553162574768066406 0.11804725229740142822 0.18524399399757385254 0.1225061267614364624 0.1618280559778213501 0.19610469043254852295 0.13641349971294403076 0.034199874848127365112 0.036405626684427261353 2.7492101192474365234 3.0717153549194335938 0.3179213404655456543 0.034199874848127365112 0.034199874848127365112 0.012005000375211238861 0.17235955595970153809 0.12371468544006347656 0.20915049314498901367 0.20938993990421295166 0.21020825207233428955 0.21024550497531890869 0.2116492539644241333 0.20923206210136413574 0.20766012370586395264 0.19410006701946258545 0.19001460075378417969 0.082952000200748443604 0.012005000375211238861 0.012005000375211238861 0.012005000375211238861 0.012005000375211238861 0.13129287958145141602 0.14646044373512268066 0.2118190079927444458 0.21088400483131408691 0.20694369077682495117 0.024033250287175178528 0.35385027527809143066 0.49001783132553100586 0.2062803804874420166 0.20794463157653808594 0.21065261960029602051 0.21115437150001525879 0.19912156462669372559 0.19896149635314941406 0.14038568735122680664 0.20753687620162963867 0.21159768104553222656 0.14879406988620758057 0.82570785284042358398 0.80974441766738891602 0.21027663350105285645 0.19504912197589874268 3.3221497535705566406 0.20543868839740753174 0.1992216259241104126 0.20175637304782867432 0.124681815505027771 0.012005000375211238861 0.1213103756308555603 0.073845125734806060791 0.012005000375211238861 0.16067361831665039062 0.63686078786849975586 1.7529814243316650391 0.18582306802272796631 0.62259590625762939453 0.20803087949752807617 0.21035987138748168945 0.2115236818790435791 0.20873031020164489746 0.20579718053340911865 0.20495812594890594482 0.20791774988174438477 0.20206587016582489014 0.20632643997669219971 0.20461043715476989746 0.2100785672664642334 0.20816905796527862549 0.20629568397998809814 0.20289437472820281982 0.18649131059646606445 0.012005000375211238861 0.024266876280307769775 0.20751868188381195068 0.20785200595855712891 0.2089977562427520752 
1.8366658687591552734 0.10896006226539611816 0.1846291273832321167 0.073797374963760375977 0.14600443840026855469 0.36524331569671630859 2.5796039104461669922 1.1307580471038818359 0.11191999912261962891 0.59069842100143432617 0.15915131568908691406 0.02742761559784412384 0.012005000375211238861 0.39599239826202392578 0.02830225042998790741 0.11004793643951416016 0.012005000375211238861 0.21112819015979766846 0.20975594222545623779 0.13479863107204437256 0.17315974831581115723 0.21273331344127655029 0.20771420001983642578 0.20980446040630340576 0.21152800321578979492 0.027173692360520362854 0.012005000375211238861 0.012005000375211238861 0.023956937715411186218 0.012005000375211238861 0.012005000375211238861 0.081222124397754669189 0.10978774726390838623 0.19272543489933013916 0.19852562248706817627 0.20992493629455566406 0.14902319014072418213 1.4747713804244995117 0.20898875594139099121 0.20804068446159362793 0.20790094137191772461 0.20661255717277526855 0.20751750469207763672 0.20661231875419616699 0.20888873934745788574 0.19522055983543395996 0.13601106405258178711 0.074349001049995422363 0.036952625960111618042 0.012005000375211238861 0.1123517453670501709 0.21083931624889373779 0.1943766176700592041 0.83694559335708618164 1.0307425260543823242 0.20771475136280059814 0.20337493717670440674 0.097543440759181976318 0.012005000375211238861 0.024428751319646835327 0.012005000375211238861 0.30346268415451049805 1.0500229597091674805 2.3574645519256591797 1.6632802486419677734 0.67226713895797729492 0.20918956398963928223 0.20672275125980377197 0.20939755439758300781 0.21166181564331054688 0.2101841270923614502 0.20590119063854217529 0.20513962209224700928 0.20788031816482543945 0.64086157083511352539 2.1948969364166259766 1.1024472713470458984 0.20865543186664581299 0.21403674781322479248 0.20057706534862518311 0.20510549843311309814 0.13578343391418457031 0.10003562271595001221 0.07408262789249420166 0.1926974952220916748 0.20678855478763580322 0.21211324632167816162 
0.09507118910551071167 0.1711069941520690918 0.13479700684547424316 0.12085475027561187744 0.14692468941211700439 0.72820860147476196289 2.4571309089660644531 0.29952290654182434082 0.13170219957828521729 0.086910873651504516602 0.12756657600402832031 0.055750556290149688721 0.18787933886051177979 0.012005000375211238861 0.025067266076803207397 0.095669664442539215088 0.012005000375211238861 0.21057942509651184082 0.20916281640529632568 0.2000344395637512207 0.21034713089466094971 0.21196793019771575928 0.17644783854484558105 0.20873807370662689209 1.4476704597473144531 0.71353584527969360352 0.024429313838481903076 0.047953061759471893311 0.012005000375211238861 0.012005000375211238861 0.012005000375211238861 0.058211125433444976807 0.060453187674283981323 0.18252968788146972656 0.67450660467147827148 0.1868063807487487793 0.21068830788135528564 0.20742975175380706787 0.20844231545925140381 0.20833581686019897461 0.20819406211376190186 0.17244231700897216797 0.20921237766742706299 0.19748724997043609619 0.098228372633457183838 0.061870623379945755005 0.1367257535457611084 0.012005000375211238861 0.061900250613689422607 0.08477306365966796875 0.012005000375211238861 0.19663849472999572754 0.20450305938720703125 0.20560175180435180664 1.2872252464294433594 0.45541018247604370117 0.16949936747550964355 0.012005000375211238861 0.049182564020156860352 0.13502493500709533691 0.085033059120178222656 0.18407605588436126709 0.20727480947971343994 0.46514344215393066406 0.21035955846309661865 0.2106577455997467041 0.21176168322563171387 0.20983499288558959961 0.20856949687004089355 0.20757600665092468262 0.20517712831497192383 0.20739255845546722412 0.20384655892848968506 0.20435237884521484375 0.20267087221145629883 1.4769138097763061523 0.4143924415111541748 0.20049549639225006104 0.20316350460052490234 0.19260919094085693359 0.20040787756443023682 0.20992974936962127686 0.20651625096797943115 0.28200957179069519043 0.19811968505382537842 0.20977981388568878174 0.21095299720764160156 
0.13588887453079223633 0.21339268982410430908 0.1119798123836517334 0.17397087812423706055 0.11025825142860412598 1.3482414484024047852 1.939641118049621582 0.24930116534233093262 0.1952756345272064209 0.085070371627807617188 0.19272008538246154785 0.11764466762542724609 0.85863626003265380859 0.1047628745436668396 0.012005000375211238861 0.078589625656604766846 0.20189499855041503906 0.1716994941234588623 0.20832574367523193359 0.20734949409961700439 0.20987980067729949951 0.93488848209381103516 0.75739681720733642578 0.19755387306213378906 0.095390580594539642334 0.024847876280546188354 0.012005000375211238861 0.012005000375211238861 0.012005000375211238861 0.012005000375211238861 0.012005000375211238861 0.012005000375211238861 0.036762375384569168091 0.084774188697338104248 0.85444909334182739258 0.2098013758659362793 0.21109238266944885254 0.2077268064022064209 0.20916680991649627686 0.20754656195640563965 0.21295656263828277588 0.20792293548583984375 0.20973612368106842041 0.16017724573612213135 0.012005000375211238861 0.012005000375211238861 0.012005000375211238861 0.061148811131715774536 0.19657362997531890869 0.20726343989372253418 0.19271793961524963379 0.20686550438404083252 0.19409281015396118164 0.2056674957275390625 0.20275406539440155029 0.19892950356006622314 0.18149487674236297607 0.024847876280546188354 0.086085811257362365723 0.19804950058460235596 0.11043806374073028564 0.14777638018131256104 0.21192936599254608154 0.50621360540390014648 0.21166381239891052246 0.21028381586074829102 0.18420949578285217285 0.16979150474071502686 0.20891430974006652832 0.20373307168483734131 0.2067171931266784668 0.20643056929111480713 0.19971261918544769287 0.2011661231517791748 0.20660173892974853516 0.20901155471801757812 0.20984318852424621582 2.4095525741577148438 0.20026181638240814209 0.19173419475555419922 0.20430175960063934326 0.96657401323318481445 0.2951412498950958252 0.20792581140995025635 0.20956288278102874756 0.20875562727451324463 0.21004299819469451904 
0.097659379243850708008 0.21122244000434875488 0.24191392958164215088 0.049288500100374221802 0.036822624504566192627 0.58850824832916259766 0.1107072979211807251 0.012005000375211238861 0.076990082859992980957 0.090345703065395355225 0.14649505913257598877 0.077534332871437072754 0.048535436391830444336 0.11254475265741348267 0.077389165759086608887 0.13551187515258789062 0.19657321274280548096 0.15965199470520019531 0.21038450300693511963 0.21401150524616241455 0.21175807714462280273 1.1820039749145507812 1.4170960187911987305 0.51535171270370483398 0.082569710910320281982 0.012005000375211238861 0.024367751553654670715 0.023102438077330589294 0.012005000375211238861 0.024338375777006149292 0.035465188324451446533 0.012005000375211238861 0.034199874848127365112 0.1253338158130645752 0.18311937153339385986 2.2777063846588134766 0.76962763071060180664 0.18693712353706359863 1.4172332286834716797 0.19658944010734558105 0.199748992919921875 0.21092836558818817139 0.20890018343925476074 0.21082556247711181641 0.17255805432796478271 0.141376495361328125 0.13126519322395324707 0.20692175626754760742 0.20583418011665344238 0.20582231879234313965 0.20743405818939208984 0.1586411893367767334 0.20181100070476531982 0.16887880861759185791 0.14162850379943847656 0.1897306293249130249 0.20985455811023712158 0.21135386824607849121 0.20391337573528289795 0.20755667984485626221 0.14787405729293823242 0.087031565606594085693 0.19716468453407287598 0.20961862802505493164 0.12184543907642364502 0.18226043879985809326 0.20842124521732330322 0.19575887918472290039 0.17242737114429473877 0.20558850467205047607 0.20340943336486816406 0.20128931105136871338 0.20771962404251098633 0.21029575169086456299 0.20837019383907318115 0.20924818515777587891 0.72021383047103881836 2.6857888698577880859 0.43155214190483093262 0.27936482429504394531 0.21205180883407592773 2.0550742149353027344 0.18904094398021697998 0.20690762996673583984 0.21045255661010742188 0.21017031371593475342 0.21023850142955780029 
0.14808662235736846924 1.0353829860687255859 1.4855074882507324219 0.54389679431915283203 0.14767219126224517822 0.35313132405281066895 0.012005000375211238861 0.012005000375211238861 0.15946693718433380127 0.060674164444208145142 0.56841450929641723633 0.012005000375211238861 0.012005000375211238861 0.012005000375211238861 0.012005000375211238861 0.15406650304794311523 0.14491349458694458008 0.10985087603330612183 0.20542918145656585693 0.21181337535381317139 0.21313537657260894775 2.0062203407287597656 1.6607836484909057617 1.7547969818115234375 0.14267042279243469238 0.073694191873073577881 0.049125123769044876099 0.036730501800775527954 0.097780376672744750977 0.086322501301765441895 0.036496751010417938232 0.023102438077330589294 0.012005000375211238861 0.14228625595569610596 1.9745361804962158203 1.182881474494934082 0.61860382556915283203 0.19545137882232666016 0.44513720273971557617 0.99137437343597412109 0.1934143751859664917 0.2086098790168762207 0.21049293875694274902 0.20854394137859344482 0.20762312412261962891 0.20303387939929962158 0.20245574414730072021 0.20479193329811096191 0.20469649136066436768 0.20684012770652770996 1.6618447303771972656 0.59133750200271606445 0.20346637070178985596 0.15870974957942962646 0.062268000096082687378 0.047078751027584075928 1.3202154636383056641 1.8089773654937744141 0.20873574912548065186 0.2108109891414642334 0.096497498452663421631 0.20911206305027008057 0.20912624895572662354 0.20837743580341339111 0.20851050317287445068 0.20981068909168243408 0.18523718416690826416 0.14635400474071502686 0.072767250239849090576 0.20748880505561828613 0.21192331612110137939 0.207907065749168396 0.21121293306350708008 0.20918737351894378662 0.21182169020175933838 0.21004256606101989746 1.1448180675506591797 2.7671961784362792969 0.60209101438522338867 0.77859669923782348633 0.050140436738729476929 0.099058747291564941406 0.18526005744934082031 0.21285106241703033447 0.21171399950981140137 0.21077968180179595947 0.21200375258922576904 
0.16096237301826477051 0.12364549934864044189 3.53055572509765625 0.099850997328758239746 1.6457904577255249023 0.04922249913215637207 0.012005000375211238861 0.092915356159210205078 0.1086170002818107605 0.13398377597332000732 1.0853059291839599609 0.028387334197759628296 0.012005000375211238861 0.012005000375211238861 0.02742761559784412384 0.14495074748992919922 0.11768066883087158203 0.19313099980354309082 0.20373512804508209229 0.21671606600284576416 0.43179866671562194824 1.6595768928527832031 0.21370685100555419922 0.21049131453037261963 0.19776724278926849365 1.5069520473480224609 1.6437512636184692383 0.098308250308036804199 0.072468437254428863525 0.012005000375211238861 0.024367751553654670715 0.070691503584384918213 0.012005000375211238861 0.35350850224494934082 1.3147110939025878906 0.14720530807971954346 0.19744181632995605469 0.20742169022560119629 1.2504670619964599609 0.54040408134460449219 0.20823462307453155518 0.20631362497806549072 0.20861800014972686768 0.20680224895477294922 0.2107699960470199585 0.20412881672382354736 0.20655393600463867188 0.20340630412101745605 0.20823137462139129639 0.20612843334674835205 2.6831607818603515625 0.82057058811187744141 0.20382237434387207031 0.13405400514602661133 0.12312118709087371826 0.45138642191886901855 3.0478856563568115234 2.2981052398681640625 0.17132881283760070801 0.20857937633991241455 0.11163912713527679443 0.20525237917900085449 0.20721162855625152588 0.20628300309181213379 0.20180556178092956543 0.20861394703388214111 0.20485618710517883301 0.11047987639904022217 0.15899562835693359375 0.20610855519771575928 0.20783656835556030273 0.20792855322360992432 0.47533461451530456543 0.20952805876731872559 0.2134803086519241333 0.21042568981647491455 0.21058544516563415527 0.63818860054016113281 0.2066443711519241333 0.19667463004589080811 0.16062337160110473633 0.18377231061458587646 0.18595924973487854004 1.6058193445205688477 0.21181505918502807617 0.21080730855464935303 0.21221224963665008545 
0.098188370466232299805 0.27960643172264099121 1.5301253795623779297 0.46638476848602294922 0.86908358335494995117 0.17331181466579437256 0.11305347084999084473 0.13698607683181762695 0.92432999610900878906 0.44525420665740966797 0.64277672767639160156 0.10882258415222167969 0.012005000375211238861 0.038315750658512115479 0.061192333698272705078 0.085917621850967407227 0.16260738670825958252 0.19793768227100372314 0.21310469508171081543 0.3210646212100982666 0.33056408166885375977 0.20818437635898590088 0.21063062548637390137 0.21031112968921661377 1.3931758403778076172 1.8083826303482055664 0.78559285402297973633 1.4001778364181518555 0.11139231175184249878 0.15972943603992462158 0.012005000375211238861 0.061410311609506607056 0.034199874848127365112 0.023102438077330589294 1.5170649290084838867 0.41300731897354125977 0.16066181659698486328 0.20914544165134429932 0.74201184511184692383 0.64840674400329589844 0.20729462802410125732 0.20737475156784057617 0.20819850265979766846 0.19814261794090270996 0.20532906055450439453 0.19889700412750244141 0.19940224289894104004 0.20385606586933135986 0.20656350255012512207 0.20424388349056243896 0.95552575588226318359 0.18190106749534606934 0.15613099932670593262 0.035787064582109451294 0.098948247730731964111 0.39779874682426452637 0.55380165576934814453 1.4549002647399902344 1.9443074464797973633 0.13607011735439300537 0.024481875821948051453 0.024205313995480537415 0.023250937461853027344 0.13419149816036224365 0.14522950351238250732 0.12234231084585189819 0.12138712406158447266 0.071947626769542694092 0.20999637246131896973 0.20650912821292877197 0.20848119258880615234 0.30910056829452514648 0.11510043591260910034 0.18735262751579284668 0.20956124365329742432 0.21112793684005737305 0.21123887598514556885 0.85996973514556884766 1.7729604244232177734 0.78863239288330078125 1.8026525974273681641 0.19705943763256072998 0.11086787283420562744 0.068853750824928283691 0.25369730591773986816 0.08372637629508972168 0.15723425149917602539 
0.085967622697353363037 1.5887595415115356445 1.9407209157943725586 0.99134296178817749023 0.17215150594711303711 0.37207168340682983398 0.033694446086883544922 0.15928037464618682861 0.36457493901252746582 0.38873311877250671387 1.9476186037063598633 0.56113600730895996094 0.012005000375211238861 0.11178687214851379395 0.16091507673263549805 0.072424873709678649902 0.19394274055957794189 0.18737769126892089844 0.21386437118053436279 0.21338056027889251709 1.892415165901184082 0.21009156107902526855 0.21249881386756896973 0.21188549697399139404 2.1928253173828125 1.5159052610397338867 0.086440622806549072266 1.6335217952728271484 0.12376850098371505737 0.15745018422603607178 0.012005000375211238861 0.059803999960422515869 0.023102438077330589294 0.012005000375211238861 0.31193852424621582031 0.024136876687407493591 0.13478362560272216797 0.21041275560855865479 0.20877836644649505615 0.20754612982273101807 0.20733544230461120605 0.20777775347232818604 0.20668686926364898682 0.20674249529838562012 0.20078018307685852051 0.19568774104118347168 0.1920038759708404541 0.19917517900466918945 0.20328444242477416992 0.2064971923828125 0.20365019142627716064 0.19144481420516967773 0.082633934915065765381 0.012005000375211238861 0.012005000375211238861 0.099060378968715667725 0.20939831435680389404 0.15959787368774414062 0.12524430453777313232 0.38983243703842163086 1.0675426721572875977 2.0446918010711669922 0.0735166892409324646 0.086116373538970947266 0.13001149892807006836 0.072036065161228179932 0.036303374916315078735 0.26197612285614013672 0.47334980964660644531 0.20843431353569030762 0.20825025439262390137 0.14652962982654571533 0.086309440433979034424 0.14762513339519500732 0.18521037697792053223 0.21088562905788421631 0.21246480941772460938 0.21265757083892822266 0.4650020897388458252 0.20978343486785888672 0.20909292995929718018 0.17443375289440155029 0.16843444108963012695 0.44278013706207275391 1.0293326377868652344 0.20347924530506134033 0.20759299397468566895 
0.074265748262405395508 0.4490083158016204834 1.285874485969543457 2.5785739421844482422 0.14831312000751495361 0.58493322134017944336 0.81749075651168823242 0.12918862700462341309 0.19304841756820678711 1.7045110464096069336 0.90926957130432128906 0.76774233579635620117 0.1846310049295425415 0.012005000375211238861 0.091104753315448760986 0.012005000375211238861 0.15125790238380432129 0.21047431230545043945 0.21460705995559692383 0.3419405817985534668 2.1468501091003417969 0.21192969381809234619 0.21076261997222900391 0.29640480875968933105 1.9579449892044067383 0.34843292832374572754 0.87361437082290649414 1.4178223609924316406 0.69900238513946533203 0.10964962095022201538 0.12452831119298934937 0.14513355493545532227 0.084778562188148498535 0.012005000375211238861 0.012005000375211238861 0.012005000375211238861 0.62084758281707763672 0.21079674363136291504 0.46516615152359008789 0.61705148220062255859 0.20812593400478363037 0.20828919112682342529 0.20531199872493743896 0.20094817876815795898 0.20503081381320953369 0.20206187665462493896 0.20046718418598175049 0.20326499640941619873 0.2032435685396194458 0.20562724769115447998 0.64292776584625244141 0.18149231374263763428 0.036492001265287399292 0.012005000375211238861 0.024612125009298324585 0.97528135776519775391 1.2147781848907470703 0.037181627005338668823 0.12472162395715713501 0.85783612728118896484 1.1743662357330322266 1.8757025003433227539 1.065836787223815918 0.2902469336986541748 0.34649163484573364258 0.62393736839294433594 0.58764064311981201172 0.37056961655616760254 1.0098512172698974609 0.20424562692642211914 0.20925749838352203369 0.13804775476455688477 0.12219787389039993286 0.012005000375211238861 0.099069811403751373291 0.1973161846399307251 0.8055604100227355957 1.8572936058044433594 0.20909813046455383301 0.20569786429405212402 0.2068668752908706665 0.20981918275356292725 0.21151100099086761475 0.21167244017124176025 0.21350061893463134766 0.212786063551902771 0.21182900667190551758 
0.14620037376880645752 0.30831301212310791016 0.036221373826265335083 0.5222409367561340332 0.18536387383937835693 0.17134849727153778076 0.012005000375211238861 1.1136857271194458008 0.19528877735137939453 0.65458410978317260742 1.7306776046752929688 2.3691840171813964844 0.059187874197959899902 0.036922998726367950439 0.096207998692989349365 0.13447125256061553955 0.10085122287273406982 0.2093188166618347168 0.21256369352340698242 0.43461561203002929688 1.2698678970336914062 0.13601662218570709229 0.087275497615337371826 0.8079077601432800293 1.5297088623046875 0.79729419946670532227 0.75964999198913574219 0.074069939553737640381 0.30371242761611938477 0.17949368059635162354 0.20943255722522735596 0.21108917891979217529 0.20896919071674346924 0.98116600513458251953 0.29826667904853820801 0.062573440372943878174 0.65150940418243408203 0.18608368933200836182 0.65404558181762695312 0.21039162576198577881 0.20734512805938720703 0.2058238685131072998 0.21011950075626373291 0.21046768128871917725 0.20751067996025085449 0.20635181665420532227 0.20692931115627288818 0.20690812170505523682 0.20466637611389160156 0.20745900273323059082 2.0308039188385009766 0.39362674951553344727 0.036205686628818511963 0.012005000375211238861 0.42044463753700256348 1.3363131284713745117 0.24182306230068206787 0.012005000375211238861 1.547695159912109375 0.20523375272750854492 0.42009687423706054688 0.17242594063282012939 2.3017215728759765625 0.073184311389923095703 1.2909368276596069336 0.73267519474029541016 0.19512431323528289795 0.19745005667209625244 0.20421080291271209717 0.20939436554908752441 0.21013005077838897705 0.21033711731433868408 1.7115548849105834961 1.0715299844741821289 0.1245710030198097229 0.1861947476863861084 0.15895199775695800781 0.21057106554508209229 0.21092362701892852783 0.21177799999713897705 0.20811106264591217041 0.21010099351406097412 0.21184863150119781494 0.20960012078285217285 0.20929306745529174805 0.20947088301181793213 0.20808300375938415527 
0.78371638059616088867 0.30620688199996948242 0.91170650720596313477 0.66094553470611572266 0.073078624904155731201 0.012005000375211238861 0.12515075504779815674 0.62762206792831420898 1.58261871337890625 3.9998135566711425781 1.8644945621490478516 1.5788809061050415039 0.053593073040246963501 0.1598736196756362915 0.16280476748943328857 0.058163918554782867432 0.12095411121845245361 0.10885810106992721558 0.10590949654579162598 0.14444266259670257568 0.40539619326591491699 0.024689562618732452393 0.061764001846313476562 0.56821018457412719727 1.9850122928619384766 0.48902338743209838867 0.16169711947441101074 0.21171519160270690918 0.20461812615394592285 0.20335063338279724121 0.21144212782382965088 0.20759430527687072754 0.21079793572425842285 0.76328778266906738281 0.13273844122886657715 0.074371501803398132324 0.096990503370761871338 0.1609531790018081665 0.92565381526947021484 0.21038675308227539062 0.20780974626541137695 0.20889419317245483398 0.20716406404972076416 0.20872668921947479248 0.20764411985874176025 0.20858462154865264893 0.21087250113487243652 0.21045818924903869629 0.21218624711036682129 0.21163468062877655029 0.42327988147735595703 1.7843441963195800781 0.048878815025091171265 0.11132694035768508911 0.073989875614643096924 0.012005000375211238861 0.27629801630973815918 1.0691770315170288086 1.5944545269012451172 0.87655621767044067383 1.0948988199234008789 0.10977112501859664917 1.2540566921234130859 2.1435708999633789062 0.99166858196258544922 0.20605075359344482422 0.20950768887996673584 0.20636418461799621582 0.2109289318323135376 0.21033449470996856689 0.16169737279415130615 0.18525893986225128174 0.16630275547504425049 0.63790982961654663086 0.13694424927234649658 0.20921543240547180176 0.21071462333202362061 0.21089912950992584229 0.21413438022136688232 0.2128970026969909668 0.21145199239253997803 0.20810025930404663086 0.20744544267654418945 0.20723649859428405762 0.20800194144248962402 0.20601381361484527588 0.21066424250602722168 
0.14807799458503723145 0.20634612441062927246 1.1604844331741333008 0.10989831387996673584 0.12384887784719467163 0.012005000375211238861 0.11077243834733963013 0.13523405790328979492 0.070724904537200927734 2.7578630447387695312 2.2371733188629150391 4.4978876113891601562 0.15046930313110351562 0.13767607510089874268 0.18517699837684631348 0.012005000375211238861 0.1839637458324432373 0.15136809647083282471 0.24184790253639221191 0.099001154303550720215 2.4964516162872314453 0.012005000375211238861 0.085820503532886505127 0.6556911468505859375 0.98220789432525634766 1.1689276695251464844 0.18433530628681182861 0.83250451087951660156 0.20991912484169006348 0.2101710587739944458 0.17206099629402160645 0.35697337985038757324 2.1008603572845458984 1.5842548608779907227 0.071802183985710144043 0.036145877093076705933 0.42050015926361083984 1.8329099416732788086 0.63512015342712402344 0.20872312784194946289 0.2113730013370513916 0.20908600091934204102 0.21199125051498413086 1.4499297142028808594 1.5743327140808105469 1.1658389568328857422 0.97665798664093017578 2.0560500621795654297 1.0081423521041870117 2.6517648696899414062 1.4111407995223999023 0.52427333593368530273 0.76177883148193359375 0.34415274858474731445 0.34170499444007873535 2.1564824581146240234 3.0017313957214355469 2.1186254024505615234 2.6116182804107666016 2.4921207427978515625 2.6918396949768066406 0.51750940084457397461 0.21023055911064147949 0.20990255475044250488 0.21133486926555633545 0.208654060959815979 0.21161405742168426514 0.20926211774349212646 0.20777875185012817383 0.12493374943733215332 0.024478813633322715759 0.18167199194431304932 0.14121644198894500732 0.20427599549293518066 0.14712418615818023682 0.20902550220489501953 0.21091212332248687744 0.21032549440860748291 0.21002992987632751465 0.2094825059175491333 0.20640568435192108154 0.20902287960052490234 0.20460505783557891846 0.20643687248229980469 0.210946694016456604 0.18285587430000305176 0.05947000160813331604 
0.093599811196327209473 0.60535413026809692383 1.0773751735687255859 0.14622762799263000488 0.072988748550415039062 0.073395624756813049316 0.035973250865936279297 0.053042285144329071045 0.012005000375211238861 1.9646360874176025391 1.4177762269973754883 4.0460162162780761719 0.20925228297710418701 0.1590639948844909668 0.20959290862083435059 0.20661237835884094238 0.15611973404884338379 0.16956406831741333008 0.13477000594139099121 2.7215709686279296875 3.5050504207611083984 0.4126860201358795166 0.12281881272792816162 3.5289523601531982422 1.2966554164886474609 0.83047503232955932617 0.19901925325393676758 0.48698395490646362305 0.20876581966876983643 0.20807006955146789551 0.098461188375949859619 1.2978309392929077148 1.9296128749847412109 2.6273503303527832031 0.037306874990463256836 0.012005000375211238861 0.16041824221611022949 0.51037633419036865234 0.61140799522399902344 1.7830678224563598633 0.44189792871475219727 0.2088280022144317627 0.21156711876392364502 0.2106533050537109375 1.7319185733795166016 0.73301810026168823242 0.20827530324459075928 0.47886812686920166016 0.54197198152542114258 1.4435104131698608398 1.1973363161087036133 3.0880131721496582031 3.0990047454833984375 1.5325981378555297852 0.47701549530029296875 1.350214838981628418 0.7441927790641784668 0.13674974441528320312 0.40916481614112854004 1.6137356758117675781 0.20943668484687805176 0.20857374370098114014 0.21156400442123413086 0.21118718385696411133 0.20582811534404754639 0.21132874488830566406 0.21161356568336486816 0.21178631484508514404 0.14786325395107269287 0.048676248639822006226 0.1738214343786239624 0.2084923088550567627 0.18142569065093994141 0.20501025021076202393 0.099071189761161804199 0.19703793525695800781 0.20950187742710113525 0.20903056859970092773 0.20725530385971069336 0.20988231897354125977 0.20912724733352661133 0.21087887883186340332 0.2092580646276473999 0.2100009918212890625 0.20770381391048431396 0.098572999238967895508 0.10924725234508514404 
0.061316687613725662231 1.2220547199249267578 2.9618108272552490234 1.1015942096710205078 2.8639779090881347656 0.17273375391960144043 0.025623643770813941956 0.92598825693130493164 0.3680686652660369873 0.17785921692848205566 1.3003052473068237305 0.20827871561050415039 0.21074475347995758057 0.012005000375211238861 0.19428908824920654297 0.17251537740230560303 0.19540578126907348633 0.062362123280763626099 0.18465399742126464844 2.8099770545959472656 1.0534764528274536133 1.827091217041015625 0.21234562993049621582 0.21207599341869354248 0.21025063097476959229 0.2138001173734664917 0.21411330997943878174 0.2121953815221786499 0.20934525132179260254 0.36608576774597167969 0.1112745627760887146 1.8766791820526123047 4.0373620986938476562 1.104891657829284668 0.048770502209663391113 0.012005000375211238861 0.074847623705863952637 0.14753793179988861084 0.20988462865352630615 0.45475491881370544434 0.2105417400598526001 0.21007287502288818359 0.21013812720775604248 0.21119025349617004395 0.20963113009929656982 0.21129730343818664551 0.20676830410957336426 0.20728275179862976074 0.20368517935276031494 0.19532793760299682617 0.20755787193775177002 0.20825412869453430176 0.20995368063449859619 0.20965193212032318115 0.21024805307388305664 0.21157044172286987305 0.21034362912178039551 0.024478813633322715759 0.16897100210189819336 0.1467456817626953125 0.17314118146896362305 0.2067641913890838623 0.2054665684700012207 0.20482192933559417725 0.20657537877559661865 0.21066068112850189209 0.20925055444240570068 0.20811218023300170898 0.11017062515020370483 0.098292872309684753418 0.098228313028812408447 0.086847871541976928711 0.19731543958187103271 0.20742662250995635986 0.18594463169574737549 0.2105070650577545166 0.21089349687099456787 0.21102012693881988525 0.20797955989837646484 0.20834968984127044678 0.20664031803607940674 0.21469137072563171387 0.21073330938816070557 0.16061000525951385498 0.16116388142108917236 0.38722476363182067871 1.1664655208587646484 
0.10931881517171859741 1.5122096538543701172 1.4247871637344360352 2.1541352272033691406 1.9397758245468139648 2.3619158267974853516 0.11854214966297149658 0.37674593925476074219 1.9311318397521972656 0.38352125883102416992 0.1723613739013671875 0.20966780185699462891 0.16777299344539642334 0.012005000375211238861 0.10739649832248687744 0.092729829251766204834 0.11072791367769241333 0.084838375449180603027 0.19195024669170379639 0.10286846756935119629 0.13337893784046173096 0.15878294408321380615 0.2083441317081451416 0.18406374752521514893 0.57250887155532836914 0.5602537989616394043 0.40041050314903259277 0.20033212006092071533 1.3727068901062011719 1.9591627120971679688 0.37235206365585327148 0.38265943527221679688 1.6811217069625854492 0.036127999424934387207 0.012005000375211238861 0.012005000375211238861 0.098465748131275177002 0.48552045226097106934 0.20974962413311004639 0.20909431576728820801 0.21082037687301635742 0.21079149842262268066 0.13634124398231506348 0.20952150225639343262 0.20611099898815155029 0.20553137362003326416 0.20579256117343902588 0.21141792833805084229 0.20647306740283966064 0.21006524562835693359 0.20949037373065948486 0.20845419168472290039 0.20895555615425109863 0.20711843669414520264 0.20459263026714324951 0.097592748701572418213 0.024064688012003898621 0.023727376013994216919 0.15368543565273284912 0.012005000375211238861 0.096135564148426055908 0.20410999655723571777 0.2058251798152923584 0.20581412315368652344 0.20325793325901031494 0.20669031143188476562 0.20473524928092956543 0.1957851797342300415 0.12265755981206893921 0.060504999011754989624 0.035941001027822494507 0.024478813633322715759 0.20610725879669189453 0.21006593108177185059 0.20722375810146331787 0.21041537821292877197 0.21226000785827636719 0.20926499366760253906 0.20916213095188140869 0.21038493514060974121 0.2087548673152923584 0.21194531023502349854 0.21149793267250061035 0.17348931729793548584 0.18581056594848632812 1.8146300315856933594 2.862422943115234375 
0.073663562536239624023 0.19536861777305603027 0.39675325155258178711 0.024464000016450881958 0.4499111175537109375 0.20718824863433837891 0.2007325589656829834 0.46389764547348022461 0.88254946470260620117 0.3927777409553527832 0.14881224930286407471 0.1342522352933883667 0.031724300235509872437 1.2191427946090698242 0.08985500037670135498 0.10774824768304824829 0.14456790685653686523 0.12271042913198471069 0.20496225357055664062 0.20562118291854858398 0.19542455673217773438 0.18419149518013000488 0.086463376879692077637 0.10811624675989151001 0.096116997301578521729 1.4637551307678222656 1.9354066848754882812 1.5937519073486328125 0.64507943391799926758 1.4232043027877807617 0.4281788170337677002 0.636600494384765625 0.16076493263244628906 0.012005000375211238861 0.012005000375211238861 0.012005000375211238861 0.024329563602805137634 0.49472731351852416992 0.20902168750762939453 0.21004706621170043945 0.21154706180095672607 0.21159212291240692139 0.19350968301296234131 0.2070398181676864624 0.20834980905055999756 0.20724467933177947998 0.20781219005584716797 0.18737781047821044922 0.21241544187068939209 0.19803842902183532715 0.19691143929958343506 0.20558324456214904785 0.20474268496036529541 0.20218168199062347412 0.19126400351524353027 0.012005000375211238861 0.012005000375211238861 0.035449750721454620361 0.10719381272792816162 0.012005000375211238861 0.035787064582109451294 0.2019754946231842041 0.20483750104904174805 0.20535668730735778809 0.20496900379657745361 0.2060117572546005249 0.20430080592632293701 0.060538124293088912964 0.012005000375211238861 0.15864175558090209961 0.1223915591835975647 0.14362168312072753906 0.20927080512046813965 0.21091093122959136963 0.20915055274963378906 0.21176031231880187988 0.21056562662124633789 0.21077024936676025391 0.55792587995529174805 0.21016643941402435303 0.41625332832336425781 0.21031799912452697754 0.21201631426811218262 0.21084031462669372559 0.20893180370330810547 1.1722664833068847656 0.2097949981689453125 
0.17206919193267822266 0.18402424454689025879 0.13517831265926361084 0.024250876158475875854 0.12486993521451950073 0.20857837796211242676 0.20123063027858734131 0.7750123143196105957 0.16620306670665740967 0.16067069768905639648 0.026801584288477897644 0.16232433915138244629 0.1594432443380355835 0.110823802649974823 0.098782375454902648926 0.1479914933443069458 0.20787100493907928467 0.13432274758815765381 0.15652725100517272949 0.12925519049167633057 0.16770836710929870605 0.012005000375211238861 0.049053937196731567383 0.13426099717617034912 0.19735799729824066162 0.20499256253242492676 0.15463961660861968994 1.5836777687072753906 1.6676514148712158203 2.1918790340423583984 1.2273269891738891602 0.75573337078094482422 0.67940849065780639648 0.13643132150173187256 0.14331443607807159424 0.37055376172065734863 0.12390281260013580322 0.20846650004386901855 0.20711262524127960205 0.21015286445617675781 0.20998956263065338135 0.20920462906360626221 0.18175974488258361816 0.21029011905193328857 0.20920030772686004639 0.20761756598949432373 0.20749005675315856934 0.20054112374782562256 0.13596649467945098877 0.21075449883937835693 0.21227012574672698975 0.19538031518459320068 0.15953718125820159912 0.17854069173336029053 0.14286455512046813965 0.036920752376317977905 0.012005000375211238861 0.024172937497496604919 0.023727376013994216919 0.012005000375211238861 0.012005000375211238861 0.2039381861686706543 0.20770731568336486816 0.20751462876796722412 0.19463719427585601807 0.20533743500709533691 0.13169193267822265625 0.012005000375211238861 0.074173308908939361572 0.1443706899881362915 0.20838080346584320068 0.20620305836200714111 0.21023730933666229248 0.2098483741283416748 0.17207306623458862305 0.16780255734920501709 0.20857612788677215576 1.109339594841003418 2.8785912990570068359 1.940420985221862793 0.67830586433410644531 0.20987012982368469238 0.20789162814617156982 0.21051149070262908936 0.20836561918258666992 0.21088162064552307129 0.20899750292301177979 
0.1962957531213760376 0.061107937246561050415 0.31024149060249328613 0.036888312548398971558 0.15956775844097137451 0.48890945315361022949 1.1530097723007202148 0.30910062789916992188 0.20999409258365631104 0.097659446299076080322 0.19676432013511657715 0.20376731455326080322 0.034199874848127365112 0.012005000375211238861 0.012005000375211238861 0.024183439090847969055 0.15964393317699432373 0.13588324189186096191 0.20638787746429443359 0.15607906877994537354 0.14364981651306152344 0.10052412748336791992 0.13425356149673461914 0.14689657092094421387 0.20817494392395019531 0.21003675460815429688 0.16008999943733215332 1.4437369108200073242 1.0364550352096557617 0.87298041582107543945 0.20629106462001800537 0.18956400454044342041 0.19830156862735748291 0.1963615715503692627 0.20840862393379211426 0.17279137670993804932 0.16072912514209747314 0.21069318056106567383 0.20794568955898284912 0.20691312849521636963 0.21072012186050415039 0.20957368612289428711 0.18181642889976501465 0.20927493274211883545 0.21080468595027923584 0.20863293111324310303 0.20883882045745849609 0.21294175088405609131 0.2100626826286315918 0.20627281069755554199 0.10830693691968917847 0.1860965043306350708 0.20925575494766235352 0.20588712394237518311 0.21121893823146820068 0.19634731113910675049 0.13297975063323974609 0.20279593765735626221 0.047963812947273254395 0.037567626684904098511 0.13252530992031097412 0.18448349833488464355 0.18866069614887237549 0.19653825461864471436 0.17851938307285308838 0.14407099783420562744 0.095216877758502960205 0.012005000375211238861 0.048947189003229141235 0.20735888183116912842 0.20649343729019165039 0.20661087334156036377 0.20998474955558776855 0.20967274904251098633 0.12283349782228469849 0.05639475211501121521 0.05639475211501121521 0.21114881336688995361 0.2081673741340637207 0.21063849329948425293 0.20839518308639526367 0.20781219005584716797 0.208646431565284729 0.21271944046020507812 0.20878137648105621338 0.20858775079250335693 0.20857575535774230957 
0.17838343977928161621 0.012005000375211238861 0.012005000375211238861 1.2299027442932128906 0.66458231210708618164 0.20541393756866455078 0.20736531913280487061 0.38345679640769958496 0.20722250640392303467 0.096254564821720123291 0.20534600317478179932 0.10671075433492660522 0.078589625656604766846 0.060774188488721847534 0.086164876818656921387 0.012005000375211238861 0.12319812178611755371 0.12334606051445007324 0.21058861911296844482 0.097743503749370574951 0.12396593391895294189 0.21087324619293212891 0.17086775600910186768 0.085724249482154846191 0.64658766984939575195 0.20707061886787414551 0.21268799901008605957 1.3669257164001464844 0.90386909246444702148 0.46405842900276184082 0.20473444461822509766 0.19225394725799560547 0.18956400454044342041 0.29306775331497192383 0.19619888067245483398 0.10849262773990631104 0.13558250665664672852 0.20783831179141998291 0.20871487259864807129 0.20397344231605529785 0.2072922438383102417 0.20650599896907806396 0.20181493461132049561 0.20618431270122528076 0.17524044215679168701 0.19235499203205108643 0.19153743982315063477 0.21016430854797363281 0.19693793356418609619 0.11126418411731719971 0.048531126230955123901 0.20941312611103057861 0.17074725031852722168 0.20670850574970245361 0.20353637635707855225 0.2048603743314743042 0.15778574347496032715 0.15894968807697296143 0.035892877727746963501 0.082282751798629760742 0.071129560470581054688 0.20580238103866577148 0.20248775184154510498 0.20488487184047698975 0.1079656258225440979 0.012005000375211238861 0.012005000375211238861 0.07164462655782699585 0.073575310409069061279 0.20604243874549865723 0.20727837085723876953 0.20775687694549560547 0.20420718193054199219 0.20837968587875366211 0.13337212800979614258 0.012005000375211238861 0.14558474719524383545 0.21043893694877624512 0.21025168895721435547 0.21159212291240692139 0.21110868453979492188 0.21066036820411682129 0.20972099900245666504 0.21015524864196777344 0.21013231575489044189 0.18343424797058105469 0.16170299053192138672 
0.17786437273025512695 0.012005000375211238861 0.012005000375211238861 0.11057162284851074219 0.20977331697940826416 0.20866462588310241699 0.39076519012451171875 0.71931570768356323242 0.2037188112735748291 0.10880044102668762207 0.13244980573654174805 0.024205313995480537415 0.023102438077330589294 0.12047393620014190674 0.085618123412132263184 0.024501062929630279541 0.13005644083023071289 0.10743725299835205078 0.15558125078678131104 0.20751099288463592529 0.12366968393325805664 0.20748706161975860596 0.14568275213241577148 0.20789043605327606201 1.6587979793548583984 0.14270143210887908936 0.18529237806797027588 0.64860934019088745117 1.6365066766738891602 0.29210257530212402344 0.2058353126049041748 0.19866706430912017822 0.19059069454669952393 0.18817700445652008057 0.24704350531101226807 0.17156612873077392578 0.18494181334972381592 0.20681418478488922119 0.20680962502956390381 0.20818206667900085449 0.2049061208963394165 0.20865425467491149902 0.20208793878555297852 0.19903036952018737793 0.19353775680065155029 0.19021487236022949219 0.11890494078397750854 0.13555400073528289795 0.012005000375211238861 0.09679362177848815918 0.036865748465061187744 0.20575012266635894775 0.20580093562602996826 0.2068770676851272583 0.17838899791240692139 0.17744544148445129395 0.18945805728435516357 0.095135875046253204346 0.15448901057243347168 0.19892549514770507812 0.20184381306171417236 0.20216555893421173096 0.20122675597667694092 0.20564237236976623535 0.1212620660662651062 0.10738537460565567017 0.082073688507080078125 0.20204088091850280762 0.1829967498779296875 0.2042569965124130249 0.20732656121253967285 0.20786419510841369629 0.20560175180435180664 0.21191069483757019043 0.048675939440727233887 0.057437062263488769531 0.21114249527454376221 0.21025899052619934082 0.21121492981910705566 0.21218194067478179932 0.20915649831295013428 0.20897118747234344482 0.21034406125545501709 0.20919105410575866699 0.13477930426597595215 0.024333124980330467224 0.061900250613689422607 
0.14378730952739715576 0.012005000375211238861 0.012005000375211238861 0.11244049668312072754 0.20870544016361236572 0.20882105827331542969 0.59931135177612304688 0.20536543428897857666 0.28087794780731201172 0.024010626599192619324 0.074128687381744384766 0.012005000375211238861 0.024429313838481903076 0.13580268621444702148 0.086064249277114868164 0.012005000375211238861 0.035905811935663223267 0.12266200035810470581 0.05933537706732749939 0.12261430919170379639 0.13516144454479217529 0.17223180830478668213 0.20949119329452514648 0.21015518903732299805 1.5207289457321166992 0.12160643935203552246 0.19824136793613433838 0.31288048624992370605 1.3278347253799438477 0.5877202153205871582 0.21152706444263458252 0.19778488576412200928 0.19400456547737121582 0.14715138077735900879 0.14842024445533752441 0.92243546247482299805 0.2074155658483505249 0.20818617939949035645 0.20523250102996826172 0.20829842984676361084 0.20673231780529022217 0.1943810582160949707 0.17136549949645996094 0.20085161924362182617 0.15983662009239196777 0.12189018726348876953 0.035452626645565032959 0.012005000375211238861 0.012005000375211238861 0.024551562964916229248 0.048758186399936676025 0.20597000420093536377 0.2060718834400177002 0.20126213133335113525 0.19780594110488891602 0.20063136518001556396 0.19765743613243103027 0.2022129446268081665 0.20312474668025970459 0.20039831101894378662 0.20136900246143341064 0.20031061768531799316 0.19909431040287017822 0.19644238054752349854 0.19535613059997558594 0.19926719367504119873 0.20070068538188934326 0.2021065056324005127 0.2038952559232711792 0.20239081978797912598 0.20653675496578216553 0.20670756697654724121 0.20754419267177581787 0.13637693226337432861 0.012005000375211238861 0.1583700031042098999 0.21481974422931671143 0.21081380546092987061 0.21108680963516235352 0.20790305733680725098 0.20509381592273712158 0.19289562106132507324 0.20733387768268585205 0.20959456264972686768 0.20906493067741394043 0.20897181332111358643 0.10848250240087509155 
0.012005000375211238861 0.012005000375211238861 0.012005000375211238861 0.13401137292385101318 0.21092912554740905762 0.20593987405300140381 0.20450337231159210205 0.21097099781036376953 0.12994237244129180908 0.012005000375211238861 0.061702251434326171875 0.012005000375211238861 0.059701625257730484009 0.1830622553825378418 0.060171000659465789795 0.012005000375211238861 0.061496499925851821899 0.16070124506950378418 0.20532312989234924316 0.20339500904083251953 0.18372625112533569336 0.20772737264633178711 0.20880049467086791992 0.20624811947345733643 0.21295511722564697266 0.64309525489807128906 0.20845311880111694336 0.53280436992645263672 1.1138825416564941406 0.745342254638671875 0.21255062520503997803 0.19650612771511077881 0.1958217620849609375 0.15109625458717346191 0.20900200307369232178 0.11079499870538711548 0.16001449525356292725 0.21161875128746032715 0.20589911937713623047 0.20708613097667694092 0.20033311843872070312 0.20502562820911407471 0.15894299745559692383 0.19653475284576416016 0.17389163374900817871 0.012005000375211238861 0.012005000375211238861 0.012005000375211238861 0.012005000375211238861 0.012005000375211238861 0.03709812462329864502 0.2065426260232925415 0.21044212579727172852 0.20365700125694274902 0.20658224821090698242 0.20417775213718414307 0.19512850046157836914 0.20070037245750427246 0.20092462003231048584 0.19906499981880187988 0.19906499981880187988 0.20085899531841278076 0.1980183720588684082 0.19906499981880187988 0.19511511921882629395 0.19574524462223052979 0.20031487941741943359 0.19720612466335296631 0.20401725172996520996 0.20313000679016113281 0.20624150335788726807 0.20792062580585479736 0.18680274486541748047 0.012005000375211238861 0.012005000375211238861 0.18231911957263946533 0.21279036998748779297 0.20947112143039703369 0.21499612927436828613 0.11255287379026412964 0.10733562707901000977 0.087045624852180480957 0.12944562733173370361 0.20445337891578674316 0.20847925543785095215 0.20668788254261016846 0.012005000375211238861 
