ncols        19
nrows        23
xllcorner    508536.404131802963
yllcorner    5265348.997906560078
cellsize     570.000000000000
NODATA_value -9999
9.8999997135251760483e-05 9.8999997135251760483e-05 9.8999997135251760483e-05 9.8999997135251760483e-05 9.8999997135251760483e-05 9.8999997135251760483e-05 9.8999997135251760483e-05 0.0001360581663902848959 9.8999997135251760483e-05 9.8999997135251760483e-05 9.8999997135251760483e-05 9.8999997135251760483e-05 0.00023917728685773909092 0.00018269858264829963446 0.00038356176810339093208 7.8349032264668494463e-05 0.00022516620811074972153 0.00030001663253642618656 0.00034322807914577424526 
9.8999997135251760483e-05 9.8999997135251760483e-05 9.8999997135251760483e-05 9.8999997135251760483e-05 0.00011098337563453242183 0.00027528530335985124111 0.00023661772138439118862 0.00023343213251791894436 9.8999997135251760483e-05 9.8999997135251760483e-05 0.0003230470756534487009 0.00072607479523867368698 0.00061785196885466575623 0.00068454816937446594238 0.00053713185479864478111 0.00020795014279428869486 0.00058536289725452661514 0.00025988364359363913536 0.00028570173890329897404 
9.8999997135251760483e-05 9.8999997135251760483e-05 9.8999997135251760483e-05 0.00010698891856009140611 0.00060504430439323186874 0.00081071467138826847076 0.00034757063258439302444 9.8999997135251760483e-05 0.00010698891856009140611 0.00038856785977259278297 0.00058290304150432348251 0.00086514127906411886215 0.00064583332277834415436 0.00049419997958466410637 0.00054400000954046845436 0.00046710250899195671082 0.00042413850314915180206 0.0006887784111313521862 0.00053854385623708367348 
9.8999997135251760483e-05 9.8999997135251760483e-05 9.8999997135251760483e-05 0.00029534901841543614864 0.0008678282611072063446 0.00062342936871573328972 0.00021967035718262195587 0.0002182603784603998065 0.00039491688949055969715 0.00057686428772285580635 0.00066567311296239495277 0.00043002216261811554432 0.00031400000443682074547 0.00042803166434168815613 0.00075419450877234339714 0.00059436133597046136856 0.00068106647813692688942 0.00082367035793140530586 0.00064840354025363922119 
9.8999997135251760483e-05 9.8999997135251760483e-05 0.00011215235281269997358 0.00073135457932949066162 0.00088891689665615558624 0.0005069196922704577446 0.00013201661931816488504 0.00076273409649729728699 0.00060978118563070893288 0.0005396980559453368187 0.0009931467939168214798 0.00054298335453495383263 0.0004986227140761911869 0.00076018180698156356812 0.00074255693471059203148 0.00073101505404338240623 0.0006370778428390622139 0.0008264293428510427475 0.00078036839840933680534 
0.00043937671580351889133 0.00063277006847783923149 0.00060310802655294537544 0.00095488363876938819885 0.00067605538060888648033 0.00052729086019098758698 0.00033290026476606726646 0.00046989473048597574234 0.00081432133447378873825 0.00088014680659398436546 0.0012304348638281226158 0.00094514025840908288956 0.00041866797255352139473 0.0005447573494166135788 0.00065561628434807062149 0.0010845534270629286766 0.0010290984064340591431 0.00085788918659090995789 0.00091621052706614136696 
0.00076613022247329354286 0.00049560662591829895973 0.00066081713885068893433 0.0012686813715845346451 0.00090245984029024839401 0.00062352907843887805939 0.00051244598580524325371 0.00064051523804664611816 0.00072086701402440667152 0.00082523270975798368454 0.0012701717205345630646 0.0011410089209675788879 0.00026208901545032858849 0.00088750384747982025146 0.00079933530651032924652 0.00094023195561021566391 0.001254415721632540226 0.00094865926075726747513 0.00095864909235388040543 
0.00059252080973237752914 0.000373232673155143857 0.0011643462348729372025 0.0012665567919611930847 0.0010061302455142140388 0.00071472855051979422569 0.0007778808940201997757 0.00063027977012097835541 0.00059490860439836978912 0.00055500003509223461151 0.0009902677265927195549 0.00083592516602948307991 0.00012850819621235132217 0.0010650655021890997887 0.0011025887215510010719 0.00067052186932414770126 0.00091254705330356955528 0.00093065929831936955452 0.0012072982499375939369 
0.0006706010899506509304 0.00055840163258835673332 0.0013117174385115504265 0.0014052825281396508217 0.0010079279309138655663 0.00068294181255623698235 0.00076465652091428637505 0.00072251248639076948166 0.00087056378833949565887 0.00085431907791644334793 0.00059270497877150774002 0.00094180880114436149597 0.00060235132696107029915 0.0008343000081367790699 0.0011031051399186253548 0.0010733396047726273537 0.00059982156381011009216 0.00065937673207372426987 0.00072642107261344790459 
0.0011137756519019603729 0.00091139058349654078484 0.00092110806144773960114 0.00124788645189255476 0.00092036841670051217079 0.00076519389403983950615 0.00081511912867426872253 0.00093441276112571358681 0.00084520835662260651588 0.0010783709585666656494 0.00026853059534914791584 0.00084924139082431793213 0.00025540540809743106365 0.0010629839962348341942 0.00081286218483000993729 0.0010563924442976713181 0.0007755595725029706955 0.00085372297326102852821 0.0003144561487715691328 
0.0014145374298095703125 0.00074072025017812848091 0.00091796676861122250557 0.0011436399072408676147 0.0012042686576023697853 0.0006688116118311882019 0.00056529638823121786118 0.00070185499498620629311 0.00041411642450839281082 0.00096815696451812982559 0.00123307772446423769 0.00043550503323785960674 0.00056203489657491445541 0.00077058799797669053078 0.00042283657239750027657 0.00060361775103956460953 0.00061617727624252438545 0.0010451606940478086472 0.00079803506378084421158 
0.0012283601099625229836 0.00081385317025706171989 0.00080932135460898280144 0.00096077565103769302368 0.00087876454927027225494 0.00020398400374688208103 0.00022244360297918319702 0.00037129703559912741184 0.00028210715390741825104 0.0010062956716865301132 0.0010160360252484679222 0.00031586841214448213577 0.00032291945535689592361 0.00097847182769328355789 0.00040090305265039205551 0.00022552630980499088764 0.0005186232738196849823 0.00084263709140941500664 0.00075040350202471017838 
0.0007718448759987950325 0.00077844876796007156372 0.00073945982148870825768 0.00075873959576711058617 0.00074235035572201013565 0.00049502984620630741119 0.00027141137979924678802 0.00028290797490626573563 0.00031055812723934650421 0.0010501388460397720337 0.0010919922497123479843 0.001110623357817530632 0.00060465745627880096436 0.00095449283253401517868 0.00088523823069408535957 0.00050176179502159357071 0.00058362883282825350761 0.00062211911426857113838 0.0011775438906624913216 
0.00095049582887440919876 0.00074726040475070476532 0.00072283670306205749512 0.00086775177624076604843 0.00067500554723665118217 0.00043119047768414020538 0.0002163058816222473979 0.0002134921815013512969 0.00082384882261976599693 0.0012969718081876635551 0.00041234781383536756039 0.00064198620384559035301 0.00094205263303592801094 0.00091062049614265561104 0.00081790029071271419525 0.00086169806309044361115 0.0011654127156361937523 0.0011055623181164264679 0.00084394740406423807144 
0.0012358254753053188324 0.0010418457677587866783 0.001024464028887450695 0.00014507562445942312479 6.6807690018322318792e-05 0.0010945437243208289146 0.00086277734953910112381 0.00041635293746367096901 0.0011379616335034370422 0.00092801108257845044136 0.00045894182403571903706 0.00075578119140118360519 0.0010638089152052998543 0.00084545707795768976212 0.00084671471267938613892 0.0012341163819655776024 0.00099360942840576171875 0.0011674183188006281853 0.0011631404049694538116 
0.0011262686457484960556 0.00037866964703425765038 0.00038890141877345740795 0.00048467022133991122246 0.00070735369808971881866 0.0013249568874016404152 0.00029509412706829607487 0.00088434119243174791336 0.00052733795018866658211 0.00088204990606755018234 0.00089168699923902750015 0.00052524928469210863113 0.00084833515575155615807 0.0011241191532462835312 0.00081597507232800126076 0.001152440439909696579 0.00089459831360727548599 0.00080034905113279819489 0.0014810350257903337479 
0.00097937125246971845627 0.00098340003751218318939 0.00015222474758047610521 0.00085652485722675919533 0.00077273632632568478584 0.0011401969240978360176 0.00044496453483588993549 0.0007602880941703915596 0.00083691970212385058403 0.00080252910265699028969 0.00084506650455296039581 0.00097363156965002417564 0.0011193407699465751648 0.0011160610010847449303 0.0010618392843753099442 0.0010165374260395765305 0.0013001024490222334862 0.0013695734087377786636 0.0014790525892749428749 
0.00069181440630927681923 0.00089087209198623895645 0.00018033332889899611473 0.00045291954302228987217 0.0011216416023671627045 0.00085553596727550029755 0.00040795846143737435341 0.00059785874327644705772 0.00096751248929649591446 0.00093597505474463105202 0.00088216067524626851082 0.0010045955423265695572 0.0006893490208312869072 0.000565711932722479105 0.00089840445434674620628 0.00096644874429330229759 0.0011772160651162266731 0.00078032689634710550308 0.0010418771998956799507 
0.00062443211209028959274 0.00031638739164918661118 0.00018119355081580579281 0.0011290793772786855698 0.0010662410641089081764 0.00030805231654085218906 0.00023121052072383463383 0.00085723825031891465187 0.0010546150151640176773 0.00068352906964719295502 0.00065080611966550350189 0.00081376451998949050903 0.00064527703216299414635 0.00095803325530141592026 0.00090034346794709563255 0.00093740446027368307114 0.0010410359827801585197 0.0010993379401043057442 0.001130473683588206768 
0.00043657340575009584427 0.00082245934754610061646 0.0002532872313167899847 0.0012580885086208581924 0.0011810323921963572502 0.00050172297051176428795 0.00059286982286721467972 0.00050530472071841359138 0.0010307257762178778648 0.00091920496197417378426 0.00088840723037719726562 0.0004485595563892275095 0.00052482547471299767494 0.00064757617656141519547 0.00090652075596153736115 0.00085117731941863894463 0.00091233244165778160095 0.00083839887520298361778 0.00078464910620823502541 
0.00046629086136817932129 0.00046695169294252991676 0.00091575382975861430168 0.00093951402232050895691 0.00058420118875801563263 0.00096818833844736218452 0.00081151246558874845505 0.00047951799933798611164 0.0010344127658754587173 0.00096741277957335114479 0.00078499998198822140694 0.00053406093502417206764 0.00054053741041570901871 0.00082514685345813632011 0.00072234624531120061874 0.00091039336984977126122 0.0010189390741288661957 0.00090180058032274246216 0.00051319296471774578094 
0.00055528257507830858231 0.0011792819714173674583 0.00089088169625028967857 0.00076354295015335083008 0.00083485321374610066414 0.0008239612216129899025 0.0010521744843572378159 0.0008565484895370900631 0.00099629361648112535477 0.00092121050693094730377 0.00085207202937453985214 0.00062736013205721974373 0.0003765678557101637125 0.00065896951127797365189 0.00052526593208312988281 0.0009300526580773293972 0.0009771413169801235199 0.001016157912090420723 0.00071650877362117171288 
0.00056306581245735287666 0.0011024737032130360603 0.00039682237547822296619 0.00039379604277200996876 0.0011244341731071472168 0.00084007898112758994102 0.001213743467815220356 0.001031098654493689537 0.00091247365344315767288 0.0005058092065155506134 0.00033328289282508194447 0.00065778288990259170532 0.000823026290163397789 0.00063363160006701946259 0.00091038155369460582733 0.00077883549965918064117 0.00092917762231081724167 0.00075352634303271770477 0.00057908333837985992432 
