ncols        87
nrows        107
xllcorner    508536.404131802963
yllcorner    5265618.997906560078
cellsize     120.000000000000
NODATA_value -9999
0.0028309999033808708191 0.0028309999033808708191 0.0028309999033808708191 0.0028309999033808708191 0.0028309999033808708191 0.0028309999033808708191 0.0028309999033808708191 0.0028309999033808708191 0.0028309999033808708191 0.0028309999033808708191 0.0028309999033808708191 0.0028309999033808708191 0.0028309999033808708191 0.0028309999033808708191 0.0028309999033808708191 0.0028309999033808708191 0.0028309999033808708191 0.0028309999033808708191 0.0028309999033808708191 0.0028309999033808708191 0.0028309999033808708191 0.0028309999033808708191 0.0028309999033808708191 0.0028309999033808708191 0.0028309999033808708191 0.0028309999033808708191 0.0028309999033808708191 0.0028309999033808708191 0.0028309999033808708191 0.0028309999033808708191 0.0028309999033808708191 0.0028309999033808708191 0.0028309999033808708191 0.0028309999033808708191 0.0028309999033808708191 0.0028309999033808708191 0.0028309999033808708191 0.0028309999033808708191 0.0028309999033808708191 0.0028309999033808708191 0.0028309999033808708191 0.0028309999033808708191 0.0028309999033808708191 0.0028309999033808708191 0.0028309999033808708191 0.0028309999033808708191 0.0028309999033808708191 0.0028309999033808708191 0.0028309999033808708191 0.0028309999033808708191 0.0028309999033808708191 0.0028309999033808708191 0.0028309999033808708191 0.0028309999033808708191 0.0028309999033808708191 0.0028309999033808708191 0.0028309999033808708191 0.0028309999033808708191 0.0028309999033808708191 0.0028309999033808708191 0.0028309999033808708191 0.0028309999033808708191 0.0028309999033808708191 0.0028309999033808708191 0.0028309999033808708191 0.0028309999033808708191 0.0054450626485049724579 0.019028250128030776978 0.028000749647617340088 0.028195375576615333557 0.25648885965347290039 0.59417593479156494141 0.79081249237060546875 1.4668419361114501953 0.84356111288070678711 0.086813874542713165283 0.80452704429626464844 0.61188030242919921875 0.19685493409633636475 0.9420757293701171875 1.0620884895324707031 0.81993854045867919922 1.6116133928298950195 1.1316105127334594727 0.90036928653717041016 1.089786529541015625 1.3278750181198120117 
0.0028309999033808708191 0.0028309999033808708191 0.0028309999033808708191 0.0028309999033808708191 0.0028309999033808708191 0.0028309999033808708191 0.0028309999033808708191 0.0028309999033808708191 0.0028309999033808708191 0.0028309999033808708191 0.0028309999033808708191 0.0028309999033808708191 0.0028309999033808708191 0.0028309999033808708191 0.0028309999033808708191 0.0028309999033808708191 0.0028309999033808708191 0.0028309999033808708191 0.0028309999033808708191 0.0028309999033808708191 0.0028309999033808708191 0.0028309999033808708191 0.0028309999033808708191 0.0028309999033808708191 0.0028309999033808708191 0.0028309999033808708191 0.0028309999033808708191 0.0028309999033808708191 0.0028309999033808708191 0.0028309999033808708191 0.0028309999033808708191 0.0028309999033808708191 0.0028309999033808708191 0.0028309999033808708191 0.0028309999033808708191 0.0028309999033808708191 0.0028309999033808708191 0.0028309999033808708191 0.0028309999033808708191 0.0028309999033808708191 0.0028309999033808708191 0.0028309999033808708191 0.0028309999033808708191 0.0028309999033808708191 0.0028309999033808708191 0.0028309999033808708191 0.0028309999033808708191 0.0028309999033808708191 0.0028309999033808708191 0.0028309999033808708191 0.0028309999033808708191 0.0028309999033808708191 0.0028309999033808708191 0.0028309999033808708191 0.0028309999033808708191 0.0028309999033808708191 0.0028309999033808708191 0.0028309999033808708191 0.0028309999033808708191 0.0028309999033808708191 0.0028309999033808708191 0.0028309999033808708191 0.0028309999033808708191 0.0028309999033808708191 0.0028309999033808708191 0.0054450626485049724579 0.15675744414329528809 0.14938287436962127686 0.35554385185241699219 0.30760562419891357422 0.88781911134719848633 1.718991398811340332 1.2479087114334106445 1.0644080638885498047 1.3475430011749267578 0.59381300210952758789 0.71595686674118041992 1.031070709228515625 1.2367355823516845703 0.97510242462158203125 0.57905799150466918945 0.34073862433433532715 0.35911351442337036133 0.55357468128204345703 0.45005980134010314941 0.92519879341125488281 0.037544500082731246948 
0.0028309999033808708191 0.0028309999033808708191 0.0028309999033808708191 0.0028309999033808708191 0.0028309999033808708191 0.0028309999033808708191 0.0028309999033808708191 0.0028309999033808708191 0.0028309999033808708191 0.0028309999033808708191 0.0028309999033808708191 0.0028309999033808708191 0.0028309999033808708191 0.0028309999033808708191 0.0028309999033808708191 0.0028309999033808708191 0.0028309999033808708191 0.0028309999033808708191 0.0028309999033808708191 0.0028309999033808708191 0.0028309999033808708191 0.0028309999033808708191 0.0028309999033808708191 0.0028309999033808708191 0.0028309999033808708191 0.0028309999033808708191 0.0028309999033808708191 0.0028309999033808708191 0.0028309999033808708191 0.0028309999033808708191 0.0028309999033808708191 0.0028309999033808708191 0.0028309999033808708191 0.0028309999033808708191 0.0028309999033808708191 0.0028309999033808708191 0.0028309999033808708191 0.0028309999033808708191 0.0028309999033808708191 0.0028309999033808708191 0.0028309999033808708191 0.0028309999033808708191 0.0028309999033808708191 0.0028309999033808708191 0.0028309999033808708191 0.0028309999033808708191 0.0028309999033808708191 0.0028309999033808708191 0.0028309999033808708191 0.0028309999033808708191 0.0028309999033808708191 0.0028309999033808708191 0.0028309999033808708191 0.0028309999033808708191 0.0028309999033808708191 0.0028309999033808708191 0.0028309999033808708191 0.0028309999033808708191 0.0028309999033808708191 0.014019437134265899658 0.022145187482237815857 0.0082746250554919242859 0.0028309999033808708191 0.0028309999033808708191 0.0028309999033808708191 0.012684889137744903564 0.03350516781210899353 0.031186306849122047424 0.33460581302642822266 0.81478095054626464844 1.2626583576202392578 1.8925213813781738281 1.7589700222015380859 1.5945291519165039062 1.1916537284851074219 0.65729379653930664062 0.37112250924110412598 1.5022841691970825195 0.94093316793441772461 1.4309915304183959961 0.69304132461547851562 0.82005000114440917969 1.0920864343643188477 1.2556565999984741211 1.0562334060668945312 0.41026157140731811523 0.0028309999033808708191 
0.0028309999033808708191 0.0028309999033808708191 0.0028309999033808708191 0.0028309999033808708191 0.0028309999033808708191 0.0028309999033808708191 0.0028309999033808708191 0.0028309999033808708191 0.0028309999033808708191 0.0028309999033808708191 0.0028309999033808708191 0.0028309999033808708191 0.0028309999033808708191 0.0028309999033808708191 0.0028309999033808708191 0.0028309999033808708191 0.0028309999033808708191 0.0028309999033808708191 0.0028309999033808708191 0.0028309999033808708191 0.0028309999033808708191 0.0028309999033808708191 0.0028309999033808708191 0.0028309999033808708191 0.0028309999033808708191 0.0028309999033808708191 0.0028309999033808708191 0.0028309999033808708191 0.0028309999033808708191 0.0028309999033808708191 0.0028309999033808708191 0.0028309999033808708191 0.0028309999033808708191 0.0028309999033808708191 0.0028309999033808708191 0.0028309999033808708191 0.0028309999033808708191 0.0028309999033808708191 0.0028309999033808708191 0.0028309999033808708191 0.0028309999033808708191 0.0028309999033808708191 0.0028309999033808708191 0.0028309999033808708191 0.0028309999033808708191 0.0028309999033808708191 0.0028309999033808708191 0.0028309999033808708191 0.0028309999033808708191 0.0028309999033808708191 0.0028309999033808708191 0.0028309999033808708191 0.0028309999033808708191 0.0028309999033808708191 0.0028309999033808708191 0.0028309999033808708191 0.0028309999033808708191 0.0028309999033808708191 0.0080591253936290740967 0.041951499879360198975 0.034389562904834747314 0.0028309999033808708191 0.011211437173187732697 0.0028309999033808708191 0.0028309999033808708191 0.020258083939552307129 0.8124287724494934082 0.037343084812164306641 0.56266295909881591797 1.4820709228515625 1.4100742340087890625 1.7870306968688964844 1.4473788738250732422 1.1361813545227050781 0.98600029945373535156 1.0482250452041625977 0.75371372699737548828 1.561390995979309082 0.45182082056999206543 1.3680889606475830078 0.93233495950698852539 1.253082275390625 0.71221894025802612305 1.0819327831268310547 0.49620148539543151855 0.11920012533664703369 0.013676249422132968903 
0.0028309999033808708191 0.0028309999033808708191 0.0028309999033808708191 0.0028309999033808708191 0.0028309999033808708191 0.0028309999033808708191 0.0028309999033808708191 0.0028309999033808708191 0.0028309999033808708191 0.0028309999033808708191 0.0028309999033808708191 0.0028309999033808708191 0.0028309999033808708191 0.0028309999033808708191 0.0028309999033808708191 0.0028309999033808708191 0.0028309999033808708191 0.0028309999033808708191 0.0028309999033808708191 0.0028309999033808708191 0.0028309999033808708191 0.0028309999033808708191 0.0028309999033808708191 0.0028309999033808708191 0.0028309999033808708191 0.0028309999033808708191 0.0028309999033808708191 0.0028309999033808708191 0.0028309999033808708191 0.0028309999033808708191 0.0028309999033808708191 0.0028309999033808708191 0.0028309999033808708191 0.010914375074207782745 0.35728317499160766602 0.28373467922210693359 0.0028309999033808708191 0.0028309999033808708191 0.0028309999033808708191 0.0028309999033808708191 0.0028309999033808708191 0.0028309999033808708191 0.0028309999033808708191 0.0028309999033808708191 0.0028309999033808708191 0.0028309999033808708191 0.0028309999033808708191 0.0028309999033808708191 0.0028309999033808708191 0.0028309999033808708191 0.0028309999033808708191 0.0028309999033808708191 0.0028309999033808708191 0.0028309999033808708191 0.0028309999033808708191 0.0028309999033808708191 0.0028309999033808708191 0.010673187673091888428 0.016216000542044639587 0.020146124064922332764 0.0028309999033808708191 0.0028309999033808708191 0.0083282496780157089233 0.023868769407272338867 0.0028309999033808708191 0.0028309999033808708191 0.031323250383138656616 0.049324125051498413086 0.58278357982635498047 1.432625889778137207 0.88330197334289550781 1.2419532537460327148 1.2563308477401733398 0.93998157978057861328 1.078974604606628418 1.4978064298629760742 1.3105118274688720703 1.1259871721267700195 0.091718003153800964355 0.79590123891830444336 0.31548330187797546387 1.6274740695953369141 0.95051819086074829102 1.1648895740509033203 0.2506764531135559082 0.0084678120911121368408 0.01445524953305721283 
0.0028309999033808708191 0.0028309999033808708191 0.0028309999033808708191 0.0028309999033808708191 0.0028309999033808708191 0.0028309999033808708191 0.0028309999033808708191 0.0028309999033808708191 0.0028309999033808708191 0.0028309999033808708191 0.0028309999033808708191 0.0028309999033808708191 0.0028309999033808708191 0.0028309999033808708191 0.0028309999033808708191 0.0028309999033808708191 0.0028309999033808708191 0.0028309999033808708191 0.0028309999033808708191 0.0028309999033808708191 0.0028309999033808708191 0.0028309999033808708191 0.0028309999033808708191 0.0028309999033808708191 0.0028309999033808708191 0.0028309999033808708191 0.0028309999033808708191 0.0028309999033808708191 0.0028309999033808708191 0.0028309999033808708191 0.0028309999033808708191 0.0028309999033808708191 0.022216062992811203003 0.11758125573396682739 0.10282350331544876099 0.88063818216323852539 0.0028309999033808708191 0.0028309999033808708191 0.0028309999033808708191 0.0028309999033808708191 0.0028309999033808708191 0.0028309999033808708191 0.0028309999033808708191 0.0028309999033808708191 0.0028309999033808708191 0.0028309999033808708191 0.0028309999033808708191 0.0028309999033808708191 0.0028309999033808708191 0.0028309999033808708191 0.0028309999033808708191 0.0028309999033808708191 0.0028309999033808708191 0.0083282496780157089233 0.013867749832570552826 0.022248063236474990845 0.028415936976671218872 0.1826397627592086792 0.023295812308788299561 0.034194935113191604614 0.18745587766170501709 0.32884657382965087891 0.024853313341736793518 0.044211201369762420654 0.011302562430500984192 0.0028309999033808708191 0.037863917648792266846 0.048688214272260665894 0.031317498534917831421 0.61905723810195922852 0.47105818986892700195 1.0873639583587646484 1.0488055944442749023 1.2582432031631469727 1.4781858921051025391 1.3411583900451660156 1.128548741340637207 0.92121756076812744141 0.048854064196348190308 0.15808688104152679443 1.1161519289016723633 1.1289342641830444336 1.0965369939804077148 0.54816919565200805664 0.019183186814188957214 0.0028309999033808708191 0.0028309999033808708191 
0.0028309999033808708191 0.0028309999033808708191 0.0028309999033808708191 0.0028309999033808708191 0.0028309999033808708191 0.0028309999033808708191 0.0028309999033808708191 0.0028309999033808708191 0.0028309999033808708191 0.0028309999033808708191 0.0028309999033808708191 0.0028309999033808708191 0.0028309999033808708191 0.0028309999033808708191 0.0028309999033808708191 0.0028309999033808708191 0.0028309999033808708191 0.0028309999033808708191 0.0028309999033808708191 0.0028309999033808708191 0.0028309999033808708191 0.0028309999033808708191 0.0028309999033808708191 0.0028309999033808708191 0.0028309999033808708191 0.0028309999033808708191 0.0028309999033808708191 0.0028309999033808708191 0.0028309999033808708191 0.0028309999033808708191 0.0028309999033808708191 0.65015870332717895508 0.28754517436027526855 0.02590806223452091217 0.0084433751180768013 0.011488812044262886047 0.0028309999033808708191 0.0028309999033808708191 0.0028309999033808708191 0.0028309999033808708191 0.0028309999033808708191 0.0028309999033808708191 0.0028309999033808708191 0.0028309999033808708191 0.0028309999033808708191 0.0028309999033808708191 0.0028309999033808708191 0.0028309999033808708191 0.0028309999033808708191 0.0028309999033808708191 0.0028309999033808708191 0.018756562843918800354 0.014307875186204910278 0.019666437059640884399 0.043084185570478439331 0.04577774927020072937 0.049378875643014907837 0.40654531121253967285 1.0955455303192138672 0.50607216358184814453 0.033558186143636703491 0.039635688066482543945 0.025764124467968940735 0.048767101019620895386 0.52458250522613525391 0.024703999981284141541 0.048990081995725631714 0.049028713256120681763 0.039612248539924621582 0.025575874373316764832 0.033691499382257461548 1.0666421651840209961 1.4492927789688110352 1.0169676542282104492 1.3229171037673950195 1.1357445716857910156 1.8567026853561401367 0.24853156507015228271 0.19713175296783447266 0.77407842874526977539 1.3747504949569702148 1.3535087108612060547 1.2518213987350463867 0.51253592967987060547 1.3511661291122436523 0.46266061067581176758 0.19600699841976165771 
0.0028309999033808708191 0.0028309999033808708191 0.0028309999033808708191 0.0028309999033808708191 0.0028309999033808708191 0.0028309999033808708191 0.0028309999033808708191 0.0028309999033808708191 0.0028309999033808708191 0.0028309999033808708191 0.0028309999033808708191 0.0028309999033808708191 0.0028309999033808708191 0.0028309999033808708191 0.0028309999033808708191 0.0028309999033808708191 0.0028309999033808708191 0.0028309999033808708191 0.0028309999033808708191 0.0028309999033808708191 0.0028309999033808708191 0.0028309999033808708191 0.0028309999033808708191 0.0028309999033808708191 0.0028309999033808708191 0.0028309999033808708191 0.0083511248230934143066 0.014087311923503875732 0.0056611248292028903961 0.13459731638431549072 0.32747006416320800781 0.32628181576728820801 0.013601937331259250641 0.023159312084317207336 0.017432125285267829895 0.0028309999033808708191 0.0028309999033808708191 0.0028309999033808708191 0.0028309999033808708191 0.0028309999033808708191 0.0028309999033808708191 0.0028309999033808708191 0.0028309999033808708191 0.0028309999033808708191 0.0028309999033808708191 0.0028309999033808708191 0.0028309999033808708191 0.0028309999033808708191 0.0028309999033808708191 0.0054450626485049724579 0.021642874926328659058 0.023003624752163887024 0.16044743359088897705 0.67249190807342529297 0.047151248902082443237 0.048211563378572463989 0.048517689108848571777 0.046211563050746917725 0.97197866439819335938 1.3841452598571777344 0.033715125173330307007 0.044557400047779083252 0.035091232508420944214 0.33284357190132141113 0.24321150779724121094 0.01771522127091884613 0.049506627023220062256 0.22755722701549530029 0.38004499673843383789 0.21196137368679046631 0.58894610404968261719 1.2497864961624145508 1.1558895111083984375 0.73760879039764404297 0.50647675991058349609 0.87355375289916992188 1.4627385139465332031 0.048785686492919921875 0.53211092948913574219 1.4271230697631835938 1.4613475799560546875 1.2350330352783203125 0.90436685085296630859 0.71665292978286743164 1.0306813716888427734 1.3837296962738037109 1.4256308078765869141 
0.0028309999033808708191 0.0028309999033808708191 0.0028309999033808708191 0.0028309999033808708191 0.0028309999033808708191 0.0028309999033808708191 0.0028309999033808708191 0.0028309999033808708191 0.0028309999033808708191 0.0028309999033808708191 0.0028309999033808708191 0.0028309999033808708191 0.0028309999033808708191 0.0028309999033808708191 0.0028309999033808708191 0.0028309999033808708191 0.0028309999033808708191 0.0028309999033808708191 0.0028309999033808708191 0.0028309999033808708191 0.0028309999033808708191 0.0028309999033808708191 0.0028309999033808708191 0.0028309999033808708191 0.01590131223201751709 0.030425937846302986145 0.044350188225507736206 0.028770936653017997742 0.0028309999033808708191 0.61743772029876708984 0.1384722590446472168 0.016572186723351478577 0.02239674888551235199 0.017474750056862831116 0.0086885001510381698608 0.0028309999033808708191 0.0028309999033808708191 0.0028309999033808708191 0.0028309999033808708191 0.0028309999033808708191 0.0028309999033808708191 0.0028309999033808708191 0.0028309999033808708191 0.0028309999033808708191 0.0028309999033808708191 0.0028309999033808708191 0.0028309999033808708191 0.0028309999033808708191 0.01098787505179643631 0.013601937331259250641 0.0054450626485049724579 0.036733813583850860596 0.031433563679456710815 0.028895623981952667236 0.19614082574844360352 0.036933250725269317627 0.049157001078128814697 0.046401500701904296875 0.39581012725830078125 1.4220787286758422852 0.3391526341438293457 0.0427495613694190979 1.0278887748718261719 0.93419021368026733398 0.008588812313973903656 0.00560968741774559021 0.049051001667976379395 1.0581647157669067383 1.0514664649963378906 0.64601957798004150391 1.1792408227920532227 1.1464496850967407227 1.0219238996505737305 0.58562839031219482422 0.260311126708984375 0.26552206277847290039 1.1160035133361816406 0.045535188168287277222 0.16243131458759307861 0.045622874051332473755 0.48240488767623901367 0.96672976016998291016 1.2765747308731079102 0.45429006218910217285 0.53677171468734741211 0.032278813421726226807 0.73095899820327758789 
0.0028309999033808708191 0.0028309999033808708191 0.0028309999033808708191 0.0028309999033808708191 0.0028309999033808708191 0.0028309999033808708191 0.0028309999033808708191 0.0028309999033808708191 0.0028309999033808708191 0.0028309999033808708191 0.0028309999033808708191 0.0028309999033808708191 0.0028309999033808708191 0.0028309999033808708191 0.0028309999033808708191 0.0028309999033808708191 0.0028309999033808708191 0.0028309999033808708191 0.0028309999033808708191 0.0028309999033808708191 0.0028309999033808708191 0.0028309999033808708191 0.019062437117099761963 0.029938938096165657043 1.144726872444152832 0.019959749653935432434 0.039174813777208328247 0.036765687167644500732 0.028242999687790870667 0.13825675845146179199 0.0056605623103678226471 0.03308331221342086792 0.0137396249920129776 0.0086885001510381698608 0.0028309999033808708191 0.0028309999033808708191 0.0028309999033808708191 0.0028309999033808708191 0.0028309999033808708191 0.0028309999033808708191 0.0028309999033808708191 0.0028309999033808708191 0.0028309999033808708191 0.0028309999033808708191 0.0028309999033808708191 0.0028309999033808708191 0.0028309999033808708191 0.0162095632404088974 0.036356374621391296387 0.37698918581008911133 0.24490061402320861816 0.48816767334938049316 0.049560561776161193848 0.15083780884742736816 0.64522337913513183594 0.049442376941442489624 0.050601374357938766479 0.29787120223045349121 0.7893912196159362793 1.7924185991287231445 0.039587251842021942139 0.040033500641584396362 0.55157303810119628906 1.3715006113052368164 1.3428175449371337891 0.014052937738597393036 0.048880375921726226807 0.72274512052536010742 0.34965455532073974609 0.41115787625312805176 0.045481689274311065674 1.3156777620315551758 1.3119548559188842773 0.64634060859680175781 0.39686736464500427246 1.1331892013549804688 1.009601593017578125 0.028618751093745231628 0.30058580636978149414 0.031336810439825057983 0.44574505090713500977 0.71227633953094482422 0.67575323581695556641 1.0222027301788330078 0.0028309999033808708191 0.15757037699222564697 0.98313325643539428711 
0.0028309999033808708191 0.0028309999033808708191 0.0028309999033808708191 0.0028309999033808708191 0.0028309999033808708191 0.0028309999033808708191 0.0028309999033808708191 0.0028309999033808708191 0.0028309999033808708191 0.0028309999033808708191 0.0028309999033808708191 0.0028309999033808708191 0.0028309999033808708191 0.0028309999033808708191 0.0028309999033808708191 0.0028309999033808708191 0.0028309999033808708191 0.0028309999033808708191 0.0028309999033808708191 0.0028309999033808708191 0.0080591253936290740967 0.030620561912655830383 0.041433814913034439087 0.044486373662948608398 0.028054125607013702393 0.041544437408447265625 0.047425564378499984741 0.028516501188278198242 0.031336061656475067139 0.80302298069000244141 0.14282731711864471436 0.039528500288724899292 0.008589874953031539917 0.0028309999033808708191 0.0028309999033808708191 0.0028309999033808708191 0.0028309999033808708191 0.0028309999033808708191 0.0028309999033808708191 0.0028309999033808708191 0.0028309999033808708191 0.0028309999033808708191 0.0028309999033808708191 0.0028309999033808708191 0.0028309999033808708191 0.0028309999033808708191 0.010673187673091888428 0.15924094617366790771 0.60840791463851928711 0.49834793806076049805 0.38984188437461853027 0.82926440238952636719 0.1808773726224899292 1.3389045000076293945 0.35095205903053283691 0.049946438521146774292 0.050196498632431030273 0.95386981964111328125 0.29724225401878356934 1.1005402803421020508 0.042048141360282897949 0.054574124515056610107 1.1661899089813232422 0.78910875320434570312 1.3404707908630371094 0.33856314420700073242 0.04502008482813835144 1.1166067123413085938 0.94962322711944580078 1.5406856536865234375 0.40971493721008300781 0.74855399131774902344 1.1506733894348144531 0.82644689083099365234 0.58091127872467041016 0.26650011539459228516 0.11385180801153182983 0.020073374733328819275 0.58556383848190307617 0.29875162243843078613 0.58710789680480957031 0.4699344336986541748 0.35188463330268859863 0.66119331121444702148 0.084807373583316802979 0.023342125117778778076 1.2554914951324462891 
0.0028309999033808708191 0.0028309999033808708191 0.0028309999033808708191 0.0028309999033808708191 0.0028309999033808708191 0.0028309999033808708191 0.0028309999033808708191 0.0028309999033808708191 0.0028309999033808708191 0.0028309999033808708191 0.0028309999033808708191 0.0028309999033808708191 0.0028309999033808708191 0.0028309999033808708191 0.0028309999033808708191 0.0028309999033808708191 0.0028309999033808708191 0.0028309999033808708191 0.0028309999033808708191 0.0028309999033808708191 0.02436762489378452301 0.036458127200603485107 0.038841813802719116211 0.033534061163663864136 0.027802500873804092407 0.047598563134670257568 0.047647874802350997925 0.048190686851739883423 0.031665123999118804932 0.20257224142551422119 0.37537989020347595215 0.011179187335073947906 0.00575975002720952034 0.0028309999033808708191 0.0028309999033808708191 0.0028309999033808708191 0.0028309999033808708191 0.0028309999033808708191 0.0028309999033808708191 0.0028309999033808708191 0.0028309999033808708191 0.0028309999033808708191 0.0028309999033808708191 0.0028309999033808708191 0.0028309999033808708191 0.0028309999033808708191 0.15909050405025482178 0.031008686870336532593 0.04878937453031539917 0.084634251892566680908 0.11853025108575820923 1.047459721565246582 1.1691753864288330078 0.31236973404884338379 0.17058749496936798096 0.049171250313520431519 0.27346432209014892578 0.050148375332355499268 0.82391160726547241211 0.94209879636764526367 0.60477119684219360352 0.0028309999033808708191 1.1887502670288085938 0.6071949005126953125 0.97531902790069580078 0.32476556301116943359 0.47438231110572814941 0.049136500805616378784 1.4289222955703735352 1.4925457239151000977 0.38680851459503173828 0.29282206296920776367 1.3670504093170166016 0.62385678291320800781 0.2723045647144317627 0.031524874269962310791 0.016854938119649887085 0.22330944240093231201 0.23318931460380554199 0.77567684650421142578 0.69182455539703369141 0.3245995640754699707 0.025217061862349510193 0.025366500020027160645 0.23500232398509979248 0.3303070068359375 0.84192448854446411133 
0.0028309999033808708191 0.0028309999033808708191 0.0028309999033808708191 0.0028309999033808708191 0.0028309999033808708191 0.0028309999033808708191 0.0028309999033808708191 0.0028309999033808708191 0.0028309999033808708191 0.0028309999033808708191 0.0028309999033808708191 0.0028309999033808708191 0.0028309999033808708191 0.0028309999033808708191 0.0028309999033808708191 0.0028309999033808708191 0.0028309999033808708191 0.0028309999033808708191 0.0028309999033808708191 0.0054450626485049724579 0.025951875373721122742 0.017214000225067138672 0.034155875444412231445 0.033272374421358108521 0.025904687121510505676 0.047778125852346420288 0.048287935554981231689 0.04944343864917755127 0.014194812625646591187 0.011206999421119689941 0.019944187253713607788 0.014103624969720840454 0.00575975002720952034 0.0028309999033808708191 0.0028309999033808708191 0.0028309999033808708191 0.0028309999033808708191 0.0028309999033808708191 0.0028309999033808708191 0.0028309999033808708191 0.0028309999033808708191 0.0028309999033808708191 0.0028309999033808708191 0.0028309999033808708191 0.010673187673091888428 0.025509499013423919678 0.044657502323389053345 0.047731686383485794067 0.18099705874919891357 0.82702815532684326172 0.85369890928268432617 1.6309438943862915039 0.98420560359954833984 0.63918250799179077148 1.7552006244659423828 0.29519757628440856934 0.3686059415340423584 0.19485870003700256348 0.53322887420654296875 0.71085447072982788086 0.19845741987228393555 0.0028309999033808708191 0.18478026986122131348 0.57905697822570800781 0.091341227293014526367 0.33757269382476806641 1.4324938058853149414 0.71154356002807617188 0.84340524673461914062 0.31120648980140686035 0.040152188390493392944 0.036357186734676361084 0.025425437837839126587 0.38271725177764892578 0.63649153709411621094 0.1145861893892288208 0.17447105050086975098 0.53793489933013916016 0.7630017399787902832 0.88203549385070800781 0.26284286379814147949 0.048706375062465667725 0.047861248254776000977 0.048090063035488128662 0.036262001842260360718 0.57551681995391845703 0.59935575723648071289 
0.0028309999033808708191 0.0028309999033808708191 0.0028309999033808708191 0.0028309999033808708191 0.0028309999033808708191 0.0028309999033808708191 0.0028309999033808708191 0.0028309999033808708191 0.0028309999033808708191 0.0028309999033808708191 0.0028309999033808708191 0.0028309999033808708191 0.0028309999033808708191 0.0028309999033808708191 0.0028309999033808708191 0.0028309999033808708191 0.0028309999033808708191 0.0028309999033808708191 0.0054450626485049724579 0.036057688295841217041 0.0453301258385181427 0.031995311379432678223 0.048961438238620758057 0.042713124305009841919 0.037037562578916549683 0.044847436249256134033 0.047858249396085739136 0.039646189659833908081 0.028751438483595848083 0.022861249744892120361 0.032003127038478851318 0.025861937552690505981 0.0028309999033808708191 0.0028309999033808708191 0.0028309999033808708191 0.0028309999033808708191 0.0028309999033808708191 0.0028309999033808708191 0.0028309999033808708191 0.0028309999033808708191 0.0028309999033808708191 0.0028309999033808708191 0.0080591253936290740967 0.01111406274139881134 0.2348505556583404541 0.048941314220428466797 0.047724187374114990234 0.048356313258409500122 0.79393988847732543945 0.74197220802307128906 0.75355380773544311523 1.7315374612808227539 1.5668365955352783203 0.30342224240303039551 0.55949819087982177734 0.25076368451118469238 0.89854222536087036133 0.48893776535987854004 0.13738249242305755615 0.3137702643871307373 0.1209826245903968811 0.0080591253936290740967 0.12193494290113449097 0.77675068378448486328 0.71960341930389404297 0.51791328191757202148 0.11903837323188781738 0.53749060630798339844 0.36602550745010375977 0.031411185860633850098 0.04491443932056427002 0.12107118964195251465 0.43124607205390930176 0.80803585052490234375 0.38662904500961303711 0.94874769449234008789 0.48215654492378234863 0.22123099863529205322 0.60391455888748168945 1.0848100185394287109 0.63715851306915283203 0.048101626336574554443 0.046545375138521194458 0.048353061079978942871 0.024438250809907913208 0.037620250135660171509 0.049345001578330993652 
0.0028309999033808708191 0.0028309999033808708191 0.0028309999033808708191 0.0028309999033808708191 0.0028309999033808708191 0.0028309999033808708191 0.0028309999033808708191 0.0028309999033808708191 0.0028309999033808708191 0.0028309999033808708191 0.0028309999033808708191 0.0028309999033808708191 0.0028309999033808708191 0.0028309999033808708191 0.0028309999033808708191 0.0028309999033808708191 0.0028309999033808708191 0.0028309999033808708191 0.01590131223201751709 0.047490939497947692871 0.047724749892950057983 0.031629998236894607544 0.049055811017751693726 0.04492631182074546814 0.034600313752889633179 0.048355687409639358521 0.042034000158309936523 0.025909686461091041565 0.53662860393524169922 0.14375175535678863525 0.028183249756693840027 0.017160061746835708618 0.0028309999033808708191 0.0028309999033808708191 0.0028309999033808708191 0.0028309999033808708191 0.0028309999033808708191 0.0028309999033808708191 0.0028309999033808708191 0.0028309999033808708191 0.0028309999033808708191 0.036772374063730239868 0.53617554903030395508 0.23914650082588195801 0.56524729728698730469 0.048717875033617019653 0.047999311238527297974 0.233960762619972229 0.25649425387382507324 0.23790206015110015869 1.0629837512969970703 1.1260946989059448242 0.40843531489372253418 0.32219225168228149414 0.28135269880294799805 0.048835437744855880737 0.66658127307891845703 1.3395859003067016602 1.36592864990234375 1.0045951604843139648 0.017697749659419059753 0.013287249952554702759 0.025846701115369796753 1.2886070013046264648 1.2198435068130493164 0.048603918403387069702 0.049006376415491104126 0.24203762412071228027 0.046094689518213272095 0.031656064093112945557 0.035426501184701919556 0.29788932204246520996 0.60611003637313842773 1.078421473503112793 1.0662870407104492188 0.96737319231033325195 0.19453124701976776123 0.03436312451958656311 0.13195106387138366699 0.51922625303268432617 0.20699299871921539307 0.089733190834522247314 0.04826987534761428833 0.048418000340461730957 0.037114374339580535889 0.049275625497102737427 0.80619823932647705078 
0.0028309999033808708191 0.0028309999033808708191 0.0028309999033808708191 0.0028309999033808708191 0.0028309999033808708191 0.0028309999033808708191 0.0028309999033808708191 0.0028309999033808708191 0.0028309999033808708191 0.0028309999033808708191 0.0028309999033808708191 0.0028309999033808708191 0.0028309999033808708191 0.0028309999033808708191 0.0028309999033808708191 0.0028309999033808708191 0.0028309999033808708191 0.0028309999033808708191 0.024737313389778137207 0.049106873571872711182 0.04853437468409538269 0.033253874629735946655 0.036108437925577163696 0.02808718755841255188 0.030233437195420265198 0.028450688347220420837 0.5350424647331237793 0.037597436457872390747 0.9454428553581237793 0.50321489572525024414 0.020078124478459358215 0.0028309999033808708191 0.0028309999033808708191 0.0028309999033808708191 0.0028309999033808708191 0.0028309999033808708191 0.0028309999033808708191 0.0028309999033808708191 0.0028309999033808708191 0.0028309999033808708191 0.01098787505179643631 0.41358134150505065918 0.87496125698089599609 0.48496261239051818848 0.042751125991344451904 0.049020998179912567139 0.26940393447875976562 1.6672343015670776367 0.4318637549877166748 1.0257219076156616211 0.04608537629246711731 0.011647437699139118195 0.011566749773919582367 0.0057006874121725559235 0.028885375708341598511 0.52859723567962646484 0.3214378654956817627 1.4936063289642333984 0.48839524388313293457 0.020134624093770980835 0.075941875576972961426 0.031180500984191894531 0.63044190406799316406 0.91688174009323120117 1.1515358686447143555 0.54618281126022338867 0.049360249191522598267 0.79448664188385009766 0.22443711757659912109 0.033846750855445861816 0.045295875519514083862 0.017008561640977859497 0.020235812291502952576 0.57164841890335083008 1.1350729465484619141 0.82002562284469604492 0.83369654417037963867 0.048802249133586883545 0.037013310939073562622 0.95381724834442138672 0.049132935702800750732 0.039938312023878097534 0.031238375231623649597 0.04001512378454208374 0.36327329277992248535 0.24450793862342834473 0.64570748805999755859 
0.0028309999033808708191 0.0028309999033808708191 0.0028309999033808708191 0.0028309999033808708191 0.0028309999033808708191 0.0028309999033808708191 0.0028309999033808708191 0.0028309999033808708191 0.0028309999033808708191 0.0028309999033808708191 0.0028309999033808708191 0.0028309999033808708191 0.0028309999033808708191 0.0028309999033808708191 0.0028309999033808708191 0.0028309999033808708191 0.0028309999033808708191 0.0028309999033808708191 0.027565062046051025391 0.028384499251842498779 0.031306251883506774902 0.037780500948429107666 0.15261250734329223633 0.021129438653588294983 0.018784500658512115479 0.0057370625436305999756 0.14430813491344451904 0.028579249978065490723 0.26067468523979187012 0.29782056808471679688 0.00575975002720952034 0.0028309999033808708191 0.0028309999033808708191 0.0028309999033808708191 0.0028309999033808708191 0.0028309999033808708191 0.0054450626485049724579 0.0057474998757243156433 0.014634687453508377075 0.14953973889350891113 0.025434188544750213623 0.025597000494599342346 0.04543337598443031311 0.011508062481880187988 0.028549125418066978455 0.041899248957633972168 0.15939311683177947998 0.55526638031005859375 0.84321343898773193359 0.33296719193458557129 0.049113564193248748779 0.0057563125155866146088 0.0028309999033808708191 0.0028309999033808708191 0.014616812579333782196 0.091298937797546386719 1.3882024288177490234 1.3761183023452758789 0.40099823474884033203 0.12047825008630752563 0.5149218440055847168 0.46089723706245422363 1.2530076503753662109 0.66838687658309936523 1.0980147123336791992 0.29291158914566040039 0.67032301425933837891 0.37634426355361938477 0.22207987308502197266 0.042240623384714126587 0.042618937790393829346 0.025661688297986984253 0.034651625901460647583 0.82795131206512451172 1.0964422225952148438 0.35200670361518859863 0.36080351471900939941 0.033837810158729553223 0.96961587667465209961 0.96337354183197021484 0.049587748944759368896 0.020152436569333076477 0.0056794998236000537872 0.0085279997438192367554 0.034447874873876571655 0.72363299131393432617 1.5357455015182495117 
0.0028309999033808708191 0.0028309999033808708191 0.0028309999033808708191 0.0028309999033808708191 0.0028309999033808708191 0.0028309999033808708191 0.0028309999033808708191 0.0028309999033808708191 0.0028309999033808708191 0.0028309999033808708191 0.0028309999033808708191 0.0028309999033808708191 0.0028309999033808708191 0.0028309999033808708191 0.0028309999033808708191 0.0028309999033808708191 0.0028309999033808708191 0.01098787505179643631 0.04201050102710723877 0.037224311381578445435 0.047634251415729522705 0.046826813369989395142 0.03500712662935256958 0.02950987592339515686 0.025344125926494598389 0.016856187954545021057 0.064589627087116241455 0.29818931221961975098 0.39510673284530639648 0.017474750056862831116 0.0028309999033808708191 0.0028309999033808708191 0.0028309999033808708191 0.0028309999033808708191 0.0028309999033808708191 0.0054450626485049724579 0.026357563212513923645 0.75016897916793823242 0.35173875093460083008 0.67680120468139648438 0.031215937808156013489 0.0028309999033808708191 0.023149250075221061707 0.017221624031662940979 0.72525691986083984375 0.0028309999033808708191 0.0028309999033808708191 0.026568625122308731079 0.12645156681537628174 0.034903064370155334473 0.048082437366247177124 0.0028309999033808708191 0.0028309999033808708191 0.0028309999033808708191 0.023183126002550125122 0.59998410940170288086 1.5129548311233520508 0.61805927753448486328 1.5586600303649902344 0.45380046963691711426 0.4627074897289276123 0.49560824036598205566 0.9457848668098449707 1.3563656806945800781 0.98838841915130615234 0.65613031387329101562 0.16573469340801239014 0.11541931331157684326 0.89292985200881958008 0.021419890224933624268 0.03452049940824508667 0.034702625125646591187 0.040441937744617462158 0.27858430147171020508 0.23110024631023406982 0.040297999978065490723 0.4400691688060760498 0.69137465953826904297 1.0762475728988647461 0.19324561953544616699 0.049438811838626861572 0.03791437298059463501 0.016995063051581382751 0.020041188225150108337 0.30922657251358032227 0.5532398223876953125 0.17207500338554382324 
0.0028309999033808708191 0.0028309999033808708191 0.0028309999033808708191 0.0028309999033808708191 0.0028309999033808708191 0.0028309999033808708191 0.0028309999033808708191 0.0028309999033808708191 0.0028309999033808708191 0.0028309999033808708191 0.0028309999033808708191 0.0028309999033808708191 0.0028309999033808708191 0.0028309999033808708191 0.0028309999033808708191 0.0028309999033808708191 0.0054450626485049724579 0.027647625654935836792 0.045284688472747802734 0.046076875180006027222 0.047621063888072967529 0.048415310680866241455 0.038707062602043151855 0.022718688473105430603 0.028754875063896179199 0.02598912455141544342 0.22628407180309295654 0.17424425482749938965 0.60698986053466796875 0.9510447382926940918 0.0028309999033808708191 0.0028309999033808708191 0.0028309999033808708191 0.0028309999033808708191 0.0028309999033808708191 0.0080591253936290740967 0.032994814217090606689 0.095308683812618255615 0.04189456254243850708 0.32367625832557678223 0.53497403860092163086 0.0057006874121725559235 0.0085915625095367431641 0.019983749836683273315 0.19216586649417877197 0.0028309999033808708191 0.0028309999033808708191 0.0028309999033808708191 0.022781124338507652283 0.028749061748385429382 0.022840311750769615173 0.023007875308394432068 0.014380250126123428345 0.0054450626485049724579 0.01709412597119808197 0.80867266654968261719 1.2363606691360473633 0.90352517366409301758 0.75691735744476318359 0.28981837630271911621 0.93507176637649536133 0.95821362733840942383 1.3979871273040771484 0.8452408909797668457 0.4202111363410949707 0.15895926952362060547 1.1734486818313598633 0.4324556887149810791 0.19057719409465789795 0.014352999627590179443 0.0028309999033808708191 0.010089166462421417236 0.039041668176651000977 0.028619749471545219421 0.039952497929334640503 0.036753438413143157959 0.039451185613870620728 0.28897106647491455078 1.3372708559036254883 0.22174656391143798828 0.037197314202785491943 0.028621124103665351868 0.02283812500536441803 0.18147937953472137451 1.0498565435409545898 0.24039593338966369629 0.13859650492668151855 
0.0028309999033808708191 0.0028309999033808708191 0.0028309999033808708191 0.0028309999033808708191 0.0028309999033808708191 0.0028309999033808708191 0.0028309999033808708191 0.0028309999033808708191 0.0028309999033808708191 0.0028309999033808708191 0.0028309999033808708191 0.0028309999033808708191 0.0028309999033808708191 0.0028309999033808708191 0.0028309999033808708191 0.0028309999033808708191 0.013287249952554702759 0.041841186583042144775 0.040412373840808868408 0.040269624441862106323 0.040786501020193099976 0.023250438272953033447 0.034052249044179916382 0.022815249860286712646 0.013728312216699123383 0.031834624707698822021 0.1368198692798614502 0.025096375495195388794 0.74711680412292480469 0.41981244087219238281 0.0028309999033808708191 0.0028309999033808708191 0.0028309999033808708191 0.0028309999033808708191 0.33706164360046386719 0.029645437374711036682 0.046778999269008636475 0.047223374247550964355 0.040534626692533493042 0.011140249669551849365 0.25617873668670654297 0.0028309999033808708191 0.0028309999033808708191 0.014458437450230121613 0.014150124974548816681 0.0028309999033808708191 0.019997937604784965515 0.0028309999033808708191 0.048855438828468322754 0.049272060394287109375 0.042652126401662826538 0.025581624358892440796 0.13898462057113647461 0.025029562413692474365 0.016961125656962394714 0.44268876314163208008 0.64115869998931884766 0.88527560234069824219 0.97376000881195068359 0.182840004563331604 1.0192962884902954102 0.69054180383682250977 0.87202781438827514648 0.047675624489784240723 0.047473132610321044922 0.048668444156646728516 1.3524614572525024414 1.2663085460662841797 1.3921320438385009766 0.48242542147636413574 0.26022407412528991699 0.010410750284790992737 0.016519229859113693237 0.025656437501311302185 0.031431499868631362915 0.019782999530434608459 0.013876562938094139099 0.51242643594741821289 1.2421995401382446289 0.60350787639617919922 0.016781687736511230469 0.01691662520170211792 0.016917437314987182617 0.042754124850034713745 0.16895736753940582275 0.022252187132835388184 0.035137500613927841187 
0.0028309999033808708191 0.0028309999033808708191 0.0028309999033808708191 0.0028309999033808708191 0.0028309999033808708191 0.0028309999033808708191 0.0028309999033808708191 0.0028309999033808708191 0.0028309999033808708191 0.0028309999033808708191 0.0028309999033808708191 0.0028309999033808708191 0.0028309999033808708191 0.0028309999033808708191 0.0028309999033808708191 0.0028309999033808708191 0.021426187828183174133 0.045146562159061431885 0.043668814003467559814 0.043355751782655715942 0.034850001335144042969 0.040781874209642410278 0.045602060854434967041 0.025785187259316444397 0.019944123923778533936 0.044611688703298568726 0.91138941049575805664 0.5441761016845703125 0.81370782852172851562 0.16655562818050384521 0.0028309999033808708191 0.0028309999033808708191 0.0028309999033808708191 0.086012057960033416748 0.33764350414276123047 0.046277873218059539795 0.047267314046621322632 0.047919124364852905273 0.048859938979148864746 0.011081687174737453461 0.034404061734676361084 0.0028309999033808708191 0.0028309999033808708191 0.0028309999033808708191 0.0028309999033808708191 0.0028309999033808708191 0.005625812336802482605 0.0085973748937249183655 0.047973874956369400024 0.045302748680114746094 0.034575626254081726074 0.32367375493049621582 0.22740601003170013428 0.025613937526941299438 0.014216499403119087219 0.0080591253936290740967 0.64071941375732421875 0.035152800381183624268 0.37895700335502624512 0.67056435346603393555 0.52924048900604248047 0.15656399726867675781 0.048067502677440643311 0.048458125442266464233 0.38752105832099914551 0.98381847143173217773 1.2729038000106811523 1.0651735067367553711 0.54135930538177490234 0.042277500033378601074 0.027870312333106994629 0.024921167641878128052 0.030942142009735107422 0.02562906220555305481 0.01408856268972158432 0.031522251665592193604 0.1540301889181137085 0.24617518484592437744 0.58601301908493041992 0.64169049263000488281 0.013647999614477157593 0.016567874699831008911 0.027908813208341598511 0.04853881150484085083 0.039119500666856765747 0.033830124884843826294 0.036594498902559280396 
0.0028309999033808708191 0.0028309999033808708191 0.0028309999033808708191 0.0028309999033808708191 0.0028309999033808708191 0.0028309999033808708191 0.0028309999033808708191 0.0028309999033808708191 0.0028309999033808708191 0.0028309999033808708191 0.0028309999033808708191 0.0028309999033808708191 0.0028309999033808708191 0.0028309999033808708191 0.0028309999033808708191 0.026901688426733016968 0.0475843772292137146 0.049038562923669815063 0.048219561576843261719 0.048806186765432357788 0.049019373953342437744 0.048959814012050628662 0.034865688532590866089 0.039713874459266662598 0.042943250387907028198 0.049125563353300094604 0.20303030312061309814 1.2218499183654785156 0.70219278335571289062 0.073954313993453979492 0.0028309999033808708191 0.46435400843620300293 0.036772374063730239868 0.0028309999033808708191 0.03762974962592124939 0.048902627080678939819 0.047554064542055130005 0.048145439475774765015 0.26955711841583251953 0.04010149836540222168 0.040315814316272735596 0.0028309999033808708191 0.0028309999033808708191 0.0086048124358057975769 0.0028309999033808708191 0.0028309999033808708191 0.0087841246277093887329 0.022962313145399093628 0.048547126352787017822 0.034540187567472457886 0.020257312804460525513 0.045882873237133026123 0.56058239936828613281 0.034327436238527297974 0.014294874854385852814 0.85189664363861083984 0.62229156494140625 0.81771886348724365234 0.25071752071380615234 1.5968890190124511719 0.58549249172210693359 0.048325601965188980103 0.044760935008525848389 0.048436626791954040527 1.334769129753112793 0.14395819604396820068 0.43164664506912231445 0.1586767733097076416 0.72913080453872680664 0.048363439738750457764 0.048227749764919281006 0.043400622904300689697 0.017861416563391685486 0.0276147499680519104 0.026060499250888824463 0.039152000099420547485 0.034738600254058837891 0.12243962287902832031 0.1799631267786026001 0.019877562299370765686 0.010888687334954738617 0.0028309999033808708191 0.02299818769097328186 0.036856625229120254517 0.025454374030232429504 0.034197438508272171021 0.038009751588106155396 
0.0028309999033808708191 0.0028309999033808708191 0.0028309999033808708191 0.0028309999033808708191 0.0028309999033808708191 0.0028309999033808708191 0.0028309999033808708191 0.0028309999033808708191 0.0028309999033808708191 0.0028309999033808708191 0.0028309999033808708191 0.0028309999033808708191 0.0028309999033808708191 0.0028309999033808708191 0.0080591253936290740967 0.018830062821507453918 0.04289331287145614624 0.04842549934983253479 0.04867518693208694458 0.048091251403093338013 0.048685312271118164062 0.049439251422882080078 0.031939812004566192627 0.54621613025665283203 0.12715643644332885742 0.019941374659538269043 0.14844994246959686279 0.54208195209503173828 0.77494454383850097656 0.87351047992706298828 0.0028309999033808708191 1.1212368011474609375 0.78807741403579711914 0.025098687037825584412 0.38054600358009338379 0.048993561416864395142 0.12962831556797027588 0.33289086818695068359 0.54850256443023681641 0.049240376800298690796 0.045803502202033996582 0.66877162456512451172 0.65400308370590209961 0.047803062945604324341 0.048223938792943954468 0.14523737132549285889 0.030568063259124755859 0.045452374964952468872 0.046946685761213302612 0.048077750951051712036 0.12164581567049026489 0.1242427527904510498 0.031442001461982727051 0.022911937907338142395 0.019735187292098999023 0.17696362733840942383 0.040001124143600463867 1.067227482795715332 0.048951249569654464722 1.4891526699066162109 0.65812540054321289062 0.36465874314308166504 0.25744152069091796875 0.25223055481910705566 0.97518658638000488281 1.0724672079086303711 0.045722749084234237671 0.045798122882843017578 0.043332666158676147461 0.042902667075395584106 0.042497623711824417114 0.0028309999033808708191 0.0028309999033808708191 0.033665563911199569702 0.042927891016006469727 0.046890750527381896973 0.2071911245584487915 0.43217381834983825684 0.20634168386459350586 0.043290250003337860107 0.048544187098741531372 0.040025562047958374023 0.033568374812602996826 0.046319998800754547119 0.031418938189744949341 0.039043501019477844238 0.0028309999033808708191 
0.0028309999033808708191 0.0028309999033808708191 0.0028309999033808708191 0.0028309999033808708191 0.0028309999033808708191 0.0028309999033808708191 0.0028309999033808708191 0.0028309999033808708191 0.0028309999033808708191 0.0028309999033808708191 0.0028309999033808708191 0.0028309999033808708191 0.0028309999033808708191 0.014132687821984291077 0.047704499214887619019 0.028638312593102455139 0.030189000070095062256 0.048840936273336410522 0.048072189092636108398 0.048330124467611312866 0.048557687550783157349 0.043192062526941299438 0.37787917256355285645 0.17528444528579711914 0.88649487495422363281 0.49992594122886657715 0.20818188786506652832 0.69671916961669921875 0.40802764892578125 0.69454163312911987305 0.25759881734848022461 1.0271016359329223633 0.025226123631000518799 0.076760314404964447021 0.14656680822372436523 0.11380506306886672974 0.82172179222106933594 0.12262544035911560059 0.019827125594019889832 0.025729250162839889526 0.030854936689138412476 0.10009662806987762451 0.066136062145233154297 0.048099376261234283447 0.04954312741756439209 0.040980249643325805664 0.017068250104784965515 0.022587625309824943542 0.048142123967409133911 0.049340311437845230103 0.04650106281042098999 0.043215747922658920288 0.11841800063848495483 0.0313319377601146698 0.045868374407291412354 0.048657499253749847412 0.048173937946557998657 0.17943263053894042969 0.47850257158279418945 1.5913269519805908203 1.1558301448822021484 1.0830190181732177734 0.5181636810302734375 0.23618179559707641602 0.18519416451454162598 0.64993208646774291992 0.04905683174729347229 0.044952083379030227661 0.029008833691477775574 0.040826998651027679443 0.044590082019567489624 0.03700258210301399231 0.03469953685998916626 0.032929666340351104736 0.047435749322175979614 0.084303684532642364502 0.6855385899543762207 0.15483975410461425781 0.047537811100482940674 0.049283873289823532104 0.049409247934818267822 0.043534312397241592407 0.022091750055551528931 0.049127437174320220947 0.034139122813940048218 0.025651624426245689392 0.0028309999033808708191 
0.0028309999033808708191 0.0028309999033808708191 0.0028309999033808708191 0.0028309999033808708191 0.0028309999033808708191 0.010907624848186969757 0.023040125146508216858 0.36073574423789978027 0.10234637558460235596 0.0028309999033808708191 0.0028309999033808708191 0.0028309999033808708191 0.0054450626485049724579 0.047904625535011291504 0.04897187650203704834 0.048764936625957489014 0.048355311155319213867 0.04844562336802482605 0.048538874834775924683 0.048550501465797424316 0.048024062067270278931 0.028933063149452209473 0.034713439643383026123 0.46737125515937805176 0.29011186957359313965 0.014042812399566173553 0.43351256847381591797 0.33710750937461853027 0.47476607561111450195 1.4784500598907470703 0.72601604461669921875 1.0873727798461914062 0.90537315607070922852 0.76130002737045288086 1.1231583356857299805 0.82224684953689575195 0.86325991153717041016 0.52330452203750610352 0.24753293395042419434 0.34592917561531066895 0.19798450171947479248 0.046062562614679336548 0.047752812504768371582 0.047706060111522674561 0.04308025166392326355 0.02303012460470199585 0.011429624632000923157 0.031151125207543373108 0.048806626349687576294 0.049350377172231674194 0.04929437488317489624 0.33905261754989624023 0.72557586431503295898 0.025812437757849693298 0.048649501055479049683 0.049109000712633132935 0.19673401117324829102 0.048373498022556304932 0.80244845151901245117 1.5646686553955078125 0.90523689985275268555 0.41686749458312988281 0.033277001231908798218 0.75404834747314453125 0.043132063001394271851 0.031250692903995513916 0.013723083771765232086 0.02564149908721446991 0.0098945833742618560791 0.025306666269898414612 0.020436692982912063599 0.02541507035493850708 0.022105583921074867249 0.031497873365879058838 0.045593064278364181519 0.046482626348733901978 0.041255429387092590332 0.038902934640645980835 0.047936875373125076294 0.049573499709367752075 0.049167249351739883423 0.020093999803066253662 0.022297624498605728149 0.04912931099534034729 0.048979625105857849121 0.041784435510635375977 0.0028309999033808708191 
0.0028309999033808708191 0.0028309999033808708191 0.0028309999033808708191 0.0054450626485049724579 0.027392750605940818787 0.04281668737530708313 0.054563876241445541382 0.99660450220108032227 0.73927038908004760742 0.011403500102460384369 0.0028309999033808708191 0.0028309999033808708191 0.026357563212513923645 0.047258939594030380249 0.047402687370777130127 0.048393748700618743896 0.04862931370735168457 0.047919251024723052979 0.042782373726367950439 0.042808063328266143799 0.022221438586711883545 0.040268562734127044678 0.022531688213348388672 0.44961476325988769531 0.033896062523126602173 0.019904375076293945312 0.48048600554466247559 0.77839183807373046875 1.4223906993865966797 1.4094409942626953125 1.4183334112167358398 0.18132375180721282959 0.47956562042236328125 0.036915939301252365112 0.031133625656366348267 0.26907217502593994141 0.86223322153091430664 0.79749828577041625977 0.21772825717926025391 0.43046113848686218262 0.10261556506156921387 0.04092712700366973877 0.049128625541925430298 0.04904200136661529541 0.03750731050968170166 0.008552249521017074585 0.026470750570297241211 0.049249876290559768677 0.048763561993837356567 0.049477189779281616211 0.049033999443054199219 0.23635700345039367676 0.21340630948543548584 0.046064186841249465942 0.048720937222242355347 0.56566005945205688477 0.82622808218002319336 1.2268830537796020508 1.1806257963180541992 1.6121708154678344727 0.57344716787338256836 0.039607875049114227295 0.04844060167670249939 0.015864072367548942566 0.58636814355850219727 0.049305625259876251221 0.039824437350034713745 0.048361599445343017578 0.045191071927547454834 0.04395449906587600708 0.0419120006263256073 0.03655408322811126709 0.24617968499660491943 1.0885390043258666992 0.031625688076019287109 0.047540999948978424072 0.0080591253936290740967 0.039702583104372024536 0.048176873475313186646 0.049646876752376556396 0.049251060932874679565 0.025331625714898109436 0.045264687389135360718 0.049232624471187591553 0.045999560505151748657 0.045770436525344848633 0.0028309999033808708191 
0.0028309999033808708191 0.010990937240421772003 0.0256346873939037323 0.039738688617944717407 0.042998187243938446045 0.023283874616026878357 0.18931968510150909424 0.16162675619125366211 0.029242374002933502197 0.059147000312805175781 0.0080591253936290740967 0.0028309999033808708191 0.0368138141930103302 0.048603810369968414307 0.047763437032699584961 0.047754500061273574829 0.047938562929630279541 0.034074563533067703247 0.02212012559175491333 0.025756813585758209229 0.01413100026547908783 0.039728999137878417969 0.016484312713146209717 0.014175937511026859283 0.01669387519359588623 0.014248999767005443573 0.56059110164642333984 1.0106053352355957031 2.0121896266937255859 1.5407162904739379883 0.82851260900497436523 0.37592101097106933594 0.17307299375534057617 0.037396501749753952026 0.040416438132524490356 0.42236986756324768066 0.16264675557613372803 0.61893379688262939453 0.01407437492161989212 0.023087874054908752441 0.0084774997085332870483 0.047059752047061920166 0.048967499285936355591 0.048121564090251922607 0.049452126026153564453 0.0086634373292326927185 0.268344879150390625 0.32564938068389892578 0.04930974915623664856 0.048613999038934707642 0.049092687666416168213 0.04898193851113319397 0.04855181276798248291 0.048944748938083648682 0.049100376665592193604 0.048693373799324035645 0.55994015932083129883 0.092842921614646911621 0.67845237255096435547 1.4902129173278808594 0.047615166753530502319 0.048338498920202255249 0.046293061226606369019 0.18764451146125793457 0.018197417259216308594 0.026135083287954330444 0.025728667154908180237 0.03027746640145778656 0.030943999066948890686 0.029313333332538604736 0.030521692708134651184 0.034856900572776794434 0.17282266914844512939 0.11694599688053131104 0.039416126906871795654 0.047153748571872711182 0.0028309999033808708191 0.031998999416828155518 0.049170248210430145264 0.040562875568866729736 0.049748376011848449707 0.01655512489378452301 0.045843560248613357544 0.029161749407649040222 0.028664624318480491638 0.04766725003719329834 0.013287249952554702759 
0.042705874890089035034 0.04574368894100189209 0.65553241968154907227 0.81717604398727416992 0.028539124876260757446 0.0485305003821849823 0.034207686781883239746 0.43432524800300598145 0.30123507976531982422 0.67729926109313964844 0.0080591253936290740967 0.0028309999033808708191 0.0436743125319480896 0.049135062843561172485 0.047865625470876693726 0.046304751187562942505 0.035273749381303787231 0.034765500575304031372 0.02836762554943561554 0.0400639362633228302 0.01144449971616268158 0.025845687836408615112 0.0083282496780157089233 0.028216125443577766418 0.022729624062776565552 0.045825373381376266479 0.4623330235481262207 0.64164561033248901367 1.1821470260620117188 0.18839381635189056396 0.40124899148941040039 0.32002800703048706055 0.71286106109619140625 0.046465124934911727905 0.049593374133110046387 0.56920111179351806641 0.50986677408218383789 0.83461910486221313477 0.01439074985682964325 0.019888125360012054443 0.13716818392276763916 0.12096469104290008545 0.049451436847448348999 0.048822376877069473267 0.04921625182032585144 0.037557687610387802124 0.32693868875503540039 0.059366937726736068726 0.048824064433574676514 0.048594374209642410278 0.047746062278747558594 0.048025373369455337524 0.048337500542402267456 0.049256812781095504761 0.92923069000244140625 0.20510230958461761475 0.73689377307891845703 0.79836672544479370117 1.0431839227676391602 1.5264655351638793945 0.048320416361093521118 0.048887811601161956787 0.028131555765867233276 0.034976501017808914185 0.028912749141454696655 0.044483497738838195801 0.03298508375883102417 0.027612110599875450134 0.041592333465814590454 0.025671498849987983704 0.048718933016061782837 0.03545650094747543335 0.045290537178516387939 0.030383750796318054199 0.0360508747398853302 0.045806299895048141479 0.0028309999033808708191 0.044524133205413818359 0.04360631108283996582 0.045482438057661056519 0.04947125166654586792 0.027455937117338180542 0.0057006874121725559235 0.0028309999033808708191 0.014255812391638755798 0.047306187450885772705 0.024915751069784164429 
0.049411561340093612671 0.044820811599493026733 0.034087561070919036865 0.30351281166076660156 0.025847874581813812256 0.042957063764333724976 0.041981313377618789673 0.31961911916732788086 0.34181192517280578613 1.0259511470794677734 0.0028309999033808708191 0.0054450626485049724579 0.043796624988317489624 0.031780686229467391968 0.034207750111818313599 0.035035312175750732422 0.037082936614751815796 0.044656001031398773193 0.020006563514471054077 0.040483500808477401733 0.014068124815821647644 0.51480364799499511719 0.034314502030611038208 0.022740250453352928162 0.023028749972581863403 0.36465150117874145508 0.13463456928730010986 0.40009906888008117676 0.76725906133651733398 0.40580737590789794922 0.48997068405151367188 0.20198355615139007568 0.81888651847839355469 0.049198437482118606567 0.046227000653743743896 0.0086452504619956016541 0.0028309999033808708191 0.0028309999033808708191 0.01115087512880563736 0.034201249480247497559 0.0028309999033808708191 0.36599498987197875977 0.048875436186790466309 0.048735249787569046021 0.046118002384901046753 0.049317311495542526245 0.00560968741774559021 0.65134525299072265625 0.46662244200706481934 0.048001438379287719727 0.047441251575946807861 0.04780481383204460144 0.048463124781847000122 1.0016591548919677734 0.31656798720359802246 0.048797875642776489258 0.36746498942375183105 1.3788826465606689453 1.3612234592437744141 1.5199035406112670898 0.48982894420623779297 0.048732798546552658081 0.040361061692237854004 0.033562108874320983887 0.03952806815505027771 0.045041833072900772095 0.032979581505060195923 0.045337531715631484985 0.049092438071966171265 0.031144749373197555542 0.026233499869704246521 0.030997375026345252991 0.045588813722133636475 0.048351377248764038086 0.033378999680280685425 0.047089312225580215454 0.048062875866889953613 0.049072436988353729248 0.04625018686056137085 0.045570813119411468506 0.048628810793161392212 0.022557249292731285095 0.0028309999033808708191 0.0028309999033808708191 0.01733081229031085968 0.035410501062870025635 0.047633752226829528809 
0.043629936873912811279 0.042380437254905700684 0.029051687568426132202 0.031307935714721679688 0.039964437484741210938 0.045984938740730285645 0.2296593785285949707 0.56944155693054199219 0.66974312067031860352 0.50795519351959228516 0.0028309999033808708191 0.031585689634084701538 0.024751750752329826355 0.036592185497283935547 0.030728187412023544312 0.045558188110589981079 0.045463375747203826904 0.044656001031398773193 0.046180561184883117676 0.030893437564373016357 0.048054937273263931274 0.048873499035835266113 0.47489562630653381348 0.02857650071382522583 0.034597687423229217529 0.031443126499652862549 0.63518655300140380859 0.84590226411819458008 0.32741212844848632812 0.1853774338960647583 0.44109994173049926758 0.37225624918937683105 0.71086472272872924805 1.0160000324249267578 0.028736500069499015808 0.036873750388622283936 0.0028309999033808708191 0.0028309999033808708191 0.031815126538276672363 0.3457546234130859375 0.40152147412300109863 0.42216032743453979492 0.049630749970674514771 0.050063312053680419922 0.049321502447128295898 0.01724825054407119751 0.017735688015818595886 0.64907503128051757812 0.049271315336227416992 0.047243125736713409424 0.046527814120054244995 0.048378501087427139282 0.048312313854694366455 0.27450925111770629883 0.10484625399112701416 0.047976125031709671021 0.18697114288806915283 1.9420870542526245117 1.0361566543579101562 1.0927411317825317383 0.26071259379386901855 0.023188374936580657959 0.016689749434590339661 0.022701499983668327332 0.037091415375471115112 0.029830750077962875366 0.025911249220371246338 0.037160616368055343628 0.047144435346126556396 0.040445812046527862549 0.0028309999033808708191 0.0028309999033808708191 0.031068874523043632507 0.047534562647342681885 0.03860820084810256958 0.048446785658597946167 0.048241686075925827026 0.048454061150550842285 0.048530872911214828491 0.048481751233339309692 0.048506937921047210693 0.014224999584257602692 0.0028309999033808708191 0.0028309999033808708191 0.0028309999033808708191 0.01913956180214881897 0.046370752155780792236 
0.045262500643730163574 0.028640249744057655334 0.1609891355037689209 0.030136000365018844604 0.037196811288595199585 0.040395185351371765137 0.2602736353874206543 0.85000479221343994141 0.80045670270919799805 0.0028309999033808708191 0.032044000923633575439 0.04195725172758102417 0.51682454347610473633 0.042737938463687896729 0.034498374909162521362 0.044925127178430557251 0.045084688812494277954 0.045092627406120300293 0.037782873958349227905 0.039148811250925064087 0.04846687614917755127 0.048764061182737350464 0.011594561859965324402 0.028289124369621276855 0.045405063778162002563 0.040747500956058502197 0.8598067164421081543 1.066199183464050293 1.2134224176406860352 0.11154106259346008301 0.18258431553840637207 0.22008311748504638672 0.61534649133682250977 1.2126975059509277344 0.04603837430477142334 0.025768000632524490356 0.0084955627098679542542 0.031559124588966369629 0.048846624791622161865 0.24639362096786499023 0.01114468742161989212 0.035170875489711761475 0.049324125051498413086 0.049075938761234283447 0.049219314008951187134 0.029100688174366950989 0.0058093126863241195679 0.084498256444931030273 0.047521062195301055908 0.045662812888622283936 0.046747937798500061035 0.047045189887285232544 0.048091437667608261108 0.049100186675786972046 0.048115186393260955811 0.22629699110984802246 0.048821374773979187012 1.7343831062316894531 0.80443102121353149414 1.6107859611511230469 1.1703472137451171875 0.049105439335107803345 0.036806687712669372559 0.025754749774932861328 0.035294141620397567749 0.0345458984375 0.034603875130414962769 0.045882686972618103027 0.048829123377799987793 0.049540560692548751831 0.011645250022411346436 0.014365375041961669922 0.048955000936985015869 0.048700250685214996338 0.048117667436599731445 0.63431459665298461914 0.034263748675584793091 0.04828279837965965271 0.037238247692584991455 0.04878581315279006958 0.04843912273645401001 0.045627560466527938843 0.036629687994718551636 0.03720612451434135437 0.039908561855554580688 0.04015062376856803894 0.024953249841928482056 
0.049434561282396316528 0.57139348983764648438 0.66346895694732666016 0.21050788462162017822 0.077808439731597900391 0.093239501118659973145 0.45300808548927307129 1.1435861587524414062 0.26188760995864868164 0.010975625365972518921 0.035567875951528549194 0.031084248796105384827 0.51555728912353515625 0.016729999333620071411 0.036871749907732009888 0.045084688812494277954 0.077075123786926269531 0.046187251806259155273 0.066690690815448760986 0.22823569178581237793 0.047395624220371246338 0.04864025115966796875 0.043130688369274139404 0.016997748985886573792 0.027812875807285308838 0.049602374434471130371 0.49568095803260803223 0.72235304117202758789 1.068820953369140625 0.32348319888114929199 0.02475962415337562561 0.17987175285816192627 0.043388687074184417725 0.33809235692024230957 0.12908662855625152588 0.049180500209331512451 0.048954937607049942017 0.12144518643617630005 0.21024093031883239746 0.3238283693790435791 0.26116657257080078125 0.13278780877590179443 0.049520749598741531372 0.050389502197504043579 0.13263644278049468994 0.31322318315505981445 0.022610874846577644348 0.014065000228583812714 0.046231750398874282837 0.037644311785697937012 0.047779060900211334229 0.045569624751806259155 0.048468187451362609863 0.048920065164566040039 0.048878125846385955811 0.048582561314105987549 0.60845112800598144531 1.1722992658615112305 1.1357265710830688477 1.2637546062469482422 0.28269800543785095215 0.049431249499320983887 0.049274310469627380371 0.046326749026775360107 0.049030248075723648071 0.049092922359704971313 0.044366899877786636353 0.049357872456312179565 0.049487125128507614136 0.049561124294996261597 0.017492374405264854431 0.026257561519742012024 0.048598501831293106079 0.048458751291036605835 0.049001399427652359009 0.33450600504875183105 0.29867112636566162109 0.034202154725790023804 0.039951417595148086548 0.047424439340829849243 0.047266062349081039429 0.049757249653339385986 0.049085125327110290527 0.048499561846256256104 0.049279626458883285522 0.031754501163959503174 0.049961499869823455811 
0.037211313843727111816 0.09930324554443359375 0.2971782386302947998 0.17858806252479553223 0.59918355941772460938 0.32469975948333740234 0.3422259986400604248 0.0028309999033808708191 0.67018789052963256836 0.031588189303874969482 0.027961688116192817688 0.47593292593955993652 0.053353499621152877808 0.025534249842166900635 0.044877249747514724731 0.044656001031398773193 0.10564225167036056519 0.18904881179332733154 0.032146062701940536499 0.039427876472473144531 0.048146873712539672852 0.046230562031269073486 0.049493126571178436279 0.02890250086784362793 0.43890908360481262207 0.44423770904541015625 0.98233073949813842773 0.73421525955200195312 0.65937918424606323242 0.43590974807739257812 0.0358905009925365448 0.89737653732299804688 0.76404374837875366211 0.21845881640911102295 0.034047435969114303589 1.0192552804946899414 0.25159111618995666504 1.0682529211044311523 0.92809367179870605469 0.60070854425430297852 0.72154039144515991211 0.049271874129772186279 0.046338189393281936646 0.042842313647270202637 0.31382668018341064453 0.92315691709518432617 0.29979979991912841797 0.043344814330339431763 0.10760262608528137207 0.21040436625480651855 0.04602000117301940918 0.046140249818563461304 0.047433063387870788574 0.048660501837730407715 0.048494625836610794067 0.048851560801267623901 0.61329442262649536133 1.3094992637634277344 1.186939239501953125 0.82582175731658935547 0.17750383913516998291 0.049333874136209487915 0.048441562801599502563 0.037821888923645019531 0.022354584187269210815 0.020180307328701019287 0.032189283519983291626 0.044685155153274536133 0.049572374671697616577 0.049847997725009918213 0.014532249420881271362 0.016840063035488128662 0.047023311257362365723 0.048564247786998748779 0.048720873892307281494 0.029819499701261520386 0.049050699919462203979 0.048996873199939727783 0.045679312199354171753 0.044656001031398773193 0.044656001031398773193 0.048164252191781997681 0.043557375669479370117 0.049517374485731124878 0.049356311559677124023 0.022070374339818954468 0.047918498516082763672 
0.039493437856435775757 0.040435001254081726074 0.19354675710201263428 0.91255521774291992188 1.1357822418212890625 0.74277245998382568359 0.93035912513732910156 0.99786019325256347656 1.024232029914855957 0.047917436808347702026 0.048181813210248947144 0.1582136303186416626 0.025548750534653663635 0.042695563286542892456 0.042251873761415481567 0.044656001031398773193 0.12778699398040771484 0.025079563260078430176 0.034355752170085906982 0.039105877280235290527 0.048728123307228088379 0.048876687884330749512 0.043611377477645874023 0.3020890653133392334 0.65030699968338012695 0.23625518381595611572 0.6384944915771484375 0.44272512197494506836 0.37150111794471740723 0.022889375686645507812 0.042122811079025268555 0.4852237403392791748 0.7623412013053894043 0.04946300014853477478 0.17109581828117370605 0.31135594844818115234 0.29517132043838500977 1.031308293342590332 0.75541698932647705078 1.0546935796737670898 1.5197545289993286133 0.046124313026666641235 0.11098462343215942383 0.50133270025253295898 0.25177299976348876953 1.0311138629913330078 0.74119937419891357422 0.13520468771457672119 0.047780249267816543579 0.046135686337947845459 0.046012125909328460693 0.16662387549877166748 0.025384562090039253235 0.10779418796300888062 0.43878456950187683105 0.36638781428337097168 0.96573811769485473633 1.2007515430450439453 1.1349849700927734375 1.3275616168975830078 0.17677377164363861084 0.049035124480724334717 0.03906633332371711731 0.027381537482142448425 0.021836666390299797058 0.028705561533570289612 0.034932401031255722046 0.045643232762813568115 0.049331873655319213867 0.049553938210010528564 0.023056874051690101624 0.011613812297582626343 0.043206501752138137817 0.046468935906887054443 0.028700562193989753723 0.044063001871109008789 0.043223999440670013428 0.049220498651266098022 0.20012624561786651611 0.044656001031398773193 0.044656001031398773193 0.047312188893556594849 0.020353499799966812134 0.049316000193357467651 0.047640938311815261841 0.030229875817894935608 0.047364249825477600098 
0.04761575162410736084 0.025297187268733978271 0.019131625071167945862 0.39820307493209838867 1.4471362829208374023 0.28884276747703552246 0.55816638469696044922 0.86243605613708496094 0.036553747951984405518 0.047958001494407653809 0.048428874462842941284 0.048492688685655593872 0.049052312970161437988 0.048733998090028762817 0.048194624483585357666 0.047401249408721923828 0.048872813582420349121 0.030169375240802764893 0.039812061935663223267 0.047593999654054641724 0.048138186335563659668 0.1104049384593963623 1.0646753311157226562 0.72358787059783935547 0.037394501268863677979 0.32740798592567443848 0.1019999384880065918 0.028467500582337379456 0.048673126846551895142 0.020170999690890312195 0.045289624482393264771 0.20995581150054931641 1.2198739051818847656 0.85316789150238037109 0.27976855635643005371 0.63174575567245483398 1.4576690196990966797 1.1032643318176269531 0.58344405889511108398 0.26473104953765869141 0.20778125524520874023 0.40520775318145751953 0.16378025710582733154 0.39251032471656799316 0.46696695685386657715 0.72931623458862304688 0.17231962084770202637 0.38418748974800109863 0.047474000602960586548 0.045516751706600189209 0.047053564339876174927 0.036339998245239257812 0.26688086986541748047 0.048708248883485794067 0.11272987723350524902 0.16026537120342254639 0.35287722945213317871 1.6160768270492553711 1.3065797090530395508 0.99944853782653808594 0.049116998910903930664 0.04864408448338508606 0.046077188104391098022 0.042886938899755477905 0.045914750546216964722 0.031707499176263809204 0.034019686281681060791 0.046095810830593109131 0.049013186246156692505 0.049066502600908279419 0.048779875040054321289 0.0085263745859265327454 0.011268812231719493866 0.011529750190675258636 0.01903664320707321167 0.04361012578010559082 0.020229250192642211914 0.0093444287776947021484 0.11756750196218490601 0.045017499476671218872 0.045353814959526062012 0.044628564268350601196 0.044603627175092697144 0.045642938464879989624 0.034495998173952102661 0.021665250882506370544 0.034704498946666717529 
0.048593435436487197876 0.16266581416130065918 0.14303900301456451416 0.82585793733596801758 1.3694946765899658203 0.22804918885231018066 0.92204046249389648438 0.13889238238334655762 0.025716999545693397522 0.048126250505447387695 0.047866001725196838379 0.048572875559329986572 0.048388563096523284912 0.049034811556339263916 0.049184814095497131348 0.048651687800884246826 0.049405686557292938232 0.036617875099182128906 0.048284187912940979004 0.045030627399682998657 0.046105001121759414673 0.45591932535171508789 0.70710611343383789062 0.15463075041770935059 0.034780811518430709839 0.043297249823808670044 0.046203874051570892334 0.045822687447071075439 0.16507612168788909912 0.019199687987565994263 0.025121875107288360596 0.039502438157796859741 0.28371724486351013184 0.37861213088035583496 0.047906376421451568604 0.21465843915939331055 0.82009238004684448242 1.141175389289855957 0.49669274687767028809 0.15063455700874328613 0.04835537448525428772 0.045967999845743179321 0.12606368958950042725 0.29911482334136962891 0.025582499802112579346 0.26682418584823608398 0.031304061412811279297 0.20872350037097930908 0.41183021664619445801 0.03105237521231174469 0.040090374648571014404 0.036887876689434051514 0.0429953746497631073 0.076861001551151275635 0.86395573616027832031 0.70261490345001220703 0.79589104652404785156 1.2600297927856445312 0.93882989883422851562 1.4072784185409545898 0.96210634708404541016 0.048274416476488113403 0.047393999993801116943 0.043835300952196121216 0.039455626159906387329 0.04842818528413772583 0.049114998430013656616 0.049492560327053070068 0.047971688210964202881 0.046563375741243362427 0.044973876327276229858 0.0028309999033808708191 0.0028309999033808708191 0.12751400470733642578 0.70909482240676879883 0.021564915776252746582 0.014409500174224376678 0.0085279997438192367554 0.025532063096761703491 0.033879499882459640503 0.019543187692761421204 0.045740626752376556396 0.048638749867677688599 0.030704999342560768127 0.0028309999033808708191 0.029206063598394393921 0.047902747988700866699 
0.034359876066446304321 0.17497780919075012207 0.4851621091365814209 1.0294328927993774414 0.98985517024993896484 0.80529159307479858398 1.1215244531631469727 0.028435686603188514709 0.039347250014543533325 0.047279812395572662354 0.049683313816785812378 0.048629123717546463013 0.049471627920866012573 0.050434440374374389648 0.049037188291549682617 0.048895999789237976074 0.048350688070058822632 0.046013001352548599243 0.046140626072883605957 0.044656001031398773193 0.044656001031398773193 0.36972451210021972656 0.67802190780639648438 0.048833936452865600586 0.049266748130321502686 0.046152185648679733276 0.10535100102424621582 0.10193230956792831421 0.79841923713684082031 0.016469687223434448242 0.037450373172760009766 0.043328750878572463989 0.15347599983215332031 0.89331817626953125 0.2241878211498260498 0.048600688576698303223 0.70155805349349975586 0.98041248321533203125 0.4709809422492980957 0.71381318569183349609 0.82678580284118652344 0.5224514007568359375 0.30757156014442443848 0.58759897947311401367 0.58953124284744262695 0.89685010910034179688 0.41525739431381225586 0.0028309999033808708191 0.66471576690673828125 0.23718193173408508301 0.4020404517650604248 0.044254098087549209595 0.048482250422239303589 0.23184369504451751709 0.049091313034296035767 0.39069387316703796387 0.68239039182662963867 1.2410511970520019531 0.88561898469924926758 1.2129329442977905273 0.85125690698623657227 0.16303056478500366211 0.16233393549919128418 0.16753870248794555664 0.049233064055442810059 0.048670060932636260986 0.049121126532554626465 0.049291811883449554443 0.048528876155614852905 0.046043749898672103882 0.047950312495231628418 0.017265938222408294678 0.025710500776767730713 0.52886587381362915039 0.28117853403091430664 0.048830855637788772583 0.036683123558759689331 0.013787812553346157074 0.030420625582337379456 0.036879748106002807617 0.036545749753713607788 0.048227623105049133301 0.038840688765048980713 0.0028309999033808708191 0.0028309999033808708191 0.035649314522743225098 0.048735249787569046021 
0.042674936354160308838 0.16181787848472595215 1.0468832254409790039 1.2467151880264282227 0.89671951532363891602 1.0427744388580322266 0.40271037817001342773 0.016763437539339065552 0.038621813058853149414 0.048242688179016113281 0.049023002386093139648 0.049886312335729598999 0.049271561205387115479 0.050125252455472946167 0.049315687268972396851 0.048666626214981079102 0.045772563666105270386 0.045263811945915222168 0.045092627406120300293 0.044656001031398773193 0.046059377491474151611 0.048923626542091369629 0.28540030121803283691 0.049050688743591308594 0.048638749867677688599 0.20535568892955780029 0.79964315891265869141 1.0388617515563964844 0.0028309999033808708191 0.031339813023805618286 0.049072124063968658447 0.048342186957597732544 0.047715250402688980103 0.42865523695945739746 0.26703792810440063477 0.33091011643409729004 0.13826406002044677734 0.50188291072845458984 0.42293071746826171875 0.50416743755340576172 0.049067251384258270264 0.64834111928939819336 0.57830750942230224609 0.15702188014984130859 0.26411569118499755859 0.90513885021209716797 0.42121094465255737305 0.0028309999033808708191 1.0736287832260131836 0.36610913276672363281 0.033385917544364929199 0.020037123933434486389 0.049141813069581985474 0.1958691328763961792 0.43271568417549133301 1.0299806594848632812 0.88276475667953491211 0.84669643640518188477 1.6901601552963256836 1.413237452507019043 0.73736560344696044922 0.019377375021576881409 0.1337404400110244751 0.024827124550938606262 0.022258916869759559631 0.048840560019016265869 0.049036752432584762573 0.04899850115180015564 0.042986124753952026367 0.021344937384128570557 0.04738356173038482666 0.045710064470767974854 0.085455000400543212891 0.41980782151222229004 0.045435063540935516357 0.037347875535488128662 0.020172623917460441589 0.021036749705672264099 0.034089062362909317017 0.036547061055898666382 0.042047873139381408691 0.047647874802350997925 0.041129000484943389893 0.0028309999033808708191 0.0054450626485049724579 0.044785689562559127808 0.047053001821041107178 
0.033767435699701309204 0.83442330360412597656 1.0655215978622436523 0.43251174688339233398 0.60553061962127685547 0.81178998947143554688 0.73137986660003662109 0.02860312536358833313 0.040088623762130737305 0.049964752048254013062 0.049575313925743103027 0.048847813159227371216 0.04944550246000289917 0.049056064337491989136 0.048547439277172088623 0.046504687517881393433 0.045310065150260925293 0.044656001031398773193 0.044656001031398773193 0.044958937913179397583 0.047778561711311340332 0.04909437522292137146 0.049094062298536300659 0.04840150102972984314 0.29519155621528625488 1.1843854188919067383 0.9400202631950378418 1.3187516927719116211 0.80413812398910522461 0.034244377166032791138 0.048682186752557754517 0.048248998820781707764 0.32766774296760559082 0.66226029396057128906 0.49367931485176086426 0.40890362858772277832 0.57931911945343017578 0.53122478723526000977 0.72199034690856933594 0.049353562295436859131 0.4980964958667755127 0.25820147991180419922 0.048717875033617019653 0.049059811979532241821 0.048909123986959457397 0.61245310306549072266 0.15143972635269165039 0.75005048513412475586 0.94133275747299194336 0.094093002378940582275 0.02358333393931388855 0.040269374847412109375 0.25834682583808898926 0.53762322664260864258 0.31211799383163452148 0.55925351381301879883 1.0033330917358398438 1.5366983413696289062 0.9024372100830078125 1.4384137392044067383 0.92207819223403930664 0.46033269166946411133 0.039318811148405075073 0.019799625501036643982 0.025729333981871604919 0.03363116830587387085 0.029141357168555259705 0.03394300118088722229 0.025760250166058540344 0.014004916884005069733 0.029324917122721672058 0.032261375337839126587 0.049175933003425598145 0.27860143780708312988 0.4458376765251159668 0.028460284695029258728 0.010478500276803970337 0.016856692731380462646 0.019347311928868293762 0.025166749954223632812 0.03634193912148475647 0.044594749808311462402 0.029759749770164489746 0.0028309999033808708191 0.013287249952554702759 0.044823937118053436279 0.047053001821041107178 
0.28456893563270568848 1.3996653556823730469 0.95798587799072265625 0.047318626195192337036 0.9524580836296081543 0.64909404516220092773 0.57040256261825561523 0.028448937460780143738 0.042510561645030975342 0.049739439040422439575 0.049351811408996582031 0.04853406175971031189 0.049056064337491989136 0.049525748938322067261 0.047963749617338180542 0.045084688812494277954 0.047431625425815582275 0.045291814953088760376 0.045540500432252883911 0.046231437474489212036 0.04940412566065788269 0.049412000924348831177 0.04958456382155418396 0.59339785575866699219 0.27348592877388000488 1.1573548316955566406 0.074707500636577606201 1.3271888494491577148 0.12866836786270141602 0.043029189109802246094 0.049145501106977462769 0.46944230794906616211 0.73417335748672485352 0.032702937722206115723 0.40928375720977783203 0.25399893522262573242 0.140512809157371521 0.28948092460632324219 0.26780274510383605957 0.045325063169002532959 0.23145449161529541016 0.045047186315059661865 0.039161376655101776123 0.04259006306529045105 0.1587896198034286499 0.49973401427268981934 0.25168213248252868652 0.98085665702819824219 0.0028309999033808708191 0.0028309999033808708191 0.011506312526762485504 0.031899936497211456299 0.049127124249935150146 0.049430061131715774536 0.049030572175979614258 0.56484282016754150391 1.4367868900299072266 1.9161827564239501953 0.71318048238754272461 0.21995134651660919189 0.33324375748634338379 0.30742633342742919922 0.048053000122308731079 0.025275187566876411438 0.035012427717447280884 0.044253200292587280273 0.044184584170579910278 0.030836001038551330566 0.046806123107671737671 0.048343937844038009644 0.048564374446868896484 0.15382200479507446289 0.26801621913909912109 0.14543305337429046631 0.04857549816370010376 0.028387665748596191406 0.036877624690532684326 0.040266998112201690674 0.028587812557816505432 0.02239056117832660675 0.031246311962604522705 0.04239574819803237915 0.027635311707854270935 0.0028309999033808708191 0.0028309999033808708191 0.019779562950134277344 0.04749774932861328125 
0.5712439417839050293 1.3535224199295043945 0.74176847934722900391 0.049078062176704406738 0.35466301441192626953 0.76373374462127685547 1.0618071556091308594 0.042991936206817626953 0.042485874146223068237 0.049133561551570892334 0.048983063548803329468 0.049735814332962036133 0.049296811223030090332 0.049705125391483306885 0.048005998134613037109 0.046722501516342163086 0.048014000058174133301 0.045891813933849334717 0.26674011349678039551 0.60193639993667602539 0.049168813973665237427 0.050278875976800918579 0.66773182153701782227 0.56115418672561645508 0.047940377146005630493 0.039926126599311828613 0.1823371201753616333 0.62263256311416625977 0.19082742929458618164 0.046130936592817306519 0.040508501231670379639 1.0961887836456298828 0.87153506278991699219 0.02344843745231628418 0.023543875664472579956 0.0028309999033808708191 0.029394436627626419067 0.037710689008235931396 0.045493312180042266846 0.0315760001540184021 0.042535249143838882446 0.045008812099695205688 0.036254812031984329224 0.27959012985229492188 0.57907634973526000977 0.096785672008991241455 0.10809208452701568604 0.31317183375358581543 0.017356937751173973083 0.037762813270092010498 0.0085279997438192367554 0.011488500051200389862 0.046125125139951705933 0.048297438770532608032 0.049226876348257064819 0.16047929227352142334 1.2966012954711914062 1.4187372922897338867 1.2550642490386962891 0.12183532863855361938 0.047541800886392593384 0.036965332925319671631 0.028330070897936820984 0.042716249823570251465 0.035647712647914886475 0.019085500389337539673 0.02895399928092956543 0.04251818731427192688 0.046234749257564544678 0.049033250659704208374 0.048642437905073165894 0.0485840626060962677 0.048491813242435455322 0.036134250462055206299 0.041431624442338943481 0.047370251268148422241 0.036192417144775390625 0.036702997982501983643 0.031407751142978668213 0.039220623672008514404 0.045473437756299972534 0.034005373716354370117 0.039022188633680343628 0.031174249947071075439 0.010673187673091888428 0.047796063125133514404 0.047053001821041107178 
1.0055707693099975586 1.4314974546432495117 0.20838606357574462891 0.049398563802242279053 0.1501114964485168457 0.8976733088493347168 1.3024353981018066406 1.0633100271224975586 0.047949124127626419067 0.048982374370098114014 0.050174813717603683472 0.049827873706817626953 0.049230188131332397461 0.048487249761819839478 0.048739749938249588013 0.048938937485218048096 0.049888625741004943848 0.046331439167261123657 0.21290655434131622314 0.5738525390625 0.050011813640594482422 0.16925007104873657227 0.50664412975311279297 0.82303279638290405273 0.048925064504146575928 0.31821525096893310547 0.31867575645446777344 0.11056237667798995972 0.093873441219329833984 0.037117313593626022339 0.034886188805103302002 1.1527246236801147461 0.47297760844230651855 0.038325812667608261108 0.026412250474095344543 0.0028309999033808708191 0.0086890002712607383728 0.049964249134063720703 0.045898187905550003052 0.30623200535774230957 0.047611124813556671143 0.037760399281978607178 0.039202097803354263306 0.039825689047574996948 0.046029001474380493164 0.062426466494798660278 0.033159166574478149414 0.028514642268419265747 0.0423699989914894104 0.011440312489867210388 0.011376500129699707031 0.033991936594247817993 0.042532499879598617554 0.03207449987530708313 0.048885311931371688843 0.65259021520614624023 0.49284607172012329102 0.79034823179244995117 0.74948507547378540039 0.04252686724066734314 0.28878766298294067383 0.44834721088409423828 0.1506051868200302124 0.046275563538074493408 0.10857349634170532227 0.78931522369384765625 0.36659356951713562012 0.049203187227249145508 0.048564188182353973389 0.049258936196565628052 0.049267560243606567383 0.049063101410865783691 0.042992077767848968506 0.034062311053276062012 0.017894249409437179565 0.025240428745746612549 0.01250764261931180954 0.013344615697860717773 0.011000062339007854462 0.022701999172568321228 0.019552687183022499084 0.46040993928909301758 0.098518185317516326904 0.18904881179332733154 0.021971749141812324524 0.039724186062812805176 0.048698499798774719238 
1.3707785606384277344 0.67241108417510986328 0.048594001680612564087 0.049607876688241958618 0.050046812742948532104 0.048932936042547225952 1.4249279499053955078 1.2803596258163452148 1.0788749456405639648 0.047549687325954437256 0.049467876553535461426 0.049462750554084777832 0.04946093633770942688 0.049898125231266021729 0.0496387481689453125 0.049495685845613479614 0.048415999859571456909 0.04871212691068649292 0.049374688416719436646 0.10516462475061416626 0.049543686211109161377 0.048023436218500137329 0.35923907160758972168 0.54031771421432495117 0.13912594318389892578 0.1579821854829788208 0.12951888144016265869 0.042267374694347381592 0.031557936221361160278 0.049193438142538070679 0.52788388729095458984 0.26766437292098999023 0.031534686684608459473 0.038287810981273651123 0.03196031227707862854 0.040040750056505203247 0.0028309999033808708191 0.044029563665390014648 0.11839199811220169067 0.09042800217866897583 0.049167249351739883423 0.043120875954627990723 0.030327124521136283875 0.044987998902797698975 0.048815622925758361816 0.048516750335693359375 0.049407813698053359985 0.046070501208305358887 0.014419187791645526886 0.0028309999033808708191 0.034873876720666885376 0.043183811008930206299 0.037709373980760574341 0.017380375415086746216 0.031571250408887863159 0.048762314021587371826 0.048795811831951141357 0.68566542863845825195 0.515869140625 0.84373897314071655273 0.57440125942230224609 0.90925014019012451172 0.96219199895858764648 0.22998550534248352051 0.33833682537078857422 0.12458737194538116455 1.0486832857131958008 0.10147106647491455078 0.048649623990058898926 0.048625938594341278076 0.048706751316785812378 0.042218249291181564331 0.027701750397682189941 0.048643250018358230591 0.029900167137384414673 0.025381250306963920593 0.0028309999033808708191 0.011101875454187393188 0.0028309999033808708191 0.031374186277389526367 0.039328936487436294556 0.10410356521606445312 0.20831306278705596924 0.17001324892044067383 0.039651874452829360962 0.0028309999033808708191 0.0028309999033808708191 
1.6174669265747070312 0.3879680633544921875 0.048536811023950576782 0.048458375036716461182 0.048550061881542205811 0.048961687833070755005 0.59515392780303955078 1.1146428585052490234 0.94535326957702636719 0.047606188803911209106 0.048520874232053756714 0.049312938004732131958 0.04861806333065032959 0.049401875585317611694 0.049556624144315719604 0.048716749995946884155 0.048087250441312789917 0.048687122762203216553 0.049459062516689300537 0.0499972514808177948 0.049957688897848129272 0.047949437052011489868 0.64417505264282226562 0.44601812958717346191 0.4379597008228302002 0.60466265678405761719 0.014282561838626861572 0.32574063539505004883 0.12139875441789627075 0.43083038926124572754 0.98682737350463867188 0.41649699211120605469 0.15867568552494049072 0.020339999347925186157 0.023252500221133232117 0.043140564113855361938 0.028745999559760093689 0.049079939723014831543 0.048375312238931655884 0.034088876098394393921 0.027776665985584259033 0.020194625481963157654 0.033395666629076004028 0.039767801761627197266 0.048879314213991165161 0.04946537315845489502 0.046737376600503921509 0.24246688187122344971 0.0028309999033808708191 0.00575975002720952034 0.027967846021056175232 0.025658300146460533142 0.014335687272250652313 0.0028309999033808708191 0.022957874462008476257 0.048791062086820602417 0.10504224896430969238 0.30075338482856750488 1.3062850236892700195 1.6956754922866821289 1.2823548316955566406 0.54693162441253662109 0.45893898606300354004 1.0501117706298828125 0.62123000621795654297 0.7669245600700378418 1.1825259923934936523 0.64799046516418457031 0.048312533646821975708 0.15804661810398101807 0.048820436000823974609 0.048531498759984970093 0.046903077512979507446 0.044775333255529403687 0.025620000436902046204 0.026786250993609428406 0.071006998419761657715 0.076284691691398620605 0.011528999544680118561 0.036053061485290527344 0.025454625487327575684 0.037067748606204986572 0.048912312835454940796 0.031535997986793518066 0.048675499856472015381 0.017116686329245567322 0.0028309999033808708191 
1.44527435302734375 0.32616007328033447266 0.048071060329675674438 0.04700662568211555481 0.047475498169660568237 0.04856393858790397644 0.95085382461547851562 0.54429984092712402344 0.99247711896896362305 1.1531491279602050781 0.39319300651550292969 0.049049876630306243896 0.049485936760902404785 0.049396373331546783447 0.049348685890436172485 0.049677625298500061035 0.0485571250319480896 0.047942750155925750732 0.049398124217987060547 0.048967249691486358643 0.048674501478672027588 0.23272757232189178467 1.1306473016738891602 0.13485494256019592285 0.46220007538795471191 0.16204650700092315674 0.03459949791431427002 0.18080493807792663574 0.036881625652313232422 0.68595534563064575195 0.71500802040100097656 0.18686950206756591797 0.77271801233291625977 0.55507612228393554688 0.049154624342918395996 0.049166999757289886475 0.049319311976432800293 0.20469944179058074951 0.045568499714136123657 0.022660437971353530884 0.025760874152183532715 0.025609916076064109802 0.20092250406742095947 0.036310750991106033325 0.048673063516616821289 0.049237437546253204346 0.15142381191253662109 0.038458250463008880615 0.0028309999033808708191 0.0086885001510381698608 0.04883028566837310791 0.01063183322548866272 0.023155124858021736145 0.0028309999033808708191 0.02312774956226348877 0.049248874187469482422 0.048842437565326690674 0.55052727460861206055 1.3491283655166625977 1.5006818771362304688 1.2734054327011108398 0.15400019288063049316 0.048361998051404953003 0.39895138144493103027 0.76794695854187011719 0.34154245257377624512 0.18080443143844604492 0.59129852056503295898 0.69803094863891601562 0.74191659688949584961 0.22938060760498046875 0.049034185707569122314 0.04855730012059211731 0.025422750040888786316 0.044342998415231704712 0.019460374489426612854 0.12586824595928192139 0.23369942605495452881 0.036718685179948806763 0.032404437661170959473 0.0054450626485049724579 0.047207061201333999634 0.046152688562870025635 0.019824687391519546509 0.034841813147068023682 0.017235063016414642334 0.0028309999033808708191 
0.99187487363815307617 0.21113619208335876465 0.047553125768899917603 0.046424813568592071533 0.047128126025199890137 0.047484062612056732178 0.52471256256103515625 0.047918938100337982178 0.047572687268257141113 1.3465108871459960938 1.0162534713745117188 0.2698281705379486084 0.048026375472545623779 0.049827873706817626953 0.049281436949968338013 0.049916937947273254395 0.049518436193466186523 0.048805188387632369995 0.047904498875141143799 0.048081811517477035522 0.14498975872993469238 0.97682750225067138672 0.63530421257019042969 0.042945750057697296143 0.034411560744047164917 0.032949186861515045166 0.20932149887084960938 0.049881439656019210815 0.036346938461065292358 0.048336561769247055054 0.084997124969959259033 0.26115643978118896484 0.030871374532580375671 0.346012115478515625 0.039412189275026321411 0.037235248833894729614 0.13942193984985351562 0.13690818846225738525 0.025974374264478683472 0.031615626066923141479 0.028820186853408813477 0.031458623707294464111 0.0083883749321103096008 0.030370499938726425171 0.048371687531471252441 0.048817314207553863525 0.15191613137722015381 0.0028309999033808708191 0.0028309999033808708191 0.022908687591552734375 0.041133165359497070312 0.037733498960733413696 0.044926665723323822021 0.0028309999033808708191 0.0084315622225403785706 0.031615499407052993774 0.049198936671018600464 0.44586279988288879395 1.7716253995895385742 1.4825968742370605469 0.90653574466705322266 0.079479128122329711914 0.047980751842260360718 0.087765626609325408936 0.077938310801982879639 0.049048874527215957642 0.04896450042724609375 0.044922124594449996948 0.30986961722373962402 0.66297179460525512695 0.52403819561004638672 0.048566438257694244385 0.048765875399112701416 0.048523001372814178467 0.047049812972545623779 0.033976063132286071777 0.045598436146974563599 0.048906750977039337158 0.030921688303351402283 0.045402687042951583862 0.010673187673091888428 0.030942374840378761292 0.042591188102960586548 0.04792612418532371521 0.04553249850869178772 0.039584562182426452637 0.024596249684691429138 
1.3640832901000976562 0.52380239963531494141 0.046615373343229293823 0.04700662568211555481 0.047475498169660568237 0.045985002070665359497 0.04905118793249130249 0.049695625901222229004 0.047994375228881835938 1.1691108942031860352 1.4910925626754760742 0.047970999032258987427 0.048403751105070114136 0.049001939594745635986 0.049616940319538116455 0.049592498689889907837 0.049914188683032989502 0.049042686820030212402 0.047283124178647994995 0.13117088377475738525 0.79196095466613769531 0.23383405804634094238 0.049426499754190444946 0.045954938977956771851 0.028119063004851341248 0.044925127178430557251 0.081325501203536987305 0.037712812423706054688 0.037110812962055206299 0.51251512765884399414 0.17094825208187103271 0.52410483360290527344 0.014162937179207801819 0.04251256212592124939 0.030865624547004699707 0.026264937594532966614 0.037141561508178710938 0.0084233749657869338989 0.037340000271797180176 0.025020083412528038025 0.046128064393997192383 0.045694373548030853271 0.037445500493049621582 0.043308444321155548096 0.043289624154567718506 0.092955254018306732178 0.040200561285018920898 0.0085060000419616699219 0.0080376667901873588562 0.046233560889959335327 0.030313249677419662476 0.0028309999033808708191 0.0028309999033808708191 0.031798932701349258423 0.04031268879771232605 0.016984749585390090942 0.028395250439643859863 0.0287285633385181427 0.9692261815071105957 1.6891180276870727539 0.46757498383522033691 0.50021690130233764648 0.29340112209320068359 0.048098623752593994141 0.046047251671552658081 0.047081060707569122314 0.047977562993764877319 0.047521062195301055908 0.036811560392379760742 0.058384999632835388184 0.017744665965437889099 0.048237748444080352783 0.049237623810768127441 0.04168156161904335022 0.033084813505411148071 0.028651686385273933411 0.028893124312162399292 0.031954750418663024902 0.034529436379671096802 0.028025500476360321045 0.031655251979827880859 0.021718749776482582092 0.0086431251838803291321 0.019769936800003051758 0.035453375428915023804 0.032274998724460601807 0.0028309999033808708191 
0.28054711222648620605 0.046680435538291931152 0.04769593849778175354 0.047217436134815216064 0.046895250678062438965 0.048199310898780822754 0.048705123364925384521 0.049412500113248825073 0.047828312963247299194 1.1999117136001586914 1.0749329328536987305 0.74772417545318603516 0.048974875360727310181 0.049475938081741333008 0.04928518831729888916 0.0476876869797706604 0.049769502133131027222 0.049019251018762588501 0.046481311321258544922 0.59343880414962768555 0.3729934394359588623 0.049109064042568206787 0.087530001997947692871 0.14778731763362884521 0.034556437283754348755 0.047902811318635940552 0.031429249793291091919 0.046233061701059341431 0.049538813531398773193 0.049681000411510467529 0.046362936496734619141 0.048277437686920166016 0.0085517503321170806885 0.016702000051736831665 0.028102125972509384155 0.031480312347412109375 0.25388512015342712402 0.020037123933434486389 0.025288749486207962036 0.025551062077283859253 0.047595936805009841919 0.01445524953305721283 0.031307626515626907349 0.040513813495635986328 0.046057686209678649902 0.050137832760810852051 0.020194875076413154602 0.0028309999033808708191 0.030125083401799201965 0.049254998564720153809 0.040702749043703079224 0.022688874974846839905 0.038129061460494995117 0.049063690006732940674 0.046004123985767364502 0.034609060734510421753 0.045326687395572662354 0.049274124205112457275 1.3126181364059448242 0.92456197738647460938 0.55139201879501342773 0.94908386468887329102 0.47442281246185302734 0.26285663247108459473 0.047795563936233520508 0.048024874180555343628 0.30918082594871520996 0.51914685964584350586 0.69122701883316040039 0.0056605623103678226471 0.008263500407338142395 0.04232206195592880249 0.048962686210870742798 0.048165500164031982422 0.045106623321771621704 0.042729873210191726685 0.042465563863515853882 0.043174188584089279175 0.037187810987234115601 0.0219583120197057724 0.018817812204360961914 0.028711061924695968628 0.036797124892473220825 0.045938499271869659424 0.031500812619924545288 0.019534125924110412598 0.0028309999033808708191 
0.047900188714265823364 0.048232123255729675293 0.046358563005924224854 0.046232186257839202881 0.047475747764110565186 0.048508249223232269287 0.048040561378002166748 0.048354875296354293823 0.50586938858032226562 0.95263671875 1.1550366878509521484 1.2935024499893188477 0.16115519404411315918 0.049604061990976333618 0.048893876373767852783 0.048916064202785491943 0.049677375704050064087 0.049327000975608825684 0.047476999461650848389 0.41442024707794189453 0.23482938110828399658 0.048837937414646148682 0.20345287024974822998 0.048841875046491622925 0.49549886584281921387 0.15793569386005401611 0.030137876048684120178 0.24060800671577453613 0.91844767332077026367 0.19580662250518798828 0.67202115058898925781 0.49366393685340881348 0.017145562916994094849 0.017510000616312026978 0.0083838747814297676086 0.0088039329275488853455 0.031583499163389205933 0.021374400705099105835 0.042281936854124069214 0.20676131546497344971 0.67569559812545776367 0.014634666964411735535 0.041092418134212493896 0.032992582768201828003 0.088439062237739562988 0.040562748908996582031 0.044005598872900009155 0.016889000311493873596 0.049659311771392822266 0.047204624861478805542 0.0436193123459815979 0.049225937575101852417 0.049493376165628433228 0.04942243918776512146 0.40170738101005554199 0.1528857499361038208 0.048153124749660491943 0.84006798267364501953 1.3881560564041137695 1.3089793920516967773 1.1458159685134887695 0.51944386959075927734 0.58057379722595214844 0.45553365349769592285 0.082517154514789581299 0.047154560685157775879 0.32423269748687744141 0.30408075451850891113 0.031237687915563583374 0.14142043888568878174 0.25848606228828430176 0.010882374830543994904 0.03920537605881690979 0.031643874943256378174 0.036691624671220779419 0.025543998926877975464 0.030499562621116638184 0.031214436516165733337 0.019774686545133590698 0.022654937580227851868 0.016722686588764190674 0.046040624380111694336 0.048620313405990600586 0.049159314483404159546 0.046062935143709182739 0.048956625163555145264 0.048965498805046081543 
0.047290999442338943481 0.046148814260959625244 0.045435249805450439453 0.045045625418424606323 0.045813314616680145264 0.047676626592874526978 0.40613138675689697266 1.2350326776504516602 0.7998383641242980957 0.70049387216567993164 0.46810895204544067383 0.19555300474166870117 0.27656036615371704102 0.049216501414775848389 0.048612188547849655151 0.046089064329862594604 0.049800999462604522705 0.048624187707901000977 0.1227760016918182373 0.049010250717401504517 0.050138249993324279785 0.047347314655780792236 0.04941768944263458252 0.049977939575910568237 0.13761150836944580078 0.0054450626485049724579 0.17585900425910949707 0.2772095799446105957 0.22503319382667541504 0.047142874449491500854 0.13992199301719665527 0.32313862442970275879 0.025871749967336654663 0.0082683125510811805725 0.041703313589096069336 0.012661213986575603485 0.026219082996249198914 0.034943688660860061646 0.12051690369844436646 0.40435177087783813477 0.41802591085433959961 0.027503561228513717651 0.026042250916361808777 0.022765571251511573792 0.030977686867117881775 0.049205563962459564209 0.049276750534772872925 0.04013581201434135437 0.049645125865936279297 0.04995937645435333252 0.04997774958610534668 0.049802750349044799805 0.048687625676393508911 0.048815626651048660278 0.049659669399261474609 0.83705091476440429688 0.91851574182510375977 0.45542508363723754883 0.46750837564468383789 0.037508498877286911011 0.01894637569785118103 0.020037123933434486389 0.079873144626617431641 0.033615998923778533936 0.023966100066900253296 0.036962375044822692871 1.0900663137435913086 0.21897712349891662598 0.0339643135666847229 0.028468437492847442627 0.16135013103485107422 0.0028309999033808708191 0.0083565004169940948486 0.02801175042986869812 0.042577438056468963623 0.045459497720003128052 0.03129406273365020752 0.028379375115036964417 0.008589874953031539917 0.0057381251826882362366 0.019884124398231506348 0.12677212059497833252 0.47480767965316772461 0.042958375066518783569 0.034279938787221908569 0.048933062702417373657 0.048123750835657119751 
0.094760373234748840332 0.04829649999737739563 0.044656001031398773193 0.045435249805450439453 0.044893063604831695557 0.049431312829256057739 0.4982198178768157959 1.148779749870300293 1.0369492769241333008 0.76966196298599243164 0.24319949746131896973 0.048257563263177871704 0.0488263741135597229 0.048650499433279037476 0.045899812132120132446 0.01695687510073184967 0.042899686843156814575 0.048185750842094421387 0.048996251076459884644 0.048337500542402267456 0.049938436597585678101 0.047926876693964004517 0.049457188695669174194 0.049328811466693878174 0.046247623860836029053 0.014246187172830104828 0.068766064941883087158 0.074566558003425598145 0.025041749700903892517 0.16767425835132598877 0.66181427240371704102 0.7024771571159362793 0.78572976589202880859 0.019282188266515731812 0.024043126031756401062 0.041072063148021697998 0.04864468798041343689 0.048358999192714691162 0.77510553598403930664 0.30672186613082885742 0.5005480647087097168 0.28000801801681518555 0.025759374722838401794 0.026231000199913978577 0.031284876167774200439 0.36248818039894104004 0.048567000776529312134 0.048932436853647232056 0.0488816872239112854 0.049272812902927398682 0.049141000956296920776 0.048737939447164535522 0.04858668893575668335 0.048044200986623764038 0.36222848296165466309 1.2824906110763549805 1.30139923095703125 0.16684299707412719727 1.0039529800415039062 0.66299879550933837891 0.30486592650413513184 0.018984250724315643311 0.01886799931526184082 0.012129000388085842133 0.039607625454664230347 0.036998186260461807251 0.35469344258308410645 0.042022000998258590698 0.011381812393665313721 0.055639751255512237549 0.15428787469863891602 0.011509062722325325012 0.019288375973701477051 0.019695563241839408875 0.027923686429858207703 0.025136373937129974365 0.017170000821352005005 0.019809499382972717285 0.011251811869442462921 0.028395563364028930664 0.036967188119888305664 0.048402000218629837036 0.048886563628911972046 0.030720999464392662048 0.045741435140371322632 0.042800687253475189209 0.025506999343633651733 
0.26786717772483825684 0.046858500689268112183 0.045435249805450439453 0.045045625418424606323 0.046457126736640930176 0.048795811831951141357 0.37450000643730163574 1.2164976596832275391 1.0959651470184326172 0.29232650995254516602 0.14764863252639770508 0.042161189019680023193 0.04853881150484085083 0.043098561465740203857 0.042827311903238296509 0.049352623522281646729 0.048800561577081680298 0.048917062580585479736 0.04897456243634223938 0.049538373947143554688 0.049059063196182250977 0.040461689233779907227 0.023345250636339187622 0.039565686136484146118 0.042904064059257507324 0.045266062021255493164 0.016674874350428581238 0.06437412649393081665 0.0056611248292028903961 0.011397687718272209167 0.13542355597019195557 0.96788501739501953125 0.81588762998580932617 0.16978168487548828125 0.24346119165420532227 0.047103501856327056885 0.03971099853515625 0.1729574054479598999 0.62169778347015380859 0.0082746250554919242859 0.01467393338680267334 0.044084999710321426392 0.049284286797046661377 0.022725332528352737427 0.14505906403064727783 0.20578661561012268066 0.047221101820468902588 0.048546601086854934692 0.050206333398818969727 0.048516314476728439331 0.047404125332832336426 0.047890700399875640869 0.049101665616035461426 1.0074094533920288086 0.73874032497406005859 0.76204019784927368164 0.048355713486671447754 0.37297600507736206055 1.0678927898406982422 0.48337215185165405273 0.033758249133825302124 0.021320600062608718872 0.025020666420459747314 0.040903583168983459473 0.016598187386989593506 0.39637720584869384766 0.73698651790618896484 0.59977173805236816406 0.0054450626485049724579 0.096270628273487091064 0.42833086848258972168 0.047244437038898468018 0.013881750404834747314 0.02461256273090839386 0.0084624998271465301514 0.22950731217861175537 0.10991993546485900879 0.025357311591506004333 0.022693062201142311096 0.01590131223201751709 0.040125686675310134888 0.0471743755042552948 0.048478499054908752441 0.024733375757932662964 0.041623689234256744385 0.033770937472581863403 0.014224999584257602692 
0.13645112514495849609 0.045973502099514007568 0.045194249600172042847 0.044881377369165420532 0.047666437923908233643 0.048505876213312149048 0.72472739219665527344 1.0781748294830322266 0.39583224058151245117 0.045535188168287277222 0.14838913083076477051 0.019441749900579452515 0.016770374029874801636 0.0054450626485049724579 0.017597561702132225037 0.048755250871181488037 0.04902693629264831543 0.049838062375783920288 0.049430314451456069946 0.048956874758005142212 0.04954643547534942627 0.039319001138210296631 0.045542936772108078003 0.04523487389087677002 0.023161437362432479858 0.67121750116348266602 0.12336487323045730591 0.019986188039183616638 0.0028309999033808708191 0.20890538394451141357 0.74546140432357788086 0.91692507266998291016 0.15393657982349395752 0.36541453003883361816 0.40682294964790344238 0.028224334120750427246 0.0028309999033808708191 0.025340000167489051819 0.50453543663024902344 0.55044394731521606445 0.006603749934583902359 0.02561314217746257782 0.048241581767797470093 0.3791357576847076416 0.047820165753364562988 0.048817668110132217407 0.54941701889038085938 0.048649188131093978882 0.048167187720537185669 0.047602187842130661011 0.048381000757217407227 0.047979716211557388306 0.047759000211954116821 1.045746922492980957 0.5296319127082824707 0.14062373340129852295 0.031167749315500259399 0.037877999246120452881 0.37483507394790649414 0.44315445423126220703 0.033459082245826721191 0.02862628549337387085 0.021673666313290596008 0.024906083941459655762 0.15004269778728485107 0.78853946924209594727 0.39602643251419067383 1.0534107685089111328 0.24589331448078155518 0.16343069076538085938 0.016430187970399856567 0.0083003127947449684143 0.0028309999033808708191 0.0028309999033808708191 0.018515374511480331421 0.36299470067024230957 0.035886935889720916748 0.031231312081217765808 0.014349374920129776001 0.02288368716835975647 0.042396251112222671509 0.048660937696695327759 0.04880062490701675415 0.03363531455397605896 0.032416373491287231445 0.027633437886834144592 0.02505099959671497345 
0.60200440883636474609 0.046495001763105392456 0.046492688357830047607 0.045251064002513885498 0.048351623117923736572 0.23142606019973754883 1.2741948366165161133 0.81268000602722167969 0.1241348758339881897 0.045320440083742141724 0.047113250941038131714 0.042023375630378723145 0.031124437227845191956 0.031473875045776367188 0.025685561820864677429 0.048799313604831695557 0.048654623329639434814 0.049213126301765441895 0.088067874312400817871 0.52818131446838378906 0.045835249125957489014 0.028272312134504318237 0.03150531277060508728 0.020049124956130981445 0.028981750831007957458 0.033290199935436248779 0.017347333952784538269 0.042115356773138046265 0.014247499406337738037 0.21487550437450408936 0.58975625038146972656 0.53231179714202880859 0.49987301230430603027 0.26679769158363342285 0.045148536562919616699 0.015088066458702087402 0.0098018329590559005737 0.46056708693504333496 0.96099323034286499023 0.32390901446342468262 0.007906999439001083374 0.048459835350513458252 0.17304560542106628418 0.18869155645370483398 0.047783166170120239258 0.048812333494424819946 0.04884859919548034668 0.30772250890731811523 0.048918232321739196777 0.047831751406192779541 0.048830002546310424805 0.6809495091438293457 1.0367609262466430664 0.16728124022483825684 0.18068392574787139893 0.041381463408470153809 0.030167000368237495422 0.50106233358383178711 1.2330224514007568359 0.93503707647323608398 0.025772400200366973877 0.025125749409198760986 0.013027666136622428894 0.24851854145526885986 0.49927437305450439453 0.49976626038551330566 0.49052232503890991211 0.74436205625534057617 0.26565816998481750488 0.04407224804162979126 0.0028309999033808708191 0.0028309999033808708191 0.0028309999033808708191 0.0028309999033808708191 0.0054450626485049724579 0.024212375283241271973 0.01335681229829788208 0.022208187729120254517 0.045144312083721160889 0.03105062432587146759 0.028268937021493911743 0.048284623771905899048 0.049292061477899551392 0.047311563044786453247 0.042660001665353775024 0.037445250898599624634 0.037186998873949050903 
0.045479185879230499268 0.048654373735189437866 0.048417814075946807861 0.048068247735500335693 0.15711206197738647461 0.77953881025314331055 0.90365648269653320312 0.046295937150716781616 0.048452686518430709839 0.044363439083099365234 0.038181312382221221924 0.0254583749920129776 0.031100749969482421875 0.028044626116752624512 0.14335612952709197998 0.56359708309173583984 0.048928126692771911621 0.74540311098098754883 0.13892450928688049316 0.049201749265193939209 0.0499170646071434021 0.08467925339937210083 0.020005311816930770874 0.045284248888492584229 0.03693868592381477356 0.032878082245588302612 0.017208311706781387329 0.019625999033451080322 0.0028309999033808708191 0.43812543153762817383 0.19074375927448272705 0.025696801021695137024 0.025700749829411506653 0.038454700261354446411 0.037165250629186630249 0.025096833705902099609 0.019559687003493309021 0.47574025392532348633 0.057137202471494674683 0.0080591253936290740967 0.025671999901533126831 0.047815583646297454834 0.049047999083995819092 0.049455251544713973999 0.11202538013458251953 0.048716686666011810303 0.049034375697374343872 0.048330418765544891357 1.1577261686325073242 0.51249033212661743164 0.048599500209093093872 0.81673055887222290039 1.2524938583374023438 0.75570112466812133789 1.1508623361587524414 0.039727251976728439331 0.27108243107795715332 0.98292833566665649414 0.71471428871154785156 0.80225449800491333008 0.031456001102924346924 0.036246251314878463745 0.0484464988112449646 0.048975061625242233276 0.048808936029672622681 0.048824623227119445801 0.23773737251758575439 0.4896977543830871582 0.0462285652756690979 0.061643812805414199829 0.0056542498059570789337 0.0028309999033808708191 0.0028309999033808708191 0.0028309999033808708191 0.0028309999033808708191 0.013287249952554702759 0.013502750545740127563 0.02789281308650970459 0.027958249673247337341 0.044929187744855880737 0.028561498969793319702 0.048501748591661453247 0.049012687057256698608 0.048961188644170761108 0.048772126436233520508 0.023046936839818954468 0.025864249095320701599 
0.048406999558210372925 0.048536811023950576782 0.048033561557531356812 0.049182187765836715698 0.81688034534454345703 1.148451685905456543 1.0188795328140258789 0.048352625221014022827 0.043434437364339828491 0.048736061900854110718 0.045323561877012252808 0.025696374475955963135 0.042425561696290969849 0.040089126676321029663 0.59432303905487060547 0.28685814142227172852 0.046035062521696090698 0.11882281303405761719 0.022655999287962913513 0.71635574102401733398 1.0814020633697509766 0.7065499424934387207 0.045650310814380645752 0.048486750572919845581 0.011551124975085258484 0.0028309999033808708191 0.0028309999033808708191 0.2198117375373840332 0.017906667664647102356 0.13644033670425415039 0.07965800166130065918 0.0028309999033808708191 0.0028309999033808708191 0.0028309999033808708191 0.010390416719019412994 0.014251249842345714569 0.030023699626326560974 0.025623500347137451172 0.020206615328788757324 0.028361499309539794922 0.014321499504148960114 0.017491832375526428223 0.047862399369478225708 0.54193675518035888672 0.76901251077651977539 0.04902543872594833374 0.049064598977565765381 0.048362601548433303833 1.1167118549346923828 0.58246582746505737305 0.033151332288980484009 0.81088644266128540039 0.51293355226516723633 1.0812637805938720703 0.9629713892936706543 0.60966032743453979492 0.15941712260246276855 1.0656436681747436523 0.010077999904751777649 0.14036256074905395508 0.81673043966293334961 0.049287311732769012451 0.049087502062320709229 0.049148187041282653809 0.049319874495267868042 0.10104969143867492676 0.77069985866546630859 0.57109588384628295898 0.4528891444206237793 0.1283178180456161499 0.45281749963760375977 0.13033337891101837158 0.0028309999033808708191 0.0028309999033808708191 0.0028309999033808708191 0.0082751875743269920349 0.013820437714457511902 0.0083511248230934143066 0.013512625358998775482 0.038520373404026031494 0.025496499612927436829 0.031896125525236129761 0.029158812016248703003 0.026233499869704246521 0.040746625512838363647 0.040637001395225524902 0.026211999356746673584 
0.047919187694787979126 0.045317374169826507568 0.048620998859405517578 0.59997332096099853516 1.1829384565353393555 1.2742822170257568359 0.16544362902641296387 0.040165126323699951172 0.031776499003171920776 0.025137187913060188293 0.033856499940156936646 0.016564438119530677795 0.045288376510143280029 0.045566000044345855713 0.043133124709129333496 0.037477251142263412476 0.042148374021053314209 0.11951588094234466553 0.31326818466186523438 0.19430431723594665527 0.61183941364288330078 0.13315469026565551758 0.17374937236309051514 0.042002122849225997925 0.014430999755859375 0.0028309999033808708191 0.21249918639659881592 1.0530511140823364258 0.013270666822791099548 0.16536326706409454346 0.49828767776489257812 0.0056704375892877578735 0.0028309999033808708191 0.24242933094501495361 0.005906399805098772049 0.011205499991774559021 0.018961427733302116394 0.23891536891460418701 0.027370000258088111877 0.025389250367879867554 0.25620329380035400391 0.0028309999033808708191 0.63220387697219848633 0.89672613143920898438 0.21671393513679504395 0.04850950092077255249 0.048854142427444458008 0.048821125179529190063 1.2152419090270996094 0.34078189730644226074 0.75673437118530273438 0.26564615964889526367 0.034222800284624099731 0.044854830950498580933 0.19144929945468902588 0.71593379974365234375 0.014382500201463699341 0.59895020723342895508 0.25369653105735778809 1.1479237079620361328 1.270968317985534668 0.049066748470067977905 0.048948377370834350586 0.048664811998605728149 0.048797875642776489258 0.048444375395774841309 0.88889807462692260742 0.31572920083999633789 0.59256976842880249023 0.080732315778732299805 0.79690700769424438477 0.27000561356544494629 0.0056704375892877578735 0.0028309999033808708191 0.0028309999033808708191 0.0028309999033808708191 0.0054450626485049724579 0.0028309999033808708191 0.0080591253936290740967 0.033925876021385192871 0.017132500186562538147 0.0028309999033808708191 0.0028309999033808708191 0.0028309999033808708191 0.014376999810338020325 0.049366623163223266602 0.049356751143932342529 
0.042699687182903289795 0.045280374586582183838 0.20488749444484710693 1.4724766016006469727 0.93127959966659545898 0.44582286477088928223 0.048222251236438751221 0.034257061779499053955 0.022969687357544898987 0.024847937747836112976 0.022581499069929122925 0.024996686726808547974 0.045794874429702758789 0.039335001260042190552 0.028744187206029891968 0.022530250251293182373 0.028091438114643096924 0.022576125338673591614 0.0028309999033808708191 0.011476437561213970184 0.034478001296520233154 0.14191056787967681885 0.43504193425178527832 0.0285909995436668396 0.041860397905111312866 0.038008999079465866089 0.40243765711784362793 0.75341635942459106445 0.0028309999033808708191 1.0862389802932739258 0.43830034136772155762 0.099076889455318450928 0.070958748459815979004 0.0028309999033808708191 0.006409166380763053894 0.0028309999033808708191 0.0028309999033808708191 0.48496475815773010254 0.018179111182689666748 0.098103910684585571289 0.59983932971954345703 0.0061641428619623184204 0.17120237648487091064 0.70649439096450805664 0.048868749290704727173 0.048962563276290893555 0.049071285873651504517 0.28062656521797180176 0.52244114875793457031 0.090064629912376403809 0.027277922257781028748 0.012468642555177211761 0.012730499729514122009 0.018119834363460540771 0.62469601631164550781 0.83293491601943969727 0.011649500578641891479 1.1124793291091918945 1.5951504707336425781 0.91771793365478515625 0.19679144024848937988 0.048678189516067504883 0.66879612207412719727 0.048416230827569961548 0.048177123069763183594 0.18498250842094421387 0.4633585810661315918 0.15579143166542053223 0.92442083358764648438 0.12233968824148178101 0.91803598403930664062 0.58550214767456054688 0.29613581299781799316 0.7022736668586730957 0.0057006874121725559235 0.0028309999033808708191 0.0028309999033808708191 0.0028309999033808708191 0.0054450626485049724579 0.033458061516284942627 0.016721187159419059753 0.0028309999033808708191 0.0028309999033808708191 0.0058093126863241195679 0.025483561679720878601 0.048893563449382781982 0.049587000161409378052 
0.047573812305927276611 0.048197314143180847168 0.33526557683944702148 1.4637595415115356445 1.1051161289215087891 0.041681189090013504028 0.03449387475848197937 0.042305372655391693115 0.043114375323057174683 0.036604061722755432129 0.037218123674392700195 0.037572000175714492798 0.020178373903036117554 0.033896375447511672974 0.022208124399185180664 0.65048366785049438477 0.17145174741744995117 0.03645262494683265686 0.040324624627828598022 0.039777625352144241333 0.022770812734961509705 0.020949333906173706055 0.014285500161349773407 0.03517783433198928833 0.033270899206399917603 0.041184134781360626221 0.048046998679637908936 0.14573317766189575195 0.1402435004711151123 0.27767354249954223633 0.038295112550258636475 0.11127200722694396973 0.025041665881872177124 0.017773732542991638184 0.0080591253936290740967 0.0028309999033808708191 0.010354166850447654724 0.011774499900639057159 0.011438687331974506378 0.0065925833769142627716 0.0095205381512641906738 0.31746587157249450684 0.17557249963283538818 0.048053383827209472656 0.048389583826065063477 0.042408935725688934326 0.039404198527336120605 0.022194167599081993103 0.048422232270240783691 0.047883186489343643188 0.042651314288377761841 0.048770099878311157227 0.044460300356149673462 0.048849247395992279053 0.49139860272407531738 0.89594453573226928711 0.046343561261892318726 0.70412248373031616211 0.68613278865814208984 1.0059486627578735352 0.045778125524520874023 0.18143318593502044678 1.1176377534866333008 0.048689689487218856812 0.048491563647985458374 0.1212045624852180481 0.047997564077377319336 0.048526376485824584961 0.046205125749111175537 0.037433687597513198853 0.47628557682037353516 0.5462322235107421875 0.27193018794059753418 0.35303938388824462891 0.019820250570774078369 0.01116418745368719101 0.0028309999033808708191 0.013803562149405479431 0.011249812319874763489 0.039491500705480575562 0.01720981299877166748 0.0028309999033808708191 0.0028309999033808708191 0.16030174493789672852 0.045386627316474914551 0.048213999718427658081 0.047271251678466796875 
0.047779187560081481934 0.14889524877071380615 1.2692342996597290039 0.88789212703704833984 0.045730873942375183105 0.028659561648964881897 0.014227812178432941437 0.031491685658693313599 0.017159312963485717773 0.0084980623796582221985 0.63726752996444702148 0.034953501075506210327 0.040496937930583953857 0.04872043803334236145 0.02536993660032749176 0.21510638296604156494 0.53008240461349487305 0.039592687040567398071 0.045600876212120056152 0.042506873607635498047 0.048626855015754699707 0.037164874374866485596 0.029106166213750839233 0.043152626603841781616 0.025987399742007255554 0.032793167978525161743 0.029074583202600479126 0.028491582721471786499 0.018422070890665054321 0.030050499364733695984 0.019154500216245651245 0.0028309999033808708191 0.0028309999033808708191 0.0028309999033808708191 0.015378500334918498993 0.014202583581209182739 0.022645562887191772461 0.014225749298930168152 0.017121249809861183167 0.036962624639272689819 0.014147249981760978699 0.54192721843719482422 0.032831415534019470215 0.035236299037933349609 0.020238624885678291321 0.042887810617685317993 0.048432998359203338623 0.048151750117540359497 0.048080749809741973877 0.048333998769521713257 0.043426699936389923096 0.048094000667333602905 0.049666937440633773804 0.049155000597238540649 0.15033844113349914551 0.12056443840265274048 0.1225415840744972229 1.2560377120971679688 1.3113603591918945312 0.41107451915740966797 0.47054129838943481445 0.18521262705326080322 0.37784850597381591797 0.036619435995817184448 0.045761749148368835449 0.046997562050819396973 0.046244937926530838013 0.041556313633918762207 0.043817751109600067139 0.025868499651551246643 0.049687437713146209717 0.76946568489074707031 0.50537753105163574219 0.034112185239791870117 0.29997882246971130371 0.22640931606292724609 0.025253999978303909302 0.02295262552797794342 0.3049271702766418457 0.034064061939716339111 0.022834686562418937683 0.0028309999033808708191 0.0084982495754957199097 1.0087760686874389648 0.049386061728000640869 0.048600062727928161621 0.048564001917839050293 
0.17467437684535980225 0.80628645420074462891 0.78240305185317993164 0.24040769040584564209 0.039748124778270721436 0.031708188354969024658 0.031894247978925704956 0.020050061866641044617 0.02233874984085559845 0.016813624650239944458 0.028713000938296318054 0.034278750419616699219 0.03755075111985206604 0.04588631168007850647 0.037266876548528671265 0.045629814267158508301 0.15464669466018676758 0.046061310917139053345 0.03706706315279006958 0.048401564359664916992 0.036550916731357574463 0.0028309999033808708191 0.03393439948558807373 0.045145686715841293335 0.0079973330721259117126 0.032367445528507232666 0.0060483077540993690491 0.0086858747527003288269 0.0028309999033808708191 0.0028309999033808708191 0.010191166773438453674 0.0028309999033808708191 0.0028309999033808708191 0.020258083939552307129 0.025352153927087783813 0.013352153822779655457 0.0057370625436305999756 0.01146431267261505127 0.0028309999033808708191 0.014183416962623596191 0.018253333866596221924 0.032003000378608703613 0.04830124974250793457 0.049226999282836914062 0.048329938203096389771 0.049093186855316162109 0.048257797956466674805 0.048964284360408782959 0.048335812985897064209 0.048147812485694885254 0.04879640042781829834 0.048514299094676971436 0.048431061208248138428 0.048255689442157745361 0.046176373958587646484 0.04566175118088722229 0.048295713961124420166 0.31869599223136901855 0.88493788242340087891 0.0066572502255439758301 0.036950748413801193237 0.53136795759201049805 0.4945189356803894043 0.049062937498092651367 0.048837374895811080933 0.13039912283420562744 0.0476876869797706604 0.040072314441204071045 0.017568686977028846741 0.037922814488410949707 0.048853810876607894897 0.75115567445755004883 0.47334650158882141113 0.045705124735832214355 0.49296712875366210938 0.54648572206497192383 0.02226568758487701416 0.1366017460823059082 0.70439827442169189453 0.028502186760306358337 0.031553998589515686035 0.037249375134706497192 0.048318061977624893188 0.50083464384078979492 1.04962158203125 0.048607688397169113159 0.050062999129295349121 
0.53257274627685546875 1.2367351055145263672 0.57228398323059082031 0.94700038433074951172 0.048092186450958251953 0.048970248550176620483 0.52061730623245239258 0.36912074685096740723 0.04858937487006187439 0.1121934354305267334 0.65256476402282714844 0.2296069413423538208 0.54301148653030395508 0.84699350595474243164 0.045262999832630157471 0.028112811967730522156 0.043232813477516174316 0.019796250388026237488 0.028909750282764434814 0.047026313841342926025 0.033121999353170394897 0.0028309999033808708191 0.0028309999033808708191 0.012894333340227603912 0.016621999442577362061 0.012526110745966434479 0.023259444162249565125 0.019550124183297157288 0.23030792176723480225 0.59511733055114746094 0.01165209989994764328 0.0061020767316222190857 0.0028309999033808708191 0.022857666015625 0.022156333550810813904 0.01709531247615814209 0.0028309999033808708191 0.0028309999033808708191 0.20842817425727844238 0.044688500463962554932 0.031470749527215957642 0.11292006820440292358 0.047793876379728317261 0.048454873263835906982 0.048582810908555984497 0.049125999212265014648 0.18955700099468231201 0.38450723886489868164 0.048199687153100967407 0.037290688604116439819 0.041694998741149902344 0.04808262363076210022 0.032273750752210617065 0.030823875218629837036 0.04700781404972076416 0.045950938016176223755 0.047665126621723175049 0.048080064356327056885 0.031715624034404754639 0.019875461235642433167 0.048823937773704528809 0.26462787389755249023 1.2925208806991577148 0.25781032443046569824 0.13982875645160675049 0.047496311366558074951 0.047507248818874359131 0.025308124721050262451 0.031098436564207077026 0.043559938669204711914 0.3768336176872253418 0.56174260377883911133 0.048839874565601348877 0.049358937889337539673 0.32531830668449401855 0.040192250162363052368 0.03135975077748298645 0.048931937664747238159 0.16984756290912628174 0.019704123958945274353 0.039993125945329666138 0.18026012182235717773 0.23256318271160125732 0.12051731348037719727 0.27662563323974609375 0.22095793485641479492 0.40425625443458557129 
0.73181784152984619141 1.1788151264190673828 0.28392755985260009766 0.048724312335252761841 0.048871874809265136719 0.048532560467720031738 0.1256421208381652832 0.016849625855684280396 0.38385412096977233887 0.63172161579132080078 0.78977185487747192383 0.36241856217384338379 0.11071656644344329834 0.77149122953414916992 0.62231707572937011719 0.027593063190579414368 0.039221499115228652954 0.048183936625719070435 0.047600373625755310059 0.04887069016695022583 0.02291593700647354126 0.023177687078714370728 0.69549041986465454102 0.025274833664298057556 0.027352444827556610107 0.018058000132441520691 0.25151050090789794922 0.1964813917875289917 0.77035301923751831055 0.61036032438278198242 1.2036727666854858398 0.28062307834625244141 0.01111406274139881134 0.0028309999033808708191 0.0028309999033808708191 0.006603749934583902359 0.014115749858319759369 0.010376499965786933899 0.012937222607433795929 0.033692084252834320068 0.25480157136917114258 0.59401440620422363281 0.11814143508672714233 0.52232766151428222656 0.047892000526189804077 0.048202153295278549194 0.32249498367309570312 0.24678069353103637695 0.020129460841417312622 0.017066562548279762268 0.0028309999033808708191 0.0085495002567768096924 0.0028309999033808708191 0.0028309999033808708191 0.038839537650346755981 0.049137771129608154297 0.048862751573324203491 0.048679687082767486572 0.049013111740350723267 0.18833743035793304443 0.38412550091743469238 0.79282075166702270508 1.0472614765167236328 0.95471608638763427734 0.0486639365553855896 0.047505751252174377441 0.04763856157660484314 0.024684563279151916504 0.045390937477350234985 0.2925561070442199707 0.90138959884643554688 0.025938998907804489136 0.025769999250769615173 0.54448789358139038086 0.50851213932037353516 0.028583437204360961914 0.031450312584638595581 0.04839618876576423645 0.048829749226570129395 0.033441625535488128662 0.02540868707001209259 0.019943187013268470764 0.019843561574816703796 0.039772186428308486938 0.048631500452756881714 0.045793686062097549438 0.02561900019645690918 
1.0427231788635253906 1.1056305170059204102 0.049033187329769134521 0.048669185489416122437 0.048788063228130340576 0.097084313631057739258 0.53059393167495727539 0.036845874041318893433 0.43794119358062744141 0.45187306404113769531 0.55014359951019287109 0.19978168606758117676 0.025474749505519866943 0.15626224875450134277 0.084701746702194213867 0.031865168362855911255 0.038932938128709793091 0.048839747905731201172 0.70749717950820922852 0.012191999703645706177 0.10743261873722076416 0.033646438270807266235 0.047620873898267745972 0.03797922283411026001 0.0070135002024471759796 0.035740554332733154297 0.039280265569686889648 0.55709493160247802734 0.24901579320430755615 0.27808851003646850586 0.28631174564361572266 0.0070833996869623661041 0.0028309999033808708191 0.077207297086715698242 0.0028309999033808708191 0.38419935107231140137 0.61236435174942016602 0.11176921427249908447 0.18509344756603240967 0.017921499907970428467 0.11958806216716766357 1.2337640523910522461 0.04632031172513961792 0.180455818772315979 0.10774037986993789673 0.045794501900672912598 0.045341126620769500732 0.047292061150074005127 0.043995998799800872803 0.020219061523675918579 0.0028309999033808708191 0.0028309999033808708191 0.0028309999033808708191 0.0028309999033808708191 0.049321915954351425171 0.048879668116569519043 0.047931499779224395752 0.049003500491380691528 0.049307938665151596069 0.047704748809337615967 0.50285834074020385742 0.92414110898971557617 1.1666655540466308594 0.18411412835121154785 0.048537373542785644531 0.046557437628507614136 0.045352689921855926514 0.027106812223792076111 0.045170873403549194336 0.35256600379943847656 0.26342219114303588867 0.014434812590479850769 0.02044125087559223175 0.042730186134576797485 0.034063875675201416016 0.042721562087535858154 0.02844575047492980957 0.04815181344747543335 0.0476092509925365448 0.045748814940452575684 0.045468375086784362793 0.02257187478244304657 0.025748811662197113037 0.048732060939073562622 0.048428688198328018188 0.045692626386880874634 0.02561900019645690918 
1.2714385986328125 0.43726575374603271484 0.048249188810586929321 0.048877250403165817261 0.049155563116073608398 0.049469124525785446167 0.43684655427932739258 0.034167751669883728027 0.022954750806093215942 0.034244250506162643433 0.37946370244026184082 0.53569960594177246094 0.033770937472581863403 0.036882501095533370972 0.021150799468159675598 0.0028309999033808708191 0.030747624114155769348 0.020114375278353691101 0.0083463750779628753662 0.34362611174583435059 0.92485535144805908203 0.0028309999033808708191 0.047635123133659362793 0.0085695004090666770935 0.009285428561270236969 0.23911815881729125977 0.014134082943201065063 0.042954750359058380127 0.1963265836238861084 0.048515375703573226929 0.048916373401880264282 0.032660569995641708374 0.01985224895179271698 0.24321541190147399902 0.53461760282516479492 0.020186999812722206116 0.86412900686264038086 0.031281750649213790894 0.029190357774496078491 0.0028309999033808708191 0.014309749938547611237 0.047722749412059783936 0.04649837687611579895 0.04659600183367729187 0.045314751565456390381 0.04551531374454498291 0.044656001031398773193 0.046434000134468078613 0.048517834395170211792 0.014224999584257602692 0.0028309999033808708191 0.0028309999033808708191 0.0028309999033808708191 0.0028309999033808708191 0.049091499298810958862 0.048324689269065856934 0.048685126006603240967 0.048757310956716537476 0.049219187349081039429 0.04762287437915802002 0.04876006394624710083 0.88964265584945678711 1.1791856288909912109 0.048246186226606369019 0.048756498843431472778 0.047197062522172927856 0.047447189688682556152 0.15939219295978546143 0.067078873515129089355 0.57789647579193115234 0.016751874238252639771 0.011506312526762485504 0.031955812126398086548 0.039923124015331268311 0.04328943789005279541 0.036272939294576644897 0.036972187459468841553 0.047801189124584197998 0.045016750693321228027 0.045237187296152114868 0.045704811811447143555 0.045947313308715820312 0.02020281180739402771 0.048740811645984649658 0.048578999936580657959 0.030952811241149902344 0.0028309999033808708191 
0.78921967744827270508 0.1798944324254989624 0.048815686255693435669 0.048869375139474868774 0.36736601591110229492 0.049580372869968414307 0.16638606786727905273 0.24236781895160675049 0.32161176204681396484 0.19323743879795074463 0.048444062471389770508 0.38773652911186218262 0.048968199640512466431 0.04582481086254119873 0.041753001511096954346 0.040081560611724853516 0.013117537833750247955 0.029312666505575180054 0.041502926498651504517 0.053803667426109313965 0.55238014459609985352 0.0028309999033808708191 0.0028309999033808708191 0.0028309999033808708191 0.0028309999033808708191 0.9385268092155456543 0.53893524408340454102 0.14807683229446411133 0.51344442367553710938 0.16380739212036132812 0.16522191464900970459 0.025129249319434165955 0.96443980932235717773 1.2773386240005493164 0.043452445417642593384 0.039792750030755996704 0.048379249870777130127 0.0028309999033808708191 0.0063899997621774673462 0.008653812110424041748 0.019868686795234680176 0.048677437007427215576 0.048598498106002807617 0.04787480086088180542 0.045203186571598052979 0.044656001031398773193 0.044656001031398773193 0.029490699991583824158 0.031117307022213935852 0.033242665231227874756 0.0028309999033808708191 0.0028309999033808708191 0.0028309999033808708191 0.033840999007225036621 0.036082867532968521118 0.047313332557678222656 0.048204418271780014038 0.048508834093809127808 0.048823915421962738037 0.049295499920845031738 0.049121689051389694214 0.12611444294452667236 0.64697426557540893555 0.19292375445365905762 0.46395400166511535645 0.048732124269008636475 0.049097750335931777954 0.33608081936836242676 0.7680771946907043457 0.21818293631076812744 0.017134686931967735291 0.029059562832117080688 0.028645938262343406677 0.03466425091028213501 0.028734687715768814087 0.042443126440048217773 0.045466374605894088745 0.048136875033378601074 0.045747812837362289429 0.040207125246524810791 0.047831751406192779541 0.048289060592651367188 0.046817563474178314209 0.04698268696665763855 0.048219624906778335571 0.039414126425981521606 0.024681249633431434631 
0.16254863142967224121 0.04889706149697303772 0.048548374325037002563 0.11305350065231323242 0.86708831787109375 0.30309695005416870117 0.58580535650253295898 0.88516545295715332031 0.0028309999033808708191 0.014452874660491943359 0.039879310876131057739 0.042999066412448883057 0.048369355499744415283 0.046043813228607177734 0.025502499192953109741 0.029386917129158973694 0.019477384164929389954 0.025686599314212799072 0.024790000170469284058 0.0066865831613540649414 0.0028309999033808708191 0.0028309999033808708191 0.0028309999033808708191 0.0028309999033808708191 0.45582866668701171875 0.89327853918075561523 0.37757438421249389648 0.26231878995895385742 0.54206621646881103516 1.1230807304382324219 0.75746423006057739258 0.46355992555618286133 0.15791350603103637695 0.85170102119445800781 0.36765599250793457031 0.17416061460971832275 0.66277855634689331055 0.0028309999033808708191 0.0028309999033808708191 0.0028309999033808708191 0.040054250508546829224 0.048072498291730880737 0.048212356865406036377 0.047867562621831893921 0.045692812651395797729 0.09780006110668182373 0.10731063038110733032 0.029718501493334770203 0.0028309999033808708191 0.0028309999033808708191 0.0028309999033808708191 0.0028309999033808708191 0.0028309999033808708191 0.0028309999033808708191 0.042678438127040863037 0.048367001116275787354 0.04813556373119354248 0.048236060887575149536 0.049434062093496322632 0.048594810068607330322 0.049041874706745147705 0.047783061861991882324 0.04836187511682510376 0.049443811178207397461 0.37140038609504699707 0.048966061323881149292 0.049171872437000274658 1.0509130954742431641 0.78434419631958007812 0.031111313030123710632 0.048425748944282531738 0.048798311501741409302 0.049263998866081237793 0.048960562795400619507 0.048965312540531158447 0.048628687858581542969 0.040439501404762268066 0.030741186812520027161 0.039662312716245651245 0.20281030237674713135 0.04832518845796585083 0.048296000808477401733 0.046874314546585083008 0.046585187315940856934 0.048424124717712402344 0.044823501259088516235 0.046877749264240264893 
0.10545787215232849121 0.050023064017295837402 0.048879250884056091309 0.049062311649322509766 0.048455499112606048584 0.30832001566886901855 0.67361372709274291992 0.043262187391519546509 0.042904999107122421265 0.043252188712358474731 0.046069122850894927979 0.038705334067344665527 0.04550024867057800293 0.036729373037815093994 0.037764664739370346069 0.02469066716730594635 0.0028309999033808708191 0.0028309999033808708191 0.0028309999033808708191 0.0028309999033808708191 0.0028309999033808708191 0.0028309999033808708191 0.38187637925148010254 0.51986980438232421875 1.1812071800231933594 0.93489998579025268555 0.034183312207460403442 0.57816690206527709961 1.2994992733001708984 0.3883934319019317627 0.42237991094589233398 0.025885500013828277588 0.045019581913948059082 0.040762461721897125244 0.59942293167114257812 1.1573932170867919922 1.2634742259979248047 0.1088354066014289856 0.0028309999033808708191 0.010301499627530574799 0.047806501388549804688 0.048329297453165054321 0.047565937042236328125 0.034060623496770858765 0.035777810961008071899 0.091626249253749847412 0.044656001031398773193 0.029176313430070877075 0.0028309999033808708191 0.0028309999033808708191 0.0028309999033808708191 0.0028309999033808708191 0.0028309999033808708191 0.0028309999033808708191 0.036969751119613647461 0.047965310513973236084 0.047919247299432754517 0.047596186399459838867 0.048054687678813934326 0.048346873372793197632 0.27906826138496398926 0.20816551148891448975 0.084972314536571502686 0.5036970973014831543 0.89249211549758911133 0.2723941802978515625 0.78325474262237548828 0.52264839410781860352 0.4879881739616394043 0.022100187838077545166 0.048072502017021179199 0.04977331310510635376 0.047886252403259277344 0.049040064215660095215 0.049264252185821533203 0.049405250698328018188 0.019998561590909957886 0.027889437973499298096 0.02808806300163269043 0.03403056412935256958 0.048775188624858856201 0.048109188675880432129 0.045353814959526062012 0.045776437968015670776 0.046248938888311386108 0.045419689267873764038 0.047547750174999237061 
0.096082501113414764404 0.22378969192504882812 0.049386251717805862427 0.04908699914813041687 0.048690248280763626099 0.045617248862981796265 0.32723885774612426758 0.049381624907255172729 0.049037188291549682617 0.045509375631809234619 0.04917368665337562561 0.048860751092433929443 0.048625249415636062622 0.044715214520692825317 0.0294589996337890625 0.013992666266858577728 0.0028309999033808708191 0.0028309999033808708191 0.0028309999033808708191 0.74336922168731689453 0.59861999750137329102 0.87491917610168457031 0.27880951762199401855 0.32871806621551513672 0.10419718921184539795 0.062538184225559234619 0.041232500225305557251 0.34624612331390380859 0.564708709716796875 0.069153845310211181641 0.06366468966007232666 0.011434062384068965912 0.03205618634819984436 0.048279188573360443115 0.04545643925666809082 0.044483665376901626587 0.020085999742150306702 0.0061522140167653560638 0.02739869244396686554 0.045622687786817550659 0.047611624002456665039 0.047871500253677368164 0.04839237406849861145 0.037285685539245605469 0.042726814746856689453 0.031768061220645904541 0.022379811853170394897 0.019942311570048332214 0.0028309999033808708191 0.017110375687479972839 0.030507812276482582092 0.0028309999033808708191 0.017001437023282051086 0.022758936509490013123 0.048460062593221664429 0.048209186643362045288 0.047656938433647155762 0.04746637493371963501 0.048464436084032058716 0.048760749399662017822 0.048565186560153961182 0.41523620486259460449 1.1628631353378295898 0.87637281417846679688 0.73965120315551757812 0.60104072093963623047 0.62817734479904174805 0.21950994431972503662 0.20849001407623291016 0.022779937833547592163 0.04895887523889541626 0.049311127513647079468 0.049462687224149703979 0.049085751175880432129 0.048678811639547348022 0.023177124559879302979 0.0028309999033808708191 0.019886374473571777344 0.18135662376880645752 0.034268438816070556641 0.034136936068534851074 0.046535812318325042725 0.046676002442836761475 0.046390499919652938843 0.047540500760078430176 0.04494968801736831665 0.046098999679088592529 
0.04877012595534324646 0.1893453747034072876 0.28909412026405334473 0.049672186374664306641 0.050027374178171157837 0.026019999757409095764 0.049598250538110733032 0.049437060952186584473 0.049421064555644989014 0.02010250091552734375 0.045521751046180725098 0.045193642377853393555 0.025567499920725822449 0.025242500007152557373 0.017772000283002853394 0.0028309999033808708191 0.0028309999033808708191 0.016892688348889350891 0.48788574337959289551 1.351416468620300293 0.72009861469268798828 0.022268285974860191345 0.01047991681843996048 0.039545688778162002563 0.046952374279499053955 0.048819687217473983765 0.049593999981880187988 0.047857061028480529785 0.047015689313411712646 0.046230126172304153442 0.016377562656998634338 0.0084295002743601799011 0.04051181301474571228 0.048169501125812530518 0.031795125454664230347 0.048650417476892471313 0.018178250640630722046 0.01041291654109954834 0.0429134368896484375 0.048294000327587127686 0.048748437315225601196 0.04933193698525428772 0.048598751425743103027 0.048557687550783157349 0.14739274978637695312 0.28670194745063781738 0.046278562396764755249 0.0028309999033808708191 0.0087624369189143180847 0.046523377299308776855 0.20254363119602203369 0.039283998310565948486 0.033944875001907348633 0.22683744132518768311 0.32731887698173522949 0.45150732994079589844 0.52319377660751342773 0.1129574999213218689 0.048354562371969223022 0.042699936777353286743 0.3669713139533996582 0.6148522496223449707 0.5400002598762512207 0.37915495038032531738 0.049947187304496765137 0.049014873802661895752 0.10410087555646896362 0.20813943445682525635 0.33470287919044494629 0.07834062725305557251 0.048091061413288116455 0.049290437251329421997 0.048611626029014587402 0.04379799962043762207 0.029885312542319297791 0.02861200086772441864 0.044932376593351364136 0.045757062733173370361 0.047212999314069747925 0.046564564108848571777 0.0086166253313422203064 0.031471312046051025391 0.047654498368501663208 0.13364712893962860107 0.0489349365234375 0.34874412417411804199 1.0378257036209106445 
0.049203000962734222412 0.045503687113523483276 0.047770876437425613403 0.049672249704599380493 0.037832375615835189819 0.043440189212560653687 0.14360831677913665771 0.048756375908851623535 0.046441689133644104004 0.018182888627052307129 0.029019750654697418213 0.03274666517972946167 0.021121799945831298828 0.013873249292373657227 0.20770300924777984619 0.0028309999033808708191 0.0028309999033808708191 0.0028309999033808708191 0.76347714662551879883 0.97434717416763305664 1.1863397359848022461 0.41836681962013244629 0.56891006231307983398 0.10972706228494644165 0.048918124288320541382 0.049095373600721359253 0.048392500728368759155 0.049790125340223312378 0.048852875828742980957 0.049413498491048812866 0.028355665504932403564 0.045791249722242355347 0.048692937940359115601 0.048293083906173706055 0.04887711256742477417 0.039341066032648086548 0.0060326429083943367004 0.034377250820398330688 0.048260811716318130493 0.042834188789129257202 0.048578999936580657959 0.049107875674962997437 0.046356748789548873901 0.35328537225723266602 0.57752948999404907227 0.02878743782639503479 0.0083732502534985542297 0.0028309999033808708191 0.11547181755304336548 0.59601616859436035156 0.38996881246566772461 0.031044749543070793152 0.047248564660549163818 0.30474975705146789551 0.34193468093872070312 0.45870643854141235352 0.20706006884574890137 0.04719093814492225647 0.039952252060174942017 0.042948689311742782593 0.23566737771034240723 0.41263300180435180664 0.44754332304000854492 0.048762686550617218018 0.048699751496315002441 0.049199625849723815918 0.047074314206838607788 0.045620750635862350464 0.040428623557090759277 0.29532417654991149902 0.048550501465797424316 0.049060124903917312622 0.046024560928344726562 0.033257000148296356201 0.039554063230752944946 0.044925127178430557251 0.045789126306772232056 0.046611938625574111938 0.046615626662969589233 0.035342250019311904907 0.016203749924898147583 0.046501126140356063843 0.48002445697784423828 0.92399054765701293945 0.74425387382507324219 0.74963682889938354492 0.53573650121688842773 
0.58790832757949829102 0.22104449570178985596 0.049307126551866531372 0.050580501556396484375 0.035222876816987991333 0.049641937017440795898 0.33907157182693481445 0.28791123628616333008 0.53218042850494384766 0.11363931745290756226 0.0054450626485049724579 0.0083282496780157089233 0.0085973748937249183655 0.0028309999033808708191 0.0028309999033808708191 0.0028309999033808708191 0.0028309999033808708191 0.99201625585556030273 1.4173647165298461914 0.50234639644622802734 0.14083933830261230469 0.033285167068243026733 0.8037388920783996582 0.69236838817596435547 0.04950175061821937561 0.049334812909364700317 0.048336751759052276611 0.048223499208688735962 0.018633499741554260254 0.04845533519983291626 0.049571167677640914917 0.02861733362078666687 0.031793873757123947144 0.037224084138870239258 0.049179334193468093872 0.041597831994295120239 0.022235000506043434143 0.048498500138521194458 0.048943813890218734741 0.048389062285423278809 0.046057123690843582153 0.046110499650239944458 0.048264812678098678589 0.25726932287216186523 0.048426438122987747192 0.031163187697529792786 0.0057226875796914100647 0.014365375041961669922 0.1053136289119720459 0.08564838021993637085 0.027461251243948936462 0.042693812400102615356 0.040307499468326568604 0.0460069999098777771 0.045453563332557678223 0.28259295225143432617 0.047239251434803009033 0.047601625323295593262 0.19827707111835479736 0.93167865276336669922 0.10392349958419799805 0.17132750153541564941 0.29491725564002990723 0.048936311155557632446 0.048351876437664031982 0.048577751964330673218 0.048859126865863800049 0.048564936965703964233 0.045529749244451522827 0.62388682365417480469 0.04887250065803527832 0.048691689968109130859 0.048344936221837997437 0.048272438347339630127 0.047584623098373413086 0.43715485930442810059 0.58002996444702148438 0.58390635251998901367 0.69382876157760620117 0.45963132381439208984 0.51452696323394775391 0.78107339143753051758 1.0278375148773193359 0.98391956090927124023 1.1127320528030395508 0.47915598750114440918 0.23089450597763061523 
0.11509774625301361084 0.049300186336040496826 0.049728561192750930786 0.18000337481498718262 0.046510126441717147827 0.097619064152240753174 0.31085154414176940918 0.42857825756072998047 0.56232059001922607422 0.029508333653211593628 0.011126999743282794952 0.016908692196011543274 0.0028309999033808708191 0.0028309999033808708191 0.49806791543960571289 0.0028309999033808708191 0.56512278318405151367 1.2111098766326904297 0.46907263994216918945 0.14654769003391265869 0.028287999331951141357 0.033543750643730163574 0.32047417759895324707 1.0075048208236694336 0.12184487283229827881 0.049005623906850814819 0.04940206184983253479 0.048408187925815582275 0.045688752084970474243 0.048496749252080917358 0.04807906225323677063 0.042073335498571395874 0.048720873892307281494 0.04839533194899559021 0.048064123839139938354 0.028852500021457672119 0.036154687404632568359 0.04893581196665763855 0.048256188631057739258 0.034846875816583633423 0.034570563584566116333 0.028908500447869300842 0.020216001197695732117 0.04297700151801109314 0.04892662540078163147 0.048180002719163894653 0.019957438111305236816 0.030686374753713607788 0.034560561180114746094 0.14389280974864959717 0.048352375626564025879 0.0086143752560019493103 0.0028309999033808708191 0.0028309999033808708191 0.0055534373968839645386 0.0084576252847909927368 0.048238437622785568237 0.048999249935150146484 0.18051274120807647705 0.72555369138717651367 0.048240873962640762329 0.045245751738548278809 0.048541564494371414185 0.049223624169826507568 0.048247061669826507568 0.048927437514066696167 0.048947688192129135132 0.045768998563289642334 0.62525576353073120117 0.89300352334976196289 0.48050630092620849609 0.1210966259241104126 0.44542849063873291016 0.55842697620391845703 0.13135343790054321289 0.1912479400634765625 0.048039186745882034302 0.12591600418090820312 0.91846364736557006836 0.71934789419174194336 1.1951493024826049805 0.90693551301956176758 1.1282126903533935547 0.69693511724472045898 0.94552081823348999023 0.43546068668365478516 0.05058125033974647522 
0.048774812370538711548 0.049456376582384109497 0.050371315330266952515 0.56139707565307617188 0.58044093847274780273 0.63011586666107177734 0.36267399787902832031 0.15404275059700012207 0.014340749941766262054 0.019822498783469200134 0.048613250255584716797 0.011252436786890029907 0.0080591253936290740967 0.0028309999033808708191 0.0073398998938500881195 0.025800250470638275146 0.04781074821949005127 0.048608165234327316284 0.20955267548561096191 0.10386671125888824463 0.041417215019464492798 0.038607999682426452637 0.30326849222183227539 1.2100473642349243164 0.049922060221433639526 0.048665061593055725098 0.049156624823808670044 0.048677373677492141724 0.048429299145936965942 0.0028309999033808708191 0.03196256980299949646 0.02950987592339515686 0.56746274232864379883 0.049401000142097473145 0.037211000919342041016 0.028182936832308769226 0.045106999576091766357 0.048878874629735946655 0.029055813327431678772 0.031433250755071640015 0.0028309999033808708191 0.0028309999033808708191 0.014397125691175460815 0.045282501727342605591 0.048690125346183776855 0.047941252589225769043 0.047141190618276596069 0.048653375357389450073 0.048798002302646636963 0.046587500721216201782 0.048223063349723815918 0.0057284999638795852661 0.0028309999033808708191 0.0028309999033808708191 0.0028309999033808708191 0.036380000412464141846 0.04780362546443939209 0.048128999769687652588 0.4401181340217590332 0.95131945610046386719 0.0486411266028881073 0.043186124414205551147 0.048849251121282577515 0.049093000590801239014 0.049316685646772384644 0.048879437148571014404 0.048070874065160751343 0.11523887515068054199 0.56979107856750488281 0.54772216081619262695 1.0389028787612915039 0.69976800680160522461 0.63815528154373168945 0.31780257821083068848 0.17914462089538574219 0.047382690012454986572 0.047238312661647796631 0.22042037546634674072 0.3570683598518371582 0.73925858736038208008 0.6796944737434387207 0.097332745790481567383 0.30678057670593261719 0.35193100571632385254 0.77566629648208618164 0.049063500016927719116 0.049321003258228302002 
0.047610685229301452637 0.048790499567985534668 0.082479752600193023682 0.49095708131790161133 0.46016037464141845703 0.13334450125694274902 0.19945898652076721191 0.0028309999033808708191 0.0084901247173547744751 0.14974237978458404541 0.0028309999033808708191 0.0028309999033808708191 0.0028309999033808708191 0.0028309999033808708191 0.0028309999033808708191 0.020058562979102134705 0.026100374758243560791 0.019779000431299209595 0.77501320838928222656 0.81143790483474731445 0.032670143991708755493 0.47035050392150878906 0.61570465564727783203 0.3001162111759185791 0.049761187285184860229 0.049217499792575836182 0.04894237220287322998 0.049342185258865356445 0.01400350034236907959 0.0028309999033808708191 0.032507002353668212891 1.2110027074813842773 0.025638937950134277344 0.040480125695466995239 0.0028309999033808708191 0.037245374172925949097 0.042801499366760253906 0.034691814333200454712 0.031909186393022537231 0.0028309999033808708191 0.0028309999033808708191 0.0028309999033808708191 0.0255831889808177948 0.049277503043413162231 0.045794062316417694092 0.04863756522536277771 0.033377312123775482178 0.048594564199447631836 0.047039315104484558105 0.048402190208435058594 0.048432752490043640137 0.022717500105500221252 0.0028309999033808708191 0.0028309999033808708191 0.0057284999638795852661 0.047516126185655593872 0.04765718802809715271 0.048460748046636581421 0.30533698201179504395 0.90298134088516235352 0.048650123178958892822 0.10833056271076202393 0.1686840057373046875 0.046086188405752182007 0.16605794429779052734 0.70763659477233886719 0.048116751015186309814 0.049223750829696655273 0.23304219543933868408 0.1978098750114440918 0.20017243921756744385 0.2842235565185546875 0.1080722510814666748 0.04634781181812286377 0.048708125948905944824 0.047403562813997268677 0.048519939184188842773 0.36931082606315612793 0.45932462811470031738 0.48671999573707580566 0.18237206339836120605 0.87583625316619873047 0.190313681960105896 0.049603249877691268921 0.046638689935207366943 0.045237749814987182617 0.04969049990177154541 
0.047868687659502029419 0.048827126622200012207 0.083002373576164245605 0.11886481195688247681 0.2318216860294342041 0.028151936829090118408 0.0028309999033808708191 0.031249428167939186096 0.23749087750911712646 0.3225631415843963623 0.025721415877342224121 0.0028309999033808708191 0.0028309999033808708191 0.0028309999033808708191 0.0028309999033808708191 0.21219593286514282227 0.042720668017864227295 0.048765584826469421387 0.029817333444952964783 0.82042616605758666992 0.12118718773126602173 0.44329914450645446777 0.10692575573921203613 0.048556499183177947998 0.049286123365163803101 0.049010250717401504517 0.049512125551700592041 0.048761311918497085571 0.018172333016991615295 0.0057284999638795852661 0.034532815217971801758 0.21016538143157958984 0.011418875306844711304 0.017262876033782958984 0.0057006874121725559235 0.037470124661922454834 0.048602998256683349609 0.028449250385165214539 0.0028309999033808708191 0.0028309999033808708191 0.0028309999033808708191 0.0056838751770555973053 0.03859062492847442627 0.048566687852144241333 0.048508875072002410889 0.044932313263416290283 0.1965611875057220459 0.29820030927658081055 0.048882190138101577759 0.048040937632322311401 0.04892868921160697937 0.049159500747919082642 0.011210625059902667999 0.0028309999033808708191 0.028393937274813652039 0.048335123807191848755 0.047843124717473983765 0.048844438046216964722 0.71862149238586425781 0.64720541238784790039 0.048941187560558319092 0.3150424957275390625 0.11021181195974349976 0.04874056205153465271 0.048010937869548797607 0.47237655520439147949 0.14613349735736846924 0.49889725446701049805 0.64631199836730957031 0.40609058737754821777 0.047778502106666564941 0.086237624287605285645 0.1748132556676864624 0.048095874488353729248 0.04842343553900718689 0.048322875052690505981 0.048260312527418136597 0.090209878981113433838 0.26849573850631713867 0.15827006101608276367 0.049623437225818634033 0.143430367112159729 0.049057189375162124634 0.048136062920093536377 0.044823501259088516235 0.046638123691082000732 0.050747498869895935059 
0.047705188393592834473 0.046606689691543579102 0.047527689486742019653 0.04646612703800201416 0.020008936524391174316 0.3747959434986114502 0.16280575096607208252 0.0086143752560019493103 0.17876937985420227051 0.045886687934398651123 0.028585061430931091309 0.0028309999033808708191 0.0028309999033808708191 0.0028309999033808708191 0.0028309999033808708191 0.03406637534499168396 0.025700561702251434326 0.045538812875747680664 0.082628004252910614014 0.51861655712127685547 0.21194912493228912354 0.69393408298492431641 0.031235124915838241577 0.047392938286066055298 0.049386061728000640869 0.049075875431299209595 0.04879143834114074707 0.037484999746084213257 0.0057711247354745864868 0.033623334020376205444 0.037498582154512405396 0.0028309999033808708191 0.0057006874121725559235 0.031457126140594482422 0.014421000145375728607 0.042911749333143234253 0.048390060663223266602 0.0085090622305870056152 0.0028309999033808708191 0.011303562670946121216 0.042576126754283905029 0.047610811889171600342 0.048304688185453414917 0.04520468786358833313 0.048176623880863189697 0.048422373831272125244 0.042765375226736068726 0.016985749825835227966 0.03450837358832359314 0.048211939632892608643 0.04783318936824798584 0.048194315284490585327 0.044983811676502227783 0.039750751107931137085 0.04819412529468536377 0.37036186456680297852 0.048493687063455581665 0.048349563032388687134 0.25873261690139770508 0.27997869253158569336 0.20225575566291809082 0.047945063561201095581 0.048748560249805450439 0.048034936189651489258 0.044859498739242553711 0.04648243635892868042 0.04786162450909614563 0.11251825094223022461 0.11250143498182296753 0.048491936177015304565 0.047309499233961105347 0.047279499471187591553 0.045593939721584320068 0.12844955921173095703 0.048422876745462417603 0.04895618930459022522 0.048765312880277633667 0.047162000089883804321 0.046000063419342041016 0.045720938593149185181 0.048658937215805053711 0.048186376690864562988 0.048743188381195068359 0.048511374741792678833 0.047138936817646026611 0.048659563064575195312 0.049344249069690704346 
0.04863462597131729126 0.049116812646389007568 0.040462374687194824219 0.027684312313795089722 0.042495686560869216919 0.16055218875408172607 0.042765125632286071777 0.12384721636772155762 0.048544999212026596069 0.038261890411376953125 0.0055146249942481517792 0.0028309999033808708191 0.0028309999033808708191 0.0028309999033808708191 0.0028309999033808708191 0.014402374625205993652 0.040165498852729797363 0.031552560627460479736 0.025777099654078483582 0.053666934370994567871 0.3741181790828704834 0.4874579310417175293 0.045280002057552337646 0.65967386960983276367 0.48496186733245849609 0.048450436443090438843 0.049130123108625411987 0.025706399232149124146 0.016993923112750053406 0.04856584593653678894 0.027527077123522758484 0.0028309999033808708191 0.020224938169121742249 0.028292438015341758728 0.0057381251826882362366 0.19557619094848632812 0.048874687403440475464 0.014335624873638153076 0.0028309999033808708191 0.036177564412355422974 0.048410814255475997925 0.26368942856788635254 0.1797323077917098999 0.048359125852584838867 0.047598186880350112915 0.047966875135898590088 0.017179561778903007507 0.040575750172138214111 0.019717562943696975708 0.04731812700629234314 0.045052062720060348511 0.04633418843150138855 0.049118563532829284668 0.048014752566814422607 0.047931499779224395752 0.4260463714599609375 0.047796625643968582153 0.04760631173849105835 0.045853376388549804688 0.057902187108993530273 0.047521624714136123657 0.048753999173641204834 0.048500750213861465454 0.04769949987530708313 0.042461939156055450439 0.045022685080766677856 0.048448625952005386353 0.097167432308197021484 0.046853438019752502441 0.048365373164415359497 0.53609967231750488281 0.38190475106239318848 0.27017751336097717285 0.22719794511795043945 0.048814937472343444824 0.048383373767137527466 0.04855449870228767395 0.047565378248691558838 0.047149751335382461548 0.045850999653339385986 0.048038311302661895752 0.049893189221620559692 0.04883287474513053894 0.048535376787185668945 0.047139376401901245117 0.048343751579523086548 0.049684748053550720215 
0.049670875072479248047 0.034147500991821289062 0.022706437855958938599 0.034468062222003936768 0.040252689272165298462 1.0010546445846557617 0.15774449706077575684 0.3391818702220916748 0.0486299172043800354 0.025411998853087425232 0.0028309999033808708191 0.0028309999033808708191 0.014244083315134048462 0.0028309999033808708191 0.0028309999033808708191 0.27908661961555480957 1.2562534809112548828 0.048944938927888870239 0.11306662857532501221 0.043825298547744750977 0.034304998815059661865 0.048401430249214172363 0.048572249710559844971 1.0190525054931640625 0.046519875526428222656 0.045795001089572906494 0.049009062349796295166 0.048732373863458633423 0.044172100722789764404 0.028977857902646064758 0.025987399742007255554 0.011293062008917331696 0.0028309999033808708191 0.017196375876665115356 0.18723943829536437988 0.19861724972724914551 0.048857126384973526001 0.031580436974763870239 0.019579000771045684814 0.046558875590562820435 0.047221187502145767212 0.047992125153541564941 0.048654437065124511719 0.04769687354564666748 0.047713190317153930664 0.033756874501705169678 0.036967501044273376465 0.022524436935782432556 0.035785064101219177246 0.044777814298868179321 0.02490750141441822052 0.039220001548528671265 0.048626251518726348877 0.048204686492681503296 0.048405874520540237427 0.048121310770511627197 0.046198751777410507202 0.046813689172267913818 0.046449936926364898682 0.042143873870372772217 0.046280689537525177002 0.047157999128103256226 0.048824436962604522705 0.045917812734842300415 0.048195187002420425415 0.048293750733137130737 0.048755623400211334229 0.47427713871002197266 0.32070979475975036621 0.214754447340965271 0.13807350397109985352 0.043256249278783798218 0.035819627344608306885 0.042651500552892684937 0.048829186707735061646 0.048822689801454544067 0.048553250730037689209 0.04765275120735168457 0.048812251538038253784 0.045850999653339385986 0.3684819340705871582 0.048980373889207839966 0.04803587496280670166 0.085929125547409057617 0.087400503456592559814 0.048213437199592590332 0.046866253018379211426 
0.21284812688827514648 0.87710875272750854492 0.028737375512719154358 0.02831793762743473053 0.034404311329126358032 0.58884388208389282227 0.31680190563201904297 0.031479500234127044678 0.036861583590507507324 0.0028309999033808708191 0.0028309999033808708191 0.0060837855562567710876 0.036181498318910598755 0.0056074373424053192139 0.0028309999033808708191 0.0028309999033808708191 1.2434728145599365234 0.3554636836051940918 0.56734544038772583008 0.68212330341339111328 0.37169155478477478027 0.14585071802139282227 1.2735772132873535156 0.63039886951446533203 0.04864468798041343689 0.039863999933004379272 0.048426810652017593384 0.048418749123811721802 0.031866855919361114502 0.034680400043725967407 0.0056704375892877578735 0.0028309999033808708191 0.0028309999033808708191 0.028420813381671905518 0.048612311482429504395 0.045654311776161193848 0.04857937246561050415 0.048717811703681945801 0.042242374271154403687 0.048407938331365585327 0.048085499554872512817 0.047488689422607421875 0.15748350322246551514 0.61414605379104614258 0.048626750707626342773 0.02790700085461139679 0.024975875392556190491 0.047249685972929000854 0.024716874584555625916 0.043348249047994613647 0.048138439655303955078 0.048404376953840255737 0.048223499208688735962 0.048316814005374908447 0.17551374435424804688 0.048646688461303710938 0.030822999775409698486 0.41837576031684875488 0.085510626435279846191 0.12605793774127960205 0.044581249356269836426 0.047292061150074005127 0.047898814082145690918 0.042838186025619506836 0.048652812838554382324 0.048758186399936676025 0.2139835059642791748 1.0239303112030029297 0.40856319665908813477 0.047756999731063842773 0.046273000538349151611 0.043059438467025756836 0.03713337332010269165 0.031538624316453933716 0.047969438135623931885 0.048897501081228256226 0.11255931854248046875 0.047763813287019729614 0.045902878046035766602 0.046084750443696975708 0.40948793292045593262 0.079585060477256774902 0.046596124768257141113 0.12714375555515289307 0.30799257755279541016 0.044987499713897705078 0.047541998326778411865 
0.04556412622332572937 0.04851306229829788208 0.019655311480164527893 0.036047749221324920654 0.048793688416481018066 0.048416998237371444702 0.048902500420808792114 0.037619125097990036011 0.037034001201391220093 0.0028309999033808708191 0.0028309999033808708191 0.0063899997621774673462 0.025682600215077400208 0.0057284999638795852661 0.0028309999033808708191 0.35322800278663635254 0.42893245816230773926 0.048979688435792922974 0.44136786460876464844 0.89372462034225463867 0.75068128108978271484 0.88061290979385375977 0.49967250227928161621 0.04916687309741973877 0.049024313688278198242 0.048824999481439590454 0.048324000090360641479 0.038658715784549713135 0.033506084233522415161 0.02424586564302444458 0.0058093126863241195679 0.0028309999033808708191 0.019782686606049537659 0.028748061507940292358 0.042663000524044036865 0.019973998889327049255 0.026085374876856803894 0.039531063288450241089 0.048391938209533691406 0.048131126910448074341 0.04766462370753288269 0.048841439187526702881 0.23131018877029418945 0.43600231409072875977 0.048644125461578369141 0.048327561467885971069 0.047880187630653381348 0.047549314796924591064 0.048088937997817993164 0.048334877938032150269 0.1467723846435546875 0.048473499715328216553 0.04845299944281578064 0.048476248979568481445 0.4461320042610168457 0.047290001064538955688 0.048663500696420669556 0.048857998102903366089 0.048645999282598495483 0.047960374504327774048 0.039740126579999923706 0.11488355696201324463 0.097692310810089111328 0.048432249575853347778 0.04984075203537940979 0.049513999372720718384 0.34461599588394165039 0.93186610937118530273 0.1518049389123916626 0.045906499028205871582 0.047015748918056488037 0.045219000428915023804 0.047218624502420425415 0.048225626349449157715 0.048417311161756515503 0.048210248351097106934 0.04812137410044670105 0.2267846912145614624 0.044953312724828720093 0.31832513213157653809 0.60378128290176391602 0.07930831611156463623 0.19511026144027709961 0.11542594432830810547 0.047246750444173812866 0.045908376574516296387 0.046566002070903778076 
0.97571003437042236328 0.048705186694860458374 0.02562137506902217865 0.014228937216103076935 0.024778375402092933655 0.031463187187910079956 0.048506185412406921387 0.043001249432563781738 0.0086858747527003288269 0.0028309999033808708191 0.0028309999033808708191 0.70124447345733642578 0.95524072647094726562 0.014154937118291854858 0.19165058434009552002 0.10919431596994400024 0.0028309999033808708191 0.048479501157999038696 0.049383375793695449829 0.049321122467517852783 0.049023624509572982788 0.43405288457870483398 0.94416320323944091797 0.033510752022266387939 0.048313081264495849609 0.04867606237530708313 0.040938083082437515259 0.031639125198125839233 0.02204824984073638916 0.013988874852657318115 0.0028309999033808708191 0.011286312714219093323 0.028014563024044036865 0.046190313994884490967 0.028639437630772590637 0.0028309999033808708191 0.0028309999033808708191 0.0028309999033808708191 0.03155324980616569519 0.048381812870502471924 0.047358751296997070312 0.048659186810255050659 0.048750374466180801392 0.047211252152919769287 0.048517063260078430176 0.048326250165700912476 0.047629125416278839111 0.048836313188076019287 0.048909939825534820557 0.048826437443494796753 0.45273995399475097656 0.048798874020576477051 0.04821631312370300293 0.047388188540935516357 0.047442875802516937256 0.044969625771045684814 0.047341000288724899292 0.047302875667810440063 0.048535436391830444336 0.042067561298608779907 0.0084019377827644348145 0.21346580982208251953 0.21069499850273132324 0.039788939058780670166 0.37314599752426147461 1.0594952106475830078 1.1095012426376342773 0.93672329187393188477 0.1964610666036605835 0.17451225221157073975 0.39781236648559570312 0.046225938946008682251 0.048040252178907394409 0.048595376312732696533 0.048104248940944671631 0.04786606132984161377 0.048790186643600463867 0.31211844086647033691 0.044837877154350280762 0.14117056131362915039 0.83773875236511230469 0.34475305676460266113 0.35516181588172912598 0.048002064228057861328 0.048227876424789428711 0.047461189329624176025 0.046771999448537826538 
0.33093988895416259766 0.048570685088634490967 0.036940563470125198364 0.031417310237884521484 0.014063875190913677216 0.022854624316096305847 0.042130000889301300049 0.025358749553561210632 0.0028309999033808708191 0.0028309999033808708191 0.0066865831613540649414 0.45958709716796875 0.028621643781661987305 0.040244814008474349976 0.10360758751630783081 0.0057168751955032348633 0.008527625352144241333 0.049268748611211776733 0.048431500792503356934 0.048940688371658325195 0.048683311790227890015 0.11420468240976333618 0.11282106488943099976 0.048882313072681427002 0.045322000980377197266 0.04582484811544418335 0.023391110822558403015 0.049014125019311904907 0.013322384096682071686 0.0028309999033808708191 0.0057413750328123569489 0.019660999998450279236 0.025827249512076377869 0.047885686159133911133 0.045792814344167709351 0.023044999688863754272 0.0028309999033808708191 0.0028309999033808708191 0.022807687520980834961 0.2564169466495513916 0.047418061643838882446 0.04704006388783454895 0.046658813953399658203 0.047424815595149993896 0.04834912717342376709 0.044915061444044113159 0.048266563564538955688 0.048066813498735427856 0.048349626362323760986 0.04849737510085105896 0.047541063278913497925 0.047716248780488967896 0.047768875956535339355 0.048093061894178390503 0.048106998205184936523 0.04695987701416015625 0.046618562191724777222 0.045252937823534011841 0.045583873987197875977 0.021345499902963638306 0.0028309999033808708191 0.0028309999033808708191 0.0028309999033808708191 0.0028309999033808708191 0.071333684027194976807 0.73258560895919799805 0.77303898334503173828 0.66692918539047241211 0.11530112475156784058 0.22953867912292480469 0.048192188143730163574 0.047570064663887023926 0.048772875219583511353 0.048998124897480010986 0.048166498541831970215 0.048060499131679534912 0.084697254002094268799 0.14587381482124328613 0.067920438945293426514 0.43114683032035827637 0.28545725345611572266 0.13119393587112426758 0.011134687811136245728 0.045520562678575515747 0.047960501164197921753 0.048111937940120697021 0.047161500900983810425 
0.72293078899383544922 0.4100926816463470459 0.031253624707460403442 0.025085812434554100037 0.047397937625646591187 0.031711876392364501953 0.045457284897565841675 0.020179498940706253052 0.023743500933051109314 1.2569168806076049805 0.61975574493408203125 0.38637700676918029785 0.88643312454223632812 0.040882166475057601929 0.0028309999033808708191 0.019666250795125961304 0.04313737526535987854 0.048847686499357223511 0.048202876001596450806 0.048479814082384109497 0.049129124730825424194 0.048985436558723449707 0.048560813069343566895 0.047720685601234436035 0.048378374427556991577 0.045629311352968215942 0.043682582676410675049 0.049027875065803527832 0.013979187235236167908 0.0054450626485049724579 0.0028309999033808708191 0.02519625052809715271 0.045834187418222427368 0.048213124275207519531 0.048277936875820159912 0.039445687085390090942 0.0028309999033808708191 0.0028309999033808708191 0.036923248320817947388 0.046948187053203582764 0.048053875565528869629 0.04783056303858757019 0.047919750213623046875 0.046270251274108886719 0.045302186161279678345 0.028352249413728713989 0.047315813601016998291 0.047011125832796096802 0.046192623674869537354 0.048259310424327850342 0.04842993617057800293 0.04903081059455871582 0.048506125807762145996 0.048237562179565429688 0.048090748488903045654 0.046984501183032989502 0.04685662686824798584 0.047425877302885055542 0.022252000868320465088 0.011354437097907066345 0.019545750692486763 0.020045874640345573425 0.028686687350273132324 0.43431186676025390625 0.43283739686012268066 0.3904806971549987793 0.69524782896041870117 0.24139861762523651123 0.048494812101125717163 0.45156201720237731934 0.048416689038276672363 0.048605188727378845215 0.04883287474513053894 0.047909125685691833496 0.048249375075101852417 0.047145310789346694946 0.047909874469041824341 0.049074001610279083252 0.05014549940824508667 0.048972249031066894531 0.049010686576366424561 0.017347624525427818298 0.014266313053667545319 0.028392687439918518066 0.048656124621629714966 0.046864625066518783569 0.048972748219966888428 
0.1492624431848526001 0.02751356177031993866 0.042879875749349594116 0.028329124674201011658 0.0373765602707862854 0.045432437211275100708 0.031761143356561660767 0.0080591253936290740967 0.0085279997438192367554 0.95150423049926757812 0.93200147151947021484 0.093338914215564727783 0.0080591253936290740967 0.0080591253936290740967 0.0028309999033808708191 0.040136311203241348267 0.028867749497294425964 0.048787061125040054321 0.04853787645697593689 0.048651311546564102173 0.048711437731981277466 0.049022812396287918091 0.048665750771760940552 0.048285186290740966797 0.045122936367988586426 0.04396029934287071228 0.019260643050074577332 0.0028309999033808708191 0.0028309999033808708191 0.0028309999033808708191 0.0028309999033808708191 0.030601125210523605347 0.033880189061164855957 0.049050126224756240845 0.048796437680721282959 0.047776561230421066284 0.0055886874906718730927 0.10114999860525131226 0.1697025597095489502 0.047898810356855392456 0.048207748681306838989 0.048765875399112701416 0.048799812793731689453 0.04607531428337097168 0.045989438891410827637 0.032655876129865646362 0.048277813941240310669 0.049079749733209609985 0.034468688070774078369 0.24102719128131866455 0.27242007851600646973 0.048736751079559326172 0.045072313398122787476 1.0024567842483520508 0.04740931093692779541 0.045869998633861541748 0.046400874853134155273 0.029091250151395797729 0.0028309999033808708191 0.028172248974442481995 0.017141124233603477478 0.0028309999033808708191 0.03725962713360786438 0.17998574674129486084 0.57162594795227050781 0.043076500296592712402 0.19991056621074676514 0.048166561871767044067 0.048776250332593917847 0.048919998109340667725 0.048255313187837600708 0.047594875097274780273 0.04717618599534034729 0.048014625906944274902 0.046631999313831329346 0.047856248915195465088 0.047257937490940093994 0.048875875771045684814 0.048584312200546264648 0.048079252243041992188 0.047330375760793685913 0.043314497917890548706 0.0028309999033808708191 0.0056655001826584339142 0.0479601249098777771 0.048090249300003051758 0.048507250845432281494 
0.55332547426223754883 0.025236938148736953735 0.042798500508069992065 0.017151437699794769287 0.033858437091112136841 0.11484931409358978271 0.81225693225860595703 0.47224658727645874023 0.025899749249219894409 0.21212646365165710449 0.036913938820362091064 0.0064090001396834850311 0.0028309999033808708191 0.16552220284938812256 0.0065889167599380016327 0.025521187111735343933 0.0028309999033808708191 0.04906775057315826416 0.048707373440265655518 0.031323064118623733521 0.040210563689470291138 0.049171373248100280762 0.048353500664234161377 0.048719767481088638306 0.048969123512506484985 0.0063500767573714256287 0.0028309999033808708191 0.0028309999033808708191 0.0055830623023211956024 0.0028309999033808708191 0.0028309999033808708191 0.019048562273383140564 0.025506937876343727112 0.0444355010986328125 0.045964751392602920532 0.048496875911951065063 0.034451935440301895142 0.54709506034851074219 0.048649936914443969727 0.048385310918092727661 0.048223186284303665161 0.047742936760187149048 0.047986935824155807495 0.047789499163627624512 0.048392936587333679199 0.045334126800298690796 0.031438499689102172852 0.017183374613523483276 0.0085782501846551895142 0.0028309999033808708191 0.025930499657988548279 0.048714876174926757812 0.044986061751842498779 0.24160993099212646484 0.40030574798583984375 0.048083938658237457275 0.046970497816801071167 0.022641561925411224365 0.0028309999033808708191 0.0057108122855424880981 0.0028309999033808708191 0.1119823753833770752 0.30718517303466796875 0.70879244804382324219 0.52421170473098754883 0.24819557368755340576 0.048479501157999038696 0.047787189483642578125 0.048543561249971389771 0.048872623592615127563 0.048526499420404434204 0.047632623463869094849 0.047425001859664916992 0.048161812126636505127 0.18035668134689331055 0.68547660112380981445 0.32332542538642883301 0.048495814204216003418 0.049916811287403106689 0.046874877065420150757 0.047911748290061950684 0.031550187617540359497 0.023289624601602554321 0.017222499474883079529 0.044821251183748245239 0.047738000750541687012 0.049179747700691223145 
0.022185437381267547607 0.039729874581098556519 0.031346563249826431274 0.028036188334226608276 0.034092251211404800415 0.21598483622074127197 0.78535753488540649414 0.094133503735065460205 0.030401200056076049805 0.020167563110589981079 0.029559999704360961914 0.01295855548232793808 0.077226169407367706299 0.0028309999033808708191 0.0058402665890753269196 0.022268667817115783691 0.0028309999033808708191 0.048992928117513656616 0.048456810414791107178 0.046279188245534896851 0.048763561993837356567 0.049088846892118453979 0.040909998118877410889 0.048336151987314224243 0.46854868531227111816 0.2992566227912902832 0.0057006874121725559235 0.011185562238097190857 0.0028309999033808708191 0.0028309999033808708191 0.0028309999033808708191 0.013612000271677970886 0.014096625149250030518 0.042167436331510543823 0.1912263035774230957 0.043334249407052993774 0.048740625381469726562 0.048028938472270965576 0.048377376049757003784 0.048528876155614852905 0.048267185688018798828 0.039846561849117279053 0.048394564539194107056 0.045763999223709106445 0.02282956242561340332 0.01436162460595369339 0.031698875129222869873 0.0028309999033808708191 0.014325499534606933594 0.019578250125050544739 0.0028309999033808708191 0.045428249984979629517 0.047198250889778137207 0.047580000013113021851 0.37940829992294311523 0.1240758746862411499 0.039218876510858535767 0.0028309999033808708191 0.011448999866843223572 0.031285688281059265137 0.019686624407768249512 0.042619623243808746338 0.048032999038696289062 0.1269080042839050293 0.048675686120986938477 0.048848189413547515869 0.049004625529050827026 0.04856187477707862854 0.048260811716318130493 0.047831498086452484131 0.047330185770988464355 0.047892749309539794922 0.047098875045776367188 0.047257624566555023193 0.046702563762664794922 0.50480681657791137695 0.11200681328773498535 0.046780001372098922729 0.04744800180196762085 0.045258626341819763184 0.046883873641490936279 0.048963498324155807495 0.048275001347064971924 0.073571316897869110107 0.045955188572406768799 0.048608314245939254761 0.049026750028133392334 
0.031686998903751373291 0.049577623605728149414 0.02605062536895275116 0.040339250117540359497 0.02557374909520149231 0.41511350870132446289 0.65899825096130371094 0.082450084388256072998 0.045226287096738815308 0.019646499305963516235 0.044690914452075958252 0.027270732447504997253 0.31365001201629638672 0.024476250633597373962 0.0028309999033808708191 0.018515374511480331421 0.047154229134321212769 0.04000369831919670105 0.048508498817682266235 0.048088438808917999268 0.048822801560163497925 0.31078094244003295898 0.26057574152946472168 0.045882500708103179932 0.022086417302489280701 0.0058149998076260089874 0.0028309999033808708191 0.0028309999033808708191 0.0028309999033808708191 0.0028309999033808708191 0.0028309999033808708191 0.0028309999033808708191 0.0085973748937249183655 0.019698312506079673767 0.27389693260192871094 0.048481311649084091187 0.048924125730991363525 0.048247437924146652222 0.048377625644207000732 0.048291999846696853638 0.049220062792301177979 0.048127625137567520142 0.048544500023126602173 0.037137564271688461304 0.0028309999033808708191 0.0028309999033808708191 0.0028309999033808708191 0.014135499484837055206 0.045236311852931976318 0.047802001237869262695 0.044411499053239822388 0.047736626118421554565 0.044892188161611557007 0.047598376870155334473 0.046995252370834350586 0.046052001416683197021 0.042052686214447021484 0.0058149998076260089874 0.019978625699877738953 0.04588012397289276123 0.02561249956488609314 0.034282874315977096558 0.049040064215660095215 0.13961587846279144287 0.048980999737977981567 0.048716500401496887207 0.04265724867582321167 0.039303686469793319702 0.048320062458515167236 0.047034375369548797607 0.047857061028480529785 0.047672376036643981934 0.04591943696141242981 0.046246811747550964355 0.0476876869797706604 0.048379749059677124023 0.04855181276798248291 0.77124768495559692383 0.046927250921726226807 0.045067314058542251587 0.047704748809337615967 0.31257605552673339844 0.076990187168121337891 0.048305001109838485718 0.048548188060522079468 0.048289936035871505737 0.048799000680446624756 
0.022606937214732170105 0.057154312729835510254 0.070863500237464904785 0.011456562206149101257 0.0085676871240139007568 0.16994012892246246338 0.025700099766254425049 0.0028309999033808708191 0.017904499545693397522 0.0209980010986328125 0.034005250781774520874 0.017921999096870422363 0.011266875080764293671 0.026059374213218688965 0.017934000119566917419 0.031456373631954193115 0.045642856508493423462 0.037121001631021499634 0.048930063843727111816 0.049775250256061553955 0.049259856343269348145 0.36722549796104431152 0.4196675717830657959 0.18144790828227996826 0.019191928207874298096 0.0028309999033808708191 0.0056704375892877578735 0.0054450626485049724579 0.0028309999033808708191 0.0056862500496208667755 0.0082844998687505722046 0.0028309999033808708191 0.0080591253936290740967 0.039623562246561050415 0.042316749691963195801 0.7836087346076965332 0.22221501171588897705 0.043367750942707061768 0.46521711349487304688 0.045490685850381851196 0.046199500560760498047 0.048853438347578048706 0.048410624265670776367 0.048866938799619674683 0.039932563900947570801 0.032790813595056533813 0.030399562790989875793 0.047720249742269515991 0.047378499060869216919 0.047793000936508178711 0.047900311648845672607 0.036547750234603881836 0.04663006216287612915 0.039152063429355621338 0.032824374735355377197 0.044005248695611953735 0.048566125333309173584 0.048881437629461288452 0.04724093899130821228 0.048097249120473861694 0.034232188016176223755 0.020237311720848083496 0.045740250498056411743 0.048572186380624771118 0.028255311772227287292 0.042191375046968460083 0.048275750130414962769 0.045227311551570892334 0.039915498346090316772 0.047603998333215713501 0.046960376203060150146 0.046486437320709228516 0.048115063458681106567 0.048656936734914779663 0.048043813556432723999 0.048365000635385513306 0.20515012741088867188 0.83923590183258056641 0.11867662519216537476 0.084872059524059295654 0.049161374568939208984 0.67680388689041137695 0.044143937528133392334 0.047943122684955596924 0.048650626093149185181 0.048700686544179916382 0.048657000064849853516 
0.03427375108003616333 0.3629302680492401123 0.50313615798950195312 0.18591518700122833252 0.044830873608589172363 0.097536124289035797119 0.0028309999033808708191 0.0028309999033808708191 0.036834374070167541504 0.014034249819815158844 0.21899451315402984619 0.0028309999033808708191 0.0028309999033808708191 0.0028309999033808708191 0.0028309999033808708191 0.035906750708818435669 0.033643167465925216675 0.025445749983191490173 0.047945562750101089478 0.049288999289274215698 0.049720626324415206909 0.73996144533157348633 0.63078206777572631836 0.52321100234985351562 0.033040832728147506714 0.01711512543261051178 0.01143681257963180542 0.008509875275194644928 0.022676873952150344849 0.019981624558568000793 0.008473374880850315094 0.0054450626485049724579 0.0028309999033808708191 0.053944747895002365112 0.5943050384521484375 0.35388919711112976074 0.17549237608909606934 0.045425623655319213867 0.12088087201118469238 0.32360255718231201172 0.045024000108242034912 0.048161625862121582031 0.048757500946521759033 0.048183251172304153442 0.048118811100721359253 0.047008626163005828857 0.04675250127911567688 0.047057498246431350708 0.047214873135089874268 0.047788623720407485962 0.56331861019134521484 0.16576556861400604248 0.046950250864028930664 0.036675624549388885498 0.014421561732888221741 0.010951437056064605713 0.3911450803279876709 0.53946667909622192383 0.048350751399993896484 0.048894189298152923584 0.022366937249898910522 0.048496875911951065063 0.04851512610912322998 0.048086687922477722168 0.048204373568296432495 0.048481810837984085083 0.042826935648918151855 0.033959500491619110107 0.016952000558376312256 0.047967310994863510132 0.048965249210596084595 0.048036813735961914062 0.048850186169147491455 0.048436187207698822021 0.048978250473737716675 0.048662189394235610962 0.33600351214408874512 0.83592611551284790039 0.16937993466854095459 0.23295450210571289062 0.011682312004268169403 0.022977625951170921326 0.042932376265525817871 0.04920681193470954895 0.048970248550176620483 0.048746373504400253296 0.048955000936985015869 
0.037403501570224761963 0.028650062158703804016 1.1984552145004272461 0.023134812712669372559 0.57703930139541625977 0.01140618789941072464 0.0028309999033808708191 0.021617142483592033386 0.025224687531590461731 0.031093385070562362671 0.42763426899909973145 0.006603749934583902359 0.0028309999033808708191 0.0028309999033808708191 0.0064090001396834850311 0.033565834164619445801 0.027445198968052864075 0.044998429715633392334 0.04761043936014175415 0.050460502505302429199 0.11742433905601501465 0.55622774362564086914 0.061572715640068054199 0.0489370003342628479 0.045899000018835067749 0.57112073898315429688 0.62859094142913818359 0.022770436480641365051 0.016872063279151916504 0.0028309999033808708191 0.0056704375892877578735 0.016483874991536140442 0.0028309999033808708191 0.13402181863784790039 0.39654049277305603027 0.034123748540878295898 0.04566712304949760437 0.04804325103759765625 0.45732167363166809082 0.19534587860107421875 0.048318751156330108643 0.047710686922073364258 0.048166248947381973267 0.047815311700105667114 0.048713501542806625366 0.047212187200784683228 0.047800563275814056396 0.046927936375141143799 0.048094123601913452148 0.047710813581943511963 0.86021178960800170898 0.23592430353164672852 0.047359436750411987305 0.031062562018632888794 0.028512688353657722473 0.13091930747032165527 1.0461480617523193359 0.7253634333610534668 0.039684064686298370361 0.048284001648426055908 0.025909874588251113892 0.047393813729286193848 0.047842249274253845215 0.047796562314033508301 0.046589937061071395874 0.048496626317501068115 0.047616750001907348633 0.025648437440395355225 0.036921687424182891846 0.047659937292337417603 0.048056688159704208374 0.048078685998916625977 0.12999843060970306396 0.048508562147617340088 0.049501314759254455566 0.04877931252121925354 0.048771373927593231201 0.1801347583532333374 0.047823999077081680298 0.045523688197135925293 0.037110313773155212402 0.042671311646699905396 0.043033435940742492676 0.51150184869766235352 0.048951376229524612427 0.048783376812934875488 0.049056250602006912231 
0.022750373929738998413 0.093776687979698181152 0.48297587037086486816 0.16718256473541259766 0.25227138400077819824 0.040183249861001968384 0.02623686566948890686 0.031785570085048675537 0.35750800371170043945 0.12100037187337875366 0.24584631621837615967 0.025313332676887512207 0.0028309999033808708191 0.0089165000244975090027 0.014231333509087562561 0.019929561764001846313 0.03768461570143699646 0.046062186360359191895 0.049682311713695526123 0.083663813769817352295 0.10209000110626220703 0.048603624105453491211 0.04909643903374671936 0.048994436860084533691 0.41437581181526184082 0.60202747583389282227 0.22877293825149536133 0.53080117702484130859 0.025877000764012336731 0.036993063986301422119 0.0028309999033808708191 0.014271000400185585022 0.0080591253936290740967 0.0054450626485049724579 0.53318262100219726562 0.15567487478256225586 0.037339936941862106323 0.048351876437664031982 0.21185798943042755127 0.23613107204437255859 0.047924812883138656616 0.047961063683032989502 0.048116501420736312866 0.0458966866135597229 0.047635812312364578247 0.046014249324798583984 0.046162687242031097412 0.04699212685227394104 0.047685999423265457153 0.047249123454093933105 0.27916038036346435547 0.041947498917579650879 0.036235876381397247314 0.0082927495241165161133 0.022961437702178955078 0.10640999674797058105 0.1970100104808807373 0.43108573555946350098 0.63209563493728637695 0.031481374055147171021 0.0057284999638795852661 0.0056794998236000537872 0.0053936876356601715088 0.03113787434995174408 0.033719126135110855103 0.028528124094009399414 0.028197312727570533752 0.0167388133704662323 0.04874324798583984375 0.047817874699831008911 0.048176124691963195801 0.079659059643745422363 0.037123061716556549072 0.043347813189029693604 0.048540312796831130981 0.048902563750743865967 0.048796813935041427612 0.30133086442947387695 0.5882008671760559082 0.22693742811679840088 0.58137565851211547852 0.045578375458717346191 0.02584206312894821167 0.016178937628865242004 0.10050318390130996704 0.019547499716281890869 0.036213248968124389648 
0.01992856152355670929 0.60476845502853393555 0.67551618814468383789 0.39180263876914978027 0.039753999561071395874 0.11971819400787353516 0.0078950002789497375488 0.03679787367582321167 0.096767060458660125732 0.10402131080627441406 0.68099576234817504883 0.23084254562854766846 0.0028309999033808708191 0.025964500382542610168 0.037229750305414199829 0.016891999170184135437 0.045011166483163833618 0.043641313910484313965 0.049817811697721481323 0.049714688211679458618 0.67703509330749511719 0.049052499234676361084 0.04951537400484085083 0.049302689731121063232 0.69198876619338989258 0.61693686246871948242 0.020025625824928283691 0.63224881887435913086 0.028639499098062515259 0.036461625248193740845 0.0028309999033808708191 0.013959750533103942871 0.0054450626485049724579 0.0028309999033808708191 0.093895688652992248535 0.005625812336802482605 0.031174812465906143188 0.048684872686862945557 0.048306062817573547363 0.048056937754154205322 0.047818500548601150513 0.048030436038970947266 0.047795936465263366699 0.047870501875877380371 0.046407062560319900513 0.045060250908136367798 0.04387343674898147583 0.045847438275814056396 0.046874374151229858398 0.047745876014232635498 0.047130126506090164185 0.044147439301013946533 0.019137812778353691101 0.0028309999033808708191 0.0028309999033808708191 0.022948686033487319946 0.048441939055919647217 0.036976251751184463501 0.029077438637614250183 0.15781512856483459473 0.41466337442398071289 0.86148786544799804688 0.017054250463843345642 0.019962063059210777283 0.030018625780940055847 0.016744812950491905212 0.0084481872618198394775 0.076957620680332183838 0.1295595020055770874 0.048184625804424285889 0.048119314014911651611 0.034004438668489456177 0.020054688677191734314 0.034196186810731887817 0.042926751077175140381 0.048935748636722564697 0.049146376550197601318 0.049223560839891433716 0.12689393758773803711 0.048628251999616622925 0.048524189740419387817 0.040439687669277191162 0.039222311228513717651 0.14993612468242645264 0.40510362386703491211 0.047267250716686248779 0.048156753182411193848 
0.017258999869227409363 0.13283482193946838379 0.44600668549537658691 0.86818873882293701172 0.0343705005943775177 0.20988187193870544434 0.28438225388526916504 0.030079750344157218933 0.044746834784746170044 0.58834987878799438477 0.36084517836570739746 0.24169217050075531006 0.042886123061180114746 0.0028309999033808708191 0.021269166842103004456 0.0028309999033808708191 0.035180199891328811646 0.04897575080394744873 0.049997687339782714844 0.089882440865039825439 0.69044631719589233398 0.049349561333656311035 0.049081813544034957886 0.08725868910551071167 0.66670840978622436523 0.12597443163394927979 0.35289794206619262695 0.57059758901596069336 0.20177163183689117432 0.02536281198263168335 0.02883950062096118927 0.033626373857259750366 0.01967087574303150177 0.0028309999033808708191 0.0028309999033808708191 0.0028309999033808708191 0.25550514459609985352 0.048777688294649124146 0.12695243954658508301 0.17293275892734527588 0.048231810331344604492 0.048172935843467712402 0.047481939196586608887 0.046465814113616943359 0.047420810908079147339 0.046752810478210449219 0.046176750212907791138 0.046893749386072158813 0.046920813620090484619 0.04748768731951713562 0.23471763730049133301 0.041949126869440078735 0.0084912497550249099731 0.0028309999033808708191 0.0057413750328123569489 0.3355274498462677002 0.38965600728988647461 0.0086554996669292449951 0.028939999639987945557 0.32736286520957946777 0.35229098796844482422 0.62221312522888183594 0.42211264371871948242 0.11794656515121459961 0.097179502248764038086 0.20823574066162109375 0.16712830960750579834 0.10223200172185897827 0.36674767732620239258 0.047217249870300292969 0.048478189855813980103 0.031996063888072967529 0.028344063088297843933 0.0028309999033808708191 0.0230434369295835495 0.045647498220205307007 0.23392719030380249023 0.59791791439056396484 0.04840893670916557312 0.047475438565015792847 0.047658376395702362061 0.048478875309228897095 0.04888787493109703064 0.048930127173662185669 0.049319125711917877197 0.049104001373052597046 0.048806000500917434692 
0.034025624394416809082 0.12564162909984588623 0.0084206871688365936279 0.20710319280624389648 0.042904939502477645874 0.039703749120235443115 0.0028309999033808708191 0.44055762887001037598 0.045198787003755569458 0.18643139302730560303 0.59958732128143310547 0.98308187723159790039 0.013871249742805957794 0.0086143752560019493103 0.022282416000962257385 0.031220249831676483154 0.023496333509683609009 0.04872224852442741394 0.049535799771547317505 0.1208278462290763855 0.37506842613220214844 0.031646501272916793823 0.020357312634587287903 0.23291693627834320068 0.59721493721008300781 0.27976307272911071777 0.31184676289558410645 0.01715981215238571167 0.078578434884548187256 0.041673749685287475586 0.048469938337802886963 0.048892125487327575684 0.048478998243808746338 0.38620582222938537598 0.085403308272361755371 0.014536687172949314117 0.27071943879127502441 0.043063249439001083374 0.18527881801128387451 0.048818126320838928223 0.047859061509370803833 0.047682438045740127563 0.048581685870885848999 0.048763498663902282715 0.048123937100172042847 0.047735687345266342163 0.04798231273889541626 0.047910124063491821289 0.047362875193357467651 0.047979623079299926758 0.82971197366714477539 0.10540893673896789551 0.0083948746323585510254 0.0028309999033808708191 0.15160956978797912598 0.3978322446346282959 0.10008043795824050903 0.0028309999033808708191 0.63748341798782348633 0.047498062252998352051 0.11351731419563293457 0.039991751313209533691 0.94657301902770996094 0.016999937593936920166 0.43615192174911499023 0.21031524240970611572 0.045238502323627471924 0.045962873846292495728 0.047192875295877456665 0.048433188349008560181 0.048791188746690750122 0.048709686845541000366 0.69691807031631469727 0.40556311607360839844 0.028853937983512878418 0.043147876858711242676 0.036675311625003814697 0.048796188086271286011 0.048607312142848968506 0.048776440322399139404 0.048066001385450363159 0.048376001417636871338 0.048843625932931900024 0.048218000680208206177 0.048169814050197601318 0.048190124332904815674 0.047838002443313598633 
0.29618281126022338867 0.11551518738269805908 0.30761831998825073242 0.22725625336170196533 0.01689118705689907074 0.0028309999033808708191 0.028916999697685241699 0.23058879375457763672 0.47374814748764038086 1.3379659652709960938 0.62067717313766479492 0.46909415721893310547 0.012476714327931404114 0.036952748894691467285 0.037600923329591751099 0.013628083281219005585 0.027995221316814422607 0.025376999750733375549 0.024819999933242797852 0.033544331789016723633 0.10988125205039978027 0.0057563125155866146088 0.01430556178092956543 0.16350136697292327881 0.63161933422088623047 0.13504706323146820068 0.037398874759674072266 0.048897497355937957764 0.047630123794078826904 0.047219064086675643921 0.048969063907861709595 0.048086810857057571411 0.048774376511573791504 0.24251087009906768799 0.03085268847644329071 0.017312688753008842468 0.022477187216281890869 0.037292063236236572266 0.30018281936645507812 0.048652872443199157715 0.048102688044309616089 0.048379875719547271729 0.047902747988700866699 0.048321623355150222778 0.048001311719417572021 0.048249501734972000122 0.048967875540256500244 0.048876374959945678711 0.049171935766935348511 0.048943124711513519287 0.11424656212329864502 0.53279787302017211914 0.011362187564373016357 0.025745563209056854248 0.017156749963760375977 0.0028309999033808708191 0.083080686628818511963 0.32382974028587341309 0.50400567054748535156 0.25637513399124145508 0.32371494174003601074 0.025431249290704727173 0.39804536104202270508 0.67264038324356079102 0.34986168146133422852 0.047770313918590545654 0.048575874418020248413 0.04768587648868560791 0.048791062086820602417 0.048662938177585601807 0.037499688565731048584 0.042890563607215881348 0.038592375814914703369 0.18324400484561920166 0.031758874654769897461 0.048438936471939086914 0.048726249486207962036 0.048710688948631286621 0.049260377883911132812 0.049047812819480895996 0.048852689564228057861 0.047913938760757446289 0.047727376222610473633 0.047784939408302307129 0.047905437648296356201 0.047418937087059020996 0.04880800098180770874 
0.034312937408685684204 0.068663686513900756836 0.45651790499687194824 0.025476813316345214844 0.028655374422669410706 0.0028309999033808708191 0.025748124346137046814 0.031492751091718673706 0.016480600461363792419 0.83346164226531982422 0.67242729663848876953 1.4257259368896484375 0.034864000976085662842 0.031906571239233016968 0.04282499849796295166 0.0028309999033808708191 0.042764749377965927124 0.035254500806331634521 0.08536860346794128418 0.023101383820176124573 0.75647711753845214844 0.0028309999033808708191 0.019820937886834144592 0.18753449618816375732 0.31373238563537597656 0.47265225648880004883 0.042726501822471618652 0.24121743440628051758 0.048588186502456665039 0.048702187836170196533 0.039810564368963241577 0.12790536880493164062 0.67168271541595458984 0.55518925189971923828 0.016603687778115272522 0.0084398128092288970947 0.11881006509065628052 0.55213719606399536133 0.17969024181365966797 0.048301436007022857666 0.048943813890218734741 0.048441313207149505615 0.049187436699867248535 0.46113961935043334961 0.4684124290943145752 0.34248495101928710938 0.28387179970741271973 0.65085560083389282227 0.29351150989532470703 0.8605556488037109375 0.53979587554931640625 0.21443744003772735596 0.30753850936889648438 0.14075231552124023438 0.10110862553119659424 0.76862633228302001953 0.98459571599960327148 0.68114757537841796875 0.78771942853927612305 0.75251567363739013672 1.0074944496154785156 0.18093763291835784912 0.048722438514232635498 0.048548687249422073364 0.049098502844572067261 0.048408877104520797729 0.049161314964294433594 0.048592749983072280884 0.048033438622951507568 0.028815938159823417664 0.0057046250440180301666 0.04203656315803527832 0.03274431079626083374 0.047387875616550445557 0.034162063151597976685 0.048341564834117889404 0.048796374350786209106 0.048474375158548355103 0.048349376767873764038 0.048290498554706573486 0.047477312386035919189 0.04815006256103515625 0.047098875045776367188 0.047642562538385391235 0.048673499375581741333 0.042172376066446304321 0.013725999742746353149 
0.021892562508583068848 0.21857775747776031494 0.39372530579566955566 0.033901188522577285767 0.016923123970627784729 0.017031125724315643311 0.0083358120173215866089 0.01231271401047706604 0.0028309999033808708191 0.71840691566467285156 0.45870149135589599609 1.2277507781982421875 0.04860928654670715332 0.036835126578807830811 0.048421166837215423584 0.047864124178886413574 0.036241333931684494019 0.039297644048929214478 0.031271498650312423706 0.98506516218185424805 1.0635461807250976562 0.11737631261348724365 0.028361374512314796448 1.1075731515884399414 0.41973525285720825195 0.23849524557590484619 0.045998062938451766968 0.13448131084442138672 0.048449374735355377197 0.048173189163208007812 0.02281831204891204834 0.5069732666015625 0.57611960172653198242 0.83741009235382080078 0.0087066870182752609253 0.0028309999033808708191 0.037188939750194549561 0.15236337482929229736 0.20367155969142913818 0.53176283836364746094 0.1202676817774772644 0.048380438238382339478 0.049124188721179962158 0.04884675145149230957 0.55421006679534912109 0.20923212170600891113 0.048304188996553421021 0.13133262097835540771 0.15050193667411804199 0.42765104770660400391 0.35222619771957397461 0.97033315896987915039 0.93660211563110351562 0.45570132136344909668 0.13085792958736419678 0.3993466794490814209 0.21265763044357299805 0.031752437353134155273 0.10999643802642822266 0.50839185714721679688 0.048332937061786651611 0.048123873770236968994 0.048817124217748641968 0.04883287474513053894 0.047690499573945999146 0.049050752073526382446 0.049023874104022979736 0.049076251685619354248 0.034151062369346618652 0.011333124712109565735 0.04025918617844581604 0.048188623040914535522 0.042026687413454055786 0.04749599844217300415 0.022992249578237533569 0.045565813779830932617 0.048453126102685928345 0.048260312527418136597 0.047880437225103378296 0.048623751848936080933 0.048374626785516738892 0.048826687037944793701 0.048346813768148422241 0.048525374382734298706 0.047877624630928039551 0.022818813100457191467 0.025211749598383903503 
0.014205062761902809143 0.41591274738311767578 1.0400338172912597656 0.37841388583183288574 1.016814112663269043 0.048111438751220703125 0.0060099284164607524872 0.34711882472038269043 0.10151274502277374268 0.041400358080863952637 0.38544037938117980957 0.048251572996377944946 0.048870500177145004272 0.0028309999033808708191 0.044998001307249069214 0.039978060871362686157 0.045431140810251235962 0.014493749476969242096 0.042625375092029571533 0.86405634880065917969 0.31011411547660827637 0.75036716461181640625 0.049054250121116638184 0.04899675026535987854 0.048555310815572738647 0.049395125359296798706 0.049448061734437942505 0.049077436327934265137 0.04844949766993522644 0.10400524735450744629 0.025724187493324279785 0.65575617551803588867 1.3890416622161865234 0.36872506141662597656 0.011372374370694160461 0.0028309999033808708191 0.017403312027454376221 0.034196063876152038574 0.048584498465061187744 0.12396993488073348999 0.048800874501466751099 0.048685751855373382568 0.048723939806222915649 0.048856750130653381348 0.048411123454570770264 0.04882068932056427002 0.047838751226663589478 0.047906748950481414795 0.047227438539266586304 0.045184686779975891113 0.047978810966014862061 0.048191938549280166626 0.048400249332189559937 0.048306748270988464355 0.048437125980854034424 0.048788249492645263672 0.048522498458623886108 0.0057046250440180301666 0.039018373936414718628 0.033863563090562820435 0.039930563420057296753 0.047557625919580459595 0.047246500849723815918 0.047086875885725021362 0.047636248171329498291 0.048512876033782958984 0.048404064029455184937 0.04825862497091293335 0.025526188313961029053 0.022706687450408935547 0.022766124457120895386 0.020072748884558677673 0.045658186078071594238 0.04817137494683265686 0.043058812618255615234 0.048731561750173568726 0.048799749463796615601 0.04880506172776222229 0.04807818681001663208 0.048184938728809356689 0.047715499997138977051 0.049743499606847763062 0.048733748495578765869 0.037118062376976013184 0.037317562848329544067 0.13766287267208099365 0.46218198537826538086 
0.025418313220143318176 0.55540961027145385742 0.44171476364135742188 0.71299475431442260742 0.64922916889190673828 0.85318583250045776367 0.027537692338228225708 0.10297094285488128662 0.76384663581848144531 0.10508882999420166016 0.0400124378502368927 0.04855519905686378479 0.038915641605854034424 0.0028309999033808708191 0.024959500879049301147 0.021580915898084640503 0.025745833292603492737 0.019707374274730682373 0.044547416269779205322 0.023959333077073097229 0.030884498730301856995 0.037040874361991882324 0.048457626253366470337 0.042494937777519226074 0.18949481844902038574 0.18352536857128143311 0.10927037149667739868 0.046366248279809951782 0.47281357645988464355 0.70392030477523803711 0.11977225542068481445 0.11788330972194671631 0.54842621088027954102 0.0084339994937181472778 0.0028309999033808708191 0.0028309999033808708191 0.022857625037431716919 0.13405312597751617432 0.048462875187397003174 0.048543374985456466675 0.048764374107122421265 0.048766061663627624512 0.031567249447107315063 0.048379249870777130127 0.047592937946319580078 0.047502689063549041748 0.047718312591314315796 0.048891186714172363281 0.047856125980615615845 0.048601061105728149414 0.048401750624179840088 0.048128936439752578735 0.048201374709606170654 0.047750748693943023682 0.04709599912166595459 0.022551000118255615234 0.0056091248989105224609 0.0055146249942481517792 0.035317998379468917847 0.0028309999033808708191 0.022130500525236129761 0.046892061829566955566 0.047336813062429428101 0.047329749912023544312 0.046636000275611877441 0.047466251999139785767 0.047214750200510025024 0.04528043791651725769 0.02839781343936920166 0.01410262472927570343 0.0083905002102255821228 0.0057046250440180301666 0.047773312777280807495 0.048817437142133712769 0.047962311655282974243 0.048687439411878585815 0.049141060560941696167 0.048383872956037521362 0.048456810414791107178 0.04868168756365776062 0.048286247998476028442 0.049046814441680908203 0.048911437392234802246 0.040174689143896102905 0.04297618567943572998 0.64450567960739135742 1.0865269899368286133 
0.017062688246369361877 0.045182064175605773926 0.10970687121152877808 0.0057226875796914100647 0.13043081760406494141 0.048139810562133789062 0.04687311127781867981 0.12668368220329284668 0.25497007369995117188 0.1052050665020942688 0.034516375511884689331 0.031115308403968811035 0.0074057998135685920715 0.3964596092700958252 0.020888999104499816895 0.025157166644930839539 0.033594500273466110229 0.028508214280009269714 0.047501437366008758545 0.047588936984539031982 0.045283060520887374878 0.042760185897350311279 0.020067937672138214111 0.024917749688029289246 0.022223625332117080688 0.502742767333984375 0.64986795186996459961 0.55662810802459716797 0.21113975346088409424 0.51393306255340576172 0.11555930972099304199 0.1799418032169342041 0.037243500351905822754 0.0028309999033808708191 0.0028309999033808708191 0.0028309999033808708191 0.0056902500800788402557 0.13613431155681610107 0.048438251018524169922 0.048641938716173171997 0.048982936888933181763 0.048856750130653381348 0.044733375310897827148 0.047830127179622650146 0.048187248408794403076 0.048027187585830688477 0.0481225624680519104 0.043266750872135162354 0.049136310815811157227 0.045770749449729919434 0.04553275182843208313 0.047368563711643218994 0.047240875661373138428 0.04648450016975402832 0.043993934988975524902 0.0028309999033808708191 0.0028309999033808708191 0.0081982500851154327393 0.024666186422109603882 0.0028309999033808708191 0.0082927495241165161133 0.046481937170028686523 0.047195561230182647705 0.047368373721837997437 0.047244124114513397217 0.047484751790761947632 0.047012377530336380005 0.01400425005704164505 0.0028309999033808708191 0.036747436970472335815 0.028370499610900878906 0.033264689147472381592 0.048565499484539031982 0.048967063426971435547 0.048363499343395233154 0.048958376049995422363 0.048683874309062957764 0.048758812248706817627 0.1550220102071762085 0.048600312322378158569 0.11226150393486022949 0.048603624105453491211 0.04900768771767616272 0.048702124506235122681 0.048310186713933944702 0.39985179901123046875 0.048544500023126602173 
0.039905250072479248047 0.042622435837984085083 0.031306374818086624146 0.0056521873921155929565 0.028948811814188957214 0.048575311899185180664 0.047054938971996307373 0.22315840423107147217 0.038504999130964279175 0.03741184622049331665 0.0063164168968796730042 0.03817083314061164856 0.037022918462753295898 0.025664400309324264526 0.022909250110387802124 0.034307561814785003662 0.048380125313997268677 0.031325813382863998413 0.036501813679933547974 0.030198624357581138611 0.038899563252925872803 0.0028309999033808708191 0.011418875306844711304 0.031163249164819717407 0.045785188674926757812 0.047556813806295394897 0.035567373037338256836 0.47041219472885131836 0.64359182119369506836 0.79471558332443237305 0.40091294050216674805 0.2568448185920715332 0.19637387990951538086 0.032072499394416809082 0.033340185880661010742 0.10377137362957000732 0.028821561485528945923 0.048343062400817871094 0.047892812639474868774 0.048632625490427017212 0.04851487278938293457 0.048340063542127609253 0.042033750563859939575 0.048631437122821807861 0.048365812748670578003 0.048007063567638397217 0.048086501657962799072 0.046447750180959701538 0.031534563750028610229 0.048706810921430587769 0.04901124909520149231 0.045122060924768447876 0.03685137629508972168 0.041022498160600662231 0.032879248261451721191 0.0086023127660155296326 0.0028309999033808708191 0.0056227501481771469116 0.0055146249942481517792 0.0028309999033808708191 0.0028309999033808708191 0.046922687441110610962 0.047955624759197235107 0.047820873558521270752 0.044902812689542770386 0.047425750643014907837 0.030357250943779945374 0.0028309999033808708191 0.017168249934911727905 0.033279061317443847656 0.048185311257839202881 0.047779999673366546631 0.048795063048601150513 0.048551563173532485962 0.039843875914812088013 0.038986627012491226196 0.048200812190771102905 0.32428136467933654785 0.89612191915512084961 0.58052515983581542969 0.19284486770629882812 0.048567377030849456787 0.048095062375068664551 0.048677686601877212524 0.048184625804424285889 0.048694249242544174194 0.048217002302408218384 
0.045429062098264694214 0.014202687889337539673 0.11711118370294570923 0.0085923746228218078613 0.037068687379360198975 0.16970181465148925781 0.37155300378799438477 0.079686999320983886719 0.04869139939546585083 0.022810999304056167603 0.045796561986207962036 0.047514438629150390625 0.0080591253936290740967 0.0028309999033808708191 0.0028309999033808708191 0.0056490623392164707184 0.037080124020576477051 0.031603999435901641846 0.047682873904705047607 0.036198563873767852783 0.033458374440670013428 0.02328631281852722168 0.031279124319553375244 0.034228313714265823364 0.048347000032663345337 0.048457123339176177979 0.037175185978412628174 0.44684106111526489258 0.4052200019359588623 0.32925194501876831055 0.04795393720269203186 0.044656001031398773193 0.046458311378955841064 0.046043686568737030029 0.048405874520540237427 0.040102187544107437134 0.037245560437440872192 0.048778310418128967285 0.048268437385559082031 0.047761999070644378662 0.048662625253200531006 0.048353187739849090576 0.042169436812400817871 0.048312749713659286499 0.048668563365936279297 0.048133876174688339233 0.048376251012086868286 0.049310125410556793213 0.04860625043511390686 0.047806937247514724731 0.025031749159097671509 0.04314918816089630127 0.048405624926090240479 0.047534000128507614136 0.048770561814308166504 0.045304689556360244751 0.030608499422669410706 0.046571437269449234009 0.011097749695181846619 0.0087263751775026321411 0.030585937201976776123 0.042628876864910125732 0.043446186929941177368 0.045541439205408096313 0.041150122880935668945 0.033326376229524612427 0.021964062005281448364 0.0028309999033808708191 0.011369562707841396332 0.047933749854564666748 0.047813750803470611572 0.047904435545206069946 0.048620935529470443726 0.048484686762094497681 0.028426999226212501526 0.013287249952554702759 0.013287249952554702759 0.048984501510858535767 0.048204563558101654053 0.0488015003502368927 0.048320502042770385742 0.048117626458406448364 0.048312876373529434204 0.04928049817681312561 0.048183437436819076538 0.048138499259948730469 0.04801549762487411499 
0.041711624711751937866 0.0028309999033808708191 0.0028309999033808708191 0.43098419904708862305 0.18944874405860900879 0.047765873372554779053 0.048114687204360961914 0.10224568843841552734 0.04820806160569190979 0.022413374856114387512 0.047871001064777374268 0.02494568750262260437 0.018515374511480331421 0.014117312617599964142 0.020052062347531318665 0.0028309999033808708191 0.028671499341726303101 0.028716312721371650696 0.048767626285552978516 0.022612875327467918396 0.028731437399983406067 0.048911374062299728394 0.039904687553644180298 0.020008374005556106567 0.1850624382495880127 0.048070061951875686646 0.049378562718629837036 0.46164542436599731445 0.27682656049728393555 0.15086400508880615234 0.047708123922348022461 0.04520293697714805603 0.044656001031398773193 0.076569691300392150879 0.045928187668323516846 0.025215936824679374695 0.031369935721158981323 0.048312626779079437256 0.048338625580072402954 0.047176998108625411987 0.047986686229705810547 0.04769124835729598999 0.046684935688972473145 0.04770781099796295166 0.040690124034881591797 0.044462312012910842896 0.044184438884258270264 0.048507627099752426147 0.045579623430967330933 0.025797937065362930298 0.011257687583565711975 0.048434499651193618774 0.039486188441514968872 0.047749251127243041992 0.046888999640941619873 0.047250814735889434814 0.036407686769962310791 0.036732312291860580444 0.0083199376240372657776 0.019044499844312667847 0.016465311869978904724 0.047453936189413070679 0.046566251665353775024 0.047182373702526092529 0.024932937696576118469 0.0028309999033808708191 0.0028309999033808708191 0.016523687168955802917 0.017061937600374221802 0.047640062868595123291 0.047985062003135681152 0.048202749341726303101 0.047190312296152114868 0.04820893704891204834 0.030928937718272209167 0.0028309999033808708191 0.033843748271465301514 0.048766251653432846069 0.04856456071138381958 0.048856750130653381348 0.048984751105308532715 0.048838876187801361084 0.048633001744747161865 0.048742190003395080566 0.048598811030387878418 0.042302124202251434326 0.037409998476505279541 
0.041579939424991607666 0.0028309999033808708191 0.0028309999033808708191 0.025647312402725219727 0.04856662452220916748 0.048521123826503753662 0.10458637773990631104 0.238729819655418396 0.047537252306938171387 0.025348499417304992676 0.030831187963485717773 0.0056794998236000537872 0.0054450626485049724579 0.028059562668204307556 0.019850062206387519836 0.0057168751955032348633 0.030262937769293785095 0.025050874799489974976 0.036067251116037368774 0.04799981042742729187 0.028731811791658401489 0.048444498330354690552 0.03400275111198425293 0.048409562557935714722 0.52199602127075195312 0.033275686204433441162 0.0428353138267993927 0.21233788132667541504 0.56279504299163818359 0.086611688137054443359 0.047803062945604324341 0.046641375869512557983 0.044876437634229660034 0.044068813323974609375 0.065796189010143280029 0.039754249155521392822 0.042882189154624938965 0.048038497567176818848 0.048012938350439071655 0.048097249120473861694 0.047123122960329055786 0.048222251236438751221 0.046560127288103103638 0.045852687209844589233 0.044694498181343078613 0.043968874961137771606 0.027429999783635139465 0.03137812390923500061 0.0028309999033808708191 0.022333875298500061035 0.0085544995963573455811 0.047401063144207000732 0.047485936433076858521 0.047767810523509979248 0.041030313819646835327 0.040864937007427215576 0.043565314263105392456 0.02195625007152557373 0.035519562661647796631 0.045878250151872634888 0.046658813953399658203 0.046688623726367950439 0.046395875513553619385 0.047445561736822128296 0.027979813516139984131 0.02467556297779083252 0.018892375752329826355 0.046470813453197479248 0.04235250130295753479 0.047145750373601913452 0.048196125775575637817 0.048202626407146453857 0.047585438936948776245 0.049054063856601715088 0.01131331268697977066 0.013474624603986740112 0.049123499542474746704 0.048657499253749847412 0.048744749277830123901 0.049016248434782028198 0.048395939171314239502 0.048395063728094100952 0.048744063824415206909 0.048415686935186386108 0.031121499836444854736 0.0056699998676776885986 0.014325499534606933594 
0.033611498773097991943 0.0028309999033808708191 0.0028309999033808708191 0.02601099945604801178 0.048424813896417617798 0.048585999757051467896 0.16879162192344665527 0.047827687114477157593 0.085758313536643981934 0.0056074373424053192139 0.017217312008142471313 0.0028309999033808708191 0.0057006874121725559235 0.031496062874794006348 0.019997874274849891663 0.0028309999033808708191 0.0083326874300837516785 0.028449563309550285339 0.013806687667965888977 0.028427187353372573853 0.031224813312292098999 0.040134124457836151123 0.048772249370813369751 0.048592250794172286987 0.55277121067047119141 0.028212124481797218323 0.045923750847578048706 0.095063872635364532471 0.47330501675605773926 0.16527763009071350098 0.048972375690937042236 0.046421438455581665039 0.045553501695394515991 0.034569751471281051636 0.034508563578128814697 0.30138900876045227051 0.048296123743057250977 0.0482881888747215271 0.047595500946044921875 0.048267249017953872681 0.047632560133934020996 0.044877938926219940186 0.039693936705589294434 0.046320438385009765625 0.036607250571250915527 0.028204249218106269836 0.0082309376448392868042 0.0028309999033808708191 0.0028309999033808708191 0.0057443748228251934052 0.011292874813079833984 0.047548498958349227905 0.047627873718738555908 0.046310499310493469238 0.045513499528169631958 0.046211313456296920776 0.045405313372611999512 0.046572811901569366455 0.046899061650037765503 0.046288687735795974731 0.046498313546180725098 0.046418748795986175537 0.045987125486135482788 0.045039873570203781128 0.044717624783515930176 0.045749001204967498779 0.046257935464382171631 0.046553250402212142944 0.047107122838497161865 0.046706624329090118408 0.047746874392032623291 0.047797687351703643799 0.047987561672925949097 0.031566374003887176514 0.0028309999033808708191 0.036974623799324035645 0.049859561026096343994 0.048804938793182373047 0.04872043803334236145 0.047945436090230941772 0.047244936227798461914 0.044455874711275100708 0.047865875065326690674 0.048441249877214431763 0.048246499150991439819 0.048227313905954360962 0.025056000798940658569 
0.0028309999033808708191 0.0028309999033808708191 0.0028309999033808708191 0.03101450018584728241 0.049048252403736114502 0.04781074821949005127 0.047389999032020568848 0.048975251615047454834 0.030302500352263450623 0.0028309999033808708191 0.014309749938547611237 0.0028309999033808708191 0.014008750207722187042 0.042490001767873764038 0.013951750472187995911 0.0028309999033808708191 0.014273500069975852966 0.037228498607873916626 0.047740999609231948853 0.047598250210285186768 0.042742874473333358765 0.048493374139070510864 0.048615999519824981689 0.047952122986316680908 0.049206376075744628906 0.19253662228584289551 0.048285998404026031494 0.19064238667488098145 0.40787023305892944336 0.26849037408828735352 0.04925825074315071106 0.046044498682022094727 0.046026252210140228271 0.035468876361846923828 0.048576500266790390015 0.025675624608993530273 0.036971624940633773804 0.048990376293659210205 0.047832623124122619629 0.04793262481689453125 0.046093124896287918091 0.047412499785423278809 0.03669549897313117981 0.045140251517295837402 0.040156126022338867188 0.0028309999033808708191 0.0028309999033808708191 0.0028309999033808708191 0.0028309999033808708191 0.0028309999033808708191 0.0086577497422695159912 0.047732375562191009521 0.048740249127149581909 0.047014500945806503296 0.04786074906587600708 0.047227624803781509399 0.044774375855922698975 0.046387374401092529297 0.046583123505115509033 0.046140000224113464355 0.046140000224113464355 0.04651850089430809021 0.045667372643947601318 0.046140000224113464355 0.044711627066135406494 0.045054625719785690308 0.04627237468957901001 0.04531887546181678772 0.04712762683629989624 0.046898499131202697754 0.047794748097658157349 0.048083748668432235718 0.043209001421928405762 0.0028309999033808708191 0.0028309999033808708191 0.042280875146389007568 0.049441248178482055664 0.048379875719547271729 0.049703124910593032837 0.026095375418663024902 0.024707125499844551086 0.020097624510526657104 0.029745874926447868347 0.04712912440299987793 0.048121500760316848755 0.04769949987530708313 0.0028309999033808708191 
