ncols        87
nrows        107
xllcorner    508536.404131802963
yllcorner    5265618.997906560078
cellsize     120.000000000000
NODATA_value -9999
9.8999997135251760483e-05 9.8999997135251760483e-05 9.8999997135251760483e-05 9.8999997135251760483e-05 9.8999997135251760483e-05 9.8999997135251760483e-05 9.8999997135251760483e-05 9.8999997135251760483e-05 9.8999997135251760483e-05 9.8999997135251760483e-05 9.8999997135251760483e-05 9.8999997135251760483e-05 9.8999997135251760483e-05 9.8999997135251760483e-05 9.8999997135251760483e-05 9.8999997135251760483e-05 9.8999997135251760483e-05 9.8999997135251760483e-05 9.8999997135251760483e-05 9.8999997135251760483e-05 9.8999997135251760483e-05 9.8999997135251760483e-05 9.8999997135251760483e-05 9.8999997135251760483e-05 9.8999997135251760483e-05 9.8999997135251760483e-05 9.8999997135251760483e-05 9.8999997135251760483e-05 9.8999997135251760483e-05 9.8999997135251760483e-05 9.8999997135251760483e-05 9.8999997135251760483e-05 9.8999997135251760483e-05 9.8999997135251760483e-05 9.8999997135251760483e-05 9.8999997135251760483e-05 9.8999997135251760483e-05 9.8999997135251760483e-05 9.8999997135251760483e-05 9.8999997135251760483e-05 9.8999997135251760483e-05 9.8999997135251760483e-05 9.8999997135251760483e-05 9.8999997135251760483e-05 9.8999997135251760483e-05 9.8999997135251760483e-05 9.8999997135251760483e-05 9.8999997135251760483e-05 9.8999997135251760483e-05 9.8999997135251760483e-05 9.8999997135251760483e-05 9.8999997135251760483e-05 9.8999997135251760483e-05 9.8999997135251760483e-05 9.8999997135251760483e-05 9.8999997135251760483e-05 9.8999997135251760483e-05 9.8999997135251760483e-05 9.8999997135251760483e-05 9.8999997135251760483e-05 9.8999997135251760483e-05 9.8999997135251760483e-05 9.8999997135251760483e-05 9.8999997135251760483e-05 9.8999997135251760483e-05 9.8999997135251760483e-05 0.00018912499945145100355 0.00057143747108057141304 0.00065125001128762960434 0.00054512498900294303894 0.00034143749508075416088 0.00050081248627975583076 8.0375000834465026855e-05 6.1874998209532350302e-06 4.9499998567625880241e-05 0.00087431247811764478683 0.00011762499343603849411 0.0002963125007227063179 0.00051781249931082129478 0.00014849999570287764072 1.237499964190647006e-05 0.00022543749946635216475 0.00011762500071199610829 3.0937499104766175151e-05 2.4749999283812940121e-05 0.00048912502825260162354 0.00028174999170005321503 
9.8999997135251760483e-05 9.8999997135251760483e-05 9.8999997135251760483e-05 9.8999997135251760483e-05 9.8999997135251760483e-05 9.8999997135251760483e-05 9.8999997135251760483e-05 9.8999997135251760483e-05 9.8999997135251760483e-05 9.8999997135251760483e-05 9.8999997135251760483e-05 9.8999997135251760483e-05 9.8999997135251760483e-05 9.8999997135251760483e-05 9.8999997135251760483e-05 9.8999997135251760483e-05 9.8999997135251760483e-05 9.8999997135251760483e-05 9.8999997135251760483e-05 9.8999997135251760483e-05 9.8999997135251760483e-05 9.8999997135251760483e-05 9.8999997135251760483e-05 9.8999997135251760483e-05 9.8999997135251760483e-05 9.8999997135251760483e-05 9.8999997135251760483e-05 9.8999997135251760483e-05 9.8999997135251760483e-05 9.8999997135251760483e-05 9.8999997135251760483e-05 9.8999997135251760483e-05 9.8999997135251760483e-05 9.8999997135251760483e-05 9.8999997135251760483e-05 9.8999997135251760483e-05 9.8999997135251760483e-05 9.8999997135251760483e-05 9.8999997135251760483e-05 9.8999997135251760483e-05 9.8999997135251760483e-05 9.8999997135251760483e-05 9.8999997135251760483e-05 9.8999997135251760483e-05 9.8999997135251760483e-05 9.8999997135251760483e-05 9.8999997135251760483e-05 9.8999997135251760483e-05 9.8999997135251760483e-05 9.8999997135251760483e-05 9.8999997135251760483e-05 9.8999997135251760483e-05 9.8999997135251760483e-05 9.8999997135251760483e-05 9.8999997135251760483e-05 9.8999997135251760483e-05 9.8999997135251760483e-05 9.8999997135251760483e-05 9.8999997135251760483e-05 9.8999997135251760483e-05 9.8999997135251760483e-05 9.8999997135251760483e-05 9.8999997135251760483e-05 9.8999997135251760483e-05 9.8999997135251760483e-05 0.00018912499945145100355 0.00063974998192861676216 0.00037318750401027500629 0.00040150000131689012051 0.00024187500821426510811 0.00058425002498552203178 3.6437500966712832451e-05 1.8562499462859705091e-05 2.4749999283812940121e-05 0 0.00014237499271985143423 0.00021412500063888728619 0.00046199999633245170116 0.0001208125031553208828 5.9000001783715561032e-05 4.3312498746672645211e-05 0.00084093748591840267181 0.00050487503176555037498 0.00067793752532452344894 0.00036912498762831091881 0.00051112502114847302437 0.00095775001682341098785 
9.8999997135251760483e-05 9.8999997135251760483e-05 9.8999997135251760483e-05 9.8999997135251760483e-05 9.8999997135251760483e-05 9.8999997135251760483e-05 9.8999997135251760483e-05 9.8999997135251760483e-05 9.8999997135251760483e-05 9.8999997135251760483e-05 9.8999997135251760483e-05 9.8999997135251760483e-05 9.8999997135251760483e-05 9.8999997135251760483e-05 9.8999997135251760483e-05 9.8999997135251760483e-05 9.8999997135251760483e-05 9.8999997135251760483e-05 9.8999997135251760483e-05 9.8999997135251760483e-05 9.8999997135251760483e-05 9.8999997135251760483e-05 9.8999997135251760483e-05 9.8999997135251760483e-05 9.8999997135251760483e-05 9.8999997135251760483e-05 9.8999997135251760483e-05 9.8999997135251760483e-05 9.8999997135251760483e-05 9.8999997135251760483e-05 9.8999997135251760483e-05 9.8999997135251760483e-05 9.8999997135251760483e-05 9.8999997135251760483e-05 9.8999997135251760483e-05 9.8999997135251760483e-05 9.8999997135251760483e-05 9.8999997135251760483e-05 9.8999997135251760483e-05 9.8999997135251760483e-05 9.8999997135251760483e-05 9.8999997135251760483e-05 9.8999997135251760483e-05 9.8999997135251760483e-05 9.8999997135251760483e-05 9.8999997135251760483e-05 9.8999997135251760483e-05 9.8999997135251760483e-05 9.8999997135251760483e-05 9.8999997135251760483e-05 9.8999997135251760483e-05 9.8999997135251760483e-05 9.8999997135251760483e-05 9.8999997135251760483e-05 9.8999997135251760483e-05 9.8999997135251760483e-05 9.8999997135251760483e-05 9.8999997135251760483e-05 9.8999997135251760483e-05 0.00037393750972114503384 0.00062187499133870005608 0.00024481248692609369755 9.8999997135251760483e-05 9.8999997135251760483e-05 9.8999997135251760483e-05 0.00039144445327110588551 0.00078616669634357094765 0.00074699998367577791214 0.00076712499139830470085 4.3312498746672645211e-05 0.00018037500558421015739 0 0 0 6.1874998209532350302e-06 4.3312498746672645211e-05 6.1874998209532350302e-05 0.00016150000737980008125 0.00026187498588114976883 6.1874998209532350302e-06 4.3312498746672645211e-05 0.000529750017449259758 0.00035787498927675187588 0.00042162500903941690922 2.4749999283812940121e-05 0.0002467500162310898304 9.8999997135251760483e-05 
9.8999997135251760483e-05 9.8999997135251760483e-05 9.8999997135251760483e-05 9.8999997135251760483e-05 9.8999997135251760483e-05 9.8999997135251760483e-05 9.8999997135251760483e-05 9.8999997135251760483e-05 9.8999997135251760483e-05 9.8999997135251760483e-05 9.8999997135251760483e-05 9.8999997135251760483e-05 9.8999997135251760483e-05 9.8999997135251760483e-05 9.8999997135251760483e-05 9.8999997135251760483e-05 9.8999997135251760483e-05 9.8999997135251760483e-05 9.8999997135251760483e-05 9.8999997135251760483e-05 9.8999997135251760483e-05 9.8999997135251760483e-05 9.8999997135251760483e-05 9.8999997135251760483e-05 9.8999997135251760483e-05 9.8999997135251760483e-05 9.8999997135251760483e-05 9.8999997135251760483e-05 9.8999997135251760483e-05 9.8999997135251760483e-05 9.8999997135251760483e-05 9.8999997135251760483e-05 9.8999997135251760483e-05 9.8999997135251760483e-05 9.8999997135251760483e-05 9.8999997135251760483e-05 9.8999997135251760483e-05 9.8999997135251760483e-05 9.8999997135251760483e-05 9.8999997135251760483e-05 9.8999997135251760483e-05 9.8999997135251760483e-05 9.8999997135251760483e-05 9.8999997135251760483e-05 9.8999997135251760483e-05 9.8999997135251760483e-05 9.8999997135251760483e-05 9.8999997135251760483e-05 9.8999997135251760483e-05 9.8999997135251760483e-05 9.8999997135251760483e-05 9.8999997135251760483e-05 9.8999997135251760483e-05 9.8999997135251760483e-05 9.8999997135251760483e-05 9.8999997135251760483e-05 9.8999997135251760483e-05 9.8999997135251760483e-05 0.00027925000176765024662 0.00078918749932199716568 0.00079981249291449785233 9.8999997135251760483e-05 0.00036062501021660864353 9.8999997135251760483e-05 9.8999997135251760483e-05 0.00069983332650735974312 0.0002716875169426202774 0.00091250002151355147362 0.00020937500812578946352 2.4749999283812940121e-05 3.0937499104766175151e-05 0 0 0 1.237499964190647006e-05 2.4749999283812940121e-05 0.00040187500417232513428 6.2437502492684870958e-05 0.00058500003069639205933 0.00023868751304689794779 1.8562499462859705091e-05 0.00030512499506585299969 0.00040018750587478280067 0.00013656250666826963425 0.00048600003356114029884 9.2812493676319718361e-05 0.00038099999073892831802 
9.8999997135251760483e-05 9.8999997135251760483e-05 9.8999997135251760483e-05 9.8999997135251760483e-05 9.8999997135251760483e-05 9.8999997135251760483e-05 9.8999997135251760483e-05 9.8999997135251760483e-05 9.8999997135251760483e-05 9.8999997135251760483e-05 9.8999997135251760483e-05 9.8999997135251760483e-05 9.8999997135251760483e-05 9.8999997135251760483e-05 9.8999997135251760483e-05 9.8999997135251760483e-05 9.8999997135251760483e-05 9.8999997135251760483e-05 9.8999997135251760483e-05 9.8999997135251760483e-05 9.8999997135251760483e-05 9.8999997135251760483e-05 9.8999997135251760483e-05 9.8999997135251760483e-05 9.8999997135251760483e-05 9.8999997135251760483e-05 9.8999997135251760483e-05 9.8999997135251760483e-05 9.8999997135251760483e-05 9.8999997135251760483e-05 9.8999997135251760483e-05 9.8999997135251760483e-05 9.8999997135251760483e-05 0.00032631249632686376572 0.00028700000257231295109 0.00076737499330192804337 9.8999997135251760483e-05 9.8999997135251760483e-05 9.8999997135251760483e-05 9.8999997135251760483e-05 9.8999997135251760483e-05 9.8999997135251760483e-05 9.8999997135251760483e-05 9.8999997135251760483e-05 9.8999997135251760483e-05 9.8999997135251760483e-05 9.8999997135251760483e-05 9.8999997135251760483e-05 9.8999997135251760483e-05 9.8999997135251760483e-05 9.8999997135251760483e-05 9.8999997135251760483e-05 9.8999997135251760483e-05 9.8999997135251760483e-05 9.8999997135251760483e-05 9.8999997135251760483e-05 9.8999997135251760483e-05 0.00036937498953193426132 0.00053387501975521445274 0.00048956251703202724457 9.8999997135251760483e-05 9.8999997135251760483e-05 0.00027487499755807220936 0.00066200003493577241898 9.8999997135251760483e-05 9.8999997135251760483e-05 0.00070812500780448317528 0.0010914375307038426399 0.00027543748728930950165 2.4749999283812940121e-05 4.3312498746672645211e-05 3.0937499104766175151e-05 2.4749999283812940121e-05 3.0937499104766175151e-05 1.237499964190647006e-05 0 0.00013912501162849366665 0.00018637499306350946426 0.00097212498076260089874 0.00046806249883957207203 0.00026106249424628913403 0 0.00037962500937283039093 1.237499964190647006e-05 0.00014975000522099435329 0.00022293749498203396797 0.00041575002251192927361 
9.8999997135251760483e-05 9.8999997135251760483e-05 9.8999997135251760483e-05 9.8999997135251760483e-05 9.8999997135251760483e-05 9.8999997135251760483e-05 9.8999997135251760483e-05 9.8999997135251760483e-05 9.8999997135251760483e-05 9.8999997135251760483e-05 9.8999997135251760483e-05 9.8999997135251760483e-05 9.8999997135251760483e-05 9.8999997135251760483e-05 9.8999997135251760483e-05 9.8999997135251760483e-05 9.8999997135251760483e-05 9.8999997135251760483e-05 9.8999997135251760483e-05 9.8999997135251760483e-05 9.8999997135251760483e-05 9.8999997135251760483e-05 9.8999997135251760483e-05 9.8999997135251760483e-05 9.8999997135251760483e-05 9.8999997135251760483e-05 9.8999997135251760483e-05 9.8999997135251760483e-05 9.8999997135251760483e-05 9.8999997135251760483e-05 9.8999997135251760483e-05 9.8999997135251760483e-05 0.00062343751778826117516 0.00071081251371651887894 0.00035550000029616057873 0.00013256250531412661076 9.8999997135251760483e-05 9.8999997135251760483e-05 9.8999997135251760483e-05 9.8999997135251760483e-05 9.8999997135251760483e-05 9.8999997135251760483e-05 9.8999997135251760483e-05 9.8999997135251760483e-05 9.8999997135251760483e-05 9.8999997135251760483e-05 9.8999997135251760483e-05 9.8999997135251760483e-05 9.8999997135251760483e-05 9.8999997135251760483e-05 9.8999997135251760483e-05 9.8999997135251760483e-05 9.8999997135251760483e-05 0.00027487499755807220936 0.00033031249768100678921 0.00054118747357279062271 0.00060500000836327672005 0.00045024999417364597321 0.00057856249623000621796 0.00085800001397728919983 0.00058568752137944102287 0.00038974999915808439255 0.00067500001750886440277 0.0008937999955378472805 0.00033787501160986721516 9.8999997135251760483e-05 0.00084350001998245716095 0.0011001428356394171715 0.00064268748974427580833 0.00021624998771585524082 0.00046462498721666634083 1.8562499462859705091e-05 0 0 0 8.0562502262182533741e-05 0.00022012500267010182142 0.00051487499149516224861 0.001274812500923871994 0.0011652500834316015244 0.0002173750108340755105 0 0.00026637502014636993408 0.00026118749519810080528 0.00059150002198293805122 9.8999997135251760483e-05 9.8999997135251760483e-05 
9.8999997135251760483e-05 9.8999997135251760483e-05 9.8999997135251760483e-05 9.8999997135251760483e-05 9.8999997135251760483e-05 9.8999997135251760483e-05 9.8999997135251760483e-05 9.8999997135251760483e-05 9.8999997135251760483e-05 9.8999997135251760483e-05 9.8999997135251760483e-05 9.8999997135251760483e-05 9.8999997135251760483e-05 9.8999997135251760483e-05 9.8999997135251760483e-05 9.8999997135251760483e-05 9.8999997135251760483e-05 9.8999997135251760483e-05 9.8999997135251760483e-05 9.8999997135251760483e-05 9.8999997135251760483e-05 9.8999997135251760483e-05 9.8999997135251760483e-05 9.8999997135251760483e-05 9.8999997135251760483e-05 9.8999997135251760483e-05 9.8999997135251760483e-05 9.8999997135251760483e-05 9.8999997135251760483e-05 9.8999997135251760483e-05 9.8999997135251760483e-05 4.9499998567625880241e-05 0.00061331246979534626007 0.00064862502040341496468 0.00020218749705236405134 0.00034143749508075416088 9.8999997135251760483e-05 9.8999997135251760483e-05 9.8999997135251760483e-05 9.8999997135251760483e-05 9.8999997135251760483e-05 9.8999997135251760483e-05 9.8999997135251760483e-05 9.8999997135251760483e-05 9.8999997135251760483e-05 9.8999997135251760483e-05 9.8999997135251760483e-05 9.8999997135251760483e-05 9.8999997135251760483e-05 9.8999997135251760483e-05 9.8999997135251760483e-05 0.00059668748872354626656 0.00036462501157075166702 0.00041862501529976725578 0.0011074375361204147339 0.0011467500589787960052 0.001108750002458691597 0.00091793749015778303146 0.000306312518659979105 0.00061799999093636870384 0.00067924999166280031204 0.00081250001676380634308 0.00058737501967698335648 0.00095109996618703007698 0.00022300001000985503197 0.000645700027234852314 0.0010745832696557044983 0.0009962857002392411232 0.00077281252015382051468 0.00057368748821318149567 0.00064243748784065246582 2.4749999283812940121e-05 0 7.6687501859851181507e-05 6.1874998209532350302e-06 6.1874998209532350302e-06 0 0.0010140000376850366592 0.0010954375611618161201 0.00055518752196803689003 0 0 0.00013762500020675361156 0.00070468749618157744408 0.00021168749663047492504 0.00032674998510628938675 0.00031549998675473034382 
9.8999997135251760483e-05 9.8999997135251760483e-05 9.8999997135251760483e-05 9.8999997135251760483e-05 9.8999997135251760483e-05 9.8999997135251760483e-05 9.8999997135251760483e-05 9.8999997135251760483e-05 9.8999997135251760483e-05 9.8999997135251760483e-05 9.8999997135251760483e-05 9.8999997135251760483e-05 9.8999997135251760483e-05 9.8999997135251760483e-05 9.8999997135251760483e-05 9.8999997135251760483e-05 9.8999997135251760483e-05 9.8999997135251760483e-05 9.8999997135251760483e-05 9.8999997135251760483e-05 9.8999997135251760483e-05 9.8999997135251760483e-05 9.8999997135251760483e-05 9.8999997135251760483e-05 9.8999997135251760483e-05 9.8999997135251760483e-05 0.00026831249124370515347 0.00040575000457465648651 0.00015725000412203371525 8.6624997493345290422e-05 7.4249997851438820362e-05 8.0437501310370862484e-05 0.00044375000288709998131 0.00061193748842924833298 0.0004568125004880130291 9.8999997135251760483e-05 9.8999997135251760483e-05 9.8999997135251760483e-05 9.8999997135251760483e-05 9.8999997135251760483e-05 9.8999997135251760483e-05 9.8999997135251760483e-05 9.8999997135251760483e-05 9.8999997135251760483e-05 9.8999997135251760483e-05 9.8999997135251760483e-05 9.8999997135251760483e-05 9.8999997135251760483e-05 9.8999997135251760483e-05 0.00018912499945145100355 0.00066412502201274037361 0.00054681248730048537254 0.00042599998414516448975 0.00024093750107567757368 0.0013008749810978770256 0.0009908124338835477829 0.0011640625307336449623 0.0010803125333040952682 0.00049537501763552427292 3.500000093481503427e-05 0.00069262500619515776634 0.0010188999585807323456 0.00076261535286903381348 0.0007164999842643737793 8.2499995187390595675e-05 0.00049044442130252718925 0.0010212499182671308517 0.00088166666682809591293 0.00061492307577282190323 0.0002665625070221722126 0.00046431249938905239105 2.4749999283812940121e-05 0 0.00052256253547966480255 0.00062331254594027996063 0.00041706251795403659344 0 0.0010625624563544988632 0.00093668751651421189308 0.00015849999908823519945 7.7374999818857759237e-05 8.3062499470543116331e-05 0.00034062500344589352608 0.00046462501632049679756 0.00029081251705065369606 7.5187497714068740606e-05 0 
9.8999997135251760483e-05 9.8999997135251760483e-05 9.8999997135251760483e-05 9.8999997135251760483e-05 9.8999997135251760483e-05 9.8999997135251760483e-05 9.8999997135251760483e-05 9.8999997135251760483e-05 9.8999997135251760483e-05 9.8999997135251760483e-05 9.8999997135251760483e-05 9.8999997135251760483e-05 9.8999997135251760483e-05 9.8999997135251760483e-05 9.8999997135251760483e-05 9.8999997135251760483e-05 9.8999997135251760483e-05 9.8999997135251760483e-05 9.8999997135251760483e-05 9.8999997135251760483e-05 9.8999997135251760483e-05 9.8999997135251760483e-05 9.8999997135251760483e-05 9.8999997135251760483e-05 0.00054962496506050229073 0.00068787502823397517204 0.00080512498971074819565 0.00060893752379342913628 9.8999997135251760483e-05 4.9499998567625880241e-05 0.00014849999570287764072 0.00040099999750964343548 0.00046187499538064002991 0.00047087500570341944695 0.00024774999474175274372 9.8999997135251760483e-05 9.8999997135251760483e-05 9.8999997135251760483e-05 9.8999997135251760483e-05 9.8999997135251760483e-05 9.8999997135251760483e-05 9.8999997135251760483e-05 9.8999997135251760483e-05 9.8999997135251760483e-05 9.8999997135251760483e-05 9.8999997135251760483e-05 9.8999997135251760483e-05 9.8999997135251760483e-05 0.00035362498601898550987 0.00044375000288709998131 0.00018912499945145100355 0.0008924375288188457489 0.00080068752868101000786 0.00069462502142414450645 0.00047537498176097869873 0.00080456247087568044662 0.001191874966025352478 0.00095956248696893453598 0.00086631253361701965332 7.7562501246575266123e-05 0.00034868749207817018032 0.00097062502754852175713 0.00069191667716950178146 0.00050256249960511922836 0.00019887500093318521976 0.00016037499881349503994 0.00095487496582791209221 0.00039283331716433167458 0.00049787503667175769806 0.00016131250595208257437 0.00032724998891353607178 3.0937499104766175151e-05 0.00016706250607967376709 0.00052443752065300941467 0.00061300001107156276703 0.00094793748576194047928 0.00019956250616814941168 0.00085325003601610660553 0.00069199997233226895332 0.0009218124905601143837 0.00074556248728185892105 0.00019006250659003853798 5.5625001550652086735e-05 0.0006487499922513961792 0.00036031249328516423702 0.00072524999268352985382 0.00032549997558817267418 
9.8999997135251760483e-05 9.8999997135251760483e-05 9.8999997135251760483e-05 9.8999997135251760483e-05 9.8999997135251760483e-05 9.8999997135251760483e-05 9.8999997135251760483e-05 9.8999997135251760483e-05 9.8999997135251760483e-05 9.8999997135251760483e-05 9.8999997135251760483e-05 9.8999997135251760483e-05 9.8999997135251760483e-05 9.8999997135251760483e-05 9.8999997135251760483e-05 9.8999997135251760483e-05 9.8999997135251760483e-05 9.8999997135251760483e-05 9.8999997135251760483e-05 9.8999997135251760483e-05 9.8999997135251760483e-05 9.8999997135251760483e-05 0.00051187496865168213844 0.00097074999939650297165 0.00057512498460710048676 0.00043443750473670661449 0.00070493749808520078659 0.00076593749690800905228 0.00073662499198690056801 0.00018293749599251896143 0.00015468749916180968285 0.0007186250295490026474 0.00033143750624731183052 0.00024774999474175274372 9.8999997135251760483e-05 9.8999997135251760483e-05 9.8999997135251760483e-05 9.8999997135251760483e-05 9.8999997135251760483e-05 9.8999997135251760483e-05 9.8999997135251760483e-05 9.8999997135251760483e-05 9.8999997135251760483e-05 9.8999997135251760483e-05 9.8999997135251760483e-05 9.8999997135251760483e-05 9.8999997135251760483e-05 0.00045481248525902628899 0.0007298124837689101696 0.00031031249091029167175 0.00040743750287219882011 0.00086587498662993311882 0.0010948750423267483711 0.00098424998577684164047 0.00075756252044811844826 0.0012486875057220458984 0.0014431874733418226242 0.00083681254182010889053 0.0006586874951608479023 7.5187497714068740606e-05 0.00072887499118223786354 0.0010172500042244791985 0.00068941665813326835632 0.00034300002153031527996 0.00015791665646247565746 0.00033937499392777681351 0.00099662505090236663818 0.00067699997453019022942 0.00080415385309606790543 0.00027487499755807220936 0.00081543752457946538925 8.1000005593523383141e-05 0 0.00067406252492219209671 0.00047999998787418007851 2.4749999283812940121e-05 0.0002109374909196048975 0.00061587500385940074921 0.00045356250484474003315 0.0005956249660812318325 0.00043306249426677823067 5.5687498388579115272e-05 0.0003053749969694763422 0.00036168750375509262085 9.8999997135251760483e-05 8.6624997493345290422e-05 0 
9.8999997135251760483e-05 9.8999997135251760483e-05 9.8999997135251760483e-05 9.8999997135251760483e-05 9.8999997135251760483e-05 9.8999997135251760483e-05 9.8999997135251760483e-05 9.8999997135251760483e-05 9.8999997135251760483e-05 9.8999997135251760483e-05 9.8999997135251760483e-05 9.8999997135251760483e-05 9.8999997135251760483e-05 9.8999997135251760483e-05 9.8999997135251760483e-05 9.8999997135251760483e-05 9.8999997135251760483e-05 9.8999997135251760483e-05 9.8999997135251760483e-05 9.8999997135251760483e-05 0.00027925000176765024662 0.00069474999327212572098 0.00089093751739710569382 0.00080974999582394957542 0.0004917500191368162632 0.00069993751822039484978 0.00084812502609565854073 0.00054637499852105975151 0.00064043747261166572571 6.806249439250677824e-05 0.00020418749772943556309 0.00079818750964477658272 0.00023162500292528420687 9.8999997135251760483e-05 9.8999997135251760483e-05 9.8999997135251760483e-05 9.8999997135251760483e-05 9.8999997135251760483e-05 9.8999997135251760483e-05 9.8999997135251760483e-05 9.8999997135251760483e-05 9.8999997135251760483e-05 9.8999997135251760483e-05 9.8999997135251760483e-05 9.8999997135251760483e-05 9.8999997135251760483e-05 0.00036937498953193426132 0.00020799999765586107969 0.0002755624882411211729 0.00035968751762993633747 0.00066287501249462366104 0.00042937500984407961369 0.0010522500379011034966 0.00031500001205131411552 0.00088956253603100776672 0.0013885624939575791359 0.0013353124959394335747 0.00062643748242408037186 0.00074756250251084566116 0.00032493751496076583862 0.00096557143842801451683 0.00023537500237580388784 0 0.0002782500232569873333 0.0001690833305474370718 7.7785713074263185263e-05 0.00090733333490788936615 0.00049810000928118824959 4.2428571759955957532e-05 0.00011981250281678512692 0.00034975001472048461437 0.00037318750401027500629 5.9000001783715561032e-05 0.00022924999939277768135 0.00026337499730288982391 0.00060243753250688314438 0.00083987502148374915123 0.0004602500121109187603 0.00058137503219768404961 0.00079293746966868638992 4.9499998567625880241e-05 0.00011812499724328517914 0.000142749995575286448 0.00029837500187568366528 9.2812493676319718361e-05 0.00059574999613687396049 0.00023600000713486224413 
9.8999997135251760483e-05 9.8999997135251760483e-05 9.8999997135251760483e-05 9.8999997135251760483e-05 9.8999997135251760483e-05 9.8999997135251760483e-05 9.8999997135251760483e-05 9.8999997135251760483e-05 9.8999997135251760483e-05 9.8999997135251760483e-05 9.8999997135251760483e-05 9.8999997135251760483e-05 9.8999997135251760483e-05 9.8999997135251760483e-05 9.8999997135251760483e-05 9.8999997135251760483e-05 9.8999997135251760483e-05 9.8999997135251760483e-05 9.8999997135251760483e-05 9.8999997135251760483e-05 0.00070524995680898427963 0.00064887502230703830719 0.00065475003793835639954 0.00060981250135228037834 0.00044137501390650868416 0.0009006250184029340744 0.00093612499767914414406 0.0010044374503195285797 0.00062924996018409729004 0.00029881249065510928631 0.00056493753800168633461 0.00024543749168515205383 0.0001733749959385022521 9.8999997135251760483e-05 9.8999997135251760483e-05 9.8999997135251760483e-05 9.8999997135251760483e-05 9.8999997135251760483e-05 9.8999997135251760483e-05 9.8999997135251760483e-05 9.8999997135251760483e-05 9.8999997135251760483e-05 9.8999997135251760483e-05 9.8999997135251760483e-05 9.8999997135251760483e-05 9.8999997135251760483e-05 0.00034125000820495188236 0.00068012502742931246758 0.0011672499822452664375 0.0011362499790266156197 0.0011377499904483556747 0.00052187498658895492554 0.00049393752124160528183 0.00095412501832470297813 0.0010550625156611204147 0.0012891250662505626678 0.0010294375242665410042 0.0013433749554678797722 0.00053087499691173434258 0.00033924999297596514225 6.600000051548704505e-05 9.8999997135251760483e-05 0.00050566665595397353172 0.00071100000059232115746 0.00013820000458508729935 8.2499995187390595675e-05 0.00076581246685236692429 0.00092219997895881533623 2.1214285879977978766e-05 1.237499964190647006e-05 0.00048431250615976750851 0.00085543753812089562416 0.00025112502044066786766 0.00049406249308958649635 0.00033387501025572419167 0.00066462502581998705864 0.00040818750858306884766 0.00031937498715706169605 0.00051643751794472336769 0.0001738124992698431015 0.00031168750138022005558 0.00059706252068281173706 0.00070099998265504837036 0.00065200001699849963188 8.6624997493345290422e-05 8.0437501310370862484e-05 0.00026075000641867518425 
9.8999997135251760483e-05 9.8999997135251760483e-05 9.8999997135251760483e-05 9.8999997135251760483e-05 9.8999997135251760483e-05 9.8999997135251760483e-05 9.8999997135251760483e-05 9.8999997135251760483e-05 9.8999997135251760483e-05 9.8999997135251760483e-05 9.8999997135251760483e-05 9.8999997135251760483e-05 9.8999997135251760483e-05 9.8999997135251760483e-05 9.8999997135251760483e-05 9.8999997135251760483e-05 9.8999997135251760483e-05 9.8999997135251760483e-05 9.8999997135251760483e-05 0.00018912499945145100355 0.00046787498285993933678 0.00036256248131394386292 0.00080575002357363700867 0.00048774998867884278297 0.00060799997299909591675 0.00098793755751103162766 0.0011394375469535589218 0.0010214999783784151077 0.00032481248490512371063 0.00021781249961350113153 0.00045418750960379838943 0.00031868749647401273251 0.0001733749959385022521 9.8999997135251760483e-05 9.8999997135251760483e-05 9.8999997135251760483e-05 9.8999997135251760483e-05 9.8999997135251760483e-05 9.8999997135251760483e-05 9.8999997135251760483e-05 9.8999997135251760483e-05 9.8999997135251760483e-05 9.8999997135251760483e-05 9.8999997135251760483e-05 0.00036937498953193426132 0.00058368750615045428276 0.001141562475822865963 0.0010453124996274709702 0.0010346875060349702835 0.00038312500691972672939 0.00040775001980364322662 6.2437502492684870958e-05 0.0005611249944195151329 0.00067624996881932020187 5.9000001783715561032e-05 0.00105956254992634058 0.00081362499622628092766 0.00095943751512095332146 0.00064537499565631151199 0.00053449999541044235229 0.00054799998179078102112 9.8999997135251760483e-05 0.00061853334773331880569 0.00028044445207342505455 9.1384616098366677761e-05 0.00022853846894577145576 0.00015037499542813748121 0.00062850001268088817596 0.00033650000113993883133 0.00044068749411962926388 0.0008807500125840306282 0.00094925001030787825584 0.00068056251620873808861 0.00055793748470023274422 0.00024275000032503157854 0.00092650001170113682747 0.00040787499165162444115 0.00034774999949149787426 0.00037612498272210359573 0.00033287500264123082161 0.00050937500782310962677 0.0012786875013262033463 0.0014781875070184469223 0.0012839999981224536896 0.00095024995971471071243 0.00053181248949840664864 7.4249997851438820362e-05 
9.8999997135251760483e-05 9.8999997135251760483e-05 9.8999997135251760483e-05 9.8999997135251760483e-05 9.8999997135251760483e-05 9.8999997135251760483e-05 9.8999997135251760483e-05 9.8999997135251760483e-05 9.8999997135251760483e-05 9.8999997135251760483e-05 9.8999997135251760483e-05 9.8999997135251760483e-05 9.8999997135251760483e-05 9.8999997135251760483e-05 9.8999997135251760483e-05 9.8999997135251760483e-05 9.8999997135251760483e-05 9.8999997135251760483e-05 0.00018912499945145100355 0.00095800001872703433037 0.00079156248830258846283 0.00069299997994676232338 0.0011337499599903821945 0.00091175001580268144608 0.00098712497856467962265 0.00087756250286474823952 0.0010084999958053231239 0.00068381248274818062782 0.00071562500670552253723 0.00049806252354755997658 0.00060993747320026159286 0.00058756250655278563499 9.8999997135251760483e-05 9.8999997135251760483e-05 9.8999997135251760483e-05 9.8999997135251760483e-05 9.8999997135251760483e-05 9.8999997135251760483e-05 9.8999997135251760483e-05 9.8999997135251760483e-05 9.8999997135251760483e-05 9.8999997135251760483e-05 0.00027925000176765024662 0.00027312498423270881176 0.00052599998889490962029 0.0010483125224709510803 0.0009049999644048511982 0.00093162502162158489227 0.00049775000661611557007 0.00053349998779594898224 0.0005063749849796295166 0 0.00011800000356743112206 0.0011071874760091304779 0.00065893749706447124481 0.0010049999691545963287 0.00041331251850351691246 0.00081193749792873859406 0.00080718751996755599976 0.00073058332782238721848 0.0003589374828152358532 0.00027925000176765024662 0.00085156247951090335846 4.9499998567625880241e-05 0.00017512499471195042133 0.00066099996911361813545 0.00099724996834993362427 0.00075316667789593338966 0.00094287499086931347847 0.00072087498847395181656 0.0011373750166967511177 0.00087537500075995922089 0.00075643748277798295021 0.00054487498709931969643 0.00075912498869001865387 0.00028337500407360494137 0.00029762499616481363773 0.00066018750658258795738 0.00043268752051517367363 0.00015412499487865716219 0.00030406250152736902237 0.0014017500216141343117 0.0014135624514892697334 0.0012101250467821955681 0.00076087500201538205147 0.00090212502982467412949 0.0012890000361949205399 
9.8999997135251760483e-05 9.8999997135251760483e-05 9.8999997135251760483e-05 9.8999997135251760483e-05 9.8999997135251760483e-05 9.8999997135251760483e-05 9.8999997135251760483e-05 9.8999997135251760483e-05 9.8999997135251760483e-05 9.8999997135251760483e-05 9.8999997135251760483e-05 9.8999997135251760483e-05 9.8999997135251760483e-05 9.8999997135251760483e-05 9.8999997135251760483e-05 9.8999997135251760483e-05 9.8999997135251760483e-05 9.8999997135251760483e-05 0.00054962496506050229073 0.00085856247460469603539 0.00078031251905485987663 0.00071131251752376556396 0.0010791249806061387062 0.00082018750254064798355 0.00087837502360343933105 0.0014455625787377357483 0.00087899999925866723061 0.00065293750958517193794 0.00049312500050291419029 0.00055024999892339110374 0.00057556253159418702126 0.00048662500921636819839 9.8999997135251760483e-05 9.8999997135251760483e-05 9.8999997135251760483e-05 9.8999997135251760483e-05 9.8999997135251760483e-05 9.8999997135251760483e-05 9.8999997135251760483e-05 9.8999997135251760483e-05 9.8999997135251760483e-05 9.2812493676319718361e-05 0.00030862499261274933815 0.00071331253275275230408 0.00082762504462152719498 0.001008249935694038868 0.0008389374706894159317 0.00081275001866742968559 0.00089806248433887958527 0.001026812475174665451 0.0004429375112522393465 0.00037962500937283039093 0.0009105625213123857975 0.0011274999706074595451 0.00088793749455362558365 0.0011238750303164124489 0.00048937497194856405258 0.00015506250201724469662 0.00027343750116415321827 0.00029312499100342392921 0.00045366666745394468307 0.00045950000640004873276 0.00068519997876137495041 0 0.00015037499542813748121 0.00088241667253896594048 0.0010256250388920307159 0.00080181250814348459244 0.00091574998805299401283 0.00077031250111758708954 0.00087168748723343014717 0.00058712501777336001396 0.00063962501008063554764 5.9000001783715561032e-05 0 1.8562499462859705091e-05 0.00033818749943748116493 0.00081568752648308873177 0.00090093747712671756744 0.0004758124996442347765 0.00099762505851686000824 0.0011604374740272760391 0.0014420000370591878891 0.001405874965712428093 0.0010676250094547867775 0.0011818124912679195404 0.00039800000376999378204 
9.8999997135251760483e-05 9.8999997135251760483e-05 9.8999997135251760483e-05 9.8999997135251760483e-05 9.8999997135251760483e-05 9.8999997135251760483e-05 9.8999997135251760483e-05 9.8999997135251760483e-05 9.8999997135251760483e-05 9.8999997135251760483e-05 9.8999997135251760483e-05 9.8999997135251760483e-05 9.8999997135251760483e-05 9.8999997135251760483e-05 9.8999997135251760483e-05 9.8999997135251760483e-05 9.8999997135251760483e-05 9.8999997135251760483e-05 0.00069118750980123877525 0.0010106249246746301651 0.00094399997033178806305 0.0007931875297799706459 0.00094349996652454137802 0.0006405625026673078537 0.00080687500303611159325 0.0007979375077411532402 0.00021112500689923763275 0.0008143750019371509552 0.00052000000141561031342 0.00038806250086054205894 0.00051412498578429222107 9.8999997135251760483e-05 9.8999997135251760483e-05 9.8999997135251760483e-05 9.8999997135251760483e-05 9.8999997135251760483e-05 9.8999997135251760483e-05 9.8999997135251760483e-05 9.8999997135251760483e-05 9.8999997135251760483e-05 0.00035362498601898550987 0.000368312495993450284 0.00048200000310316681862 0.00058687501586973667145 0.0010530625004321336746 0.0011051874607801437378 0.00092750001931563019753 0 0.00074575003236532211304 0.0005116250249557197094 0.0011138125555589795113 0.00029962501139380037785 0.00029381251079030334949 0.00016756249533500522375 0.00062937499023973941803 0.00051924999570474028587 0.00084381247870624065399 6.1874998209532350302e-06 0.00060856249183416366577 0.00053287501214072108269 0.00026687499484978616238 0.00078037497587502002716 0.00044389997492544353008 4.1249997593695297837e-05 0 0.00078758329618722200394 0.0010491875000298023224 0.00035093750921078026295 0.00047506249393336474895 0.00083281251136213541031 0.0012113749980926513672 0.00039274999289773404598 0.00054249999811872839928 0.0005697500309906899929 9.2937501904089003801e-05 0.00057562498841434717178 0.00017581249994691461325 0.0011270624818280339241 0.00099668756593018770218 0.00057637499412521719933 0.0011741875205188989639 0.0012270625447854399681 0.00097900000400841236115 0.0012005625758320093155 0.000803125032689422369 0.00097887497395277023315 0.00047200001426972448826 
9.8999997135251760483e-05 9.8999997135251760483e-05 9.8999997135251760483e-05 9.8999997135251760483e-05 9.8999997135251760483e-05 9.8999997135251760483e-05 9.8999997135251760483e-05 9.8999997135251760483e-05 9.8999997135251760483e-05 9.8999997135251760483e-05 9.8999997135251760483e-05 9.8999997135251760483e-05 9.8999997135251760483e-05 9.8999997135251760483e-05 9.8999997135251760483e-05 9.8999997135251760483e-05 9.8999997135251760483e-05 9.8999997135251760483e-05 0.00076868745964020490646 0.00058562500635161995888 0.00062162498943507671356 0.00088287499966099858284 0.00051868747686967253685 0.0007298749987967312336 0.0006353749777190387249 0.00017818750347942113876 0.00029724999330937862396 0.00067006249446421861649 0.00037918749148957431316 0.00037337499088607728481 0.0001733749959385022521 9.8999997135251760483e-05 9.8999997135251760483e-05 9.8999997135251760483e-05 9.8999997135251760483e-05 9.8999997135251760483e-05 0.00018912499945145100355 0.00016324999160133302212 0.00040487499791197478771 0.0005167500348761677742 0.00050331250531598925591 0.00061693746829405426979 0.0010369999799877405167 0.00031475001014769077301 0.00063587498152628540993 0.0010637500090524554253 0.00065512501168996095657 0.00043893750989809632301 0.00041981250979006290436 0.0009169999975711107254 0.0012358750682324171066 0.000161312491400167346 9.8999997135251760483e-05 9.8999997135251760483e-05 0.00040168751729652285576 0.00038331249379552900791 2.4749999283812940121e-05 0 0.00064487499184906482697 0.00056212500203400850296 1.6500000128871761262e-05 0.00018674999591894447803 9.9900003988295793533e-05 0.00049657141789793968201 0 0.00085858331294730305672 0.00065750000067055225372 0.00076062500011175870895 0.0005646250210702419281 0.001143437577411532402 0.0010533125605434179306 0.00069637503474950790405 0.00082631252007558941841 0.00030275000608526170254 0.00024125000345520675182 0.00088181247701868414879 0.00040381250437349081039 0.00064799998654052615166 0.00036974999238736927509 0.00045212500845082104206 0.001091875019483268261 0.00055237498600035905838 0.00018781250400934368372 0.00027662501088343560696 0.00079406250733882188797 0.00058762496337294578552 0.00023600000713486224413 
9.8999997135251760483e-05 9.8999997135251760483e-05 9.8999997135251760483e-05 9.8999997135251760483e-05 9.8999997135251760483e-05 9.8999997135251760483e-05 9.8999997135251760483e-05 9.8999997135251760483e-05 9.8999997135251760483e-05 9.8999997135251760483e-05 9.8999997135251760483e-05 9.8999997135251760483e-05 9.8999997135251760483e-05 9.8999997135251760483e-05 9.8999997135251760483e-05 9.8999997135251760483e-05 9.8999997135251760483e-05 0.00035362498601898550987 0.00099099997896701097488 0.00069374998565763235092 0.00083849998190999031067 0.00124087498988956213 0.0011673750123009085655 0.00099149998277425765991 0.00057475001085549592972 0.00040931248804554343224 0.00014849999570287764072 0.00080249999882653355598 8.0437501310370862484e-05 0.00047087500570341944695 9.8999997135251760483e-05 9.8999997135251760483e-05 9.8999997135251760483e-05 9.8999997135251760483e-05 9.8999997135251760483e-05 0.00018912499945145100355 0.000910124974325299263 0.00043274997733533382416 0.00072274997364729642868 0.00054043752606958150864 0.00064537499565631151199 9.8999997135251760483e-05 0.00057737500173971056938 0.00036912498762831091881 0.00030356249772012233734 9.8999997135251760483e-05 9.8999997135251760483e-05 0.0007565625128336250782 0.0010701250284910202026 0.0009386250167153775692 0.0013035625452175736427 9.8999997135251760483e-05 9.8999997135251760483e-05 9.8999997135251760483e-05 0.00058087502839043736458 0.00089312501950189471245 0.00020543750724755227566 3.7124998925719410181e-05 1.237499964190647006e-05 6.600000051548704505e-05 5.9399997553555294871e-05 0.0006824166630394756794 0.00029044447001069784164 0 0.00014322221977636218071 0.00069499999517574906349 0.00090268749045208096504 0.00091562501620501279831 0.00043074999121017754078 0.00073988887015730142593 0.00072968751192092895508 0.00083143747178837656975 0.00091418746160343289375 0.00090762501349672675133 0.00098043750040233135223 0.00085781246889382600784 0.00031131249852478504181 0.00054281251505017280579 0.00031674999627284705639 0.00092031247913837432861 0.0010656875092536211014 0.00089312496129423379898 0.00049700000090524554253 0.00056487502297386527061 0.00084631249774247407913 0.00075087498407810926437 0.00093400001060217618942 
9.8999997135251760483e-05 9.8999997135251760483e-05 9.8999997135251760483e-05 9.8999997135251760483e-05 9.8999997135251760483e-05 9.8999997135251760483e-05 9.8999997135251760483e-05 9.8999997135251760483e-05 9.8999997135251760483e-05 9.8999997135251760483e-05 9.8999997135251760483e-05 9.8999997135251760483e-05 9.8999997135251760483e-05 9.8999997135251760483e-05 9.8999997135251760483e-05 9.8999997135251760483e-05 0.00018912499945145100355 0.00086062500486150383949 0.00090837501920759677887 0.00085506244795396924019 0.00078143749851733446121 0.0012969374656677246094 0.001158062485046684742 0.00060993747320026159286 0.00072943751001730561256 0.0006293125334195792675 0.00054281251505017280579 0.00097893748898059129715 0.0003368750039953738451 0.00013400000170804560184 9.8999997135251760483e-05 9.8999997135251760483e-05 9.8999997135251760483e-05 9.8999997135251760483e-05 9.8999997135251760483e-05 0.00027925000176765024662 0.00080143747618421912193 0.00051774998428300023079 0.00078324996866285800934 0.00038043750100769102573 0.00051656248979270458221 0.00016756249533500522375 0.00025049998657777905464 0.00045987500925548374653 0.00098850007634609937668 9.8999997135251760483e-05 9.8999997135251760483e-05 9.8999997135251760483e-05 0.00053981249220669269562 0.00075081252725794911385 0.00063893751939758658409 0.00057443749392405152321 0.00036131250089965760708 0.00018912499945145100355 0.00049143750220537185669 0.00036987499333918094635 2.4749999283812940121e-05 4.9499998567625880241e-05 6.0923073760932311416e-05 0.00055731250904500484467 0.00045433331979438662529 0.00036787497811019420624 0.00012343749403953552246 0.00044731248635798692703 0.00072631251532584428787 0.00081766664516180753708 0.00026510001043789088726 0.00080425001215189695358 0.00076687498949468135834 0.00038675000541843473911 9.8999997135251760483e-05 0.00029341666959226131439 0.00077693333150818943977 0.00067862501600757241249 0.00095443747704848647118 0.00088187499204650521278 0.00095212500309571623802 0.00096387497615069150925 0.00023831249563954770565 0.00067262502852827310562 0.00082106248009949922562 0.00084531249012798070908 0.00059225002769380807877 0.00080243748379871249199 0.00021706249390263110399 0.00050956249469891190529 7.4249997851438820362e-05 
9.8999997135251760483e-05 9.8999997135251760483e-05 9.8999997135251760483e-05 9.8999997135251760483e-05 9.8999997135251760483e-05 9.8999997135251760483e-05 9.8999997135251760483e-05 9.8999997135251760483e-05 9.8999997135251760483e-05 9.8999997135251760483e-05 9.8999997135251760483e-05 9.8999997135251760483e-05 9.8999997135251760483e-05 9.8999997135251760483e-05 9.8999997135251760483e-05 9.8999997135251760483e-05 0.00045950000640004873276 0.0010144375264644622803 0.00084093748591840267181 0.00082675000885501503944 0.00088712497381493449211 0.00052031251834705471992 0.00065131252631545066833 0.00048431247705593705177 0.00031637499341741204262 0.0007764375186525285244 0.00028868750086985528469 0.00056625000433996319771 3.0937499104766175151e-05 6.1874998209532350302e-05 9.8999997135251760483e-05 9.8999997135251760483e-05 9.8999997135251760483e-05 9.8999997135251760483e-05 7.4249997851438820362e-05 0.00088399997912347316742 0.00086537498282268643379 0.00083843746688216924667 0.00078599998960271477699 0.00031474998104386031628 0.00029881251975893974304 9.8999997135251760483e-05 9.8999997135251760483e-05 0.00036656251177191734314 0.00040575000457465648651 9.8999997135251760483e-05 0.00048975000390782952309 9.8999997135251760483e-05 0.0013299374841153621674 0.0012820624979212880135 0.001143312547355890274 0.00058187497779726982117 0.00061475002439692616463 0.00076374999480322003365 0.00049918750301003456116 0.00051737501053139567375 9.8499993328005075455e-05 0.00022981248912401497364 0.00011422221723478287458 0.00083646154962480068207 0.00020915384811814874411 0.00023829999554436653852 0.00051406252896413207054 0.00079668749822303652763 0.00081639998825266957283 0.0010022221831604838371 0 0.0001222666760440915823 0.00010681249841582030058 0.00058400002308189868927 0.00048192308167926967144 0.00023599999258294701576 0.00045630769454874098301 0.00070068752393126487732 0.00072025001281872391701 0.00052399997366592288017 0.00034062500344589352608 0.0007017499883659183979 7.7374999818857759237e-05 0.00033712497679516673088 0.00034568749833852052689 0.00045093751396052539349 0.00048887502634897828102 0.0011789374984800815582 0.00083325000014156103134 0.00058931251987814903259 0.001175250043161213398 
9.8999997135251760483e-05 9.8999997135251760483e-05 9.8999997135251760483e-05 9.8999997135251760483e-05 9.8999997135251760483e-05 9.8999997135251760483e-05 9.8999997135251760483e-05 9.8999997135251760483e-05 9.8999997135251760483e-05 9.8999997135251760483e-05 9.8999997135251760483e-05 9.8999997135251760483e-05 9.8999997135251760483e-05 9.8999997135251760483e-05 9.8999997135251760483e-05 9.8999997135251760483e-05 0.00059899996267631649971 0.00097162497695535421371 0.00094649998936802148819 0.00097712501883506774902 0.00091562501620501279831 0.0010662500280886888504 0.00094975001411512494087 0.00052006251644343137741 0.0005245624925009906292 0.0011693750275298953056 0.00033068750053644180298 0.00037562500801868736744 3.0937499104766175151e-05 8.6624997493345290422e-05 9.8999997135251760483e-05 9.8999997135251760483e-05 9.8999997135251760483e-05 8.0437501310370862484e-05 0.00092318747192621231079 0.0011706874938681721687 0.00099281244911253452301 0.00093481253134086728096 0.0010113124735653400421 0.00032193749211728572845 0.00078093749471008777618 9.8999997135251760483e-05 9.8999997135251760483e-05 9.8999997135251760483e-05 9.8999997135251760483e-05 9.8999997135251760483e-05 0.00013387500075623393059 0.0002704999933484941721 0.00097206252394244074821 0.0009998125024139881134 0.00083306251326575875282 0.00074362498708069324493 0.00020093750208616256714 0.00060568749904632568359 0.00031056249281391501427 0.00027925000176765024662 5.5687498388579115272e-05 0.00072900002123787999153 0.0008506249869242310524 0.00016850000247359275818 0.00010249999468214809895 0.00095606246031820774078 0.0009697999921627342701 0.00093287497293204069138 0.00072608329355716705322 0.00022471428383141756058 0 0 0.0007347142673097550869 0.00085168750956654548645 0.00064756249776110053062 0.00052891665836796164513 0.00065835710847750306129 0.0006672500167042016983 0.00040881248423829674721 0.00066525000147521495819 0.00076787499710917472839 0.00084262504242360591888 0.00061487499624490737915 0.000326937501085922122 0.00045968749327585101128 0.00048456250806339085102 0.00078468752326443791389 0.001307687489315867424 0.0010807500220835208893 0.00085868750466033816338 0.0010952500160783529282 
9.8999997135251760483e-05 9.8999997135251760483e-05 9.8999997135251760483e-05 9.8999997135251760483e-05 9.8999997135251760483e-05 9.8999997135251760483e-05 9.8999997135251760483e-05 9.8999997135251760483e-05 9.8999997135251760483e-05 9.8999997135251760483e-05 9.8999997135251760483e-05 9.8999997135251760483e-05 9.8999997135251760483e-05 9.8999997135251760483e-05 9.8999997135251760483e-05 0.00085049995686858892441 0.001025500008836388588 0.0010295624379068613052 0.00096887501422315835953 0.001026437501423060894 0.001192125026136636734 0.0013009374961256980896 0.00081006245454773306847 0.0010894375154748558998 0.0012315000640228390694 0.001192499999888241291 0.00020556250819936394691 0.00010225000005448237062 0.00014243749319575726986 9.2812493676319718361e-05 9.8999997135251760483e-05 6.1874998209532350302e-05 9.2812493676319718361e-05 9.8999997135251760483e-05 0.0008623125031590461731 0.0011472499463707208633 0.0012405000161379575729 0.00095174997113645076752 0.00093843752983957529068 0.00097749999258667230606 0.00084618746768683195114 9.8999997135251760483e-05 9.8999997135251760483e-05 0.0002501250128261744976 9.8999997135251760483e-05 9.8999997135251760483e-05 0.00025943748187273740768 0.00057199998991563916206 0.0013763750903308391571 0.0009036874980665743351 0.00053324998589232563972 0.00094175001140683889389 0.00028956250753253698349 0.00078100000973790884018 0.00039100000867620110512 0.00020206249610055238008 0.00032568752067163586617 0.00029084616107866168022 0.00094724999507889151573 0 0.0005193749675527215004 0.0010231999913230538368 0.00092059996677562594414 0.0010348750511184334755 0.00017600000137463212013 0.00097406667191535234451 0.00075785710942000150681 0.00097199995070695877075 0.00064126664074137806892 0.0011101249838247895241 0.00097531249048188328743 0.0010653750505298376083 0.00043283333070576190948 0.00076868751784786581993 0.00058081245515495538712 0.00083569996058940887451 0.00092960003530606627464 0.00053581251995638012886 0.00066068751038983464241 0.0004438125179149210453 0.00033493750379420816898 9.8999997135251760483e-05 0.00061387498863041400909 0.0009998125024139881134 0.0005697500309906899929 0.00093306251801550388336 0.0010827500373125076294 
9.8999997135251760483e-05 9.8999997135251760483e-05 9.8999997135251760483e-05 9.8999997135251760483e-05 9.8999997135251760483e-05 9.8999997135251760483e-05 9.8999997135251760483e-05 9.8999997135251760483e-05 9.8999997135251760483e-05 9.8999997135251760483e-05 9.8999997135251760483e-05 9.8999997135251760483e-05 9.8999997135251760483e-05 9.8999997135251760483e-05 0.00027925000176765024662 0.00062399997841566801071 0.0010367499198764562607 0.001091812504455447197 0.00099056249018758535385 0.00085324997780844569206 0.0011813750024884939194 0.0011616874253377318382 0.00075593747897073626518 0.0007069375133141875267 0.0011436250060796737671 0.00058681250084191560745 0.00029150000773370265961 0.00051756249740719795227 3.0937499104766175151e-05 3.7124998925719410181e-05 9.8999997135251760483e-05 5.5687498388579115272e-05 0.00012012499792035669088 0.00070662499638274312019 0.00080487498780712485313 0.001027062535285949707 0.00059168750885874032974 0.00064199999906122684479 0.00091981247533112764359 0.0010609375312924385071 0.0011355000315234065056 0.00069331249687820672989 0.00055018748389557003975 0.0014865000266581773758 0.001456562546081840992 0.0010688125621527433395 0.00084968749433755874634 0.0013154374901205301285 0.0011822499800473451614 0.0013027500826865434647 0.0012036249972879886627 0.00093718752032145857811 0.00065031251870095729828 0.00059893750585615634918 0.0005693124840036034584 0.00061537500005215406418 0.00094312499277293682098 0.00039587501669302582741 0.0010907499818131327629 0.00015256249753292649984 0.0005430625169537961483 0.00062424998031929135323 0.00047687499318271875381 0.0002382222155574709177 0.00015493750106543302536 0.00041093750041909515858 0.00093068752903491258621 0.00095756247173994779587 0.00079066667240113019943 0.00079677777830511331558 0.00084125000284984707832 9.8999997135251760483e-05 9.8999997135251760483e-05 0.00092343753203749656677 0.001204888918437063694 0.0012504999758675694466 0.00096287502674385905266 0.00077087501995265483856 0.00097212498076260089874 0.0011379375355318188667 0.0012482500169426202774 0.0011514375219121575356 0.00092912500258535146713 0.0011140624992549419403 0.00088406249415129423141 0.0010113124735653400421 9.8999997135251760483e-05 
9.8999997135251760483e-05 9.8999997135251760483e-05 9.8999997135251760483e-05 9.8999997135251760483e-05 9.8999997135251760483e-05 9.8999997135251760483e-05 9.8999997135251760483e-05 9.8999997135251760483e-05 9.8999997135251760483e-05 9.8999997135251760483e-05 9.8999997135251760483e-05 9.8999997135251760483e-05 9.8999997135251760483e-05 0.00039612501859664916992 0.0012125624343752861023 0.00084799999604001641273 0.00083475001156330108643 0.0011124999728053808212 0.0009835000382736325264 0.00094050000188872218132 0.00094474997604265809059 0.00092600000789389014244 0.00042193749686703085899 0.00045324998791329562664 0.00038418750045821070671 0.00021774999913759529591 8.0437501310370862484e-05 0.00034412500099278986454 0.00071256252704188227654 0.00049156253226101398468 8.0437501310370862484e-05 0.00014399999054148793221 0.00047874997835606336594 0.00068931252462789416313 0.00056712504010647535324 0.00060668750666081905365 0.0005150000215508043766 0.00078106246655806899071 0.00052812497597187757492 0.0006767499726265668869 0.00079806247958913445473 0.001125187496654689312 0.0013824375346302986145 0.001390687539242208004 0.0013375624548643827438 0.0010896250605583190918 0.00036281248321756720543 0.00064112502150237560272 0.0012613750295713543892 0.0014276250731199979782 0.0012960624881088733673 0.00099468755070120096207 0.00086812500376254320145 0.00076231249840930104256 0.0010779999429360032082 0.0012112499680370092392 0.0012198750628158450127 0.00083924998762086033821 0.00061316665960475802422 0 0.00026293750852346420288 0.00039775000186637043953 0.00086988892871886491776 0.0004245000018272548914 0.00077276921365410089493 0.00027379998937249183655 0.0010637500090524554253 0.0010079999919980764389 0.00060141668654978275299 0.0010771666420623660088 0.0010910833952948451042 0.00073024997254833579063 0.00087738462025299668312 0.00080158334458246827126 0.0013157499488443136215 0.0014316249871626496315 0.00057031249161809682846 0.00064368749735876917839 0.00086818751879036426544 0.0011768125696107745171 0.0013063125079497694969 0.0011171250371262431145 0.00065399997401982545853 0.001158625003881752491 0.00084956252248957753181 0.00053937500342726707458 9.8999997135251760483e-05 
9.8999997135251760483e-05 9.8999997135251760483e-05 9.8999997135251760483e-05 9.8999997135251760483e-05 9.8999997135251760483e-05 0.00036806249408982694149 0.00059574999613687396049 0.00044118749792687594891 0.00043318749521858990192 9.8999997135251760483e-05 9.8999997135251760483e-05 9.8999997135251760483e-05 0.00018912499945145100355 0.0010546875419095158577 0.00097862491384148597717 0.0011316250311210751534 0.0011029375018551945686 0.001043000025674700737 0.00097125000320374965668 0.0010185624705627560616 0.00087631249334663152695 0.00065574998734518885612 0.00078687496716156601906 0.00085424998542293906212 0.00088093749945983290672 0.00034749999758787453175 0.00059574999613687396049 7.4249997851438820362e-05 0.00072956254007294774055 0.00027437502285465598106 0.00017331249546259641647 0.00032343750353902578354 9.8499993328005075455e-05 0.00027918751584365963936 3.0937499104766175151e-05 0.00012593749852385371923 0.00030293749296106398106 0.00073256250470876693726 0.00092962500639259815216 0.00073343748226761817932 0.0010009999386966228485 0.0012891874648630619049 0.0013490625424310564995 0.0011838125064969062805 0.0011603125603869557381 0.00068331253714859485626 0.0003096875152550637722 0.00092712504556402564049 0.0013871875125914812088 0.0014034374617040157318 0.0014321249909698963165 0.00091193750267848372459 0.00054712500423192977905 0.00057856249623000621796 0.0010331249795854091644 0.001097666681744158268 0.00084049999713897705078 0.00094541662838310003281 0.00026915382477454841137 0 0.00038486666744574904442 0.00030699998023919761181 0.00083373329835012555122 0.00048377778148278594017 0.0009683750104159116745 0.00071976921753957867622 0.00035483331885188817978 0.0007017499883659183979 0.00025758333504199981689 0.00062474998412653803825 0.00052569230319932103157 0.00056921428767964243889 0.00053641665726900100708 0.00069387501571327447891 0.0011497499654069542885 0.0014981875428929924965 0.0012255713809281587601 0.00085180002497509121895 0.0008920624968595802784 0.0011113749351352453232 0.0012971875257790088654 0.00050418748287484049797 0.00064512499375268816948 0.0013379375450313091278 0.0012784375576302409172 0.00092100002802908420563 9.8999997135251760483e-05 
9.8999997135251760483e-05 9.8999997135251760483e-05 9.8999997135251760483e-05 0.00018912499945145100355 0.00080681248800829052925 0.001109250006265938282 0.00087756250286474823952 0.00040318749961443245411 0.00050050002755597233772 0.00035637500695884227753 9.8999997135251760483e-05 9.8999997135251760483e-05 0.000910124974325299263 0.0010053125442937016487 0.00084606249583885073662 0.0009385625016875565052 0.001008249935694038868 0.00082618749001994729042 0.00085206248331815004349 0.00085812498582527041435 0.00039825000567361712456 0.0010930624557659029961 0.00058387499302625656128 0.0006436249823309481144 0.00079075002577155828476 0.00049231247976422309875 0.00079875002847984433174 0.00027712498558685183525 0 0.00024999998277053236961 0.00017706249491311609745 0.00058656249893829226494 7.4249997851438820362e-05 0.0009696874767541885376 0.00084824999794363975525 0.001125937560573220253 0.00010568750440143048763 0.00013962500088382512331 0.00056581251556053757668 0.00047781248576939105988 0.00073862500721588730812 0.0011055624345317482948 0.0013281875289976596832 0.001407000003382563591 0.00095118751050904393196 0.000244124996243044734 0.00072243751492351293564 0.0013434999855235219002 0.0014460624661296606064 0.001406499999575316906 0.0012586874654516577721 0.001042437506839632988 0.00092537503223866224289 0.001109875040128827095 0.0010033750440925359726 0.00080814288230612874031 7.2875001933425664902e-05 0.00036350000300444662571 0.00019980000797659158707 0 0.0005603333120234310627 0.00079750001896172761917 0.0010413000127300620079 0.00039014287176541984081 0.00074293749639764428139 0.0011438749497756361961 0.00093593751080334186554 0.0010897000320255756378 0.0011130714556202292442 0.001125399954617023468 0.0010770714143291115761 0.00092166668036952614784 0.00099887500982731580734 0.00034112500725314021111 0.00084812502609565854073 0.0014789374545216560364 0.00027925000176765024662 0.00075474998448044061661 0.00082650000695139169693 0.0012427499750629067421 0.0012664999812841415405 0.0006819374975748360157 0.0012098124716430902481 0.001307437545619904995 0.0012063749600201845169 0.0011490000179037451744 9.8999997135251760483e-05 
9.8999997135251760483e-05 0.00034887500805780291557 0.00072075001662597060204 0.00099143746774643659592 0.0010111250448971986771 0.00060937501257285475731 0.00070037500699982047081 0.0011278750607743859291 0.00078562501585111021996 0.0010266874451190233231 0.00027925000176765024662 9.8999997135251760483e-05 0.0012706249253824353218 0.0012136874720454216003 0.0010382500477135181427 0.00096437497995793819427 0.00095737498486414551735 0.00071268749888986349106 0.00051893747877329587936 0.00052406248869374394417 0.00036987499333918094635 0.00088462501298636198044 0.00040950000402517616749 0.00034612498711794614792 0.00040849999641068279743 0.00034299999242648482323 0.00062399997841566801071 0.00033887499012053012848 0 0.00020031249732710421085 0.0004998749936930835247 0.00039699999615550041199 0.00014287499652709811926 0.00086681247921660542488 0.00094018748495727777481 0.000596125028096139431 8.6624997493345290422e-05 0.00022743750014342367649 0.00037512497510761022568 0.00054806249681860208511 0.00016787499771453440189 0.0011933124624192714691 0.001422749948687851429 0.0013102500233799219131 0.0012688749702647328377 0.00023568750475533306599 0.00048774998867884278297 0.00073718751082196831703 0.0013381249736994504929 0.001258000032976269722 0.0012168750399723649025 0.0010278749978169798851 0.0012290625600144267082 0.0011041250545531511307 0.0011183749884366989136 0.0011769999982789158821 0.00080857140710577368736 0.0012311538448557257652 0.00059238460380584001541 0.00013562499952968209982 0.001025500008836388588 0.0010033125290647149086 0.0010648125316947698593 0.00028133334126323461533 0.00038291665259748697281 0.00062191666802391409874 0.0006719999946653842926 0.0006317333318293094635 0.00066476926440373063087 0.00057891668984666466713 0.00078769231913611292839 0.00091539998538792133331 0.00039811109309084713459 0.00056725001195445656776 0.0011020000092685222626 0.0014571249485015869141 9.8999997135251760483e-05 0.00073116668500006198883 0.0010373124387115240097 0.00083831249503418803215 0.0011938749812543392181 0.00052299996605142951012 0.0012533124536275863647 0.00085781252710148692131 0.00068768748315051198006 0.0014505625003948807716 0.00045950000640004873276 
0.00095418747514486312866 0.00099281244911253452301 0.00032243749592453241348 0.00039174998528324067593 0.00074549997225403785706 0.0013208750169724225998 0.0009554375428706407547 0.0002148125058738514781 0.00029050000011920928955 0.0004352499963715672493 0.00027925000176765024662 9.8999997135251760483e-05 0.0012720000231638550758 0.001207437482662498951 0.0012513750698417425156 0.0011863750405609607697 0.00097062496934086084366 0.00097331247525289654732 0.00066006247652694582939 0.00087087496649473905563 0.00034087500534951686859 0.00070406252052634954453 0.00027487499755807220936 0.0007316250121220946312 0.00055443751625716686249 0.00056512502487748861313 0.00047262501902878284454 0.00075206253677606582642 0.00031643750844523310661 0.00035118748201057314873 0.00036862501292489469051 0.00012243750097695738077 0.00029668750357814133167 0.0010698749683797359467 0.0011316875461488962173 0.00014243749319575726986 6.1874998209532350302e-05 4.9499998567625880241e-05 0.00031431249226443469524 0.00053262501023709774017 9.2812493676319718361e-05 0.0011988750193268060684 0.0014631249941885471344 0.0014298750320449471474 0.0012925624614581465721 0.00086937501328065991402 0.0001794999989215284586 0.00034143749508075416088 0.0012141874758526682854 0.0014916874933987855911 0.0014834374887868762016 0.0012443750165402889252 0.0012305625714361667633 0.0010731874499469995499 0.00034462500480003654957 0.0010421250481158494949 0.00056559999939054250717 0.00060299999313428997993 0.00013755555846728384495 0.00021818748791702091694 0.001058749970979988575 0.0011384999379515647888 0.000577444443479180336 0.00077699997927993535995 0.00057400000514462590218 0.00089299998944625258446 0.00070341664832085371017 0.00069100002292543649673 0.00082266668323427438736 0.00060716667212545871735 0.0011990000493824481964 0.00093407143140211701393 0.0010543076787143945694 0.00074518751353025436401 0.0010311249643564224243 0.0014271000400185585022 9.8999997135251760483e-05 0.00071486667729914188385 0.00098612497095018625259 0.00092750001931563019753 0.0012650624848902225494 0.0007979375077411532402 0.00016756249533500522375 9.8999997135251760483e-05 0.00043468750664032995701 0.0013926874380558729172 0.00078875001054257154465 
0.0011281875194981694221 0.0010710000060498714447 0.00081937504000961780548 0.00080131250433623790741 0.00069731252733618021011 0.0012570625403895974159 0.0010988125577569007874 0.00064381252741441130638 0.00014874999760650098324 0.00022356249974109232426 9.8999997135251760483e-05 0.00018912499945145100355 0.0012450624490156769753 0.00087406253442168235779 0.00098637503106147050858 0.0011781874345615506172 0.0012662500375881791115 0.0015409999759867787361 0.00049962499178946018219 0.0010493125300854444504 0.00036212499253451824188 0.0009040625300258398056 0.00076900003477931022644 0.00057993747759610414505 0.00068118749186396598816 0.0011962499702349305153 0.0010192500194534659386 0.0008044374990276992321 0.00061368750175461173058 0.00066412496380507946014 0.00048874999629333615303 0.00024606249644421041012 0.00033756249467842280865 0.0010638749226927757263 0.0010235625086352229118 0.00024774999474175274372 9.8999997135251760483e-05 9.8999997135251760483e-05 0.00030656249145977199078 0.00084056251216679811478 9.8999997135251760483e-05 0.00099612504709511995316 0.0014643750619143247604 0.0013544375542551279068 0.0011337499599903821945 0.0010936874896287918091 0.00016037499881349503994 5.5687498388579115272e-05 0.00084037496708333492279 0.0013378125149756669998 0.0012344999704509973526 0.0013518750201910734177 0.0013163125840947031975 0.00053788890363648533821 0.00091068749316036701202 0.0011709375539794564247 0.00073218753095716238022 0.00014333332364913076162 0 0 0.0007331999950110912323 0.0012102000182494521141 0.0010033750440925359726 0.00076366664143279194832 0.0010068666888400912285 0.0011260833125561475754 0.00096858333563432097435 0.00096686667529866099358 0.0010513749439269304276 0.00072931247996166348457 0.00059750000946223735809 0.00063424999825656414032 0.00091906246962025761604 0.0010585625423118472099 0.0010237777605652809143 0.0012215625029057264328 0.0011148125631734728813 0.001241125050000846386 0.0011985625606030225754 0.0010548124555498361588 0.001357937580905854702 0.0007017499883659183979 9.8999997135251760483e-05 9.8999997135251760483e-05 0.00047387499944306910038 0.0010958125349134206772 0.001506499946117401123 
0.001091875019483268261 0.0011377499904483556747 0.00076712499139830470085 0.00067318748915567994118 0.00095268752193078398705 0.0012939375592395663261 0.00089587498223409056664 0.00036350000300444662571 0.00047706250916235148907 6.1874998209532350302e-05 9.8999997135251760483e-05 0.0010903750080615282059 0.00063093751668930053711 0.0010278124827891588211 0.00083043752238154411316 0.001472812495194375515 0.0015278749633580446243 0.0015409999759867787361 0.0012890625512227416039 0.00056362501345574855804 0.0010830624960362911224 0.00099337496794760227203 0.00032975000794976949692 0.00070324999978765845299 0.0009071250096894800663 0.00075581250712275505066 0.00055687502026557922363 0.00039324999670498073101 0.00080418749712407588959 0.00073543749749660491943 0.00021324999397620558739 0.00041087498539127409458 3.7124998925719410181e-05 0.0003856249968521296978 0.00069518754025921225548 0.00094762502703815698624 9.8999997135251760483e-05 9.8999997135251760483e-05 0.00079025002196431159973 0.00058668752899393439293 8.0437501310370862484e-05 0.0010406875517219305038 0.0013518750201910734177 0.001472749980166554451 0.0013058125041425228119 0.00046618751366622745991 0.00053600000683218240738 0.00035824999213218688965 0.0013749999925494194031 0.0013259374536573886871 0.0014831250300630927086 0.001389874960295855999 0.001374937593936920166 0.0010530625004321336746 0.0012356250081211328506 0.00086793751688674092293 0.00098142854403704404831 8.6692307377234101295e-05 0.00017541667330078780651 9.2538459284696727991e-05 0.00089366664178669452667 0.00051425001583993434906 0.00044487498234957456589 0.00063718750607222318649 0.00072950002504512667656 0.00062666664598509669304 0.00055283331312239170074 0.00071115384344011545181 0.00082906254101544618607 0.0010305625619366765022 9.8999997135251760483e-05 9.8999997135251760483e-05 0.0006259375368244946003 0.00084806251106783747673 0.00089566665701568126678 0.0012435714015737175941 0.0012227500556036829948 0.0014585625613108277321 0.0014320625923573970795 0.0012773750349879264832 0.0014698749873787164688 0.00045425002463161945343 9.8999997135251760483e-05 9.8999997135251760483e-05 9.8999997135251760483e-05 0.0005676875007338821888 0.0014659999869763851166 
0.0013125624973326921463 0.00076287501724436879158 0.00062612502370029687881 0.00076381250983104109764 0.00099718756973743438721 0.0011401249794289469719 0.00073987501673400402069 7.5812502473127096891e-05 3.7124998925719410181e-05 9.8999997135251760483e-05 0.0010085625108331441879 0.00096231250790879130363 0.00036056249518878757954 0.0012131874682381749153 0.0010369999799877405167 0.0015366249717772006989 0.001522250007838010788 0.0015351874753832817078 0.0011129999766126275063 0.00083018752047792077065 0.00090606248704716563225 0.0010661875130608677864 0.000326937501085922122 0.00084006250835955142975 0.0010706875473260879517 0.00092406250769272446632 0.00027462499565444886684 0.00038218751433305442333 0.00039800000376999378204 0.00051131250802427530289 8.0437501310370862484e-05 0.00081343750935047864914 0.0002044374996330589056 2.4749999283812940121e-05 0.0010804374469444155693 0.00058975000865757465363 0.00021662499057129025459 0.00078406248940154910088 0.0011266249930486083031 0.00045437499647960066795 0.0003441874869167804718 0.0010004375362768769264 0.0013512499863281846046 0.0012347500305622816086 0.0013306875480338931084 0.00080468750093132257462 0.0001691249926807358861 0.00045181249151937663555 0.0014578750124201178551 0.0014841249212622642517 0.0014642500318586826324 0.0014890000456944108009 0.0014256875729188323021 0.0012386875459924340248 0.0012666250113397836685 0.000943750026635825634 0.0012293750187382102013 3.4571428841445595026e-05 0.00024520000442862510681 0 0.00023533332569058984518 0.0010494999587535858154 0.00094818748766556382179 0.00071549997664988040924 0.00092407141346484422684 0.0005530000198632478714 0.00074950000271201133728 0.00097325001843273639679 0.0011000625090673565865 0.001159312552772462368 0.00032774999272078275681 0.00036700000055134296417 0.0012731875758618116379 0.0011515625519677996635 0.0011955833761021494865 0.00065437500597909092903 0.00098768749739974737167 0.001507000066339969635 0.00076287495903670787811 0.0014156249817460775375 0.001456500031054019928 0.0012729375157505273819 0.00088800000958144664764 0.00097862503025680780411 0.001192125026136636734 0.00099631247576326131821 0.0007164999842643737793 
0.0012959999730810523033 0.00070606253575533628464 4.3312498746672645211e-05 0.00090162502601742744446 0.0010357500286772847176 0.0008691875264048576355 0.00074618752114474773407 9.3062495579943060875e-05 8.0437501310370862484e-05 0.00034349999623373150826 0.00084150000475347042084 0.0006306875147856771946 0.00062156247440725564957 0.00052881246665492653847 0.00094068748876452445984 0.001522250007838010788 0.001405874965712428093 0.0014681874308735132217 0.0013792499667033553123 0.0011025625281035900116 0.0011135624954476952553 0.0010827500373125076294 0.0012034375686198472977 0.00041056249756366014481 0.0007051874999888241291 0.0011203750036656856537 0.00088431249605491757393 0.00062050000997260212898 0.0003675000043585896492 0.00027631249395199120045 0.00069756247103214263916 0.00090824998915195465088 0.0010125625412911176682 0.00053224997827783226967 0.00076087500201538205147 0.0010931249707937240601 0.0010938750347122550011 0.0011183749884366989136 0.00086318748071789741516 0.00019793749379459768534 0.00025112499133683741093 0.0012613125145435333252 0.0014311249833554029465 0.0014882499817758798599 0.0011182499583810567856 0.00091143749887123703957 0.00050768750952556729317 0.00028750000637955963612 0.0014671875396743416786 0.0012113749980926513672 0.0014430000446736812592 0.0014742499915882945061 0.0013351874658837914467 0.0014322500210255384445 0.0013651875779032707214 0.00096899998607113957405 0.000471875013317912817 0 8.2500000644358806312e-06 0.00013966666301712393761 0.00090244447346776723862 0.001109687495045363903 0.0011099374387413263321 0.0010565625270828604698 0.0012477500131353735924 0.0011226922506466507912 0.0009318999946117401123 0.001075249980203807354 0.0010954374447464942932 0.0011191249359399080276 0.000430437503382563591 0.0007035000016912817955 0.0011686874786391854286 0.0011464999988675117493 0.0012051999801769852638 0.00052171427523717284203 0.0005111874779686331749 0.00075661536538973450661 0.0010175833012908697128 0.001390937482938170433 0.0013751250226050615311 0.0013955624308437108994 0.0013356249546632170677 0.0013283125590533018112 0.001407125033438205719 0.00087106251157820224762 0.0013355000410228967667 
0.00088281254284083843231 0.0006008750060573220253 0.00028581250808201730251 0.00091481249546632170677 2.4749999283812940121e-05 0.00063112500356510281563 7.4249997851438820362e-05 9.8999997135251760483e-05 0.0001410624972777441144 0.00079468748299404978752 0.00054387503769248723984 0.0005956874811090528965 0.00043718749657273292542 0.00065312499646097421646 0.001026062527671456337 0.0015409999759867787361 0.0012520625023171305656 0.00089837500127032399178 0.00088118750136345624924 0.0013607499422505497932 0.0011981874704360961914 0.0011541249696165323257 0.0012003125157207250595 0.00068212498445063829422 0.00060374999884516000748 0.00085306249093264341354 8.5375002527143806219e-05 0.00035956251667812466621 0.00013006250082980841398 0.00019699998665601015091 0.00072150002233684062958 0.00041337500442750751972 0.00071706250309944152832 0.0010553749743849039078 0.00071268749888986349106 0.00029843748779967427254 0.00094262498896569013596 0.00050156249199062585831 0.00040000001899898052216 0.00055037497077137231827 0.00011818749771919101477 0.0012186875101178884506 0.00109243753831833601 0.00099143746774643659592 0.00073962501483038067818 0.00015037499542813748121 0.00044537501526065170765 0.0011696249712258577347 0.0012093749828636646271 0.0012361875269562005997 0.0014270624378696084023 0.0013621250400319695473 0.0013698750408366322517 0.0013117500348016619682 0.0012285000411793589592 0.00091856246581301093102 0.00093878572806715965271 0 0 0.0005288461688905954361 0.0009893845999613404274 0.0010518749477341771126 0.0010701250284910202026 0.00069522223202511668205 0.00055250001605600118637 0.00054738461039960384369 0.00068135710898786783218 0.0011060769902542233467 0.0012166249798610806465 0.0011272500269114971161 0.00034824997419491410255 0.00047712499508634209633 0.0011906250147148966789 0.0012544374912977218628 0.0011706874938681721687 0.00076369999442249536514 0.0010896000312641263008 0.0010850625112652778625 0.0015351249603554606438 0.0015409999759867787361 0.0015409999759867787361 0.0013810625532642006874 0.0012860625283792614937 0.0013355000410228967667 0.0014450624585151672363 0.00070418749237433075905 0.0015350000467151403427 
0.0009632500004954636097 0.00098493753466755151749 7.4249997851438820362e-05 2.4749999283812940121e-05 3.7124998925719410181e-05 6.806249439250677824e-05 4.3312498746672645211e-05 7.1562499215360730886e-05 0.00010468749678693711758 0.00085243751527741551399 0.00089706247672438621521 0.0010060624917969107628 0.00072193751111626625061 0.0010536875342950224876 0.0011973750079050660133 0.0015409999759867787361 0.0010746874613687396049 0.0006323750130832195282 0.0011331250425428152084 0.00097537500550970435143 0.0011678125010803341866 0.001257562544196844101 0.0010726250475272536278 0.00035362501512281596661 0.00026868749409914016724 0.00044181250268593430519 4.9499998567625880241e-05 0.00018856249516829848289 0.00083037500735372304916 0.0005530000198632478714 0.00076506251934915781021 0.00081450003199279308319 0.00069387501571327447891 0.0012039999710395932198 0.0010310625657439231873 0.00063837500056251883507 0.0005150000215508043766 3.0937499104766175151e-05 0.00018200000340584665537 9.2937501904089003801e-05 6.1874998209532350302e-06 0.0011076874798163771629 0.00091618753504008054733 0.00067118753213435411453 0.000902375031728297472 6.1874998209532350302e-06 9.8999997135251760483e-05 0.00056162499822676181793 0.0014603125164285302162 0.0014716249424964189529 0.0013704999582841992378 0.0011633124668151140213 0.00081081251846626400948 0.001076000044122338295 0.00074806250631809234619 0.00080481253098696470261 0.0004983000108040869236 0.0001773333351593464613 0 0.00021092306997161358595 0.00082476920215412974358 0.0010525624966248869896 0.00088199996389448642731 0.00060076924273744225502 0.00073755555786192417145 0.00073393748607486486435 0.00078800000483170151711 0.001097230822779238224 0.0012080000014975667 0.0011506249429658055305 0.00055900000734254717827 0.00031006248900666832924 0.0010983750689774751663 0.0011858750367537140846 0.00069218745920807123184 0.00091080000856891274452 0.0011247500078752636909 0.0011399999493733048439 0.00090993748744949698448 0.0015409999759867787361 0.0015409999759867787361 0.001539187505841255188 0.00063343747751787304878 0.001505875028669834137 0.0014976875390857458115 0.00097043748246505856514 0.0013002499472349882126 
0.0012920624576508998871 0.00060637498972937464714 0.00061537500005215406418 0.00056331249652430415154 7.6625001383945345879e-05 8.6624997493345290422e-05 6.1874998209532350302e-05 0.00011706249642884358764 0.00073956249980255961418 0.00091231247643008828163 0.00095462502213194966316 0.0012063750764355063438 0.0013166250428184866905 0.0014316875021904706955 0.0013539375504478812218 0.0013099999632686376572 0.0011678750161081552505 0.00061343749985098838806 0.00091212498955428600311 0.0013791250530630350113 0.0011270624818280339241 0.00083625002298504114151 0.00010531250154599547386 0.00032724998891353607178 0.00096500001382082700729 0.00033093750244006514549 0.00077262497507035732269 0.00058262498350813984871 0.0010228749597445130348 0.00045812499593012034893 0.00091693748254328966141 0.00099481246434152126312 0.00022143751266412436962 0.00038468750426545739174 0.00093350000679492950439 0.00055100000463426113129 0 0.00015131250256672501564 0.00044568750308826565742 0.0001548125001136213541 0.00053206249140202999115 0.00035956248757429420948 0.00096475001191720366478 0.00046518750605173408985 0.00043606251711025834084 0.00010706250031944364309 0.00066106254234910011292 0.00076781254028901457787 0.0012809999752789735794 0.0014610624639317393303 0.0014006874989718198776 0.00097718753386288881302 0.00097887497395277023315 0.001257312484085559845 0.0010612499900162220001 0.00098618748597800731659 0.00088493747171014547348 0 0 0 0.0010529999854043126106 0.0010544166434556245804 0.0010360624874010682106 0.0010029374388977885246 0.0010348125360906124115 0.00081075000343844294548 0.00088256248272955417633 0.0011109999613836407661 0.0011905624996870756149 0.0012496249983087182045 0.001025812467560172081 0.00020406249677762389183 0.00027175000286661088467 0.00028006249340251088142 0.00045314285671338438988 0.00097749999258667230606 0.00052587501704692840576 0.00024100000155158340931 0.0011321250349283218384 0.0014304999494925141335 0.0015178750036284327507 0.0014026249991729855537 0.0013465000083670020103 0.0014218125725165009499 0.0010351249948143959045 0.00067081250017508864403 0.001174499979242682457 
0.0013279375853016972542 0.00089575001038610935211 0.00076762499520555138588 6.1874998209532350302e-06 0 8.6624997493345290422e-05 3.7124998925719410181e-05 0.00065825000638142228127 0.00069662503665313124657 0.00093668751651421189308 0.0010161874815821647644 0.0011728750541806221008 0.0012258749920874834061 0.0013298125704750418663 0.0013419999741017818451 0.0012208125554025173187 0.0012878124834969639778 0.0010346875060349702835 0.0013921250356361269951 0.001506687491200864315 0.0013938124757260084152 0.00086493749404326081276 0.00011187500058440491557 0.00056875002337619662285 0.00083612499292939901352 0.0010006249649450182915 0.001042249961756169796 0.00093543750699609518051 0.00051674997666850686073 0.00045637498260475695133 0.00052787497406825423241 0.0010901875793933868408 0.0012396250385791063309 0.00062875001458451151848 0.0012611249694600701332 0.00086118752369657158852 0.00035237500560469925404 6.1874998209532350302e-06 0.00012324999261181801558 0.00094006251310929656029 0.001109124976210296154 0.0010920625645667314529 0.00067899998975917696953 0.00041124998824670910835 0.00065718748373910784721 0.00071875000139698386192 0.00073706253897398710251 0.00071950000710785388947 0.00083757145330309867859 0.00071450002724304795265 0.00097956252284348011017 0.0010199374519288539886 0.0012673125602304935455 0.0009385625016875565052 0.00036337500205263495445 0.00050871429266408085823 0.00054199999431148171425 0.0001993333426071330905 0.00033412501215934753418 0 0.00036537498817779123783 0.001085833297111093998 0.0011276250006631016731 0.00093350000679492950439 0.00092800002312287688255 0.0014997500693425536156 0.0012113124830648303032 0.001158562488853931427 0.0010865000076591968536 0.0013199375243857502937 0.0011484374990686774254 9.8999997135251760483e-05 9.8999997135251760483e-05 0.00044199998956173658371 0.00042075000237673521042 0.00058524997439235448837 0.00042887500603683292866 0.00027662501088343560696 0.00069843750679865479469 0.00095299998065456748009 0.00047118749353103339672 0.0013186875730752944946 0.0013484375085681676865 0.00088599999435245990753 9.8999997135251760483e-05 0.00099893752485513687134 0.0014519999967887997627 
0.0010422500781714916229 0.0010880625341087579727 0.00024999998277053236961 0.00013649999164044857025 4.3312498746672645211e-05 5.5687498388579115272e-05 0.00013618750381283462048 0.00075474998448044061661 0.00089462503092363476753 0.00099025003146380186081 0.0012490624794736504555 0.0013011875562369823456 0.0011344375088810920715 0.001225249958224594593 0.0014206250198185443878 0.0013602500548586249352 0.0013596875360235571861 0.0014174999669194221497 0.0014736249577254056931 0.0015409999759867787361 0.0015409999759867787361 0.00080418749712407588959 0.00069281249307096004486 0.0010972500313073396683 0.0010720000136643648148 0.0010007499950006604195 0.00097031245240941643715 0.00085899996338412165642 0.00032637501135468482971 0.00026775000151246786118 0.00085299997590482234955 0.0012309375451877713203 0.0011076249647885560989 0.00017387499974574893713 0.00093425001250579953194 0.0011816874612122774124 0.00053981249220669269562 1.237499964190647006e-05 0.00012431250070221722126 0.00032449999707750976086 0.00035281249438412487507 0.00066587503533810377121 0.00088456249795854091644 0.00054431252647191286087 0.00034118749317713081837 0.00038031250005587935448 0.00075890001608058810234 9.8999997135251760483e-05 3.3000000257743522525e-05 0.00094443751731887459755 0.0008620769367553293705 0.001308600069023668766 0.0012436874676495790482 0.0010611249599605798721 0.0011845624540001153946 0.0008492000051774084568 0.00049212499288842082024 0 0.00031375000253319740295 0.00027966665220446884632 0.0003878888965118676424 0.00073393748607486486435 0.00082818750524893403053 0.00079838460078462958336 0.0012033125385642051697 0.0014485624851658940315 0.001225562533363699913 0.001158999977633357048 0.0013668750179931521416 0.0014435624470934271812 0.0011142500443384051323 0.00046431249938905239105 0.00062775000697001814842 0.00084993749624118208885 0.00092020002193748950958 0.0010914285667240619659 0.00097306253155693411827 0.00032931249006651341915 0.00064237497281283140182 0.0010377500439062714577 0.00081175001105293631554 0.0013706875033676624298 0.0010866875527426600456 9.8999997135251760483e-05 9.8999997135251760483e-05 0.001043562544509768486 0.0012202500365674495697 
0.00127474998589605093 0.00087312498362734913826 6.1874998209532350302e-06 0.00032206249306909739971 0.00043650000588968396187 3.0937499104766175151e-05 0.00038018749910406768322 0.00034718750976026058197 0.00077618751674890518188 0.0010233749635517597198 0.0011227499926462769508 0.0012496875133365392685 0.0012119375169277191162 0.0012668749550357460976 0.0013891875278204679489 0.0014826250262558460236 0.0014599999412894248962 0.0014709375100210309029 0.0015351874753832817078 0.0015409999759867787361 0.0014224374899640679359 0.0011907500447705388069 0.00097581249428912997246 0.001076875021681189537 0.0010050624841824173927 0.00085324997780844569206 0.00036762500531040132046 0.00028325000312179327011 9.8999997135251760483e-05 0.00077275000512599945068 0.0011102500138804316521 0.0011668124934658408165 0.0013319374993443489075 0.00084125000284984707832 0.0010825624922290444374 0.0009635625174269080162 0.0011506250593811273575 0.00025056250160560011864 0.0006690625450573861599 0.00073093752143904566765 0.0011495000217109918594 0.0006043125176802277565 0.00051874999189749360085 0.001025937497615814209 0.00094293750589713454247 0.00010791666863951832056 4.9499998567625880241e-05 9.8999997135251760483e-05 0 0.0006853750091977417469 0.00092466670321300625801 0.00061262503731995820999 0.0012391250347718596458 0.00095087499357759952545 0.00072925002314150333405 0.00020218749705236405134 0 0 0 9.8833326774183660746e-05 0.0006522500189021229744 0.00050199998077005147934 0.00042012499761767685413 0.00067574996501207351685 0.0005227499641478061676 0.0013294374803081154823 0.001192187541164457798 0.0013223125133663415909 0.0010030624689534306526 0.00069543748395517468452 0.0012310624588280916214 0.0012175624724477529526 0.0011023124679923057556 0.00093124998966231942177 0.0012521250173449516296 0.00078712496906518936157 0.0004386249929666519165 0.00067066668998450040817 0.00076881248969584703445 0.00099531246814876794815 0.0010543124517425894737 0.0013216874795034527779 0.00092625000979751348495 9.8999997135251760483e-05 0.00018912499945145100355 0.0010462499922141432762 0.00063349999254569411278 
0.00089218752691522240639 0.00024793751072138547897 0.00023631250951439142227 0.00084950000746175646782 0.00084781250916421413422 3.7124998925719410181e-05 0.00029418748454190790653 0.00078418751945719122887 0.00095731246983632445335 0.0012957500293850898743 0.0013518125051632523537 0.0013991874875500798225 0.0013705000746995210648 0.0014265625504776835442 0.0014049375895410776138 0.0012503750622272491455 0.0014604374300688505173 0.0015409999759867787361 0.0015409999759867787361 0.0015381249831989407539 0.0014301249757409095764 0.0012999374885112047195 0.0010638750391080975533 0.0010148750152438879013 0.00082618749001994729042 0.00032062502577900886536 0.00046818749979138374329 0.00021806250151712447405 5.5687498388579115272e-05 0.0008278125314973294735 0.0010420000180602073669 0.0010168750304728746414 0.00071287498576566576958 0.00018724999972619116306 0.00068449997343122959137 0.00066656252602115273476 0.00054231251124292612076 0.00043256249045953154564 0.00048856250941753387451 0.0010939374333247542381 0.00083912501577287912369 0.00076087500201538205147 0.0010379374725744128227 0.0012066250201314687729 0.0011962499702349305153 0.00036808333243243396282 8.4857143519911915064e-05 4.9499998567625880241e-05 4.9499998567625880241e-05 0.0002851666649803519249 0.00057555554667487740517 0.0010629375465214252472 0.00099249999038875102997 0.0006754375062882900238 0.00082993332762271165848 0.00040520000038668513298 0 0 0.00046933334670029580593 0.00019877777958754450083 0.00045192308607511222363 0.00071400002343580126762 0.00090550002641975879669 0.00047993750195018947124 0.00061849999474361538887 0.00081441667862236499786 0.00060742854839190840721 0.00088607694488018751144 0.00067450001370161771774 0.00044783332850784063339 0.00074599997606128454208 0.00085650000255554914474 0.001152333337813615799 0.0012209375854581594467 0.00066441670060157775879 0.00063821428921073675156 0.00027883332222700119019 0.00040838462882675230503 0.00054418749641627073288 0.00060224998742341995239 0.00093550002202391624451 0.00097675004508346319199 0.00071018747985363006592 9.8999997135251760483e-05 0.00045950000640004873276 0.00092962500639259815216 0.00063349999254569411278 
0.00093868753174319863319 5.2937499276595190167e-05 0.00042900000698864459991 0.0010289375204592943192 0.00055156246526166796684 3.7124998925719410181e-05 0.00044106249697506427765 0.00077106250682845711708 0.0010232499334961175919 0.0012019375571981072426 0.0011975000379607081413 0.0012149375397711992264 0.0014265625504776835442 0.0013560624793171882629 0.0014450625749304890633 0.001522250007838010788 0.001440500025637447834 0.001489375019446015358 0.0015411250060424208641 0.0011404374381527304649 0.0011606875341385602951 0.0011368124978616833687 0.0011655625421553850174 0.00072412495501339435577 0.00084900000365450978279 0.00030237500322982668877 0.00082181248581036925316 6.2437502492684870958e-05 0.00082162499893456697464 0.0010692500509321689606 0.0013762500602751970291 0.00037374999374151229858 0.0002532500075176358223 0.00097706250380724668503 0.00077024998608976602554 0.00093656248645856976509 0.00073868752224370837212 0.00076456251554191112518 0.00047299999278038740158 0.0010488125262781977654 0.00085368752479553222656 0.00073762499960139393806 0.00087724998593330383301 0.0010698124533519148827 0.00097537500550970435143 0.0002914000069722533226 6.1874998209532350302e-05 2.4749999283812940121e-05 9.8999997135251760483e-05 9.8999997135251760483e-05 0.0003467499918770045042 0.00087099999655038118362 0.0013421875191852450371 0.0013652499765157699585 0.0012643571244552731514 0.00076910003554075956345 0 0 0.00050837500020861625671 0.00091325002722442150116 0.0008009374723769724369 0.00081041670637205243111 0.001076142885722219944 0.0005111874779686331749 0.00091492856154218316078 0.0010439000325277447701 0.0011154999956488609314 0.0010061428183689713478 0.00092543748905882239342 0.0010242500575259327888 0.0012661875225603580475 0.0010709166526794433594 0.00044264286407269537449 0.0010961875086650252342 0.0014672143151983618736 0.00078333332203328609467 0.00091100001009181141853 0.00097162497695535421371 0.00070906250039115548134 0.00037518749013543128967 0.00066606252221390604973 0.00090143748093396425247 0.00051343749510124325752 9.8999997135251760483e-05 9.8999997135251760483e-05 0.00048750001587904989719 0.0007535000331699848175 
0.00073587504448369145393 0 0.00057387497508898377419 0.0011015000054612755775 0.00084425002569332718849 0.00011150000500492751598 0.00013699999544769525528 0.00082825002027675509453 0.0010366250062361359596 0.0013051875866949558258 0.0011990000493824481964 0.0013229375472292304039 0.0013832499971613287926 0.0013331250520423054695 0.0014781249919906258583 0.001407625037245452404 0.0014691875549033284187 0.0015086875064298510551 0.0010766874765977263451 0.00067774998024106025696 0.0010384374763816595078 0.0012138750171288847923 0.00068137497873976826668 0.00080356252146884799004 0.0010695625096559524536 0.00092443753965198993683 0.00054362497758120298386 0.00062081252690404653549 0.00034118749317713081837 0.0012187500251457095146 0.0010857500601559877396 1.237499964190647006e-05 0.00047562498366460204124 0.000678875017911195755 0.00066681252792477607727 9.8999997135251760483e-05 0.00082387501606717705727 0.00098024995531886816025 0.0010690625058487057686 0.00073643750511109828949 0.0007993124891072511673 0.00097818754147738218307 0.0010239999974146485329 0.00066218752181157469749 0.00077375001274049282074 0.0012171666603535413742 0.00027516667614690959454 0.00054791668662801384926 0.00047137500951066613197 0.00091162498574703931808 0.00027662501088343560696 0.00030437498935498297215 0.0011993750231340527534 0.0013377499999478459358 0.0013641250552609562874 0.0011042143451049923897 0 0 7.0714281719119753689e-06 0.00059125002007931470871 0.0012144000502303242683 0.0008890000171959400177 0.00066650001099333167076 0.00098025007173418998718 0.00090178573736920952797 0.00044824997894465923309 0.00068075000308454036713 0.0011549999471753835678 0.00063087500166147947311 0.0011409375583752989769 0.0013208750169724225998 0.0012138750171288847923 0.0014091250486671924591 0.0010229999898001551628 0.0011856249766424298286 0.0011175000108778476715 0.00074266665615141391754 0.00092606246471405029297 0.00071337498957291245461 0.00065843749325722455978 0.00093506247503682971001 0.00092062499606981873512 0.00087912497110664844513 0.0007613124907948076725 0.00036937498953193426132 0.0012197500327602028847 0.00063349999254569411278 
0.00018793750496115535498 1.8562499462859705091e-05 0.0010211250046268105507 0.0011016250355169177055 0.001041812472976744175 0.00039999998989515006542 1.237499964190647006e-05 0.00014918750093784183264 0.00099306250922381877899 0.0010715625248849391937 0.0012626249808818101883 0.0012923750327900052071 0.0013210625620558857918 0.0015055625699460506439 0.0014427499845623970032 0.0015273124445229768753 0.0015082500176504254341 0.0014654999831691384315 0.0011646875645965337753 0.00057368748821318149567 0.0012519999872893095016 0.0010300000431016087532 0.00074724998557940125465 0.00049599999329075217247 0.0012751874746754765511 0.0007415000000037252903 0.00038512499304488301277 0.0008820624789223074913 0.00042606249917298555374 0.0010365624912083148956 0.0009714374900795519352 0.00013837500591762363911 0.00080818752758204936981 0.0010838124435395002365 0.00080931250704452395439 9.8999997135251760483e-05 0.00027506251353770494461 0.0014443750260397791862 0.0011037499643862247467 0.00064968748483806848526 0.0010831250110641121864 0.00049040000885725021362 0.00090240000281482934952 0.00098074995912611484528 0.0011485625291243195534 0.00052639999194070696831 0.00078883336391299962997 0.00078599998960271477699 0.0010898750042542815208 0.00029349999385885894299 0.00036543750320561230183 0.00097074999939650297165 0.001158062485046684742 0.00087799999164417386055 0.0012878124834969639778 0.00063193333335220813751 0.00073971430538222193718 0.00056630768813192844391 0.00051277776947245001793 0.0011143999872729182243 0.00088841666001826524734 0.00087039999198168516159 0.0010476874886080622673 0.0011443125549703836441 0.00066656252602115273476 0.00043286668369546532631 0.00048164286999963223934 0.0011729374527931213379 0.0011461250251159071922 0.0012281249510124325752 0.0012324375566095113754 0.0012124000350013375282 0.0012789999600499868393 0.0010003125062212347984 0.00051766668912023305893 0.00070142856566235423088 0.00028578570345416665077 0.00034161537769250571728 0.00029087500297464430332 0.00049406249308958649635 0.00038924999535083770752 0.00059143750695511698723 0.0011135624954476952553 0.0010335624683648347855 0.00057224999181926250458 0.00079412502236664295197 0.0009485000045970082283 
0 0.00069131248164921998978 0.0010281249415129423141 0.0012269375147297978401 0.0012208125554025173187 0.0011993125081062316895 0.00016075000166893005371 0 0.00037012499524280428886 0.00088531250366941094398 0.0012150625698268413544 0.0011728750541806221008 0.0012333750491961836815 0.0012335624778643250465 0.0013505625538527965546 0.001208562520332634449 0.0011861249804496765137 0.0011469374876469373703 0.0013876250013709068298 0.0010300625581294298172 0.0011945625301450490952 0.0012725000269711017609 0.00092337501700967550278 0.00044524998520500957966 0.000852312485221773386 0.0011336875613778829575 0.00044887498370371758938 0.00089056248543784022331 0.00085093750385567545891 0.0013485000235959887505 0.00082150002708658576012 0.00092500000027939677238 0.00079362501855939626694 0.0011450625024735927582 0.00092237500939518213272 0.0011409375583752989769 9.8999997135251760483e-05 0.0012224374804645776749 0.00096412497805431485176 0.00065424997592344880104 0.0011053333291783928871 0.0010773750254884362221 0.00084312498802319169044 0.0010049999691545963287 0.001042437506839632988 0.001390250050462782383 0.0012125624343752861023 0.0011071874760091304779 0.00039612501859664916992 9.8999997135251760483e-05 0.00091043749125674366951 0.001125124981626868248 0.0010450625559315085411 0.00046500001917593181133 0.0007931875297799706459 0.0014135000528767704964 0.0013000000035390257835 0.00071562500670552253723 0.00052374997176229953766 0.00036866666050627827644 0.00078699999721720814705 0.00030681252246722579002 0.00023006250557955354452 0.0010267499601468443871 0.00096731248777359724045 0.00132356246467679739 0.00039793751784600317478 0.0012514374684542417526 0.0013463124632835388184 0.0012546250363811850548 0.0012517500435933470726 0.00088000000687316060066 0.00073074997635558247566 0.0014303750358521938324 0.00093874998856335878372 0.00069881248055025935173 9.8999997135251760483e-05 0.00035062499227933585644 9.8999997135251760483e-05 0.00072425004327669739723 0.00074637500802055001259 0.00090981251560151576996 0.0011013124603778123856 0.00022687499586027115583 0.00079418747918680310249 9.8999997135251760483e-05 9.8999997135251760483e-05 
5.5625001550652086735e-05 0.00083106249803677201271 0.0015013125957921147346 0.0014552500797435641289 0.001358187524601817131 0.0012550000101327896118 0.00060743751237168908119 1.237499964190647006e-05 7.4187497375532984734e-05 0.000976499984972178936 0.0009859999408945441246 0.0011028124717995524406 0.0010808125371113419533 0.0012275625485926866531 0.0012128124944865703583 0.0010791874956339597702 0.00090425001690164208412 0.0010988749563694000244 0.0012855000095441937447 0.001225062529556453228 0.001273687463253736496 0.001323812524788081646 0.00045843748375773429871 0.00055643747327849268913 0.00054518750403076410294 0.00064312503673136234283 0.00044462500954978168011 0.00021443750301841646433 0.00081843748921528458595 0.0010158125078305602074 0.00013718751142732799053 0.00087375001749023795128 0.00070774997584521770477 0.00059943750966340303421 0.00072368746623396873474 0.0010930624557659029961 0.00072881253436207771301 0.0012565000215545296669 0.0010687500471249222755 0.00082406250294297933578 0.00073466665344312787056 0.00055287498980760574341 0.00073600001633167266846 0.00099139998201280832291 0.00107518746517598629 0.0011972499778494238853 0.0011944375000894069672 0.001010625041089951992 9.8999997135251760483e-05 0.0001733749959385022521 0.00066669227089732885361 0.00054249999811872839928 0.00038887502159923315048 9.8999997135251760483e-05 0.00069237500429153442383 0.0013362499885261058807 0.0011803749948740005493 0.00086274999193847179413 0.00026207690825685858727 0 0.00019839999731630086899 0.0008241999894380569458 0.00072722224285826086998 0.00026083333068527281284 0.00067450001370161771774 0.00052311114268377423286 0.00014543750148732215166 0.00079069234197959303856 0.0013392000691965222359 0.0010773077374324202538 0.0012936874991282820702 0.0012048750650137662888 0.0012551537947729229927 0.0011333333095535635948 0.00066416664049029350281 0.00089137500617653131485 0.00044481249642558395863 0.0010339375585317611694 0.0003136250015813857317 0.00083981250645592808723 0.00058774999342858791351 0.00087643746519461274147 0.0012937500141561031342 0.00060893746558576822281 0.00096918747294694185257 0.0003575625014491379261 9.8999997135251760483e-05 
0.00011362500663381069899 0.0010678749531507492065 0.0014525625156238675117 0.0014251249376684427261 0.0014225000049918889999 0.001472937525250017643 0.00054618751164525747299 0.00073650002013891935349 0.00047387499944306910038 0.00033618748420849442482 0.00082249997649341821671 0.0010701874271035194397 0.0012733750045299530029 0.0012795624788850545883 0.0013528125127777457237 0.0011960625415667891502 0.001175187528133392334 0.0010960624786093831062 0.0012586874654516577721 0.0011335625313222408295 0.0011315625160932540894 0.00098468747455626726151 6.2437502492684870958e-05 0.0011398125207051634789 0.0003739999956451356411 0.00098843744490295648575 0.00086199998622760176659 0.00053431250853464007378 0.00086043751798570156097 0.00069668749347329139709 0.00037937500746920704842 0.0012921874877065420151 0.00054793746676295995712 0.00075268751243129372597 0.0013008124660700559616 0.001258000032976269722 0.0013392500113695859909 0.0011778125772252678871 0.0010049999691545963287 0.00059543747920542955399 0.00064849999034777283669 0.00062708335462957620621 0.00083749997429549694061 0.00085933331865817308426 0.0011059375246986746788 0.001274624955840408802 0.0011807499686256051064 0.00095725001301616430283 9.8999997135251760483e-05 0.00024774999474175274372 0.0010134285548701882362 0.00026516665820963680744 0.00057543750153854489326 9.8999997135251760483e-05 0.00065037497552111744881 0.0011993750231340527534 0.001225062529556453228 0.00076600001193583011627 0 0 8.3250000898260623217e-05 0.0011510000331327319145 0.0014316249871626496315 0.00092818750999867916107 0.00046568750985898077488 0.00088624999625608325005 0.0010033125290647149086 0.00076860003173351287842 0.00043250000453554093838 0.00044850000995211303234 0.0010012000566348433495 0.0012377500534057617188 0.0013980000512674450874 0.00073312502354383468628 0.0010297000408172607422 0.00052693748148158192635 0.00060274999123066663742 0.0011018124641850590706 0.00076249998528510332108 0.0010171874891966581345 0.00018912499945145100355 0.0013170000165700912476 0.0011988125042989850044 0.00040056247962638735771 0.0007461874629370868206 0.00043556251330301165581 9.8999997135251760483e-05 
0.00053949997527524828911 0.0011381874792277812958 0.0014306249795481562614 0.001456749974749982357 0.0014528124593198299408 0.0014791875146329402924 0.0008906875154934823513 0.0010204374557361006737 0.00095856247935444116592 0.00022112499573267996311 0.00033806249848566949368 0.00079043750884011387825 0.00096281251171603798866 0.0012923750327900052071 0.0014171249931678175926 0.0013001250335946679115 0.0013554999604821205139 0.001291312510147690773 0.0013287499314174056053 0.0012481249868869781494 0.001010562526062130928 0.0002285625087097287178 0.00055762496776878833771 0.0010470624547451734543 0.00084662501467391848564 0.00083475001156330108643 0.00030718749621883034706 0.00035225000465288758278 0.00091299996711313724518 0.0011306250235065817833 0.0010350624797865748405 0.00086193747119978070259 0.0009566874941810965538 0.00092093751300126314163 0.0009368750033900141716 0.0008972500218078494072 0.0010446874657645821571 0.001092562451958656311 0.00066775002051144838333 0.00094250001711770892143 0.0007065624813549220562 0.00076775002526119351387 0.0002217500004917383194 0.00068599998485296964645 0.0010684374719858169556 0.0011965625453740358353 0.00077456247527152299881 9.8999997135251760483e-05 9.8999997135251760483e-05 0.00052743748528882861137 0.00080974999582394957542 0.0009683750104159116745 0.00097733328584581613541 9.8999997135251760483e-05 0.00023537500237580388784 0.00079943751916289329529 0.0012219374766573309898 0.0010125000262632966042 0 0 0.00044358332525007426739 0.0011466875439509749413 0.0013216874795034527779 0.0012391874333843588829 0.0011964375153183937073 0.0013650000328198075294 0.0012541875476017594337 0.00082531251246109604836 0.00030574999982491135597 0.00050099997315555810928 0.00080119998892769217491 0.0011278750607743859291 0.0013888750690966844559 0.0012726250570267438889 0.0010508749401196837425 0.00066693749977275729179 0.0011051250621676445007 0.0011350625427439808846 0.00092268752632662653923 0.0013176875654608011246 0.00036937498953193426132 0.0008061249973252415657 0.0012626249808818101883 0.0012880624271929264069 0.0011053750058636069298 0.00081424997188150882721 0.00031050000688992440701 
0.00032125000143423676491 0.0010020000627264380455 0.0014358749613165855408 0.0014251249376684427261 0.0014225000049918889999 0.0015249999705702066422 0.0012708124704658985138 0.0012308750301599502563 0.0010713124647736549377 0.00025312497746199369431 0.00018537500000093132257 0.00094556249678134918213 0.0010667500318959355354 0.0012049374636262655258 0.0013821249594911932945 0.0012876874534413218498 0.0013757500564679503441 0.0012030624784529209137 0.0014025624841451644897 0.0012070625089108943939 0.0003748750023078173399 0.00095081247854977846146 0.0011718125315383076668 0.0010931249707937240601 0.0008160625002346932888 0.0015366249717772006989 0.00078449997818097472191 0.0012620624620467424393 0.0010514999739825725555 0.00060012500034645199776 0.0010608750162646174431 0.00056993751786649227142 0.00036506250035017728806 0.0010539374779909849167 0.00083131249994039535522 0.00070037500699982047081 0.00096450001001358032227 0.00025924999499693512917 0.0009718125220388174057 0.00071183335967361927032 0.0010914375307038426399 0.00097056251252070069313 0.00083237496437504887581 0.00098844442982226610184 0.001159250037744641304 0.0012346875155344605446 0.0010191875044256448746 0.00019374999101273715496 0.00023122222046367824078 0.0010004375362768769264 0.00077116664033383131027 9.8999997135251760483e-05 9.8999997135251760483e-05 0.00098513334523886442184 0.0010301249567419290543 0.00046381249558180570602 0.00070425000740215182304 0.0007065624813549220562 0.00037683334085159003735 7.6846154115628451109e-05 0.00077791663352400064468 0.00078868749551475048065 0.0011550624622032046318 0.0012859374983236193657 0.0014603125164285302162 0.0010866875527426600456 0.0011206874623894691467 0.0009105625213123857975 0.00084674998652189970016 0.00042415384086780250072 0.00053544447291642427444 0.001043500029481947422 0.0013183124829083681107 0.001092812512069940567 0.00087137497030198574066 0.00065850000828504562378 0.00071200000820681452751 0.00072281248867511749268 0.00095131254056468605995 0.00071356247644871473312 0.0010290624340996146202 0.00072537496453151106834 0.00025737500982359051704 0.00050762499449774622917 0.0010084999958053231239 0.00099518743809312582016 9.8999997135251760483e-05 
0.00095306249568238854408 0.0013605625135824084282 0.0014098749961704015732 0.0014662500470876693726 0.0014284375356510281563 0.0014595625689253211021 0.001407687552273273468 0.0011904374696314334869 0.0010854374850168824196 0.00014087499585002660751 0.00027525000041350722313 0.00066237500868737697601 0.0010941249784082174301 0.0012010000646114349365 0.0012726874556392431259 0.00095524999778717756271 0.0013460625195875763893 0.0012095625279471278191 0.0015142499469220638275 0.00060793745797127485275 0.00061487499624490737915 0.0010858749737963080406 0.001092312508262693882 0.00085768749704584479332 0.00097281252965331077576 0.0014541875571012496948 0.00094362499658018350601 0.0014523124555125832558 0.0013896250165998935699 0.0013294999953359365463 0.0011319374898448586464 0.0010966875124722719193 0.00019637499644886702299 0.00046700000530108809471 0.00075100001413375139236 0.00074687501182779669762 0.00072856247425079345703 0.00061262503731995820999 0.00060033332556486129761 0.00058812502538785338402 0.0013060000492259860039 0.00041575002251192927361 0.00091275002341717481613 0.0010993125615641474724 0.0013386874925345182419 0.0012708333088085055351 0.0005741249769926071167 9.8999997135251760483e-05 0.00080675003118813037872 0.0013146875426173210144 0.0011122500291094183922 0.00058762502158060669899 0.0011702500050887465477 0.001439562533050775528 0.0011278125457465648651 0.00086318753892555832863 0.00096712500089779496193 0.0010979999788105487823 0.00014333332364913076162 0.00032533332705497741699 0.00071475002914667129517 0.00029537500813603401184 0.00083999999333173036575 0.001223874976858496666 0.001324437558650970459 0.0013346250634640455246 0.00096331245731562376022 0.0008256249711848795414 6.1874998209532350302e-05 0.00015468749916180968285 0.0002341874933335930109 0.00090687500778585672379 0.0011869374429807066917 0.0011476250365376472473 0.0010936249746009707451 0.00086643750546500086784 0.00091231247643008828163 0.00098574999719858169556 0.00095399998826906085014 0.00069174997042864561081 0.00061387498863041400909 0.00072931253816932439804 0.00071606249548494815826 0.0010741874575614929199 0.00087425002129748463631 0.0005512500065378844738 9.8999997135251760483e-05 
0.0013954375172033905983 0.0013361874734982848167 0.0014010624727234244347 0.0013630000175908207893 0.0013104375684633851051 0.0014018125366419553757 0.0011832499876618385315 0.0010561875533312559128 0.00062862498452886939049 0.00025874999118968844414 0 0.00024912500521168112755 0.0010971250012516975403 0.0012278124922886490822 0.0011833125026896595955 0.0011549999471753835678 0.0013776250416412949562 0.0011767500545829534531 0.0014091250486671924591 0.00057893746998161077499 0.0011513124918565154076 0.0011974375229328870773 0.0010387499351054430008 0.0013464374933391809464 0.00084131251787766814232 0.00098837504629045724869 0.00092937500448897480965 0.00082349998410791158676 0.00037243749829940497875 0.00053487496916204690933 0.00045243749627843499184 0.00086493749404326081276 0.00042312499135732650757 0.00042556249536573886871 0.00022250000620260834694 0.0002039999963017180562 0.0008838750072754919529 0.00052210001740604639053 0.0010221250122413039207 0.00074537500040605664253 0.00070286664413288235664 0.00031774997478350996971 0.00105824996717274189 0.00084558333037421107292 0.00094600004376843571663 0.0011333124712109565735 0.001325200079008936882 0.00045600000885315239429 0.0012176875025033950806 0.0011391249718144536018 0.0010703749721869826317 0.0013488749973475933075 0.0014687499497085809708 0.0014274375280365347862 0.00098270003218203783035 0.00091325002722442150116 0.0011114999651908874512 0.00039925001328811049461 0 0 1.5230768440233077854e-05 0.0007164999842643737793 0.00054707692470401525497 0.00087324995547533035278 0.0010331538505852222443 0.0013595625059679150581 0.00059706252068281173706 0.00061831250786781311035 0.00074043753556907176971 0.00049200002104043960571 0.00019856249855365604162 0.00031368748750537633896 0.00075543753337115049362 0.00072118750540539622307 0.00073343748226761817932 0.00056800001766532659531 0.00078474998008459806442 0.0006388750043697655201 0.00052031251834705471992 0.00066481251269578933716 0.00041425001109018921852 0.0011594999814406037331 0.0010176249779760837555 0.0011455625062808394432 0.0011690625688061118126 0.0011402500094845890999 0.00094299996271729469299 
0.0014390000142157077789 0.0014163749292492866516 0.0014987499453127384186 0.0015198750188574194908 0.0014470624737441539764 0.0011381249641999602318 0.00092550000408664345741 0.00023693749972153455019 3.7124998925719410181e-05 0.00051018752856180071831 0.00087993749184533953667 0.0010573749896138906479 0.0010212500346824526787 0.0011669375235214829445 0.0010615624487400054932 0.0011196250561624765396 0.0013295625103637576103 0.0011209375225007534027 0.00095681252423673868179 0.0012379374820739030838 0.0015268124407157301903 0.001488624955527484417 0.0015083125326782464981 0.0015013124793767929077 0.00064512499375268816948 0.00018912499945145100355 0.00017056250362657010555 6.806249439250677824e-05 0.00076637498568743467331 0.0013703125296160578728 0.0012093749828636646271 0.00044100001105107367039 0.00073468749178573489189 0.00022356249974109232426 0.0011430624872446060181 0.00030957142007537186146 0.00062516663456335663795 0.00088787497952580451965 0.0013325000181794166565 0.00081512500764802098274 0.00037419999716803431511 0.00052412500372156500816 0.00072041666135191917419 0.00060221430612727999687 0.00086206250125542283058 0.0013998750364407896996 0.0012677500490099191666 0.00090956251369789242744 0.0012005624594166874886 0.0012428750051185488701 0.0012963749468326568604 0.0013001875486224889755 0.0014109375188127160072 0.0013854999560862779617 0.0012090833624824881554 0.00049985712394118309021 0.00046974999713711440563 0.00082740001380443572998 0.00041025000973604619503 0.00083912501577287912369 0.00057087501045316457748 0.00061262503731995820999 0.00083907140651717782021 0.0003631874860730022192 0.0006237999768927693367 0.00093325000489130616188 0.00019506248645484447479 0.00041968747973442077637 0.00070668751141056418419 0.00065237499075010418892 0.0006258750217966735363 9.8999997135251760483e-05 0.00024537500576116144657 0.00057656248100101947784 0.0009006250184029340744 0.00086143746739253401756 0.00059806247008964419365 0.00055993749992921948433 0.00023162500292528420687 0.0001733749959385022521 0.00048087502364069223404 0.0011001250240951776505 0.0008670624811202287674 0.00099118752405047416687 0.00081468751886859536171 0.0011298125609755516052 0.0010657500242814421654 
0.0013937499606981873512 0.0013676874805241823196 0.0015409999759867787361 0.0014987499453127384186 0.0014782500220462679863 0.0012704374967142939568 0.00054087501484900712967 6.1874998209532350302e-06 1.8562499462859705091e-05 0.00023737500305287539959 0.00099562504328787326813 0.0013094999594613909721 0.0011493749916553497314 0.00089675001800060272217 0.0010388749651610851288 0.00044187498860992491245 0.0010888124816119670868 0.0010193125344812870026 0.0012334999628365039825 0.001490124966949224472 0.0014948749449104070663 0.0014426874695345759392 0.0014865000266581773758 0.0013228125171735882759 0.001273812493309378624 0.00043400001595728099346 0.00059125002007931470871 0.0001548125001136213541 0.00069524999707937240601 0.00061950000235810875893 0.00052068749209865927696 4.9499998567625880241e-05 0.00013693749497178941965 0.00052831246284767985344 0.0007065624813549220562 0.00094031245680525898933 0.0010472499998286366463 0.0011005625128746032715 0.00029910000739619135857 0.00024212499556597322226 9.5928568043746054173e-05 0.00037250001332722604275 0.00071150000439956784248 0.00064424995798617601395 0.00076256250031292438507 0.00087975000496953725815 0.0010661249980330467224 0.0010783125180751085281 0.0013220624532550573349 0.0013361249584704637527 0.0013803124893456697464 0.0013520625652745366096 0.0011685624485835433006 0.0010398000013083219528 8.2499995187390595675e-05 0.0001278999989153817296 4.1249997593695297837e-05 0.00087437499314546585083 0.00036733332672156393528 0.00028589999419637024403 0.00033549999352544546127 0.0006371249910444021225 0.00051199999870732426643 0.00038949999725446105003 0.00099881249479949474335 0.0009088125079870223999 0.00065956253092736005783 0.00042081248830072581768 0.00028000000747852027416 0.00090456247562542557716 0.00013056250463705509901 0.0002988750056829303503 0.00047568749869242310524 0.0005228124791756272316 0.00057912501506507396698 0.00056662497809156775475 0.00042906249291263520718 0.00043824999011121690273 0.00033718749182298779488 0.00079856248339638113976 0.00095043750479817390442 0.0011378125054761767387 0.0012438750127330422401 0.0007893124711699783802 0.0012527500512078404427 0.0010191875044256448746 0.00043499999446794390678 
0.001191562507301568985 0.0014354374725371599197 0.0014987499453127384186 0.0015198750188574194908 0.001341124996542930603 0.0011776250321418046951 0.00079725001705810427666 0.00023106249864213168621 0.00019187500583939254284 0.0011070624459534883499 0.0014103124849498271942 0.0011986249592155218124 0.0010886250529438257217 0.0009166249656118452549 0.0010111250448971986771 0.0012725625419989228249 0.0011065624421462416649 0.0010663749417290091515 0.0014011875027790665627 0.0014698124723508954048 0.0013533750316128134727 0.0011148124467581510544 0.00068325002212077379227 0.00089074997231364250183 0.0010363125475123524666 0.001108750002458691597 0.00046774998190812766552 0.00018293749599251896143 0.00015725000412203371525 0.00034518749453127384186 0.00048306249664165079594 0.00026556249940767884254 0.00029018748318776488304 0.00070450000930577516556 0.00056143751135095953941 0.0011718749301508069038 0.00093031249707564711571 0.00089979998301714658737 0.00052866665646433830261 0.00024481248692609369755 0.00037333331420086324215 0.0012510999804362654686 0.0014436428900808095932 0.00051988888299092650414 0.00056706246687099337578 0.00088192307157441973686 0.00091399997472763061523 0.0010578000219538807869 0.0011844999389722943306 0.0012040624860674142838 0.001258000032976269722 0.0012269000289961695671 0.001054083346389234066 0.00030949999927543103695 0.00037015383713878691196 0.00044707691995427012444 0.001042285701259970665 0.00085900002159178256989 0.00032569229369983077049 0.00040849999641068279743 0.00086291669867932796478 0.00054099998669698834419 0.00055891665397211909294 0.0009502500179223716259 0.000384749990189447999 0.00031868749647401273251 0.00026637499104253947735 0.00012362499546725302935 0.00018912499945145100355 0.00017056250362657010555 0.00051081250421702861786 0.001158875063993036747 0.00036737500340677797794 0.00070237502222880721092 0.00022425000497605651617 0.00048275000881403684616 0.00059706252068281173706 0.00060818751808255910873 0.00053568748990073800087 0.00054962496506050229073 0.0013376249698922038078 0.0012508749496191740036 0.0012388124596327543259 0.00065231247572228312492 0.0012316874926909804344 0.00064356252551078796387 0.00045425002463161945343 
0.0010955624748021364212 0.0014899999368935823441 0.0015322499675676226616 0.0014791875146329402924 0.0013930000131949782372 0.001340062473900616169 0.00048087502364069223404 8.6874999396968632936e-05 0.00088156247511506080627 0.0015151249244809150696 0.0012008750345557928085 0.00048181248712353408337 0.00043200000072829425335 0.00018912499945145100355 0.00042406248394399881363 0.0012570000253617763519 0.0010214374633505940437 0.0012660624925047159195 0.001505624968558549881 0.0014591874787583947182 0.0014220625162124633789 0.00098737503867596387863 0.0010481874924153089523 0.0010369374649599194527 0.00059199996758252382278 0.00058125000214204192162 0.0004451874992810189724 0.00049218750791624188423 9.8999997135251760483e-05 8.0437501310370862484e-05 2.4749999283812940121e-05 6.9749999966006726027e-05 0.00057564285816624760628 0.00044926666305400431156 0.0007449375116266310215 0.00063277775188907980919 9.8999997135251760483e-05 0.00056008331011980772018 0.00030066666658967733383 6.600000051548704505e-05 0.00017324999498669058084 0.00067500001750886440277 0.0011886666761711239815 0.00081483332905918359756 0.00089324999134987592697 0.0011010000016540288925 0.00077035714639350771904 0.0010455000447109341621 0.00099518743809312582016 0.00086162501247599720955 0.0010058125481009483337 0.0010299285640940070152 0.00081724999472498893738 0.00032384615042246878147 0.00062676920788362622261 0.0009922666940838098526 0.00059524999232962727547 0.00084107695147395133972 0.00073133333353325724602 0.00048407691065222024918 0.00078633334487676620483 0.00063021428650245070457 0.00050583330448716878891 0.00064866663888096809387 0.00039206250221468508244 0.00016624999989289790392 6.1874998209532350302e-05 0.00023949999012984335423 0.00054643751354888081551 5.5687498388579115272e-05 0.00040575000457465648651 0.00023618749401066452265 9.8999997135251760483e-05 9.8999997135251760483e-05 0.00063974998192861676216 0.00087968748994171619415 0.00065256247762590646744 0.00067662500077858567238 0.0003589374828152358532 0.00058799999533221125603 0.00086425000336021184921 0.0011805000249296426773 0.001207937486469745636 0.0009468125062994658947 0.0010155624477192759514 0.00077531248098239302635 0.00050600001122802495956 
0.0005844375118613243103 0.0013443124480545520782 0.001456875004805624485 0.001506312517449259758 0.0011886249994859099388 0.0009153124992735683918 7.5187497714068740606e-05 0.00051068753236904740334 0.001242062542587518692 0.0015307499561458826065 0.0014363124500960111618 0.00094612501561641693115 0.0006604375084862112999 0.00071606249548494815826 0.00066906248684972524643 0.0011338124750182032585 0.0011068750172853469849 0.001192125026136636734 0.0012565000215545296669 0.00096168753225356340408 0.0012881250586360692978 0.00060062500415369868279 0.00078750000102445483208 0.00051037501543760299683 0.00070906250039115548134 0.00090226670727133750916 0.00048783331294544041157 0.0010149285662919282913 0.00036593750701285898685 8.0437501310370862484e-05 0.00058993749553337693214 0.00078066665446385741234 0.00035087499418295919895 0.00056276924442499876022 0.0011034614872187376022 0.00032833334989845752716 0.00033933331724256277084 0.00018078570428770035505 3.7124998925719410181e-05 8.6624997493345290422e-05 0.00018266667029820382595 0.0010295000392943620682 0.00088309997227042913437 0.0010318750282749533653 0.0011700000613927841187 0.001136333332397043705 0.0011526000453159213066 0.00088585715275257825851 0.001107923104427754879 0.0009191666613332927227 0.0011064999271184206009 0.00056040001800283789635 0.00024106250202748924494 0.00094430765602737665176 0.00060483335983008146286 0.00087369233369827270508 0.00070500001311302185059 0.00069406250258907675743 9.5222225354518741369e-05 2.6399999114801175892e-05 0.00060989998746663331985 0.00060962501447647809982 0.00033877778332680463791 0.00069646153133362531662 0.00068437500158324837685 0.00071931252023205161095 0.00071118748746812343597 0.00028700000257231295109 0.00039143749745562672615 0.00072368746623396873474 9.8999997135251760483e-05 9.8999997135251760483e-05 9.8999997135251760483e-05 9.8999997135251760483e-05 0.00018912499945145100355 0.00081737502478063106537 0.00039818749064579606056 0.00049812498036772012711 0.00079799996456131339073 0.00066293752752244472504 0.00060868752188980579376 0.0010624375427141785622 0.0012337500229477882385 0.001323812524788081646 0.001158062485046684742 0.0009153124992735683918 0.00086250004824250936508 
0.001209187554195523262 0.0013518750201910734177 0.0014381875516846776009 0.0012991250259801745415 0.0010031249839812517166 0.00060662499163299798965 0.00032900000223889946938 0.0011658124858513474464 0.0014428124995902180672 0.0013031874550506472588 0.0010735000250861048698 0.00050875003216788172722 0.00065475003793835639954 0.00067818746902048587799 0.00063787499675527215004 0.00066193751990795135498 0.0011120624840259552002 0.00060018751537427306175 0.0013208750169724225998 0.0013509375276044011116 0.0013946250546723604202 0.00063218752620741724968 0.00053506251424551010132 0.0010749375214800238609 0.00082112499512732028961 0.00078416668111458420753 0.00044793749111704528332 0.00053037499310448765755 9.8999997135251760483e-05 6.364285218296572566e-05 0.00022587500279769301414 0.00064169999677687883377 0.0006172499852254986763 0.00078860000940039753914 0.00083787500625476241112 0.00069899996742606163025 0.00048293749568983912468 0.00068325002212077379227 8.9099994511343538761e-05 0.00027925000176765024662 0.00066239997977390885353 0.0011655833804979920387 0.001208500005304813385 0.0013262500287964940071 0.0010518749477341771126 0.0011528125032782554626 0.0011694375425577163696 0.0011170000070706009865 0.00027399999089539051056 0.00058537500444799661636 0.0011403125245124101639 0.00043912499677389860153 0.00013699999544769525528 0.00025016666040755808353 0.00016708332987036556005 0.00093268754426389932632 0.00038441666401922702789 0.0002260000037495046854 0.0005576874827966094017 0.00034621427766978740692 0.00073775002965703606606 0.00092608336126431822777 0.0013861249899491667747 0.0012883750023320317268 0.0011659375159069895744 0.0013492499710991978645 0.00093656248645856976509 0.00035162499989382922649 0.001373937469907104969 0.00076762499520555138588 0.00013343749742489308119 9.8999997135251760483e-05 9.8999997135251760483e-05 9.8999997135251760483e-05 9.8999997135251760483e-05 0.00045950000640004873276 0.00042506249155849218369 0.00069506251020357012749 0.00046437498531304299831 0.00076968746725469827652 0.00072393752634525299072 0.001091624959371984005 0.0011005625128746032715 0.0012056875275447964668 0.0011359375203028321266 0.00053162500262260437012 0.00061925000045448541641 
0.0015200000489130616188 0.0015013125957921147346 0.0014341250061988830566 0.0011656250571832060814 0.00030562499887309968472 1.8562499462859705091e-05 0.00048200000310316681862 0.0014058750821277499199 0.0011336875613778829575 0.00140656251460313797 0.00094012502813711762428 0.00050406251102685928345 0.00098050001543015241623 0.00088518747361376881599 0.00064862502040341496468 0.00081181252608075737953 0.001025749952532351017 0.0010147499851882457733 0.00057874998310580849648 0.00029974998324178159237 0.00023587500618305057287 0.00045168751967139542103 0.0010062500368803739548 0.0011504375142976641655 0.00028024998027831315994 9.8999997135251760483e-05 9.8999997135251760483e-05 0.00048449999303556978703 0.00044733332470059394836 0.00044299999717622995377 9.2812493676319718361e-05 9.8999997135251760483e-05 9.8999997135251760483e-05 9.8999997135251760483e-05 0.000214416664675809443 0.00035308333463035523891 0.00064600002951920032501 0.00053987500723451375961 0.00046315384679473936558 0.00041608331957831978798 0.00037650001468136906624 0.00046341665438376367092 0.0011901999823749065399 0.0007602222030982375145 0.00040099999750964343548 0.001042749965563416481 0.0012020999565720558167 0.0011187000200152397156 0 0.0003610000130720436573 0.00078411109279841184616 0.00060224998742341995239 0.00082237500464543700218 9.8999997135251760483e-05 0.00032990000909194350243 0.00036249999538995325565 0.00021124999329913407564 2.9699998776777647436e-05 0.0002955000090878456831 0.00046155555173754692078 0.00021458334231283515692 0.0013731875224038958549 0.0012438750127330422401 0.0010560000082477927208 0.0012441874714568257332 0.0012157500023022294044 0.00044274999527260661125 0.00054599996656179428101 0.00028337500407360494137 0.00025256248773075640202 0.00040106248343363404274 9.2812493676319718361e-05 9.8999997135251760483e-05 9.8999997135251760483e-05 9.8999997135251760483e-05 0.00024737499188631772995 0.000405500002671033144 0.00026831249124370515347 0.00039768748683854937553 0.00081975001376122236252 0.00053606252186000347137 0.00073024997254833579063 0.00065981247462332248688 0.00059750000946223735809 0.00092606246471405029297 0.0009153124992735683918 0.0006534999702125787735 
0.001489500049501657486 0.00129068747628480196 0.0013138749636709690094 0.00071318750269711017609 0.00013649999164044857025 0 0.0012349374592304229736 0.0010733749950304627419 0.00091012503253296017647 0.00056249997578561306 0.00057249999372288584709 0.0003865000035148113966 0.0010542500531300902367 0.0010558749781921505928 0.0010716250399127602577 0.00083987496327608823776 0.00096999999368563294411 0.0009420625283382833004 0.00057537498651072382927 0.00090256251860409975052 0.00061681249644607305527 0.00044093749602325260639 0.00094631250249221920967 0.00089937500888481736183 0.00039574998663738369942 9.8999997135251760483e-05 8.0437501310370862484e-05 2.1214285879977978766e-05 0.0003248888824600726366 0.00065046665258705615997 0.00034744443837553262711 0.00012731249444186687469 9.8999997135251760483e-05 8.8000000687316060066e-05 0.00019046667148359119892 0.00025362501037307083607 0.00051685713697224855423 0.00062474998412653803825 0.00070955557748675346375 0.0005465000285767018795 0.00050484616076573729515 9.8999997135251760483e-05 0.00036900001578032970428 0.00024353332992177456617 0.00085662503261119127274 0.00095900002634152770042 0.0011734999716281890869 0.001191625022329390049 0 0.00057725002989172935486 0.00040390001959167420864 0.00039066665340214967728 0.00076580001041293144226 0.00030833334312774240971 0.00021607692178804427385 0.0001051875005941838026 0.00039450000622309744358 0.00022469231043942272663 0.00016830769891384989023 3.9200000173877924681e-05 0.00019838461594190448523 0.0011781250359490513802 0.0012182500213384628296 0.0010535625042393803596 0.0011907500447705388069 0.0012105000205338001251 0.00027399999089539051056 0.0005033750203438103199 0.00013193750055506825447 0.00046968748210929334164 0.00030918748234398663044 0.00050912500591948628426 0.00012731249444186687469 9.8999997135251760483e-05 9.8999997135251760483e-05 9.8999997135251760483e-05 0.00018912499945145100355 9.8999997135251760483e-05 0.00027925000176765024662 0.00081412500003352761269 0.00044056249316781759262 9.8999997135251760483e-05 9.8999997135251760483e-05 9.8999997135251760483e-05 0.00032868748530745506287 0.0010720625286921858788 0.0011847499990835785866 
0.0012289375299587845802 0.0012633125297725200653 0.0011576875112950801849 0 0.00033681248896755278111 0.0005896250368095934391 0.0012781874975189566612 0.00098893756512552499771 0.00058612501015886664391 0.00045481251436285674572 0.00047143749543465673923 0.00048300001071766018867 0.0011467500589787960052 0.00092062499606981873512 0.00070387503365054726601 0.00055006251204758882523 0.00073931249789893627167 0.0005081249983049929142 9.8999997135251760483e-05 0.0003153124998789280653 0.00083618750795722007751 0.00044081249507144093513 0.00040671430178917944431 0.00073616666486486792564 0.00080186664126813411713 0.00090176926460117101669 0.00032316666329279541969 7.4900002800859510899e-05 9.8999997135251760483e-05 0.00015320000238716602325 0.00073926668846979737282 0.00051877781515941023827 0.00040291665936820209026 9.8999997135251760483e-05 0.00013741666043642908335 9.8999997135251760483e-05 9.8999997135251760483e-05 7.4249997851438820362e-05 0.00048233335837721824646 0.00066916667856276035309 0.00020669230434577912092 0.00017242856847587972879 0.00094737502513453364372 0.00065968750277534127235 0.001175499986857175827 0.0011071874760091304779 0.0011780714849010109901 0.00085258332546800374985 0.00019880000036209821701 0.00052212498849257826805 0.00062730768695473670959 0.00032064286642707884312 0.00034349999623373150826 0.00046375000965781509876 0.00046393333468586206436 0.00021361539256758987904 0.00034389999927952885628 7.615384220116538927e-06 0 3.0461536880466155708e-05 0.00071866670623421669006 0.0010811875108629465103 0.00052711111493408679962 0.0012470768997445702553 0.0012174999574199318886 0.00087931251619011163712 0.00035899999784305691719 0.00083406252088025212288 0.00052012503147125244141 0.00065887498203665018082 0.0001237499964190647006 0.00066218746360391378403 0.00036512498627416789532 0.00027681249775923788548 0.00016756249533500522375 9.8999997135251760483e-05 9.8999997135251760483e-05 9.8999997135251760483e-05 0.00018912499945145100355 0.00095474999397993087769 0.0003955624997615814209 9.8999997135251760483e-05 9.8999997135251760483e-05 0.0001691249926807358861 0.00063156249234452843666 0.0010379999876022338867 0.0013699999544769525528 
0.0014716875739395618439 0.0012288750149309635162 0.00080893753329291939735 8.0562502262182533741e-05 0.00051106250612065196037 0.0010978125501424074173 0.00084525003330782055855 0.00092987500829622149467 0.0010468125110492110252 0.00072093750350177288055 0.00072599999839439988136 0.0008178125135600566864 0.00047856249148026108742 0.00067606248194351792336 0.00048818750656209886074 0.00040124999941326677799 0.00082193751586601138115 0.0008161250152625143528 0.00092531251721084117889 0.0011103125289082527161 0.00064475002000108361244 0.00053620000835508108139 0.00037187500856816768646 0.00096791668329387903214 0.00080530002014711499214 0.0010099333012476563454 0.0010980833321809768677 0.00068900000769644975662 0.001037583337165415287 0.00056055554887279868126 0.00087388890096917748451 0.00051133334636688232422 0.0006168333347886800766 0.00045779999345541000366 0.00027925000176765024662 9.8999997135251760483e-05 0.00025166667182929813862 0.00027180000324733555317 0.00030899999546818435192 0.00017533333448227494955 0.00028038461459800601006 7.4249997851438820362e-05 0.0010204999707639217377 0.00112499995157122612 0.0010697500547394156456 0.00087281252490356564522 0.00085210002725943922997 0.00052308331942185759544 0.0010816153371706604958 0.0010256875539198517799 0.0010998125653713941574 0.0010070999851450324059 0.0011392000596970319748 0.0011571875074878334999 0.00053184619173407554626 0.00034666666761040687561 0.0012030624784529209137 0.00026699999580159783363 0.00050060002831742167473 0.00016737500845920294523 0.001060500042513012886 0.0010208750609308481216 0.00015599999460391700268 0.0011266875080764293671 0.0011891250032931566238 0.0011470000026747584343 0.0011173749808222055435 0.0011651250533759593964 0.0010958125349134206772 0.00092175003373995423317 0.00077412498649209737778 0.00043618748895823955536 0.000736750022042542696 0.0005559999844990670681 0.00048087499453686177731 0.00025293749058619141579 9.8999997135251760483e-05 0.000285499991150572896 0.00027525000041350722313 0.00087400001939386129379 0.00050356250721961259842 9.8999997135251760483e-05 9.8999997135251760483e-05 0.00074706249870359897614 0.001010125037282705307 0.0013438749592751264572 0.0014787500258535146713 
0.0012776874937117099762 0.0010708749759942293167 0.00024881248828023672104 0.00044787500519305467606 0.0012340624816715717316 0.00072181253926828503609 0.00032200000714510679245 0.0007958749774843454361 0.00045024999417364597321 0.00020206249610055238008 0.00048337498446926474571 0.00071024999488145112991 0.00098206254187971353531 0.0010706875473260879517 0.00058556249132379889488 0.0008328750263899564743 0.00065881252521649003029 0.00090293749235570430756 0.0010930624557659029961 0.00097112497314810752869 0.0010139285586774349213 0.00073349999729543924332 0.00053775002015754580498 0.0011096249800175428391 0.00074789999052882194519 0.00062850001268088817596 0.00072033330798149108887 0.00084474997129291296005 0.00059299997519701719284 0.00080959999468177556992 0.00045550000504590570927 9.8999997135251760483e-05 9.8999997135251760483e-05 9.8999997135251760483e-05 0.00053159997332841157913 0.00037250001332722604275 0.00051149999490007758141 0.00034525000955909490585 0.00041637499816715717316 0.00069074996281415224075 0.00035250000655651092529 7.4249997851438820362e-05 0.00060933333588764071465 0.00096890004351735115051 0.00055500003509223461151 0.001008999999612569809 0.0010964999673888087273 0.0013147500576451420784 0.0010224999859929084778 0.0012042500311508774757 0.0010198999661952257156 0.0010023750364780426025 0.0014002500101923942566 0.0013383125187829136848 0.0010441874619573354721 0.0012094374978914856911 0.0011331667192280292511 0 0.00029900000663474202156 0.00030789998709224164486 0.0007500625215470790863 0.0009501875028945505619 0.00076862500282004475594 0.00076399999670684337616 0.0010509374551475048065 0.0011719374451786279678 0.0014283750206232070923 0.0010948750423267483711 0.0011955000227317214012 0.00076824997086077928543 0.0012660624925047159195 0.00057650002418085932732 0.00055537500884383916855 0.00070874998345971107483 0.00017943749844562262297 0.00034031248651444911957 0.00059293751837685704231 0.00060068751918151974678 0.00045393750770017504692 0.00085993751417845487595 0.00064425001619383692741 9.8999997135251760483e-05 0.00024168749223463237286 0.00037368750781752169132 0.0011634374968707561493 0.001192250056192278862 0.0012437499826774001122 
0.00097537500550970435143 0.0004270625067874789238 0.00059025001246482133865 0.0011732500279322266579 0.0010572500759735703468 0.00084231252549216151237 0.00075549999019131064415 0.00048718749894760549068 0.00046043749898672103882 0.00041924999095499515533 0.00068337499396875500679 0.00072424998506903648376 0.00096600002143532037735 0.0010131874587386846542 0.00093600002583116292953 0.0010063125519081950188 0.0010931249707937240601 0.0012386250309646129608 0.00077618751674890518188 0.0011353124864399433136 0.00083766668103635311127 9.8999997135251760483e-05 0.00082130002556368708611 0.00096068752463907003403 0.00023977778619155287743 0.00083644443657249212265 0.00020992307690903544426 0.00026075000641867518425 9.8999997135251760483e-05 9.8999997135251760483e-05 0.00032474999898113310337 9.8999997135251760483e-05 9.8999997135251760483e-05 0.00069983332650735974312 0.00087546149734407663345 0.00033738461206667125225 0.00017818750347942113876 0.00031462500919587910175 9.8999997135251760483e-05 0.00035975000355392694473 0.00047033335431478917599 0.00059328571660444140434 0.0010636249789968132973 0.0010969374561682343483 0.0010445000370964407921 0.0011500000255182385445 0.0010554000036790966988 0.0010540714720264077187 0.0010858749737963080406 0.0010574375046417117119 0.001081266673281788826 0.00099169998429715633392 0.0012216250179335474968 0.001224249950610101223 0.0014338125474750995636 0.0015322499675676226616 0.0013655000366270542145 0.00075091666076332330704 3.9599999581696465611e-05 0.00019041667110286653042 0.001010125037282705307 0.0003898750001098960638 0.00069437501952052116394 0.0011149999918416142464 0.0011012500617653131485 0.0011865624692291021347 0.0011930000036954879761 0.0009700625087134540081 0.00049725000280886888504 0.0010498125338926911354 0.0011008749715983867645 0.00040381250437349081039 0.00072937499498948454857 0.00097618752624839544296 8.5937499534338712692e-05 0.00031687499722465872765 0.00049456249689683318138 0.00093812501290813088417 0.00059818750014528632164 0.00060287502128630876541 0.000753125001210719347 0.0010716250399127602577 0.0010389374801889061928 0.00055243750102818012238 0.00020624999888241291046 0.0011806875700131058693 0.0013985000550746917725 
0.00065112498123198747635 0 0.00066487502772361040115 0.00052343751303851604462 0.0011012500617653131485 0.0011436250060796737671 0.00081774999853223562241 0.00069249997613951563835 0.0010636874940246343613 0.0010169375455006957054 0.00078574998769909143448 0.000943750026635825634 0.00060700002359226346016 0.00054537499090656638145 0.0010531875304877758026 0.00075900001684203743935 0.0010318750282749533653 0.00047906249528750777245 0.00069881248055025935173 0.00085106247570365667343 0.00078683334868401288986 9.8999997135251760483e-05 9.8999997135251760483e-05 0.00025111110880970954895 0.0004561000096146017313 0.00030955555848777294159 0.00048122223233804106712 0.00049424997996538877487 0.00011923076817765831947 5.7749999541556462646e-05 0.00023419999342877417803 0.00011907691805390641093 9.8999997135251760483e-05 0.00052644446259364485741 0.00062300002900883555412 0.00043899999582208693027 9.8999997135251760483e-05 9.8999997135251760483e-05 0.00062716670800000429153 0.0011124999728053808212 0.00075062504038214683533 0.0010866250377148389816 0.0010954999597743153572 0.0010969999711960554123 0.0011061874683946371078 0.0012960833264514803886 0.00084235717076808214188 0.00087837502360343933105 0.0012118124868720769882 0.00085449998732656240463 0.00095846154727041721344 0.0010152499889954924583 0.00080031249672174453735 0.00080650002928450703621 0.0013589374721050262451 0.0014782500220462679863 0.0015142499469220638275 0.001274937530979514122 0.00082731252769008278847 0.00052984617650508880615 0.0011116875102743506432 0.00049806252354755997658 0.00013643750571645796299 0.00096437497995793819427 0.0010275000240653753281 0.0012331249890848994255 0.0014129375340417027473 0.00060481252148747444153 0.00079687498509883880615 0.0012034999672323465347 0.00084768753731623291969 0.00061124999774619936943 0.0011511250631883740425 0.0012115625431761145592 0.00057350000133737921715 0.00097993749659508466721 0.00081425003008916974068 0.001290312502533197403 0.0011459374800324440002 0.00035743750049732625484 0.0011743750656023621559 0.0011540625710040330887 0.00076106248889118432999 0.00085762498201802372932 0.0012033125385642051697 0.00070162501651793718338 0.00099475006572902202606 
0.00045968749327585101128 0.00012487500498536974192 0.00098699994850903749466 0.001340750022791326046 0.0011220000451430678368 0.0009083749609999358654 0.00073931249789893627167 0.00048800001968629658222 0.00052912498358637094498 0.00060637498972937464714 0.00035993749042972922325 0.00058950000675395131111 0.0011380625655874609947 0.00048431250615976750851 0.00055187498219311237335 0.00076899997657164931297 0.00086518749594688415527 0.0011651250533759593964 0.00076893751975148916245 0.00097153848037123680115 0.0005663125193677842617 0.00056456250604242086411 0.00024399999529123306274 0.00047841668128967285156 0.00075822218786925077438 0.00043777778046205639839 0.00057631247909739613533 0.0007981000235304236412 0.00021149999520275741816 0.00050316669512540102005 0.00012077778228558599949 0.00040424999315291643143 0.00027312498423270881176 9.8999997135251760483e-05 9.8999997135251760483e-05 0.00017324999498669058084 0.00032799999462440609932 0.00024749999283812940121 0.00034888889058493077755 0.00081674999091774225235 0.00077231251634657382965 0.00052125001093372702599 0.00093437498435378074646 0.00079537497367709875107 0.0012794999638572335243 0.0011403845855966210365 0.0011068572057411074638 0.00089112500427290797234 0.00050407694652676582336 0.00051318749319761991501 9.8999997135251760483e-05 0.00024612501147203147411 9.8999997135251760483e-05 9.8999997135251760483e-05 0.00090830767294391989708 0.0012642308138310909271 0.0012389374896883964539 0.0010979999788105487823 0.0011637777788564562798 0.00092531251721084117889 0.00082756252959370613098 0.00048118751146830618382 0 0.00025693749194033443928 0.0011548750335350632668 0.0011498124804347753525 0.0013757500564679503441 0.00075087498407810926437 0.0010143124964088201523 0.00097675004508346319199 0.0001945625117514282465 0.00058762502158060669899 0.00077056250302121043205 0.00076706253457814455032 0.00037993749720044434071 0.00069000001531094312668 0.00081699999282136559486 0.0012423750013113021851 0.0013691874919459223747 0.00080674997298046946526 0.0005792499869130551815 0.00061162502970546483994 0.0005858124932274222374 0.00099049997515976428986 0.0013938124757260084152 0.0013553750468418002129 0.00080949999392032623291 
0.00021006249880883842707 0.00043743749847635626793 0.0012897499836981296539 0.0013702500145882368088 0.00117612502072006464 0.00097368750721216201782 0.00064268748974427580833 0.0007398125017061829567 0.00064737501088529825211 0.00070862501161172986031 0.00034131249412894248962 0.0003303750127088278532 0.00052481249440461397171 0.00086637499043717980385 0.00070987502112984657288 0.00088349997531622648239 0.00088412500917911529541 0.0011468124575912952423 0.00057564285816624760628 0.00029840000206604599953 0.00073281250661239027977 0.00074431247776374220848 0.0010641874978318810463 0.00084622221766039729118 0.0002431999891996383667 0.00099411106202751398087 0.0009445333271287381649 0.00061914284015074372292 0.00034166665864177048206 0.00030700000934302806854 0.00041208334732800722122 0.00012509999214671552181 9.8999997135251760483e-05 0.00041280000004917383194 9.8999997135251760483e-05 7.6999996963422745466e-05 0.00029050000011920928955 0.00061514286790043115616 0.00073618750320747494698 0.00052316667279228568077 0.00098306662403047084808 0.00048778572818264365196 0.0014080625260248780251 0.0011135624954476952553 0.001241500023752450943 0.0013948749983683228493 0.0015433749649673700333 0.0011952499626204371452 0.0011153332889080047607 0.00060781248612329363823 9.8999997135251760483e-05 9.8999997135251760483e-05 9.8999997135251760483e-05 9.8999997135251760483e-05 0.0011657499708235263824 0.0012365555157884955406 0.0011259999591857194901 0.0012668750714510679245 0.001175312558189034462 0.0010797500144690275192 0.00066806247923523187637 0.00015000000712461769581 0 0.00098462495952844619751 0.0012146874796599149704 0.001506062457337975502 0.0014659999869763851166 0.00084150000475347042084 0.0010577499633654952049 0.00088093749945983290672 0.00083450000965967774391 0.00037987501127645373344 0.00055712502216920256615 0.0011274999706074595451 0.00077450001845136284828 0.0010021249763667583466 0.00068268750328570604324 0.0011006250279024243355 0.0011016875505447387695 0.0014642500318586826324 0.0013535624602809548378 0.00057500001275911927223 0.00079081254079937934875 0.0011815625475719571114 0.0011773125734180212021 0.0013276250101625919342 0.00080949999392032623291 
0.00027006250456906855106 0.00088718748884275555611 0.0014850625302642583847 0.0013607500586658716202 0.0012353125493973493576 0.0011147499317303299904 0.00084956252248957753181 0.0007268125191330909729 0.00050943752285093069077 0.00078837503679096698761 0.00040862499736249446869 0.00031937498715706169605 0.00074824999319389462471 0.00081518752267584204674 0.00049980002222582697868 9.8999997135251760483e-05 0.00083124998491257429123 0.00052712502656504511833 0.00014712499978486448526 0.00058649998391047120094 0.00037771428469568490982 9.8999997135251760483e-05 0.00085625000065192580223 0.00021949998335912823677 0.00024271427537314593792 0.00027058331761509180069 0.00028949999250471591949 0.00093962496612221002579 0.00096999999368563294411 0.0011376874754205346107 0.0013366250786930322647 0.00091007142327725887299 0.00043025001650676131248 8.2499995187390595675e-05 0.00085089995991438627243 0.00057937495876103639603 1.237499964190647006e-05 0.00078712502727285027504 0.0007781428867019712925 9.8999997135251760483e-05 0.00037324998993426561356 0.0011061249533668160439 0.0013515000464394688606 0.00143907137680798769 0.0015155000146478414536 0.0014327500248327851295 0.0015409999759867787361 0.001241812482476234436 0.0013734167441725730896 0.00045425002463161945343 9.8999997135251760483e-05 9.8999997135251760483e-05 9.8999997135251760483e-05 9.8999997135251760483e-05 0.0011867999564856290817 0.00097618752624839544296 0.0013481250498443841934 0.0012775000650435686111 0.0012218125630170106888 0.00087187497410923242569 0.0011235000565648078918 0.00015781249385327100754 0 0.001324250013567507267 0.0012635624734684824944 0.0014158750418573617935 0.0014298125170171260834 0.0010074374731630086899 0.00097556249238550662994 0.00060687499353662133217 0.00050249998457729816437 0.0003467499918770045042 0.00085468753241002559662 0.0010068125557154417038 0.0010909375268965959549 0.0010251250350847840309 0.00092512497212737798691 0.0013151875464245676994 0.0015411875210702419281 0.0015034375246614217758 0.0014006874989718198776 0.0012341875117272138596 0.00057425000704824924469 0.0013773125829175114632 0.0011569999624043703079 0.0005494999932125210762 9.8999997135251760483e-05 
0.00049906247295439243317 0.0012905000476166605949 0.0013793124817311763763 0.0012446249602362513542 0.0008226250065490603447 0.0011022499529644846916 0.0011191249359399080276 0.00056668749311938881874 0.0001928124984260648489 0.00077081250492483377457 0.0011228125076740980148 0.00088146154303103685379 0.0012402000138536095619 0.0011009374866262078285 0.0011796153848990797997 0.0010346875060349702835 0.00024315384507644921541 0.00065166666172444820404 0.00094800000078976154327 0.00028999999631196260452 5.499999679159373045e-05 9.8999997135251760483e-05 9.8999997135251760483e-05 9.8999997135251760483e-05 9.8999997135251760483e-05 2.2000000171829015017e-05 0.0002265555522171780467 0.00095508334925398230553 0.00062788889044895768166 0.0011954614892601966858 0.0010283846640959382057 0.00070733332540839910507 3.3000000257743522525e-05 1.3199999557400587946e-05 0.0010361111490055918694 0.0010250000050291419029 0.0012012500083073973656 9.8999997135251760483e-05 0.00018469231144990772009 0.0002242499904241412878 0.00040987500688061118126 0.0011225000489503145218 0.00096640002448111772537 0.0010321333538740873337 0.0014763125218451023102 0.0015409999759867787361 0.0015409999759867787361 0.00078379997285082936287 0.00072869233554229140282 0.00076608330709859728813 9.8999997135251760483e-05 9.8999997135251760483e-05 9.8999997135251760483e-05 0.0008803333621472120285 0.00092233333270996809006 0.0012297499924898147583 0.0010915833991020917892 0.0012361666886135935783 0.0011331667192280292511 0.0011884999694302678108 0.0012560625327751040459 0.00083643750986084342003 0.00052649999270215630531 0.00096156250219792127609 0.00086675002239644527435 0.0013123125536367297173 0.00132456247229129076 0.00099199998658150434494 0.0003666249976959079504 0.00059143750695511698723 0.00038712500827386975288 0.00083187501877546310425 0.00076262501534074544907 0.00096525001572445034981 0.00083650002488866448402 0.0010656249942258000374 0.00098631251603364944458 0.0012876250548288226128 0.0015021874569356441498 0.0013185000279918313026 0.0013226874871179461479 0.0011470625177025794983 0.0013633124763146042824 0.0013183749979361891747 0.0012696250341832637787 0.0008212500251829624176 0.00081474997568875551224 
0.0011352499714121222496 0.0014031250029802322388 0.0011466250289231538773 0.0011958749964833259583 0.00053681252757087349892 0.00088993745157495141029 0.0006439374992623925209 0.00023150000197347253561 9.8999997135251760483e-05 0.00038862499059177935123 0.00098293751943856477737 0.0010631333570927381516 0.0010523571399971842766 0.0012838750844821333885 0.00074074999429285526276 0.00083758332766592502594 0.00053807691438123583794 0.00055739999515935778618 0.00070799997774884104729 0.00019183332915417850018 9.8999997135251760483e-05 9.8999997135251760483e-05 9.8999997135251760483e-05 9.8999997135251760483e-05 6.600000051548704505e-05 2.6399999114801175892e-05 0.00070846156449988484383 0.00092309998581185936928 0.00067733332980424165726 0.00030566667555831372738 0.00045950000640004873276 0.00041618751129135489464 0.00060337502509355545044 0.0005201666499488055706 0.00045966665493324398994 0.00092593749286606907845 0.00057337502948939800262 9.8999997135251760483e-05 9.8999997135251760483e-05 9.8999997135251760483e-05 0.00098737503867596387863 0.00099550001323223114014 0.00090021424693986773491 0.0012481249868869781494 0.0014777500182390213013 0.00098168745171278715134 0.0013483749935403466225 0.001026000012643635273 9.8999997135251760483e-05 9.8999997135251760483e-05 9.8999997135251760483e-05 9.8999997135251760483e-05 9.8999997135251760483e-05 9.8999997135251760483e-05 0.00097575003746896982193 0.0010305000469088554382 0.0011493749916553497314 0.001175187528133392334 0.0010669999755918979645 0.0011481875553727149963 0.0012183125363662838936 0.0013283125590533018112 0.00085012498311698436737 0.0012297499924898147583 0.00089174997992813587189 0.0011655625421553850174 0.0011811250587925314903 0.00015743750554975122213 0.00028106250101700425148 0.00092193752061575651169 0.0011326875537633895874 0.0012598125031217932701 0.0012668124400079250336 0.001224500010721385479 0.0014099375111982226372 0.0013604999985545873642 0.0010571250459179282188 0.00079156248830258846283 0.0013594374759122729301 0.00097375002223998308182 0.0013134999899193644524 0.0015089374501258134842 0.0014603125164285302162 0.0015031874645501375198 0.0015274999896064400673 0.001539562479592859745 0.0015279999934136867523 
0.0011458125663921236992 0.0013616250362247228622 0.0012310000602155923843 0.0012157500023022294044 0.001208625035360455513 0.0010794375557452440262 0.00067743752151727676392 0.0010513750603422522545 0.0010299375280737876892 0.001043249969370663166 0.0012002500006929039955 0.00091366667766124010086 0.0011023124679923057556 0.00081350002437829971313 0.00079266668763011693954 0.00065691664349287748337 9.8999997135251760483e-05 9.8999997135251760483e-05 9.8999997135251760483e-05 9.8999997135251760483e-05 9.8999997135251760483e-05 9.8999997135251760483e-05 7.4249997851438820362e-05 0.00016499999037478119135 0 0.00012106249778298661113 0.00087225000606849789619 0.00068312499206513166428 0 6.600000051548704505e-05 0.00039744444075040519238 0.00067583331838250160217 0.001158250030130147934 0.00087907694978639483452 0.00082843750715255737305 0.00031420000595971941948 1.6500000128871761262e-05 8.9099994511343538761e-05 9.8999997135251760483e-05 0.00028216667124070227146 0.00097200000891461968422 0.00092339998809620738029 0.0011564374435693025589 0.0010371250100433826447 0.0010979999788105487823 0.00080762500874698162079 0.0015409999759867787361 0.00096400000620633363724 9.8999997135251760483e-05 9.8999997135251760483e-05 9.8999997135251760483e-05 9.8999997135251760483e-05 9.8999997135251760483e-05 9.8999997135251760483e-05 0.00078850000863894820213 0.00098337500821799039841 0.0013858750462532043457 0.0013891875278204679489 0.0013709375634789466858 0.0012837500544264912605 0.00093724997714161872864 0.001026500016450881958 0.0010946249822154641151 0.00093831249978393316269 0.00050256249960511922836 0.00073243747465312480927 0.0003990000113844871521 0.00059812504332512617111 0.00052693748148158192635 0.00062643748242408037186 0.0010908124968409538269 0.0013930625282227993011 0.0013940000208094716072 0.0011521249543875455856 0.0012751249596476554871 0.00129200005903840065 0.00048543751472607254982 0.00079850002657622098923 0.00079900003038346767426 0.00089318753452971577644 0.0012446250766515731812 0.0014613750390708446503 0.0015178750036284327507 0.0014975625090301036835 0.001538499956950545311 0.0015193750150501728058 0.001522250007838010788 
0.001274249982088804245 0.001008874969556927681 0.0011806874535977840424 0.0012673750752583146095 0.0012855000095441937447 0.0012506250059232115746 0.0010000000474974513054 0.001307875034399330616 0.0012496875133365392685 0.0012071875389665365219 0.0013641250552609562874 0.0012472500093281269073 0.0011563750449568033218 0.0010180714307352900505 0.00080891669495031237602 0.00036125001497566699982 9.8999997135251760483e-05 9.8999997135251760483e-05 9.8999997135251760483e-05 4.4000000343658030033e-05 0.00038633332587778568268 9.9750002846121788025e-05 0.00039162498433142900467 0.00083775003440678119659 0.0012504374608397483826 0.0013531249715015292168 0.0012333125341683626175 0.00097293750150129199028 0.00062588893342763185501 0.0012341538676992058754 0.00096118747023865580559 0.00035581251722760498524 0.00078843749361112713814 0.0010357500286772847176 0.0011303125647827982903 0.0010905833914875984192 0.00050950003787875175476 0.00018950000230688601732 0.00065076921600848436356 0.0010277499677613377571 0.00080231251195073127747 0.0010217500384896993637 0.0013483749935403466225 0.0010459375334903597832 0.001126375049352645874 0.00078381248749792575836 0.00056512502487748861313 0.00047600001562386751175 9.8999997135251760483e-05 0.00043025001650676131248 0.00084712501848116517067 9.8999997135251760483e-05 0.00037993749720044434071 0.00042668750393204391003 0.0011153124505653977394 0.0011681250762194395065 0.0009653125307522714138 0.0013186249416321516037 0.0011562500149011611938 0.0011193749960511922836 0.0013854375574737787247 0.00061024999013170599937 0 0 0.00047337499563582241535 0.00052549998508766293526 0.0003303750127088278532 0.00075343751814216375351 0.00047862500650808215141 0.00057274999562650918961 0.0012108749942854046822 0.0013434999855235219002 0.0013233750360086560249 0.001208562520332634449 0.0011107500176876783371 0.00059025001246482133865 9.8999997135251760483e-05 0.0004658749967347830534 0.0011836249614134430885 0.00094362499658018350601 0.00096606253646314144135 0.0015262500382959842682 0.0014853749889880418777 0.0013950625434517860413 0.0015381874982267618179 0.0015380624681711196899 0.0015417500399053096771 
0.0011826249537989497185 0.001158999977633357048 0.00086287502199411392212 0.00139062502421438694 0.0013968124985694885254 0.00069349998375400900841 0.0012963750632479786873 0.0013616250362247228622 0.0013168749865144491196 0.00054543750593438744545 0.001125812530517578125 0.0012232143199071288109 0.00067350000608712434769 0.00064850004855543375015 0.00046533334534615278244 9.8999997135251760483e-05 9.8999997135251760483e-05 0.0004434374859556555748 0.00034125000820495188236 0 0.00038290000520646572113 0.00056914286687970161438 0.00027241665520705282688 0.00089106248924508690834 0.0015208125114440917969 0.0014120000414550304413 0.001374125014990568161 0.0014865000266581773758 0.0012326249852776527405 0.0015423124423250555992 0.00051237497245892882347 0.00022293749498203396797 0.0010737499687820672989 0.0010415000142529606819 0.0007596249924972653389 0.0011078333482146263123 0.00044283334864303469658 0.00023025000700727105141 0.0010583124822005629539 0.0011126250028610229492 0.0012155625736340880394 0.0014138750266283750534 0.0014096874510869383812 0.0013105624821037054062 0.0010416250443086028099 0.0009118749876506626606 0.0010509999701753258705 9.8999997135251760483e-05 0.00028062501223757863045 0.0014521250268444418907 0.0012064374750480055809 0.0010156874777749180794 0.00077281252015382051468 0.0002804374962579458952 0.00033831250038929283619 0.00044368748785927891731 0.00066712498664855957031 0.00095837499247863888741 0.0011349375126883387566 0.00089912500698119401932 0.00078574998769909143448 0.00049706251593306660652 0.00056125002447515726089 0.0009304375271312892437 0.0014135624514892697334 0.0012556875590234994888 0.0012327500153332948685 0.0010685625020414590836 0.00097418751101940870285 0.0007048749830573797226 0.0010477500036358833313 0.0013968750135973095894 0.0014080625260248780251 0.0013578124344348907471 0.00099612504709511995316 0.00072768749669194221497 0.0011486250441521406174 0.0011356250615790486336 0.0014752499992027878761 0.0014046875294297933578 0.00025131250731647014618 0.00094393751351162791252 0.0013059375341981649399 0.0012046875199303030968 0.0014743750216439366341 0.0012341249966993927956 0.00076500000432133674622 
0.0014545625308528542519 0.0015398749383166432381 0.001374125014990568161 0.0013476875610649585724 0.0010498750489205121994 0.0010082500521093606949 0.0011174374958500266075 0.0013355000410228967667 0.0011636250419542193413 0.00039744444075040519238 0.00070450000930577516556 0.00064133334672078490257 0.00043650000588968396187 0.00025137499324046075344 8.2499995187390595675e-05 9.8999997135251760483e-05 9.8999997135251760483e-05 9.8999997135251760483e-05 3.7124998925719410181e-05 0.00028460001340135931969 0 0.00064924999605864286423 0.00031912498525343835354 0.00081875000614672899246 0.0012322500115260481834 0.0013604374835267663002 0.0012341875117272138596 0.0012560000177472829819 0.0012233749730512499809 0.0012968125520274043083 0.00085422222036868333817 0.0011630625231191515923 0.0011019374942407011986 0.0010021666530519723892 0.0011634444817900657654 0.00097053335048258304596 0.00017749999824445694685 0.00076293747406452894211 0.0011695624561980366707 0.0011889999732375144958 0.0013489375123754143715 0.0014793749433010816574 0.0014294375432655215263 0.00096700002904981374741 0.00069606251781806349754 0.00066424999386072158813 0.00020206249610055238008 9.8999997135251760483e-05 0.00076056248508393764496 0.00031637499341741204262 0.00044143749983049929142 0.0007910624844953417778 0.0012898124987259507179 0.00088624999625608325005 0.00084087502909824252129 0.00081318750744685530663 0.0010507500264793634415 0.0012199999764561653137 0.0008971875067800283432 0.0010561875533312559128 0.00094412500038743019104 0.00096112501341849565506 0.00085143750766292214394 0.0011538750259205698967 0.0013039375189691781998 0.0013261875137686729431 0.0012513125548139214516 0.0011186250485479831696 0.0010472499998286366463 0.00041687500197440385818 0.0011596250114962458611 0.001374125014990568161 0.0011863750405609607697 0.00092818750999867916107 0.0013592499308288097382 0.0015366249717772006989 0.0014817499322816729546 0.0013313124654814600945 0.0013876875163987278938 0.00098212494049221277237 0.00052374997176229953766 0.0012226250255480408669 0.00075668748468160629272 0.00031775000388734042645 0.00038493750616908073425 0.00044343751505948603153 0.00064550002571195363998 
0.00052850000793114304543 0.0008808125276118516922 0.0014112499775364995003 0.0014871874591335654259 0.00099149998277425765991 0.0013018124736845493317 0.00088574999244883656502 0.00062775000697001814842 0.00061981251928955316544 0.00066612497903406620026 0.00018912499945145100355 0.00027487499755807220936 0.0002704999933484941721 9.8999997135251760483e-05 9.8999997135251760483e-05 9.8999997135251760483e-05 9.8999997135251760483e-05 2.4749999283812940121e-05 0 0.00076787499710917472839 0.00073991669341921806335 0.00083391665248200297356 0.00043549999827519059181 0.00070443749427795410156 0.0013312500668689608574 0.0013878125464543700218 0.0013797499705106019974 0.0014114375226199626923 0.0005179999861866235733 0.0014661666937172412872 0.0014738333411514759064 0.00082700001075863838196 0.00078068755101412534714 0.00087591668125241994858 0.0012313333572819828987 0.0010418333113193511963 0.00050218752585351467133 0.0011956875678151845932 0.001274124952033162117 0.0014216250274330377579 0.0011561249848455190659 0.0011313749710097908974 0.0011499375104904174805 0.00082756252959370613098 0.0010181249817833304405 0.00073525001062080264091 0.00016862500342540442944 0.00036200002068653702736 0.001059749978594481945 0.00049068749649450182915 0.00079881248530000448227 0.00083662499673664569855 0.0007876874879002571106 0.00091862503904849290848 0.0010813750559464097023 0.00115887494757771492 0.0014244375051930546761 0.0012324375566095113754 0.00089949998073279857635 0.00031293751089833676815 0.0010624375427141785622 0.00092943751951679587364 0.0010304375318810343742 0.0012228124542161822319 0.0011904999846592545509 0.0010386250214651226997 0.0011500625405460596085 0.0011301250196993350983 0.001042749965563416481 0.00037531249108724296093 0.0011402500094845890999 0.0012233124580234289169 0.001357375062070786953 0.0012275000335648655891 0.0014340624911710619926 0.0011009374866262078285 0.00062487501418218016624 0.00068762502633035182953 0.00057793752057477831841 0.00089387496700510382652 0.00089050002861768007278 0.00069118750980123877525 0 0 0 0.00084462499944493174553 0.00107550004031509161 
0.0012064374750480055809 0.001323062460869550705 0.0013594374759122729301 0.0012557499576359987259 0.0013133749598637223244 0.0011496250517666339874 0.00040406250627711415291 0.00015837499813642352819 0.00037381250876933336258 0.00078424997627735137939 0.00023099999816622585058 0.00044000000343658030033 9.8999997135251760483e-05 9.8999997135251760483e-05 7.4249997851438820362e-05 9.8999997135251760483e-05 0.00046268751611933112144 0.00014087499585002660751 0.00051706249359995126724 0.00096112501341849565506 0.00063106248853728175163 0.00085387501167133450508 0.0008014375343918800354 0.00032631249632686376572 0.0012706875568255782127 0.0012996250297874212265 0.0013996249763295054436 0.0013010625261813402176 0.0014660625020042061806 0.001473562559112906456 0.001489812508225440979 0.0013339166762307286263 0.0011067499872297048569 0.0012120833853259682655 0.0011000625090673565865 0.00068918749457225203514 0.00107650004792958498 0.0013775625266134738922 0.0011105624726042151451 0.00079187500523403286934 0.00075768749229609966278 0.00066543754655867815018 0.00047662502038292586803 0.00094100000569596886635 0.0010965624824166297913 0.0010147499851882457733 0.00046050001401454210281 0.00080593751044943928719 0.0011187499621883034706 0.00093643751461058855057 0.0011879375670105218887 0.00023825000971555709839 9.8999997135251760483e-05 9.8999997135251760483e-05 0.0001708124909782782197 0.00023962500563357025385 0.00095718749798834323883 0.0010642500128597021103 0.001027000020258128643 0.00063324999064207077026 0.0011195625411346554756 0.0010359375737607479095 0.0012963125482201576233 0.0012586874654516577721 0.0011811250587925314903 0.0012065625051036477089 0.0012054374674335122108 0.0010663750581443309784 0.00065368751529604196548 0.00011187500058440491557 0.00073368748417124152184 0.0010634375503286719322 0.00088700000196695327759 0.00078793748980388045311 0.0009701250237412750721 0.0011726875090971589088 0.0015019375132396817207 0.0012048750650137662888 0.00037550000706687569618 0.00050181249389424920082 6.2437502492684870958e-05 0.00022375000116880983114 0 0.00023006250557955354452 0 0.0009567500092089176178 0.0015687500126659870148 
0.0014044374693185091019 0.0013823750196024775505 0.0014581874711439013481 0.00048187500215135514736 0.00046325000585056841373 0.00052081252215430140495 0.00045250001130625605583 0.00047224998706951737404 0.00033499998971819877625 0.00047337502473965287209 0.00097799999639391899109 0.00022631249157711863518 0.00027925000176765024662 9.8999997135251760483e-05 0.00021109999215696007013 0.00057687499793246388435 0.0009868750348687171936 0.0013297500554472208023 0.00089650001609697937965 0.0011564999585971236229 0.0010679286206141114235 0.00096630002371966838837 0.00076343747787177562714 0.00029175000963732600212 0.0013356874696910381317 0.0012851250357925891876 0.001274687470868229866 0.0013846874935552477837 0.001441000029444694519 9.8999997135251760483e-05 0.00089278572704643011093 0.00099149998277425765991 0.00045650001266039907932 0.0012764285784214735031 0.0010078125633299350739 0.0006871250225231051445 0.0011236874852329492569 0.0011386249680072069168 0.00066968752071261405945 0.00067443749867379665375 9.8999997135251760483e-05 9.8999997135251760483e-05 0.00033456250093877315521 0.00095181254437193274498 0.0010333125246688723564 0.00099249999038875102997 0.00092912500258535146713 0.0010647500166669487953 0.0012006874894723296165 0.001374062499962747097 0.00099243747536092996597 0.00016193749615922570229 9.8999997135251760483e-05 9.8999997135251760483e-05 9.8999997135251760483e-05 0.00072262500179931521416 0.00085518753621727228165 0.00091306248214095830917 0.00063506251899525523186 0.000239874992985278368 0.0011195000261068344116 0.0010883749928325414658 0.0010855625150725245476 0.0013321874430403113365 0.0012433124938979744911 0.0012450000504031777382 0.0010740000288933515549 0.0010583124822005629539 0.00048293749568983912468 4.9499998567625880241e-05 0.00025137502234429121017 0.00047943749814294278622 0.00078568747267127037048 0.0012098124716430902481 0.0013431250117719173431 0.0014554375084117054939 0.0012754999333992600441 0.0012672500452026724815 0.00099431246053427457809 0.00042749999556690454483 0.00054218748118728399277 0.0011390624567866325378 0.0011788124684244394302 0.00087106251157820224762 0.00039568750071339309216 0.001440249965526163578 0.0015515000559389591217 
0.0014209999935701489449 0.0013068750267848372459 0.0013392500113695859909 0.00031187501735985279083 0.0005512500065378844738 0.00077243748819455504417 0.00026612498913891613483 9.8999997135251760483e-05 0.00021037500118836760521 0.00083524995716288685799 9.8999997135251760483e-05 9.8999997135251760483e-05 9.8999997135251760483e-05 9.8999997135251760483e-05 9.8999997135251760483e-05 0.00041174999205395579338 0.00070262502413243055344 0.0005309999687597155571 0.00024783334811218082905 5.9399997553555294871e-05 0.00078750000102445483208 4.9499998567625880241e-05 0.00043093750718981027603 0.00092125002993270754814 0.0014148750342428684235 0.0013148125726729631424 0.001390062505379319191 0.00132387503981590271 0.00042283334187231957912 9.8999997135251760483e-05 0.00075628573540598154068 0.00017929999739862978458 0.00061868753982707858086 0.0010694374796003103256 9.8999997135251760483e-05 0.00085637497249990701675 0.001041874988004565239 0.00085493753431364893913 0.00073993753176182508469 9.8999997135251760483e-05 9.8999997135251760483e-05 9.8999997135251760483e-05 0.00058856251416727900505 0.0011125000892207026482 0.00098056253045797348022 0.0010286875767633318901 0.00066274998243898153305 0.0010910000419244170189 0.00091956253163516521454 0.00099693750962615013123 0.0010375624988228082657 0.00048943748697638511658 9.8999997135251760483e-05 9.8999997135251760483e-05 0.00016193749615922570229 0.00080425001215189695358 0.00082181248581036925316 0.00094593747053295373917 0.00071843754267320036888 0.00027437499375082552433 0.0011616250267252326012 0.0010616874787956476212 0.0011205624323338270187 0.0013203750131651759148 0.0011576249962672591209 0.00062225002329796552658 0.00097643746994435787201 0.0012841875432059168816 0.00099674996454268693924 0.0005995625397190451622 0.00099181255791336297989 0.0010223125573247671127 0.0011613125680014491081 0.0014157500118017196655 0.0014160624705255031586 0.0014525625156238675117 0.0011346875689923763275 0.00096206250600516796112 0.00094481249107047915459 0.00084843754302710294724 0.0010461250785738229752 0.00027043750742450356483 0.0011898125521838665009 0.0014866874553263187408 0.0014843749813735485077 0.001473812502808868885 0.0014407499693334102631 
0.0014225625200197100639 0.0014033125480636954308 0.0012678124476224184036 0.0012054374674335122108 0.0011191250523552298546 0.00064143753843382000923 9.8999997135251760483e-05 0.00095714285271242260933 0.0012620624620467424393 0.001020692288875579834 0.00077416666317731142044 9.8999997135251760483e-05 9.8999997135251760483e-05 9.8999997135251760483e-05 9.8999997135251760483e-05 0.00059543747920542955399 0.0010610000463202595711 0.0012186666717752814293 0.00072975002694875001907 4.1249997593695297837e-05 0.00077706249430775642395 0.00052506249630823731422 0.00094387499848380684853 0.0010650624753907322884 0.0012837500544264912605 0.0012218749616295099258 0.0014189375797286629677 0.0013356874696910381317 0.00049066665815189480782 0.00016193749615922570229 0.00080831249943003058434 0.00016206249711103737354 0.00032493751496076583862 0.00042993749957531690598 0.00016756249533500522375 0.00086437497520819306374 0.0010680624982342123985 0.0006486874772235751152 9.8999997135251760483e-05 9.8999997135251760483e-05 9.8999997135251760483e-05 0.00011968749458901584148 0.00073112500831484794617 0.00098837504629045724869 0.0010955000761896371841 0.00087012501899152994156 0.0007648125174455344677 0.00086843752069398760796 0.0010607499862089753151 0.0010036249877884984016 0.0010488125262781977654 0.001010625041089951992 0.00025599999935366213322 9.8999997135251760483e-05 0.00058718753280118107796 0.00094731251010671257973 0.00090493750758469104767 0.00098274997435510158539 0.00041581247933208942413 0.00046556247980333864689 0.0012201875215396285057 0.00070468749618157744408 0.0012211250141263008118 0.0013709374470636248589 0.0010735000250861048698 0.00065993750467896461487 0.001208937494084239006 0.0006685624830424785614 0.00073637499008327722549 0.00073650002013891935349 0.0013441875344142317772 0.0012665624963119626045 0.0011668750084936618805 0.001325312536209821701 0.0010693124495446681976 0.001025874982587993145 0.001025812467560172081 0.001174874952994287014 0.0010228125611320137978 0.0012716250494122505188 0.0013218125095590949059 0.0011816874612122774124 0.0014994374942034482956 0.0014349999837577342987 0.001539562479592859745 0.0014295624569058418274 0.0014617500128224492073 
0.0012541875476017594337 0.0015015000244602560997 0.0014023125404492020607 0.0014053124468773603439 0.00059075001627206802368 0.00043474999256432056427 9.074999979929998517e-05 0.00023825000971555709839 0.0010051249992102384567 0.0013431875267997384071 0.00067168753594160079956 9.8999997135251760483e-05 9.8999997135251760483e-05 9.8999997135251760483e-05 9.8999997135251760483e-05 0.00021274999016895890236 0.00064350001048296689987 0.0011538750259205698967 0.00043412498780526220798 0.00057425000704824924469 0.0010014375438913702965 0.00063074997160583734512 0.00080224999692291021347 0.001224562525749206543 0.0012097499566152691841 0.0013836874859407544136 0.0013435625005513429642 0.0009153750143013894558 0.0001811874972190707922 0.0008462500409223139286 0.00090958335204049944878 9.8999997135251760483e-05 0.00016756249533500522375 0.00076812499901279807091 0.00036075001116842031479 0.0010003750212490558624 0.0010676250094547867775 0.00024349999148398637772 9.8999997135251760483e-05 0.00030493750819005072117 0.00098437501583248376846 0.00083725003059953451157 0.00096125004347413778305 0.00095943751512095332146 0.00093587499577552080154 0.00099968747235834598541 0.0009122500196099281311 0.00034525000955909490585 0.000753187516238540411 0.00095349998446181416512 0.00092100002802908420563 0.00095150002744048833847 0.00094756251201033592224 0.00074606249108910560608 0.00085499999113380908966 0.00076756248017773032188 0.00098200002685189247131 0.0010483750374987721443 0.00097550003556534647942 0.0010169999441131949425 0.00088637502631172537804 0.0010459375334903597832 0.0011506874579936265945 0.0011371249565854668617 0.00094825000269338488579 0.0010318750282749533653 0.0011891875183209776878 0.0008226250065490603447 0.0012159999459981918335 0.0012056875275447964668 0.0012453750241547822952 0.0014259375166147947311 0.0014543124707415699959 0.0011468124575912952423 0.0010410000104457139969 0.00085237500024959445 0.0012821875279769301414 0.0014813124435022473335 0.0015184999210759997368 0.0014536250382661819458 0.0014465624699369072914 0.001407125033438205719 0.0015156250447034835815 0.0013793124817311763763 0.0015107500366866588593 0.0015236875042319297791 0.0015279999934136867523 
0.0012105000205338001251 0.0013398750452324748039 0.0011610625078901648521 0.00075368752004578709602 0.0010685625020414590836 0.00064481253502890467644 0.00093281251611188054085 0.00089821428991854190826 0.0011940000113099813461 0.00095055554993450641632 0.00012781249824911355972 9.8999997135251760483e-05 9.8999997135251760483e-05 9.8999997135251760483e-05 9.8999997135251760483e-05 0.00035187500179745256901 0.00096206250600516796112 0.00080731249181553721428 0.00065270002232864499092 0.00045053331996314227581 0.00075324997305870056152 0.00078256253618746995926 0.0011297143064439296722 0.00076973333489149808884 0.0010156874777749180794 0.0012946249917149543762 0.0013131250161677598953 0.00061569997342303395271 0.00045584616600535809994 0.0011902308324351906776 0.00070284615503624081612 9.8999997135251760483e-05 0.0005395624903030693531 0.00080168753629550337791 0.0001733749959385022521 0.00030768750002607703209 0.00114225002471357584 0.00036356248892843723297 9.8999997135251760483e-05 0.00076206249650567770004 0.0010618750238791108131 0.00090300000738352537155 0.00084824999794363975525 0.0010745000327005982399 0.00093625002773478627205 0.0009813124779611825943 0.00034756251261569559574 0.00081137497909367084503 0.00043975000153295695782 0.00087318749865517020226 0.00091093755327165126801 0.0010397500591352581978 0.0010681875282898545265 0.00094425003044307231903 0.00091462500859051942825 0.00069162499858066439629 0.0010473125148564577103 0.0014263124903663992882 0.001390499994158744812 0.0011035625357180833817 0.0012376875383779406548 0.0011833125026896595955 0.0011985625606030225754 0.00097731244750320911407 0.00094418751541525125504 0.0009683750104159116745 0.0011066249571740627289 0.0011834375327453017235 0.0015128749655559659004 0.0012888124911114573479 0.00050212501082569360733 0.00096174998907372355461 0.00076562497997656464577 0.0010963125387206673622 0.0011413125321269035339 0.0010405625216662883759 0.0011893749469891190529 0.0015602499479427933693 0.0015574999852105975151 0.0015318749938160181046 0.0013340000296011567116 0.0015026249457150697708 0.0014930624747648835182 0.0014745000516995787621 0.0014693124685436487198 0.0014191875234246253967 0.0013305000029504299164 
0.0014101250562816858292 0.0010581250535324215889 0.00063600001158192753792 0.00087724998593330383301 0.00094618753064423799515 0.00021106250642333179712 0.00097071425989270210266 0.0010001249611377716064 0.0012378334067761898041 0.00078783335629850625992 9.8999997135251760483e-05 9.8999997135251760483e-05 0.00036700000055134296417 9.8999997135251760483e-05 9.8999997135251760483e-05 0.00022443749185185879469 0.00046849998761899769306 0.0012451874790713191032 0.0010823749471455812454 0.0011294999858364462852 0.00085968751227483153343 0.0011355000315234065056 0.001141624990850687027 0.000372357142623513937 0.0010240625124424695969 0.0010878124739974737167 0.0011902500409632921219 0.0011294999858364462852 0.0011384000536054372787 0.0007203571731224656105 0.00074789999052882194519 0.0002532500075176358223 9.8999997135251760483e-05 0.00046206251136027276516 0.00065549998544156551361 0.00097418751101940870285 0.0011444999836385250092 0.00071337504778057336807 0.00047681250725872814655 0.00098324997816234827042 0.00092206249246373772621 0.00098418747074902057648 0.0010496875038370490074 0.00088181247701868414879 0.00098200002685189247131 0.00072418747004121541977 0.00070687499828636646271 0.00052187498658895492554 0.00055875000543892383575 0.00086024997290223836899 0.00048737501492723822594 0.00059850001707673072815 0.00093181250849738717079 0.0010637500090524554253 0.00098324997816234827042 0.0010198749369010329247 0.0013108750572428107262 0.0013146875426173210144 0.0013333749957382678986 0.0012305624550208449364 0.0014184999745339155197 0.0010015624575316905975 0.0010683125583454966545 0.001026312471367418766 0.0013032500864937901497 0.0011994375381618738174 0.0011312500573694705963 0.00082743749953806400299 0.0010359374573454260826 0.0011349375126883387566 0.0011030625319108366966 0.0013396875001490116119 0.00107550004031509161 0.00093318748986348509789 0.00087574997451156377792 0.00095524999778717756271 0.0010222500422969460487 0.001258312491700053215 0.0015684999525547027588 0.0015318749938160181046 0.00087106251157820224762 0.0015176874585449695587 0.0014458750374615192413 0.0013465000083670020103 0.0012682500528171658516 0.0014696875587105751038 0.0015342499827966094017 
0.00073212501592934131622 0.00038375001167878508568 0.00064418750116601586342 0.00066937500378116965294 0.00083825003821402788162 0.00050681247375905513763 0.00081158336251974105835 0.00080462498590350151062 0.00093958334764465689659 9.8999997135251760483e-05 9.8999997135251760483e-05 0.00015042857558000832796 0.00055375002557411789894 0.00016075000166893005371 9.8999997135251760483e-05 9.8999997135251760483e-05 1.6500000128871761262e-05 0.00088881247211247682571 0.00057641667081043124199 0.0005100714624859392643 0.00056706252507865428925 0.0010808571241796016693 0.00018608334357850253582 0.00062481249915435910225 0.0011548750335350632668 0.0010688125621527433395 0.0013943749945610761642 0.001314166700467467308 0.00057135714450851082802 0.00090330000966787338257 0.00012731249444186687469 9.8999997135251760483e-05 9.8999997135251760483e-05 0.00060312502318993210793 0.0010467499960213899612 0.0010168750304728746414 0.00096824998036026954651 0.0011316875461488962173 0.00094212498515844345093 0.0010383749613538384438 0.0010461874771863222122 0.0010438750032335519791 0.00065574998734518885612 0.00046562499483115971088 0.0010103124659508466721 0.00051774998428300023079 0.00054924999130889773369 0.00089012499665841460228 0.00056568748550489544868 0.0011812499724328517914 0.00096587499137967824936 0.00099837500602006912231 0.0008591875084675848484 0.00098018755670636892319 0.0010145625565201044083 0.0013153749750927090645 0.00086537498282268643379 0.0010333750396966934204 0.0010728124761953949928 0.00046568750985898077488 0.0011008124565705657005 0.0010519999777898192406 0.0011269999668002128601 0.00099893752485513687134 0.0011135624954476952553 0.0011520000407472252846 0.00095450005028396844864 0.0002061875129584223032 0.00076606252696365118027 0.0012594375293701887131 0.0014715624274685978889 0.0014511250192299485207 0.00080131250433623790741 0.00058356247609481215477 0.00075218750862404704094 0.00085524999303743243217 0.0010530625004321336746 0.0012985625071451067924 0.0015492499805986881256 0.0015419374685734510422 0.00062281248392537236214 0.0013930000131949782372 0.0015315000200644135475 0.0010364999761804938316 0.00074300001142546534538 0.0015253124292939901352 0.0015424999874085187912 
0.00096675002714619040489 0.0011015625204890966415 0.0004619375104084610939 0.00060050003230571746826 0.001175187528133392334 0.0010014167055487632751 0.0011499166721478104591 0.0010730000212788581848 0.0011052500922232866287 9.8999997135251760483e-05 9.8999997135251760483e-05 0.00018469231144990772009 0.0005364000098779797554 0.00016193749615922570229 9.8999997135251760483e-05 7.4249997851438820362e-05 6.600000051548704505e-05 0.0010895000305026769638 0.00083242857363075017929 0.00054166669724509119987 0.00043738461681641638279 0.00052511109970510005951 0.00073568749940022826195 0.0011696874862536787987 0.0010337500134482979774 0.00135775003582239151 0.0013057499891147017479 0.00092735717771574854851 0.00087650003843009471893 0.00057313335128128528595 0.0001691249926807358861 9.8999997135251760483e-05 0.00043381249997764825821 0.00070956250419840216637 0.0010486874962225556374 0.00046806249883957207203 0.0005857499781996011734 0.00083118746988475322723 0.0010519374627619981766 0.001092687482014298439 0.00098662497475743293762 0.0010557499481365084648 0.0008230000385083258152 0.00064156251028180122375 0.0010130000300705432892 0.0010979374637827277184 0.0010348750511184334755 0.00096468749688938260078 0.00091618753504008054733 0.00099075003527104854584 0.00099325005430728197098 0.00096081249648705124855 0.00085368752479553222656 0.00090318749425932765007 0.0008078750106506049633 0.0013298749690875411034 0.0012494999682530760765 0.001175562501884996891 0.0014021249953657388687 0.001241687568835914135 0.00082656252197921276093 0.00085256248712539672852 0.0011148749617859721184 0.0010886250529438257217 0.001422312459908425808 0.0013220000546425580978 0.00089950003894045948982 0.00036318751517683267593 0.001075812499038875103 0.0013318749843165278435 0.0014998124679550528526 0.0015418124385178089142 0.0010196875082328915596 0.00089312501950189471245 0.00082712498260661959648 0.00089268747251480817795 0.0009321250254288315773 0.0011896250071004033089 0.0015474375104531645775 0.00075587502215057611465 0.00050362496403977274895 0.0014666874194517731667 0.0011667499784380197525 0.0012494999682530760765 0.0014196250122040510178 0.001506812521256506443 0.0015109999803826212883 
0.00028168750577606260777 0.0011055625509470701218 0.00053937500342726707458 0.0003691875026561319828 0.00060606247279793024063 0.00059700000565499067307 0.0010548749705776572227 0.0010862499475479125977 0.00026075000641867518425 9.8999997135251760483e-05 9.8999997135251760483e-05 3.3000000257743522525e-05 0.00014937500236555933952 0.0003088125085923820734 8.2499995187390595675e-05 8.6624997493345290422e-05 9.8999997135251760483e-05 0.001143375062383711338 0.0014319375623017549515 0.0012994999997317790985 0.0011264999629929661751 0.00077793753007426857948 0.00050149997696280479431 0.00080525001976639032364 0.0011337499599903821945 0.0012010000646114349365 0.0011655833804979920387 0.00077212502947077155113 0.00053216668311506509781 0.00036043749423697590828 9.8999997135251760483e-05 0.00021737499628216028214 0.00048625000636093318462 0.0010323125170543789864 0.00065018748864531517029 9.8999997135251760483e-05 9.8999997135251760483e-05 9.8999997135251760483e-05 0.00070556253194808959961 0.001027062535285949707 0.00097150000510737299919 0.0010144375264644622803 0.0010284375166520476341 0.00088806252460926771164 0.0010112499585375189781 0.0011060000397264957428 0.00096237502293661236763 0.0010850625112652778625 0.00096818752354010939598 0.0010689999908208847046 0.00059543747920542955399 0.00095775001682341098785 0.00081893749302253127098 0.00083506252849474549294 0.0011678750161081552505 0.00152212497778236866 0.0014714375138282775879 0.0011554374359548091888 0.0014311874983832240105 0.0010516875190660357475 0.00025962499785237014294 0.00095681246602907776833 0.00085262500215321779251 0.00096062500961124897003 0.00046300000394694507122 7.5312505941838026047e-05 0 0.00024275000032503157854 0.00078750000102445483208 0.00097856251522898674011 0.00098662497475743293762 0.001456500031054019928 0.0010401250328868627548 0.00098600005730986595154 0.00097799999639391899109 0.00088481249986216425896 0.0011037499643862247467 0.00086318748071789741516 0.0015336874639615416527 0.0012374374782666563988 0.00030087499180808663368 0.00068793748505413532257 0.00091787497512996196747 0.0011929374886676669121 0.0011050000321120023727 0.00099843752104789018631 0.001093250000849366188 
0.0006901875021867454052 0.0010198124218732118607 0.00079137500142678618431 0.00070737500209361314774 0.00040975000592879951 0.00057368748821318149567 0.00089533335994929075241 0.00049162498908117413521 9.8999997135251760483e-05 9.8999997135251760483e-05 0.00019183332915417850018 0.00051849998999387025833 0.00068385712802410125732 0.0010193125344812870026 0.00044600002001971006393 0.0001552500034449622035 0.00024424999719485640526 0.0011940625263378024101 0.0014079374959692358971 0.0012995625147596001625 0.0011684375349432229996 0.0011275624856352806091 0.0010383124463260173798 0.0011781250359490513802 0.0010471874848008155823 0.0012529999949038028717 0.00055433332454413175583 0.0011957500828430056572 0.00026030768640339374542 9.8999997135251760483e-05 0.00015924999024718999863 0.00039087500772438943386 0.00062624999554827809334 0.0010606874711811542511 0.0011200625449419021606 0.00059200002579018473625 9.8999997135251760483e-05 9.8999997135251760483e-05 0.00050650001503527164459 0.00094481249107047915459 0.00087225000606849789619 0.00083493749843910336494 0.00086281250696629285812 0.00094062503194436430931 0.00093256251420825719833 0.0008557499968446791172 0.0010502500226721167564 0.00090793753042817115784 0.0010338750435039401054 0.0011693125125020742416 0.00084862497169524431229 0.00093206251040101051331 0.00085687497630715370178 0.00091418751981109380722 0.0011882500257343053818 0.0013219999382272362709 0.0014530625194311141968 0.0015422499272972345352 0.0015111250104382634163 0.00069800001801922917366 9.8999997135251760483e-05 9.8999997135251760483e-05 9.8999997135251760483e-05 9.8999997135251760483e-05 9.2812493676319718361e-05 0.00041518750367686152458 0.00042737499461509287357 0.00043162499787285923958 0.00080375000834465026855 0.0010893124854192137718 0.001176312565803527832 0.0011026250431314110756 0.00095612503355368971825 0.00097331253346055746078 0.00084981252439320087433 0.00098443753086030483246 0.0013188750017434358597 0.0010539999930188059807 0.0013197499793022871017 0.00080168747808784246445 0.00094468751922249794006 0.0008475625072605907917 0.00033656248706392943859 0.0011185625335201621056 0.0010356875136494636536 0.00085650000255554914474 0.00064174999715760350227 
0.00058175000594928860664 0.00069768750108778476715 0.00068724999437108635902 0.00060956249944865703583 0.00084918749053031206131 0.00079337501665577292442 0.0012804286088794469833 0.00046275000204332172871 0.00081999995745718479156 1.6500000128871761262e-05 0.00051362498197704553604 0.00016708332987036556005 1.237499964190647006e-05 0.0012207500403746962547 9.8999997135251760483e-05 0.00056850002147257328033 0.0010790624655783176422 0.0012128750095143914223 0.0011970000341534614563 0.0011578125413507223129 0.001174874952994287014 0.0011283125495538115501 0.0012274375185370445251 0.0012443750165402889252 0.0012141874758526682854 0.0010422500781714916229 0.00082850002218037843704 0.0012640000786632299423 0.00029281250317580997944 0.00018912499945145100355 9.8999997135251760483e-05 0.00059449998661875724792 0.0011102500138804316521 0.0012064999900758266449 0.0011943124700337648392 0.00082575000124052166939 9.8999997135251760483e-05 9.8999997135251760483e-05 0.00085143750766292214394 0.00088068749755620956421 0.000976499984972178936 0.00099387497175484895706 0.00086312496569007635117 0.00080912502016872167587 0.00090575002832338213921 0.00061306252609938383102 0.0010401250328868627548 0.0010531250154599547386 0.00078750000102445483208 0.00095931248506531119347 0.0011164374882355332375 0.0010006874799728393555 0.0010092500597238540649 0.00090300000738352537155 0.0010214999783784151077 0.0010666250018402934074 0.0012426874600350856781 0.001207812456414103508 0.00054806249681860208511 0.00032281249877996742725 0.00046168750850483775139 0.00052606250392273068428 0.0007479999912902712822 0.00010743750317487865686 0.00059050001436844468117 0.00082925002789124846458 0.00059356249403208494186 0.00093675003154203295708 0.001077000051736831665 0.00077087501995265483856 0.0010147499851882457733 0.00099275005050003528595 0.00086318748071789741516 0.00088287499966099858284 0.00091218750458210706711 0.0010176249779760837555 0.0011623125756159424782 0.0011999375419691205025 0.0014849375002086162567 0.0015084999613463878632 0.0013338749995455145836 0.00050537503557279706001 0.00032575000659562647343 0.00066600000718608498573 0.0011051250621676445007 0.00086731248302385210991 0.0010947500122711062431 
0.00090512499446049332619 0.00074737501563504338264 0.00092100002802908420563 0.0005560624995268881321 0.00078693748218938708305 0.0010502500226721167564 0.00085292861331254243851 0.00027925000176765024662 0.00027662501088343560696 1.9799999790848232806e-05 1.237499964190647006e-05 0.00022950000129640102386 0.00027925000176765024662 0.00027925000176765024662 9.8999997135251760483e-05 0.0011006250279024243355 0.00084843748481944203377 0.0014591875951737165451 0.0012129375245422124863 0.0010823749471455812454 0.0011483749840408563614 0.0011841874802485108376 0.0013444374781101942062 0.0013058750191703438759 0.0011854375479742884636 0.00094569998327642679214 0.00042964285239577293396 9.8999997135251760483e-05 9.8999997135251760483e-05 9.8999997135251760483e-05 9.8999997135251760483e-05 0.00088268751278519630432 0.00075343751814216375351 0.0012534999987110495567 0.0011656874557957053185 0.00087506248382851481438 0.00012306249118410050869 0.00042724999366328120232 0.0011202499736100435257 0.0011955000227317214012 0.0011272500269114971161 0.0011328124674037098885 0.00097718741744756698608 0.00089918746380135416985 0.0009118124726228415966 0.0007677499670535326004 0.001141562475822865963 0.0010364999761804938316 0.00076275004539638757706 0.00070062500890344381332 0.00088800000958144664764 0.0010407499503344297409 0.00082474999362602829933 0.0004162499972153455019 0.00076249998528510332108 0.00071799999568611383438 0.00068887497764080762863 0.00083112501306459307671 9.8999997135251760483e-05 0.00071331247454509139061 0.00044387500383891165257 9.8999997135251760483e-05 0.00088718748884275555611 0.00087337498553097248077 0.00057212501997128129005 0.0010198125382885336876 0.000935187505092471838 0.00107518746517598629 0.0011218750150874257088 0.0010011874837800860405 0.00099543749820441007614 0.0010389999952167272568 0.00070687499828636646271 0.00089156249305233359337 0.00083993753651157021523 0.0011386249680072069168 0.00098093750420957803726 0.0013671249616891145706 0.0014745000516995787621 0.0013844375498592853546 0.0013355000410228967667 0.0010338125284761190414 9.8999997135251760483e-05 0.0001513749884907156229 0.00095818750560283660889 0.001027062535285949707 0.0011972500942647457123 
0.00020343749201856553555 0.00048975000390782952309 0.00098231248557567596436 0.00042081248830072581768 0.00081762502668425440788 0.0009368124883621931076 0.00029699999140575528145 0.00014416666817851364613 0.00063500000396743416786 0.00016815384151414036751 0.00093437498435378074646 0.0001905384560814127326 9.8999997135251760483e-05 6.9299996539484709501e-05 0.00015908332716207951307 0.0006189999985508620739 9.8999997135251760483e-05 0.0012928750365972518921 0.0012966875219717621803 0.00083843752508983016014 0.0010247500613331794739 0.0011121875140815973282 0.0013866000808775424957 0.0012203846126794815063 0.0011718750465661287308 0.00018953846301883459091 9.8999997135251760483e-05 9.8999997135251760483e-05 0.00014656249550171196461 9.8999997135251760483e-05 9.8999997135251760483e-05 0.0005857499781996011734 0.00059675000375136733055 0.00076399999670684337616 0.0011169374920427799225 0.0010466874809935688972 0.00072006252594292163849 0.00074162503005936741829 0.0013898125616833567619 0.0013298124540597200394 0.0012190624838694930077 0.0010295624379068613052 0.0010700625134631991386 0.00099662493448704481125 0.0010219999821856617928 0.0010578749934211373329 0.00061868748161941766739 0.00032799999462440609932 0.00019249999604653567076 9.8999997135251760483e-05 0.00045562500599771738052 0.00092487497022375464439 0.00093087501591071486473 0.00080762500874698162079 0.00082875002408400177956 0.0010027500102296471596 0.00085218751337379217148 0.00050112500321120023727 9.8999997135251760483e-05 0.00017349999689031392336 9.8999997135251760483e-05 0.00046899999142624437809 0.00074837496504187583923 0.00046793749788776040077 0.0006060000159777700901 0.00098200002685189247131 0.0010658125393092632294 0.0010342500172555446625 0.0011341250501573085785 0.00087806250667199492455 0.00089531252160668373108 0.00089799996931105852127 0.00087318749865517020226 0.00094356248155236244202 0.0010483750374987721443 0.00053374998969957232475 0.00068631250178441405296 0.0012536250287666916847 0.0015016249381005764008 0.001390499994158744812 0.0014651875244453549385 0.00077924999641254544258 0.00064381252741441130638 0.00043381249997764825821 0.0011464374838396906853 0.0009054375113919377327 0.0010722500737756490707 
0.00063818751368671655655 0.0009895624825730919838 0.00083775003440678119659 0.00066525000147521495819 0.00081006251275539398193 0.00051608332432806491852 0.0005288461688905954361 0.00047791667748242616653 0.00058559997705742716789 0.00049618748016655445099 0.00066566665191203355789 0.00031400000443682074547 9.074999979929998517e-05 9.8999997135251760483e-05 0.00016006667283363640308 0.00059449998661875724792 9.8999997135251760483e-05 0.0013393571134656667709 0.0011511875782161951065 0.0010283750016242265701 0.0012181249912828207016 0.0011826154077425599098 0.0010585000272840261459 0.0011364615056663751602 0.00068530766293406486511 8.0437501310370862484e-05 0.00016756249533500522375 0.00030762498499825596809 9.8999997135251760483e-05 9.8999997135251760483e-05 9.8999997135251760483e-05 0.00040274998173117637634 0.00037581249489448964596 0.00084950000746175646782 0.00080049998359754681587 0.0011038749944418668747 0.0011136250104755163193 0.0010468750260770320892 0.0012358125532045960426 0.0014133125077933073044 0.001224500010721385479 0.00084499997319653630257 0.0010194374481216073036 0.00093400001060217618942 0.00052400003187358379364 0.0003317499940749257803 0.00067700003273785114288 9.8999997135251760483e-05 0.00028599999495781958103 0.00037024999619461596012 9.8999997135251760483e-05 0.00086550001287832856178 0.00086775003001093864441 0.00097437499789521098137 0.00082206248771399259567 0.00084462499944493174553 0.00079781247768551111221 9.8999997135251760483e-05 0.00029225001344457268715 0.0006918124854564666748 0.00041981250979006290436 0.00094962498405948281288 0.0010563124669715762138 0.00088968750787898898125 0.00098031247034668922424 0.001092624966986477375 0.0010221250122413039207 0.0010171249741688370705 0.0010185624705627560616 0.00079731247387826442719 0.0008389374706894159317 0.00088181247701868414879 0.00096774997655302286148 0.00098756246734410524368 0.00078656250843778252602 0.00082631252007558941841 0.0010608750162646174431 0.0012991250259801745415 0.0014180624857544898987 0.0014843749813735485077 0.0014262499753385782242 0.0014442499959841370583 0.0014556250534951686859 0.0010532500455155968666 0.0011195625411346554756 0.0012063750764355063438 0.0012770000612363219261 
0.00093487498816102743149 0.0012735625496134161949 0.00069668749347329139709 0.00094887497834861278534 0.00060687499353662133217 0.00027074999525211751461 5.9399997553555294871e-05 0.00016016667359508574009 0.0010522856609895825386 0.00040024999179877340794 0.001048916717991232872 0.0006269333534874022007 0.00028266667504794895649 0.00072312500560656189919 9.8999997135251760483e-05 0.00063974998192861676216 0.0013845384819433093071 0.0011214000405743718147 0.0013546874979510903358 0.0011890624882653355598 0.001334333326667547226 0.00085607694927603006363 0.00088843749836087226868 0.0011711249826475977898 0.0005236666765995323658 0.00016843750199768692255 9.8999997135251760483e-05 9.8999997135251760483e-05 9.8999997135251760483e-05 9.8999997135251760483e-05 9.8999997135251760483e-05 9.8999997135251760483e-05 0.0002704999933484941721 0.00050099997315555810928 0.00078406248940154910088 0.00098106253426522016525 0.001224562525749206543 0.0012700000079348683357 0.0010247500613331794739 0.0013399375602602958679 0.0011004374828189611435 0.00097768753767013549805 0.00098706246353685855865 0.00077174999751150608063 9.8999997135251760483e-05 9.8999997135251760483e-05 9.8999997135251760483e-05 0.00026806248934008181095 0.0006569374818354845047 0.00083268748130649328232 0.00072618754347786307335 0.00088037503883242607117 0.00093924999237060546875 0.0010610000463202595711 0.0009786875452846288681 0.000910187489353120327 0.00086256250506266951561 0.00016843750199768692255 0.00051381252706050872803 0.0010553124593570828438 0.00053693749941885471344 0.00074512499850243330002 0.0010163125116378068924 0.0010380625026300549507 0.0010139375226572155952 0.0010330624645575881004 0.00086118752369657158852 0.00084624998271465301514 0.0010223125573247671127 0.00082168751396238803864 0.0011006874265149235725 0.00099212501663714647293 0.00070906250039115548134 0.00067493750248104333878 0.00086881249444559216499 0.0010625000577419996262 0.0010103749809786677361 0.00040506248478777706623 0.0015184375224635004997 0.0014914374332875013351 0.0013584374682977795601 0.0010387500515207648277 0.0013678125105798244476 0.0012561250478029251099 0.0011709375539794564247 0.0011018124641850590706 0.0013330000219866633415 
0.00049587502144277095795 0.00068293750518932938576 0.00025275000371038913727 0.00030225000227801501751 0.00022906249796506017447 0.00069106247974559664726 0.0006274000043049454689 9.8999997135251760483e-05 0.00046041666064411401749 0.00056399998720735311508 0.00079387502046301960945 0.00039599998854100704193 0.00025199999799951910973 0.00062700000125914812088 0.0004226666642352938652 0.00080587499542161822319 0.001158214290626347065 0.0010235833469778299332 0.0012875625398010015488 0.001356937456876039505 0.0013606428401544690132 0.00016850000247359275818 0.0008458124939352273941 0.0011065000435337424278 0.00049571431009098887444 9.8999997135251760483e-05 0.00012731249444186687469 0.00018912499945145100355 9.8999997135251760483e-05 0.00014606249169446527958 0.00021743749675806611776 9.8999997135251760483e-05 0.00027925000176765024662 0.00049162498908117413521 0.00087950000306591391563 0.00057306251255795359612 0.00080575002357363700867 0.0010977500351145863533 0.00050974998157471418381 0.0010126250563189387321 0.0010346875060349702835 0.0010542500531300902367 0.0009847499895840883255 0.0010728124761953949928 0.00080668751616030931473 0.000711750006303191185 0.00061943748733028769493 0.00078925001434981822968 0.00070400000549852848053 0.0011553750373423099518 0.00084856251487508416176 0.00055856251856312155724 0.00086475000716745853424 0.00089387502521276473999 0.00068637495860457420349 0.00093956250930204987526 0.0010533749591559171677 0.0010341875022277235985 0.0010467499960213899612 0.0010628125164657831192 0.00070024997694417834282 0.00052462500752881169319 0.0010539999930188059807 0.0010895625455304980278 0.00064443750306963920593 0.00095906248316168785095 0.001026000012643635273 0.0008410625159740447998 0.00078037497587502002716 0.0010060624917969107628 0.00086681247921660542488 0.00087293749675154685974 0.0010619375389069318771 0.0010301874717697501183 0.00085493747610598802567 0.0010766249615699052811 0.00096475001191720366478 0.00042062500142492353916 0.0013228750322014093399 0.0013535624602809548378 0.0012393749784678220749 0.00054637499852105975151 0.0012405000161379575729 0.0010981250088661909103 0.0011353750014677643776 0.0012304375413805246353 0.0011227499926462769508 
0.000753062486182898283 0.0004935000324621796608 6.806249439250677824e-05 0.00037950000842101871967 0.00061362498672679066658 0.00075631251093000173569 9.8999997135251760483e-05 9.8999997135251760483e-05 0.00077606248669326305389 0.00026175001403316855431 0.00059016665909439325333 9.8999997135251760483e-05 9.8999997135251760483e-05 9.8999997135251760483e-05 9.8999997135251760483e-05 0.00097081251442432403564 0.00084750005044043064117 0.00051425001583993434906 0.0014201250160112977028 0.0013173124752938747406 0.0015139374881982803345 0.00064838462276384234428 0.00061739998636767268181 0.00068215385545045137405 0.0007708333432674407959 0.00039493749500252306461 0.00029881249065510928631 0.00015562499174848198891 0.00055206252727657556534 0.00041400000918656587601 0.0002134999958798289299 0.00018912499945145100355 9.8999997135251760483e-05 0.00026687499484978616238 0.00030643749050796031952 0.00037687498843297362328 0.00089175003813579678535 0.0012000625720247626305 0.00090781250037252902985 0.00091200001770630478859 0.0011898749507963657379 0.00083112501306459307671 0.0010298124980181455612 0.00091643747873604297638 0.0010248749749734997749 0.00095749995671212673187 0.00080224999692291021347 0.00063343747751787304878 0.00080187502317130565643 0.00081243750173598527908 0.0005244999774731695652 0.00094374996842816472054 0.00082206248771399259567 0.00074587500421330332756 0.00033956248080357909203 0.00026193750090897083282 0.00068462500348687171936 0.00065249996259808540344 0.0010572499595582485199 0.001059062546119093895 0.00046162499347701668739 0.001109124976210296154 0.0011478749802336096764 0.00086537498282268643379 0.00095387501642107963562 0.00084387499373406171799 0.00083274999633431434631 0.00078443752136081457138 0.00046693749027326703072 0.00099693750962615013123 0.0010537499329075217247 0.00091975001851096749306 0.00097956252284348011017 0.001158250030130147934 0.0010352500248700380325 0.0011697500012814998627 0.00083137501496821641922 0.00026418751804158091545 0.00099481246434152126312 0.0002764374949038028717 0.00032443751115351915359 0.00056343752657994627953 0.001042687450535595417 0.0010939374333247542381 0.0011461250251159071922 0.0011028124717995524406 0.00099924998357892036438 
0.00097037502564489841461 0.00067343749105930328369 6.1874998209532350302e-06 0.00053131248569115996361 0.00034393748501315712929 0.00021918749553151428699 9.8999997135251760483e-05 0.0005677142762579023838 0.00063218752620741724968 0.0007896923343650996685 0.00085512502118945121765 0.00017324999498669058084 9.8999997135251760483e-05 9.8999997135251760483e-05 0.0001905384560814127326 0.00079733331222087144852 0.00080553337465971708298 0.0012529999949038028717 0.0014019999653100967407 0.001406437484547495842 0.0012349999742582440376 0.00039100000867620110512 0.00097250001272186636925 0.0012723124818876385689 0.0011436250060796737671 0.00035799999022856354713 0.00038206248427741229534 0.00054362497758120298386 0.00044618750689551234245 9.8999997135251760483e-05 0.00012731249444186687469 0.00045056248200125992298 9.8999997135251760483e-05 8.0437501310370862484e-05 0.00021718750940635800362 0.00076156249269843101501 0.00092631252482533454895 0.0011124999728053808212 0.00079406250733882188797 0.0010139375226572155952 0.0011045625433325767517 0.00093431246932595968246 0.00088399997912347316742 0.00096212502103298902512 0.00092187500558793544769 0.00092012499226257205009 0.00093631248455494642258 0.0008307499811053276062 0.00090143748093396425247 0.00093306251801550388336 0.00060056248912587761879 0.00083468749653548002243 0.0012161249760538339615 0.00069406250258907675743 0.00058243749663233757019 0.00044050000724382698536 0.00029731250833719968796 0.00034312499337829649448 0.00082100002327933907509 0.00096287502674385905266 0.00066362501820549368858 0.00087631255155429244041 0.00092943751951679587364 0.001042937510646879673 0.00081993750063702464104 0.0012306249700486660004 0.0011898749507963657379 0.00063637498533353209496 0.00093143747653812170029 0.00097631249809637665749 0.00096287496853619813919 0.0011391874868422746658 0.00095856247935444116592 0.0010981250088661909103 0.0012518749572336673737 0.0011967499740421772003 0.0011700624600052833557 0.00096406252123415470123 0.0010498750489205121994 0.0010683750733733177185 0.00077500002225860953331 0.0010824999772012233734 0.0009403750300407409668 0.00068987498525530099869 0.0010381875326856970787 0.0011473749764263629913 0.0010839999886229634285 
0.00052131252596154808998 0.00036112501402385532856 0.00017412498709745705128 0.00047968750004656612873 0.00068043748615309596062 0.00098487501963973045349 0.00059920002240687608719 0.00078757142182439565659 0.0010723749874159693718 0.0010777499992400407791 0.00076493748929351568222 0.00065616669598966836929 9.8999997135251760483e-05 0.00024175000726245343685 0.00038283332833088934422 0.00045099999988451600075 0.00084392307326197624207 0.0012654375750571489334 0.0014589375350624322891 0.0013336250558495521545 0.0013596250209957361221 0.0014526875456795096397 0.0014362500514835119247 0.0013933124719187617302 0.0007600625394843518734 0.00024799999664537608624 0.00080218748189508914948 0.00014600000577047467232 0.00067093753023073077202 0.00083475001156330108643 9.8999997135251760483e-05 0.00037687498843297362328 0.00027925000176765024662 0.00018912499945145100355 6.806249439250677824e-05 0.0005266250227577984333 0.00099443749058991670609 0.0010740625439211726189 0.0010559374932199716568 0.0010453124996274709702 0.0010310624493286013603 0.001010500011034309864 0.0010122499661520123482 0.0010362500324845314026 0.0010275000240653753281 0.00086343748262152075768 0.00091406248975545167923 0.00067693751771003007889 0.00079850002657622098923 0.00092675001360476016998 0.00097531249048188328743 0.00073912501102313399315 0.00090456247562542557716 0.00017962499987334012985 0.00052287499420344829559 0.0010003750212490558624 0.00092950003454461693764 0.00068275001831352710724 0.00047118749353103339672 0.00070168753154575824738 0.00016193749615922570229 0.00018781250400934368372 0.00010693749936763197184 0.0008143750019371509552 0.00081793748540803790092 0.00080043752677738666534 0.00068299996200948953629 0.00045562500599771738052 0.0012176249874755740166 0.0010900000343099236488 0.0010036875028163194656 0.0010880000190809369087 0.00035650000791065394878 0.00099562504328787326813 0.001158875063993036747 0.0011663124896585941315 0.0010353750549256801605 0.00089231249876320362091 0.00066643749596551060677 0.00088225002400577068329 0.00071806251071393489838 0.00099693750962615013123 0.00070093752583488821983 0.00052912498358637094498 0.00020856250193901360035 0.00054556247778236865997 0.00060999998822808265686 
0.00043400001595728099346 0.00038887499249540269375 0.00010506249964237213135 0.00037356250686571002007 0.00081900000805035233498 0.0010288750054314732552 0.00025688888854347169399 0.00073787500150501728058 0.001175812561996281147 0.0012134375283494591713 0.00057068752357736229897 0.0002156666596420109272 9.8999997135251760483e-05 0.00061587500385940074921 0.00086674996418878436089 0.00044712499948218464851 0.0011507500894367694855 0.0012563124764710664749 0.001423312467522919178 0.0014177500270307064056 0.0006348461611196398735 0.0014878750080242753029 0.0013970000436529517174 0.0013492499710991978645 0.0005366250406950712204 0.00067556253634393215179 0.00048681249609217047691 5.5687498388579115272e-05 0.00062306248582899570465 0.00082043750444427132607 9.8999997135251760483e-05 0.00039262499194592237473 0.00018912499945145100355 9.8999997135251760483e-05 9.2812493676319718361e-05 0.00013387500075623393059 0.00077199999941512942314 0.001159125007688999176 0.0012059999862685799599 0.0011199375148862600327 0.00086593750165775418282 0.0010209999745711684227 0.0010512500302866101265 0.00099743751343339681625 0.00086618750356137752533 0.00063256249995902180672 0.00024737499188631772995 0.00070206250529736280441 0.0008656874997541308403 0.0009485625196248292923 0.00094212498515844345093 0.00071293750079348683357 0.00036987499333918094635 9.8999997135251760483e-05 9.8999997135251760483e-05 0.00051706249359995126724 0.0010448124958202242851 0.00082524999743327498436 0.00074156251503154635429 0.00016181249520741403103 0.00026693748077377676964 5.5687498388579115272e-05 0.00039999998989515006542 0.0004723749880213290453 0.00052781251724809408188 0.00043012501555494964123 0.00021356249635573476553 0.0001733749959385022521 0.0008855625055730342865 0.0010993125615641474724 0.00092837499687448143959 0.00079162500333040952682 0.00048143751337192952633 0.00078618753468617796898 0.0010470625711604952812 0.001241000019945204258 0.001075749984011054039 0.0012136250734329223633 0.0011079375399276614189 0.0011122500291094183922 0.0010651875054463744164 0.00088068749755620956421 0.0010317499982193112373 0.0010539374779909849167 0.0008691250113770365715 0.0010996875353157520294 0.0010415000142529606819 
0.00045806251000612974167 0.00029593749786727130413 0.00053950003348290920258 1.8562499462859705091e-05 0.00082562502939254045486 0.00089000002481043338776 0.00045649998355656862259 0.00073312496533617377281 0.0010399166494607925415 0.0005513571668416261673 0.00075837498297914862633 0.00038949999725446105003 0.0010915000457316637039 9.8999997135251760483e-05 0.00060283334460109472275 9.8999997135251760483e-05 0.00091990001965314149857 0.0013193124905228614807 0.0014369374839588999748 0.0014428124995902180672 0.00049080001190304756165 0.0013775625266134738922 0.0013520625652745366096 0.0013951874570921063423 0.00013818750448990613222 0.00061674998141825199127 0.00046456250129267573357 6.1874998209532350302e-05 0.00075256248237565159798 0.00054168747738003730774 0.00068412499967962503433 0.00075937499059364199638 0.00046524999197572469711 9.8999997135251760483e-05 9.8999997135251760483e-05 9.8999997135251760483e-05 0.00021781249961350113153 0.0012204999802634119987 0.0011018749792128801346 0.0009235625038854777813 0.0011304374784231185913 0.0010580000234767794609 0.00099693750962615013123 0.0008807500125840306282 0.0009631874854676425457 0.00096781249158084392548 0.00075681251473724842072 0.00090687500778585672379 0.00091437500668689608574 0.0010131875751540064812 0.00085418752860277891159 0.00081075000343844294548 0.00021550001110881567001 9.8999997135251760483e-05 0.00015924999024718999863 0.00033843750134110450745 0.00055331247858703136444 0.00021412500063888728619 0.00069625000469386577606 0.00092975003644824028015 0.00033175002317875623703 0.00011818749771919101477 0.0007233124924823641777 0.00015512498794123530388 0.00056950002908706665039 0.00071393750840798020363 0.00080412498209625482559 0.00085031252820044755936 0.00086349999764934182167 0.00093956250930204987526 0.0010936249746009707451 0.00075812498107552528381 0.00070643750950694084167 9.8999997135251760483e-05 0.00063268753001466393471 0.00094612501561641693115 0.000753062486182898283 0.00073537498246878385544 0.0010137499775737524033 0.00075968750752508640289 0.00066681252792477607727 0.00088106252951547503471 0.0009153124992735683918 0.00094925001030787825584 0.00086893752450123429298 0.00083562498912215232849 0.00078424997627735137939 
0.00093031249707564711571 0.00014849999570287764072 0.000207000004593282938 0.0003260624944232404232 0.00096237502293661236763 0.00090049998834729194641 9.8999997135251760483e-05 0.00089787499746307730675 0.0010392856784164905548 0.00086840003496035933495 0.00066787499235942959785 0.0004050833522342145443 0.00043762498535215854645 0.00023825000971555709839 0.00051674997666850686073 0.00072274997364729642868 0.00066211115336045622826 0.0013659375254064798355 0.0013953000307083129883 0.001091999933123588562 0.00086806248873472213745 0.00085568748181685805321 0.00058049999643117189407 0.0010061875218525528908 0.00041512498864904046059 0.00059125002007931470871 0.0002656875003594905138 0.00040943748899735510349 0.0010854374850168824196 0.0010352500248700380325 0.0011223750188946723938 0.0011951875640079379082 0.001191874966025352478 0.00080643751425668597221 0.00041174999205395579338 0.00037093748687766492367 0.0001596249931026250124 0.0010137499775737524033 0.0010115000186488032341 0.0012032500235363841057 0.00096437497995793819427 0.0011176250409334897995 0.0010930624557659029961 0.0012036875123158097267 0.0011995000531896948814 0.0011035625357180833817 0.0012148750247433781624 0.0010802500182762742043 0.0010383124463260173798 0.0010239374823868274689 0.00075950002064928412437 0.00090131250908598303795 0.0001923749950947239995 9.8999997135251760483e-05 0.00075674999970942735672 0.00053587497677654027939 8.6624997493345290422e-05 9.8999997135251760483e-05 0.00040468751103617250919 0.00093025004025548696518 0.00089050002861768007278 0.00088506250176578760147 0.00060725002549588680267 0.00038199999835342168808 0.00057656253920868039131 0.0008178750285878777504 0.00089456251589581370354 0.0011880624806508421898 0.00087193748913705348969 0.001042687450535595417 0.0011289375834167003632 0.0010407500667497515678 0.00065331248333677649498 0.00053587497677654027939 0.00072250002995133399963 0.0010369374649599194527 0.00062825001077726483345 0.0010683750733733177185 0.00087837496539577841759 0.00073937501292675733566 0.00082937499973922967911 0.00079881248530000448227 0.00076099997386336326599 0.00062612502370029687881 0.0006901249871589243412 0.00062956247711554169655 0.00057899998500943183899 
0.00049787497846409678459 0.00048593751853331923485 0.00052587501704692840576 0.00044674999662674963474 0.00032175000524148344994 9.8999997135251760483e-05 0.00058041664306074380875 0.0010405000066384673119 0.00063587503973394632339 0 0.00069106253795325756073 0.0007121666567400097847 0.00033650000113993883133 0.00071724998997524380684 0.00072707695653662085533 0.00043074999121017754078 0.00062977778725326061249 0.00069449999136850237846 0.00080249999882653355598 0.00082675000885501503944 0.0010636249789968132973 0.000161312491400167346 0.00030418750247918069363 0.00060774997109547257423 0.00062212499324232339859 0.0010234999936074018478 0.00085862498963251709938 0.001058937516063451767 0.0012568749953061342239 0.0011691874824464321136 0.0011471875477582216263 0.0011541249696165323257 0.0010192500194534659386 0.0009200624772347509861 0.000753187516238540411 0.00042037499952130019665 0.00052243750542402267456 0.00093775003915652632713 0.00098868750501424074173 0.0011625625193119049072 0.0011500625405460596085 0.0011970000341534614563 0.0011997499968856573105 0.0011889375746250152588 0.0011226250790059566498 0.001075875014066696167 0.0012023125309497117996 0.0011553750373423099518 0.0011479374952614307404 0.0010266874451190233231 0.00098231248557567596436 0.00062562501989305019379 0.00029262498719617724419 0.00056081247748807072639 0.00039993750397115945816 9.8999997135251760483e-05 9.2812493676319718361e-05 7.4249997851438820362e-05 0.00062137498753145337105 0.00065875001018866896629 0.00053468748228624463081 0.00053512502927333116531 0.00066918751690536737442 0.00046687500434927642345 0.00076562503818422555923 0.00098899996373802423477 0.0010366875212639570236 0.00082175002899020910263 0.0009416249813511967659 0.00095800001872703433037 0.00079618749441578984261 0.00089943752391263842583 0.00086462497711181640625 0.00071587500860914587975 0.00077368749771267175674 0.0010804375633597373962 0.0010224999859929084778 0.00097375002223998308182 0.0007000624900683760643 0.00079518748680129647255 0.00085025001317262649536 0.0006603749934583902359 0.00061787501908838748932 0.0007927499827928841114 0.00069643749156966805458 0.00064581248443573713303 0.0010994999902322888374 
0.00081143749412149190903 0.00050418748287484049797 0.00060343748191371560097 0.00060268747620284557343 0.00062750000506639480591 9.8999997135251760483e-05 0.00067600002512335777283 0.00091050000628456473351 0.00046660000225529074669 0.00025655556237325072289 0.00048737501492723822594 0 0.00082249997649341821671 0.00073592859553173184395 0.00098313333000987768173 9.8999997135251760483e-05 0.0011241249740123748779 0.001009900006465613842 0.00049349997425451874733 0.00065015384461730718613 0.00011493750207591801882 9.8999997135251760483e-05 0.00035231249057687819004 0.00071043748175725340843 0.00096037500770762562752 0.00060793751617893576622 0.0010482500074431300163 0.00088631251128390431404 0.001059500034898519516 0.0012042500311508774757 0.00085706252139061689377 0.00059781246818602085114 0.00061193748842924833298 0.00070081249577924609184 0.00034806248731911182404 0.00023243750911206007004 0.00069887499557808041573 0.00026950001483783125877 0.00091262499336153268814 0.0011180625297129154205 0.0011570624774321913719 0.0011076249647885560989 0.0011059375246986746788 0.00070949998917058110237 0.00064293749164789915085 0.00085237500024959445 0.00089712499175220727921 0.00057343748630955815315 0.00088700000196695327759 0.00035112499608658254147 0.0001336874993285164237 0.00022531249851454049349 0.00039868749445304274559 0.00016243749996647238731 0.0002053125062957406044 0.00024975000997073948383 0.00020806249813176691532 0.00044281251030042767525 0.00036043749423697590828 0.00028668751474469900131 0.00044850000995211303234 0.00099075003527104854584 0.0010483750374987721443 0.00091337499907240271568 0.0010821250034496188164 0.0010213750647380948067 0.0010965000838041305542 0.0010738749988377094269 0.00092962500639259815216 0.00049050000961869955063 0.0001457500038668513298 0.00085718749323859810829 0.00071531248977407813072 0.0010460624471306800842 0.00082150002708658576012 0.00099600001703947782516 0.0010483750374987721443 0.00087993749184533953667 0.000753125001210719347 0.00079293752787634730339 0.00058187497779726982117 0.00078474998008459806442 0.00067193747963756322861 0.00087993749184533953667 0.0009614999871701002121 0.00073943752795457839966 0.00019550000433810055256 
0.00066293746931478381157 0.00041468749986961483955 0.0003101874899584800005 0.00080037501174956560135 0.00039393748738802969456 0.00041693751700222492218 0.00018506249762140214443 0.00028450001263990998268 9.8999997135251760483e-05 4.9499998567625880241e-05 0.00075741665204986929893 0 0.0012625000672414898872 0.00085225002840161323547 0.0010267499601468443871 0.0010571250459179282188 0.00090293335961177945137 0.00098400004208087921143 0.00078175001544877886772 0.00037299998803064227104 6.1874998209532350302e-06 0.00058293750043958425522 0.00053575000492855906487 8.7125001300591975451e-05 0.00071662501432001590729 0.00097212498076260089874 0.00099331245291978120804 0.00091681251069530844688 0.0012378749670460820198 0.0011511874618008732796 0.00057274999562650918961 0.00075543747516348958015 0.00064012501388788223267 0.00046881250455044209957 0.00023806249373592436314 9.8999997135251760483e-05 0.00084900000365450978279 0.00018556250142864882946 0.00089687498984858393669 0.00065649999305605888367 0.00098368746694177389145 0.0010528750717639923096 0.0011180625297129154205 0.0010487500112503767014 0.00066956249065697193146 0.00086831249063834547997 0.0010657500242814421654 0.00099993753246963024139 0.00090650003403425216675 0.00068756251130253076553 0.00081150000914931297302 0.00031568750273436307907 0.00025350000942125916481 0.00063643750036135315895 0.00091131252702325582504 0.00065306248143315315247 0.0008674375130794942379 0.00070268753916025161743 0.00094256253214552998543 0.0006043750327080488205 0.00088300002971664071083 0.00089224998373538255692 0.00085843750275671482086 0.00093300000298768281937 0.0009848125046119093895 0.0010497500188648700714 0.00099268753547221422195 0.00099800003226846456528 0.00063274998683482408524 0.00029674998950213193893 0.00087343750055879354477 0.00092974997824057936668 0.00091818749206140637398 0.0010615000501275062561 0.00053462502546608448029 0.00097981246653944253922 0.0011056250659748911858 0.00099906255491077899933 0.001025312463752925396 0.0011771250283345580101 0.0010808125371113419533 0.0011367499828338623047 0.00099737499840557575226 0.0010826875222846865654 0.00086174998432397842407 0.00052406248869374394417 0.000384749990189447999 
0.0003144374932162463665 6.806249439250677824e-05 0.00029337499290704727173 0.00071468751411885023117 0.00015387500752694904804 0.00034912500996142625809 0.00020035714260302484035 0.00064508337527513504028 0.00080041668843477964401 0.0011497143423184752464 0.00076562503818422555923 0.0011541428975760936737 0.0012214999878779053688 9.8999997135251760483e-05 0.001080666668713092804 0.00093987502623349428177 0.0012212143046781420708 0.00038199999835342168808 0.00076050002826377749443 0.00019262499699834734201 0.0009666249970905482769 0.0005595000111497938633 0.0010376875288784503937 0.0010603750124573707581 0.00099212501663714647293 0.0011328749824315309525 0.0010696874232962727547 0.0011771250283345580101 0.0011509375181049108505 0.00054312497377395629883 0.00056968751596286892891 0.00070743751712143421173 0.00018568750238046050072 0.00051618751604110002518 0.00031856249552220106125 9.8999997135251760483e-05 0.00044881249777972698212 0.00080750003689900040627 0.001092749997042119503 0.00094450003234669566154 0.0010569375008344650269 0.0010483125224709510803 0.0010346875060349702835 0.00094918749528005719185 0.00090218748664483428001 0.00097431248286738991737 0.0010703124571591615677 0.00095718749798834323883 0.0010779374279081821442 0.00095506245270371437073 0.0009467499912716448307 0.00096918753115460276604 0.00083431252278387546539 0.0008277500164695084095 0.00081706250784918665886 0.00082093750825151801109 0.0008621874731034040451 0.0001457500038668513298 0.00075775000732392072678 0.00064899999415501952171 0.00065456249285489320755 0.00066950003383681178093 0.00067943747853860259056 0.00067531253444030880928 0.00076193752465769648552 0.00072324997745454311371 0.00093443749938160181046 0.0010135000338777899742 0.00051556248217821121216 0.00041099998634308576584 0.00051518750842660665512 0.00037949997931718826294 0.00095787498867139220238 0.001240687444806098938 0.00094818748766556382179 0.001175625016912817955 0.0011970000341534614563 0.0012018125271424651146 0.0011408125283196568489 0.0011843750253319740295 0.0010373125551268458366 0.0012385000009089708328 0.001174999983049929142 0.00081356248119845986366 0.00090781250037252902985 0.00073550001252442598343 0.00084900000365450978279 
0.00067343749105930328369 0.00011956249363720417023 0.00069631251972168684006 4.3312498746672645211e-05 0.00046731252223253250122 0.0004666874883696436882 0.0007303077145479619503 0.00078262499300763010979 0.00064700003713369369507 0.0008618333376944065094 0.0010228125611320137978 0.0011334000155329704285 0.00094628572696819901466 9.8999997135251760483e-05 0.00060874997870996594429 0.00058758334489539265633 0.0006548333331011235714 0.00049262499669566750526 0.0010893333237618207932 0.00066513335332274436951 0.00069506251020357012749 0.0011046875733882188797 0.0013255624799057841301 0.00079118751455098390579 0.000992937479168176651 0.0010666875168681144714 0.00096681248396635055542 0.0010285625467076897621 0.00069581251591444015503 0.00056106247939169406891 0.0010019999463111162186 0.0010899375192821025848 0.00059693749062716960907 0.00023912500182632356882 9.8999997135251760483e-05 9.8999997135251760483e-05 0.00057350000133737921715 0.00096593750640749931335 0.0010186875006183981895 0.0011000625090673565865 0.00099325005430728197098 0.00095168751431629061699 0.00063631252851337194443 0.00090468750568106770515 0.00095456250710412859917 0.00096350000239908695221 0.0011000625090673565865 0.0011364375241100788116 0.0011217499850317835808 0.001075375010259449482 0.00099443749058991670609 0.00098318746313452720642 0.00088006252190098166466 0.00083737500244751572609 0.00076974998228251934052 0.00044525001430884003639 0.00015081249875947833061 0.00012781249824911355972 0.00051375001203268766403 9.8999997135251760483e-05 0.00032918748911470174789 0.0006043750327080488205 0.00072093750350177288055 0.00065131252631545066833 0.00054543750593438744545 0.00052850000793114304543 0.00074687501182779669762 0.00089768751058727502823 0.00058375002117827534676 0.00036587499198503792286 0.00023018749197944998741 0.0001457500038668513298 0.0011496874503791332245 0.0012439375277608633041 0.00096843752544373273849 0.001142812543548643589 0.0012485624756664037704 0.0011710000690072774887 0.0012315000640228390694 0.0012375625083222985268 0.0012193750590085983276 0.0011790000135079026222 0.0011763749644160270691 0.0010251250350847840309 0.00094975001411512494087 0.00047843751963227987289 0.00029900000663474202156 
0.00043062501936219632626 0.0010319375433027744293 0.00070037500699982047081 0.00016862500342540442944 0.00047956249909475445747 0.0012571250554174184799 0.001393111073412001133 0.001125812530517578125 0.00099014292936772108078 0.0011888666776940226555 0.00087018753401935100555 0.00075369229307398200035 0.00021670000569429248571 0.00055116665316745638847 0.00057239999296143651009 0.00074116664472967386246 0.00088975002290681004524 0.00074364285683259367943 0.0010838124435395002365 0.0010402499465271830559 0.0010381875326856970787 0.0011143125593662261963 0.00051237503066658973694 0.00041831249836832284927 0.00046562499483115971088 0.00020562499412335455418 0.00020024999685119837523 0.00054543750593438744545 0.00081081251846626400948 0.00082750001456588506699 0.00093737500719726085663 0.00089818751439452171326 0.00088374997721984982491 9.8999997135251760483e-05 9.8999997135251760483e-05 9.8999997135251760483e-05 0.0001725625043036416173 0.00099687499459832906723 0.0011154999956488609314 0.0010126875713467597961 0.0010659374529495835304 0.00087937497301027178764 0.00085875001968815922737 0.00095125002553686499596 0.00097749999258667230606 0.001126062474213540554 0.0011259374441578984261 0.00096431252313777804375 0.0011203750036656856537 0.0010411875555291771889 0.00097799999639391899109 0.00087618752149865031242 0.00092425005277618765831 0.00071437499718740582466 0.00067149999085813760757 9.8999997135251760483e-05 9.8999997135251760483e-05 0.00015662499936297535896 0.00037181249354034662247 9.8999997135251760483e-05 0.00017962499987334012985 0.00072368752444162964821 0.00083543750224635004997 0.00077418750151991844177 0.00077743752626702189445 0.00083806249313056468964 0.00065162498503923416138 0.00024824999854899942875 9.8999997135251760483e-05 0.00079181249020621180534 0.00062612496549263596535 0.00068618752993643283844 0.0011835625628009438515 0.0011338749900460243225 0.0010130000300705432892 0.0010649375617504119873 0.0011632500682026147842 0.0012030000798404216766 0.0011000625090673565865 0.0012021875008940696716 0.0010807500220835208893 0.001092749997042119503 0.0010963125387206673622 0.0010246875463053584099 0.0010529374703764915466 0.00061450002249330282211 0.00093249999918043613434 
0.00093850004486739635468 0.00099381245672702789307 0.00075912504689767956734 0.00015624999650754034519 0.00066106248414143919945 0.0013846874935552477837 0.0014476875076070427895 0.00094470003386959433556 0.0008341428474523127079 0.0010278461268171668053 0.00021916665718890726566 0.001273999921977519989 0.00093941664090380072594 0.00059870001859962940216 0.00055206252727657556534 0.00078868749551475048065 0.0013517499901354312897 0.00091662502381950616837 0.0010215624934062361717 0.00087612500647082924843 0.00092637498164549469948 9.8999997135251760483e-05 0.00032493751496076583862 0.00079543754691258072853 0.0011903750710189342499 0.0011713125277310609818 0.00054962502326816320419 0.00079650001134723424911 0.00075474998448044061661 0.00055325002176687121391 0.00090575002832338213921 0.0011631874367594718933 0.001009749947115778923 0.0010860625188797712326 0.0008639374864287674427 0.00071662501432001590729 0.00075693754479289054871 0.0011965000303462147713 0.0010492500150576233864 0.0010861875489354133606 0.00097675004508346319199 0.00098775001242756843567 0.00086906249634921550751 0.00095768750179558992386 0.00097637501312419772148 0.00097637501312419772148 0.0011335625313222408295 0.0010250625200569629669 0.00074762501753866672516 0.0010283750016242265701 0.0010220624972134828568 0.00087506254203617572784 0.00076437502866610884666 0.00059150002198293805122 0.00053093751193955540657 0.00023525000142399221659 9.8999997135251760483e-05 0.00012756249634549021721 0.00012781249824911355972 9.8999997135251760483e-05 9.8999997135251760483e-05 0.00072737497976049780846 0.00092074996791779994965 0.00075712497346103191376 0.00080525001976639032364 0.00092318753013387322426 0.00052300002425909042358 9.8999997135251760483e-05 0.00035975000355392694473 0.00047406251542270183563 0.000918750010896474123 0.0010144375264644622803 0.0011523124994710087776 0.0011013749754056334496 0.00094793748576194047928 0.00093331251991912722588 0.00095593748847022652626 0.00089837500127032399178 0.00036162498872727155685 0.00062612502370029687881 0.00093550002202391624451 0.0010784375481307506561 0.0010518125491216778755 0.0010633750353008508682 0.00098281248938292264938 0.00089181249495595693588 0.00079825002467259764671 
0.0010083124507218599319 0.0003450624935794621706 0.0003510625101625919342 0.0002371875016251578927 0.00094193749828264117241 0.0013281250139698386192 0.0008673749980516731739 0.00098574999719858169556 0.0011209000367671251297 0.00070166669320315122604 0.0012838749680668115616 0.0013834375422447919846 0.00027925000176765024662 9.8999997135251760483e-05 9.8999997135251760483e-05 0.00016906249220483005047 0.00096206250600516796112 0.00084793753921985626221 0.00097337499028071761131 0.00083924998762086033821 0.00091368751600384712219 0.00056612497428432106972 0.00090531253954395651817 0.0010040000779554247856 0.0012768750311806797981 0.00089337502140551805496 0.00093956250930204987526 0.00061431247740983963013 0.0006323124980553984642 0.00085031252820044755936 0.0012510624947026371956 0.0015409999759867787361 0.0014083749847486615181 0.0014502499252557754517 0.0012045624898746609688 0.0010349375661462545395 0.00084506248822435736656 0.0011512499768286943436 0.0012346875155344605446 0.00091368751600384712219 0.001008749939501285553 0.00080387498019263148308 0.00093187502352520823479 0.00089137500617653131485 0.0008955000084824860096 0.00086199998622760176659 0.0010519999777898192406 0.0011040000244975090027 0.001010625041089951992 0.0010296874679625034332 0.0004593750054482370615 0.0010010625701397657394 0.0010081250220537185669 0.0008704999927431344986 0.00090918748173862695694 0.00079962500603869557381 0.00041731249075382947922 0.0005395624903030693531 0.00021868749172426760197 0.00022399998852051794529 0.00052862497977912425995 0.00081531249452382326126 0.00059750000946223735809 0.00090493750758469104767 0.00061368750175461173058 0.00063299998873844742775 0.00037200000951997935772 9.8999997135251760483e-05 0.00023400000645779073238 0.00083381251897662878036 0.00098418747074902057648 0.0011073750210925936699 0.0011228750227019190788 0.0011048124870285391808 0.0007121250382624566555 0.00045950000640004873276 0.00045950000640004873276 0.0011059375246986746788 0.001075562555342912674 0.0010776249691843986511 0.0010488750413060188293 0.0010020000627264380455 0.0010980624938383698463 0.001108750002458691597 0.00096443749498575925827 0.00089156249305233359337 0.00075949996244162321091 
0.0012820624979212880135 9.8999997135251760483e-05 9.8999997135251760483e-05 0.00013818748993799090385 0.00095462502213194966316 0.0012655624886974692345 0.0012034375686198472977 0.0011053750058636069298 0.0013190625468268990517 0.00061624997761100530624 0.0014035624917596578598 0.00076368747977539896965 0.00063974998192861676216 0.00035225000465288758278 0.00052981253247708082199 9.8999997135251760483e-05 0.00079025002196431159973 0.0007993124891072511673 0.0011403750395402312279 0.00051281251944601535797 0.00067187502281740307808 0.0012213749578222632408 0.0012343750568106770515 0.00059350003721192479134 0.0010326874908059835434 0.0012055624974891543388 0.0013165000127628445625 0.00072100001852959394455 0.00089587498223409056664 0.00099181255791336297989 0.0013368125073611736298 0.0014971250202506780624 0.0015409999759867787361 0.0013977499911561608315 0.0013713124208152294159 0.00062950002029538154602 0.00066700001480057835579 0.0013180625392124056816 0.0011901875259354710579 0.0010313750244677066803 0.0010526875266805291176 0.00090618751710280776024 0.00092906248755753040314 0.00094993750099092721939 0.00087587500456720590591 0.00086293747881427407265 0.00070337497163563966751 0.00092806253815069794655 0.0010521250078454613686 0.00061431253561750054359 0.0002541250141803175211 0.00095443753525614738464 0.00072318752063438296318 0.00093062501400709152222 0.00073212501592934131622 0.00081212498480454087257 0.00063900003442540764809 0.00070631247945129871368 0.00018006250320468097925 0.00035712498356588184834 0.00032062499667517840862 0.00073768751462921500206 0.00063387502450495958328 0.00072093750350177288055 0.00040562500362284481525 9.8999997135251760483e-05 9.8999997135251760483e-05 0.00025343749439343810081 0.00032399999327026307583 0.0008208124781958758831 0.00088687503011897206306 0.0011640000157058238983 0.00097862503025680780411 0.0011239375453442335129 0.00069743749918416142464 9.8999997135251760483e-05 0.0008889375021681189537 0.0010514375753700733185 0.00094349996652454137802 0.00087937497301027178764 0.0011288125533610582352 0.0010686250170692801476 0.0010710000060498714447 0.0010881250491365790367 0.0010115000186488032341 0.00071737502003088593483 0.00072474998887628316879 
0.0012494374532252550125 9.8999997135251760483e-05 9.8999997135251760483e-05 0.00059431249974295496941 0.0011186874471604824066 0.0013557500205934047699 0.0011798124760389328003 0.0011891875183209776878 0.0013692500069737434387 0.00071887503145262598991 0.00082206248771399259567 0.00018781250400934368372 0.00018912499945145100355 0.0007565625128336250782 0.00044993750634603202343 0.0001552500034449622035 0.00076424999861046671867 0.00070031249197199940681 0.00084818748291581869125 0.0010348750511184334755 0.00068774999817833304405 0.0014926251024007797241 0.0010236875386908650398 0.0013514375314116477966 0.0007448749965988099575 0.00091299996711313724518 0.00096468749688938260078 0.00094662501942366361618 9.6312498499173671007e-05 0.0010334999533370137215 0.0012102499604225158691 0.0015460000140592455864 0.0015406250022351741791 0.0013613749761134386063 0.0010798125294968485832 0.00089212501188740134239 0.0010373125551268458366 0.0012375625083222985268 0.0012107499642297625542 0.0010121874511241912842 0.00067093747202306985855 0.00097287498647347092628 0.00069900002563372254372 0.00069387501571327447891 0.00073106249328702688217 0.00080256251385435461998 0.00041868750122375786304 0.00065843749325722455978 9.8999997135251760483e-05 0.00038262500311248004436 0.00018962500325869768858 0.00069531251210719347 0.00077443750342354178429 0.00080437498399987816811 0.00055681250523775815964 0.00058674998581409454346 0.0005530000198632478714 0.00037056251312606036663 0.00047231250209733843803 0.00070406246231868863106 0.00085687497630715370178 0.00078599998960271477699 0.00076012499630451202393 0.00079668749822303652763 0.00043662500684149563313 0.00030143751064315438271 0.00027581249014474451542 0.00061699998332187533379 0.00084049999713897705078 0.0008704374777153134346 0.0012393124634400010109 0.0012218749616295099258 0.0011596250114962458611 0.0011496250517666339874 0.00028412498068064451218 0.00043806250323541462421 0.0012463750317692756653 0.0010408124653622508049 0.00088106247130781412125 0.00091349997092038393021 0.00092606252292171120644 0.0010193750495091080666 0.00098075007554143667221 0.0010080625070258975029 0.00056837499141693115234 0.0001484374952269718051 0.00028599999495781958103 
0.0010344375623390078545 9.8999997135251760483e-05 9.8999997135251760483e-05 0.00062249996699392795563 0.0012441874714568257332 0.0013807499781250953674 0.0010844374774023890495 0.001307124970480799675 0.001092875027097761631 0.00016075000166893005371 0.00046787501196376979351 9.8999997135251760483e-05 0.00016756249533500522375 0.00074187497375532984734 0.00051412498578429222107 9.8999997135251760483e-05 0.00019787499331869184971 0.00066668749786913394928 0.0003385625022929161787 0.0006771875196136534214 0.00058912497479468584061 0.001174562494270503521 0.0013977499911561608315 0.0010575625346973538399 0.00066756253363564610481 0.00067999999737367033958 0.0010691875359043478966 0.0011635000118985772133 0.00059812498511746525764 0.0012319999514147639275 0.0011133124353364109993 0.0015203125076368451118 0.0014822499360889196396 0.0011308749672025442123 0.00095362501451745629311 0.00081225001486018300056 0.001307687489315867424 0.0011812499724328517914 0.001141437445767223835 0.0011012499453499913216 0.00078162498539313673973 0.00079674995504319667816 0.00090418750187382102013 0.00079137500142678618431 0.0003408124903216958046 0.00052324996795505285263 0.00017374999879393726587 9.8999997135251760483e-05 9.8999997135251760483e-05 0.00016062500071711838245 0.00020918749214615672827 0.00080500001786276698112 0.00084024999523535370827 0.00065506249666213989258 0.0006306249997578561306 0.0006323124980553984642 0.000571062497328966856 0.00074168748687952756882 0.00089949998073279857635 0.00081931246677413582802 0.00087649998022243380547 0.00094937498215585947037 0.0008027500007301568985 0.00048506251187063753605 0.00040043750777840614319 0.0005115625099278986454 0.00071537500480189919472 0.00067262502852827310562 0.00096506247064098715782 0.00093256251420825719833 0.0010500624775886535645 0.0011348124826326966286 0.0011676250724121928215 0.00068587501300498843193 9.8999997135251760483e-05 0.0010153750190511345863 0.0011639375006780028343 0.0010204375721514225006 0.00087175000226125121117 0.00079593749251216650009 0.00075674999970942735672 0.00075131253106519579887 0.00087968748994171619415 0.00090425001690164208412 0.00082381250103935599327 0.00082106248009949922562 0.00051350001012906432152 
9.8999997135251760483e-05 9.8999997135251760483e-05 9.8999997135251760483e-05 0.00069175002863630652428 0.001357875065878033638 0.0012341249966993927956 0.0010550000006332993507 0.0012340000830590724945 0.00085987499915063381195 9.8999997135251760483e-05 0.00037324998993426561356 9.8999997135251760483e-05 0.00045987498015165328979 0.001025874982587993145 0.00034387499908916652203 9.8999997135251760483e-05 0.00034962501376867294312 0.00085987499915063381195 0.0011957499664276838303 0.0014969999901950359344 0.0011236249702051281929 0.0014816250186413526535 0.0013865000801160931587 0.0013436250155791640282 0.0010202500270679593086 0.00022937500034458935261 0.0011202499736100435257 0.00098050001543015241623 0.00038524999399669468403 0.00071437499718740582466 0.0011446250136941671371 0.0014121249550953507423 0.0015457499539479613304 0.0011609999928623437881 0.001358000095933675766 0.00056950002908706665039 0.00075362500501796603203 0.0011201249435544013977 0.0012034999672323465347 0.0010110000148415565491 0.00064525002380833029747 0.00094924995210021734238 0.00067224999656900763512 0.00053700001444667577744 0.00069025001721456646919 9.8999997135251760483e-05 9.8999997135251760483e-05 9.8999997135251760483e-05 9.8999997135251760483e-05 9.8999997135251760483e-05 0.00022225000429898500443 0.00093587499577552080154 0.00094699999317526817322 0.0007958749774843454361 0.00094975001411512494087 0.00082575000124052166939 0.00048250000691041350365 0.00085262500215321779251 0.0010108749847859144211 0.00096799997845664620399 0.00096799997845664620399 0.001025500008836388588 0.00080362497828900814056 0.00096799997845664620399 0.00039712499710731208324 0.00062537495978176593781 0.00084875000175088644028 0.0006172499852254986763 0.00094975001411512494087 0.00097150000510737299919 0.0011407500132918357849 0.0010826250072568655014 0.00099524995312094688416 9.8999997135251760483e-05 9.8999997135251760483e-05 0.0010005000513046979904 0.0012223750818520784378 0.00099287496414035558701 0.0011970000341534614563 0.00057824997929856181145 0.00034087500534951686859 0.00035162499989382922649 0.00033375000930391252041 0.00080949999392032623291 0.00081050000153481960297 0.00087512499885633587837 9.8999997135251760483e-05 
