ncols        19
nrows        23
xllcorner    508536.404131802963
yllcorner    5265348.997906560078
cellsize     570.000000000000
NODATA_value -9999
0.0028309999033808708191 0.0028309999033808708191 0.0028309999033808708191 0.0028309999033808708191 0.0028309999033808708191 0.0028309999033808708191 0.0028309999033808708191 0.013621728867292404175 0.0028309999033808708191 0.0028309999033808708191 0.0028309999033808708191 0.0028309999033808708191 0.0087706092745065689087 0.0058356062509119510651 0.56994485855102539062 1.1372772455215454102 0.90053701400756835938 0.84196448326110839844 0.43377482891082763672 
0.0028309999033808708191 0.0028309999033808708191 0.0028309999033808708191 0.0028309999033808708191 0.0031785760074853897095 0.053449794650077819824 0.11688254773616790771 0.072316385805606842041 0.0028309999033808708191 0.0028309999033808708191 0.016239382326602935791 0.094579488039016723633 0.40997999906539916992 0.48798391222953796387 0.3763307034969329834 1.0850721597671508789 0.65590548515319824219 0.85519576072692871094 0.43207371234893798828 
0.0028309999033808708191 0.0028309999033808708191 0.0028309999033808708191 0.0030627173837274312973 0.02809919603168964386 0.046883828938007354736 0.096628881990909576416 0.0028309999033808708191 0.0030627173837274312973 0.049964018166065216064 0.62398934364318847656 0.49139535427093505859 0.50527119636535644531 0.63099527359008789062 0.5635522007942199707 0.57981497049331665039 0.44868946075439453125 0.20043897628784179688 0.43893647193908691406 
0.0028309999033808708191 0.0028309999033808708191 0.0028309999033808708191 0.010556978173553943634 0.044269312173128128052 0.10619497299194335938 0.17504431307315826416 0.043025072664022445679 0.16390736401081085205 0.18972326815128326416 0.28880429267883300781 0.34760418534278869629 0.33148419857025146484 0.74381351470947265625 0.24359542131423950195 0.37726381421089172363 0.40783149003982543945 0.14735244214534759521 0.47750264406204223633 
0.0028309999033808708191 0.0028309999033808708191 0.0033135872799903154373 0.030713172629475593567 0.07920109480619430542 0.30528908967971801758 0.33927756547927856445 0.1254151463508605957 0.12699429690837860107 0.023770883679389953613 0.068253792822360992432 0.19847518205642700195 0.68778806924819946289 0.30735900998115539551 0.32322660088539123535 0.030873537063598632812 0.28645813465118408203 0.037502072751522064209 0.027369981631636619568 
0.093267068266868591309 0.22258597612380981445 0.035835649818181991577 0.042255856096744537354 0.046496134251356124878 0.43773224949836730957 0.72605955600738525391 0.4308026731014251709 0.11361380666494369507 0.062633752822875976562 0.11357865482568740845 0.21067887544631958008 0.9783420562744140625 0.072396315634250640869 0.027673132717609405518 0.052857190370559692383 0.047918025404214859009 0.031459022313356399536 0.032941367477178573608 
0.1624065786600112915 0.39971438050270080566 0.09218708425760269165 0.054840318858623504639 0.088794983923435211182 0.50691986083984375 0.4044920504093170166 0.23341257870197296143 0.26130622625350952148 0.15452241897583007812 0.11223828047513961792 0.14089447259902954102 1.1060720682144165039 0.037981856614351272583 0.035326629877090454102 0.067289315164089202881 0.061957754194736480713 0.033189367502927780151 0.032427772879600524902 
0.47933852672576904297 0.49548944830894470215 0.052100386470556259155 0.046331867575645446777 0.2349675595760345459 0.20398609340190887451 0.2311331629753112793 0.52805250883102416992 0.42695099115371704102 0.41994693875312805176 0.1937580406665802002 0.37108635902404785156 1.1755036115646362305 0.055815439671277999878 0.043922968208789825439 0.11608241498470306396 0.042679272592067718506 0.031567323952913284302 0.043772876262664794922 
0.5729853510856628418 0.55643367767333984375 0.049283128231763839722 0.064230546355247497559 0.24418562650680541992 0.44258400797843933105 0.3049946129322052002 0.17362043261528015137 0.14583250880241394043 0.1792322993278503418 0.062313895672559738159 0.28402402997016906738 0.63092088699340820312 0.16139034926891326904 0.068633399903774261475 0.096359260380268096924 0.026449874043464660645 0.068713247776031494141 0.037725158035755157471 
0.36045047640800476074 0.40660879015922546387 0.31281352043151855469 0.048943754285573959351 0.29259213805198669434 0.1457815021276473999 0.28884083032608032227 0.082929916679859161377 0.03472042083740234375 0.068388096988201141357 0.0097366459667682647705 0.035180103033781051636 1.1620845794677734375 0.27144518494606018066 0.26368489861488342285 0.041803780943155288696 0.047133740037679672241 0.037710320204496383667 0.013608437962830066681 
0.061827857047319412231 0.49223795533180236816 0.30305856466293334961 0.049645226448774337769 0.099355943500995635986 0.14054733514785766602 0.31429982185363769531 0.06404218822717666626 0.17276103794574737549 0.076062247157096862793 0.047658436000347137451 0.80415099859237670898 0.28418630361557006836 0.24346053600311279297 0.23195639252662658691 0.050594042986631393433 0.028248161077499389648 0.065764881670475006104 0.033496402204036712646 
0.16050985455513000488 0.46803835034370422363 0.038179680705070495605 0.16236503422260284424 0.21246585249900817871 0.17486098408699035645 0.050592284649610519409 0.15139396488666534424 0.23742024600505828857 0.2208662182092666626 0.056907441467046737671 0.4439767003059387207 0.53400403261184692383 0.18319566547870635986 0.35908532142639160156 0.012235659174621105194 0.022874847054481506348 0.034700352698564529419 0.032089333981275558472 
0.56040900945663452148 0.074898339807987213135 0.11817751824855804443 0.10120952129364013672 0.060587801039218902588 0.018090000376105308533 0.052551817148923873901 0.03482896462082862854 0.10843043029308319092 0.083219133317470550537 0.048074129968881607056 0.14866043627262115479 0.4441159665584564209 0.24603028595447540283 0.17756704986095428467 0.32460314035415649414 0.0760900154709815979 0.17120540142059326172 0.099301680922508239746 
0.3907680213451385498 0.22093814611434936523 0.30348980426788330078 0.096768118441104888916 0.23540276288986206055 0.25055834650993347168 0.284664154052734375 0.27348968386650085449 0.091231212019920349121 0.088591687381267547607 0.032747182995080947876 0.025949114933609962463 0.20699547231197357178 0.35238131880760192871 0.2393929213285446167 0.081566751003265380859 0.049284577369689941406 0.040887549519538879395 0.05523975566029548645 
0.097218826413154602051 0.1567882150411605835 0.041233967989683151245 0.031152151525020599365 0.66498231887817382812 0.21487565338611602783 0.12456023693084716797 0.028705788776278495789 0.045583467930555343628 0.10525231808423995972 0.075890764594078063965 0.14994563162326812744 0.1598015129566192627 0.37668776512145996094 0.2049731910228729248 0.044427085667848587036 0.045487932860851287842 0.19855968654155731201 0.31113481521606445312 
0.18453530967235565186 0.16888341307640075684 0.014979500323534011841 0.31185474991798400879 0.32372060418128967285 0.064423292875289916992 0.037239763885736465454 0.035783756524324417114 0.022016540169715881348 0.059820465743541717529 0.042774610221385955811 0.033504173159599304199 0.28449016809463500977 0.12242475152015686035 0.33871755003929138184 0.20202706754207611084 0.41660276055335998535 0.48991748690605163574 0.048653859645128250122 
0.083442099392414093018 0.096583455801010131836 0.0059072244912385940552 0.26174890995025634766 0.43410262465476989746 0.10203059762716293335 0.01733707822859287262 0.054974801838397979736 0.057672750204801559448 0.085862390697002410889 0.04172239452600479126 0.10117675364017486572 0.095492221415042877197 0.049952737987041473389 0.22715295851230621338 0.07411896437406539917 0.10025210678577423096 0.083879858255386352539 0.047543577849864959717 
0.1564019620418548584 0.078681521117687225342 0.21767853200435638428 0.036029148846864700317 0.12642629444599151611 0.035617649555206298828 0.016963969916105270386 0.05203143879771232605 0.062994219362735748291 0.051261600106954574585 0.085643239319324493408 0.10459270328283309937 0.027957769110798835754 0.33229416608810424805 0.23924463987350463867 0.058208376169204711914 0.13810068368911743164 0.080965220928192138672 0.047789439558982849121 
0.094396613538265228271 0.181653633713722229 0.021596210077404975891 0.041696779429912567139 0.17393325269222259521 0.058412734419107437134 0.010401345789432525635 0.14548473060131072998 0.081513144075870513916 0.033449046313762664795 0.078089252114295959473 0.083692051470279693604 0.062058690935373306274 0.10028746724128723145 0.044055804610252380371 0.091874293982982635498 0.20417876541614532471 0.094008199870586395264 0.048706788569688796997 
0.26957482099533081055 0.098748594522476196289 0.0092003084719181060791 0.045035921037197113037 0.13335978984832763672 0.36671620607376098633 0.024378307163715362549 0.11732765287160873413 0.10343910008668899536 0.046928871423006057739 0.1340077519416809082 0.13612858951091766357 0.2234344780445098877 0.14279377460479736328 0.070939071476459503174 0.088601797819137573242 0.15337915718555450439 0.080839075148105621338 0.0435677357017993927 
0.30697417259216308594 0.13200278580188751221 0.082750566303730010986 0.041535794734954833984 0.23244504630565643311 0.16794185340404510498 0.29576596617698669434 0.12295621633529663086 0.099966965615749359131 0.14252641797065734863 0.26685613393783569336 0.20048289000988006592 0.25668993592262268066 0.10442663729190826416 0.035582389682531356812 0.047334857285022735596 0.048478882759809494019 0.048178493976593017578 0.29663991928100585938 
0.06962344050407409668 0.12706513702869415283 0.081864044070243835449 0.030114827677607536316 0.032321915030479431152 0.2320203632116317749 0.20747785270214080811 0.039624322205781936646 0.047563541680574417114 0.046294730156660079956 0.04031710699200630188 0.035374015569686889648 0.021833794191479682922 0.039455164223909378052 0.027635717764496803284 0.040004581212997436523 0.13373066484928131104 0.05465231090784072876 0.11994110792875289917 
0.020485538989305496216 0.065598227083683013916 0.015442946925759315491 0.015190111473202705383 0.041804637759923934937 0.1996405869722366333 0.11791244149208068848 0.071391038596630096436 0.045858316123485565186 0.029604934155941009521 0.017611099407076835632 0.045783143490552902222 0.044641487300395965576 0.044962268322706222534 0.046731650829315185547 0.03149466589093208313 0.04660546034574508667 0.042537644505500793457 0.032870873808860778809 
