ncols        19
nrows        23
xllcorner    508536.404131802963
yllcorner    5265348.997906560078
cellsize     570.000000000000
NODATA_value -9999
0.012005000375211238861 0.012005000375211238861 0.012005000375211238861 0.012005000375211238861 0.012005000375211238861 0.012005000375211238861 0.012005000375211238861 0.049204330891370773315 0.012005000375211238861 0.012005000375211238861 0.012005000375211238861 0.012005000375211238861 0.037612929940223693848 0.024898847565054893494 1.5238906145095825195 3.3358259201049804688 2.6177680492401123047 2.4018924236297607422 1.1175236701965332031 
0.012005000375211238861 0.012005000375211238861 0.012005000375211238861 0.012005000375211238861 0.013480559922754764557 0.14753860235214233398 0.33508104085922241211 0.19365638494491577148 0.012005000375211238861 0.012005000375211238861 0.062632434070110321045 0.29230150580406188965 1.2255610227584838867 1.3227491378784179688 1.0700093507766723633 3.1335856914520263672 1.9643670320510864258 2.5148639678955078125 1.3370736837387084961 
0.012005000375211238861 0.012005000375211238861 0.012005000375211238861 0.012988707050681114197 0.12127501517534255981 0.18854936957359313965 0.26644852757453918457 0.012005000375211238861 0.012988707050681114197 0.16405402123928070068 1.8250653743743896484 1.3362463712692260742 1.4164316654205322266 1.8515352010726928711 1.5562645196914672852 1.6564737558364868164 1.3540853261947631836 0.59800040721893310547 1.2834527492523193359 
0.012005000375211238861 0.012005000375211238861 0.012005000375211238861 0.045233495533466339111 0.18178102374076843262 0.34477958083152770996 0.47462373971939086914 0.13122376799583435059 0.47638654708862304688 0.58471125364303588867 0.85831290483474731445 0.96529638767242431641 1.0721697807312011719 2.1807522773742675781 0.70350670814514160156 1.147274017333984375 1.2107313871383666992 0.46576401591300964355 1.431415557861328125 
0.012005000375211238861 0.012005000375211238861 0.014074003323912620544 0.13233509659767150879 0.26822119951248168945 0.87135815620422363281 0.94465339183807373047 0.39667427539825439453 0.38910132646560668945 0.093267805874347686768 0.25593295693397521973 0.55956757068634033203 1.9699217081069946289 0.87155145406723022461 0.97174459695816040039 0.13037607073783874512 0.89926004409790039062 0.14984613656997680664 0.11741654574871063232 
0.27532592415809631348 0.67182278633117675781 0.12678292393684387207 0.18224698305130004883 0.17007066309452056885 1.2050595283508300781 2.1058716773986816406 1.2651561498641967773 0.36868438124656677246 0.21600241959095001221 0.40540176630020141602 0.65980947017669677734 2.7688810825347900391 0.23551881313323974609 0.11933688819408416748 0.20275382697582244873 0.20336507260799407959 0.13520351052284240723 0.14121790230274200439 
0.51022303104400634766 1.2290827035903930664 0.29650795459747314453 0.2100401073694229126 0.29337355494499206543 1.4136849641799926758 1.1237905025482177734 0.67464613914489746094 0.74814128875732421875 0.4835637509822845459 0.37761804461479187012 0.46511605381965637207 3.0799427032470703125 0.16395258903503417969 0.15266354382038116455 0.25692084431648254395 0.24539829790592193604 0.14242173731327056885 0.13879291713237762451 
1.3763648271560668945 1.3658069372177124023 0.22029632329940795898 0.19494956731796264648 0.70209944248199462891 0.63559287786483764648 0.68200010061264038086 1.5571739673614501953 1.3077445030212402344 1.2520784139633178711 0.61811268329620361328 1.1664332151412963867 3.5325968265533447266 0.2269395291805267334 0.1892465054988861084 0.3586584925651550293 0.16628928482532501221 0.13524861633777618408 0.18779060244560241699 
1.6259685754776000977 1.6536551713943481445 0.21207338571548461914 0.25277233123779296875 0.72766768932342529297 1.2891899347305297852 0.95129263401031494141 0.52781152725219726562 0.49648427963256835938 0.5655625462532043457 0.22268252074718475342 0.92328411340713500977 1.8350317478179931641 0.49238729476928710938 0.27228263020515441895 0.31563717126846313477 0.11414273828268051147 0.23486645519733428955 0.16333362460136413574 
0.97893661260604858398 1.1899943351745605469 0.92912906408309936523 0.21078851819038391113 0.92153590917587280273 0.47428208589553833008 0.90264940261840820312 0.28114810585975646973 0.14975216984748840332 0.25416433811187744141 0.041806362569332122803 0.1484136432409286499 3.1231973171234130859 0.89476001262664794922 0.86049824953079223633 0.17999245226383209229 0.17602990567684173584 0.15825514495372772217 0.058584280312061309814 
0.23657232522964477539 1.4696995019912719727 0.86745601892471313477 0.21048398315906524658 0.33608734607696533203 0.44229423999786376953 0.9170061945915222168 0.22197723388671875 0.52646958827972412109 0.26679447293281555176 0.20522363483905792236 2.3128743171691894531 0.86868339776992797852 0.73404157161712646484 0.66063410043716430664 0.18010437488555908203 0.11805419623851776123 0.24487458169460296631 0.14446325600147247314 
0.52309536933898925781 1.3393864631652832031 0.15949603915214538574 0.53575015068054199219 0.66256254911422729492 0.52509868144989013672 0.17490464448928833008 0.43243131041526794434 0.705230712890625 0.71257877349853515625 0.23690950870513916016 1.3344873189926147461 1.5883672237396240234 0.61307793855667114258 1.0334355831146240234 0.045887000858783721924 0.098620906472206115723 0.14965339004993438721 0.13862299919128417969 
1.6491503715515136719 0.26003929972648620605 0.38538566231727600098 0.32602623105049133301 0.22063362598419189453 0.077545896172523498535 0.15555687248706817627 0.10762787610292434692 0.34556415677070617676 0.30728042125701904297 0.20750476419925689697 0.50159597396850585938 1.3998838663101196289 0.79217839241027832031 0.57727849483489990234 0.99055308103561401367 0.25349703431129455566 0.54994088411331176758 0.32270976901054382324 
1.2074031829833984375 0.67360508441925048828 0.92065984010696411133 0.32462170720100402832 0.7153759002685546875 0.81253618001937866211 0.92633807659149169922 0.80538207292556762695 0.28615731000900268555 0.32360190153121948242 0.11731776595115661621 0.1116080060601234436 0.70385789871215820312 1.1802906990051269531 0.78480541706085205078 0.28053149580955505371 0.197698935866355896 0.17569383978843688965 0.21121367812156677246 
0.34239012002944946289 0.52140134572982788086 0.17771819233894348145 0.10738137364387512207 2.0273191928863525391 0.71152919530868530273 0.40616634488105773926 0.11088313162326812744 0.19640691578388214111 0.37756869196891784668 0.26129451394081115723 0.51569670438766479492 0.52774840593338012695 1.2104038000106811523 0.63181781768798828125 0.19064883887767791748 0.17842821776866912842 0.65081632137298583984 0.91761404275894165039 
0.59582561254501342773 0.53494656085968017578 0.06437673419713973999 0.95951640605926513672 1.0159529447555541992 0.26071241497993469238 0.11026319116353988647 0.15425433218479156494 0.0948236808180809021 0.23907087743282318115 0.17414270341396331787 0.12711873650550842285 0.92718905210494995117 0.41066148877143859863 1.0352075099945068359 0.67426002025604248047 1.3260309696197509766 1.5574623346328735352 0.20832985639572143555 
0.28958946466445922852 0.32619205117225646973 0.025335066020488739014 0.74429786205291748047 1.3358860015869140625 0.33212140202522277832 0.074664436280727386475 0.21476703882217407227 0.22961556911468505859 0.31872054934501647949 0.18016667664051055908 0.37885579466819763184 0.34427478909492492676 0.21279555559158325195 0.71702837944030761719 0.28708434104919433594 0.36731049418449401855 0.30824446678161621094 0.20322263240814208984 
0.49615165591239929199 0.2853190004825592041 0.66884195804595947266 0.13507632911205291748 0.4213721156120300293 0.15353929996490478516 0.073099277913570404053 0.1816813051700592041 0.24010853469371795654 0.21524263918399810791 0.31507751345634460449 0.38222587108612060547 0.11668140441179275513 1.0190153121948242188 0.78749775886535644531 0.23686172068119049072 0.47652330994606018066 0.28276300430297851562 0.20632028579711914062 
0.31009197235107421875 0.52097207307815551758 0.064976580440998077393 0.17920108139514923096 0.56128466129302978516 0.18177600204944610596 0.040639262646436691284 0.49824851751327514648 0.30425459146499633789 0.14445187151432037354 0.28494098782539367676 0.31047341227531433105 0.2343358844518661499 0.36447104811668395996 0.19049024581909179688 0.34066468477249145508 0.69782787561416625977 0.33992245793342590332 0.2103983759880065918 
0.79279989004135131836 0.32025194168090820312 0.039473466575145721436 0.19340294599533081055 0.45128992199897766113 1.0343494415283203125 0.10506101697683334351 0.35223647952079772949 0.36127954721450805664 0.20301598310470581055 0.43851804733276367188 0.42419186234474182129 0.65918868780136108398 0.41917553544044494629 0.2648309171199798584 0.28748047351837158203 0.52116101980209350586 0.28055596351623535156 0.188749656081199646 
0.88834625482559204102 0.41875168681144714355 0.31196197867393493652 0.17941588163375854492 0.74417030811309814453 0.56335073709487915039 0.91034662723541259766 0.39694058895111083984 0.36736395955085754395 0.50531774759292602539 0.86594438552856445312 0.64967566728591918945 0.82572704553604125977 0.3740424811840057373 0.15365909039974212646 0.19753125309944152832 0.20986783504486083984 0.2060546576976776123 0.83146762847900390625 
0.23264348506927490234 0.43964546918869018555 0.28929868340492248535 0.12964983284473419189 0.13911134004592895508 0.72092783451080322266 0.63037282228469848633 0.16286443173885345459 0.20565038919448852539 0.20026008784770965576 0.17433340847492218018 0.15330903232097625732 0.094594262540340423584 0.17109477519989013672 0.11942943930625915527 0.17264121770858764648 0.48072201013565063477 0.22860901057720184326 0.35999011993408203125 
0.088032945990562438965 0.25325861573219299316 0.0664559975266456604 0.065257303416728973389 0.17974846065044403076 0.61940884590148925781 0.39802476763725280762 0.26404994726181030273 0.19837489724159240723 0.12824754416942596436 0.076110571622848510742 0.19879485666751861572 0.19320720434188842773 0.19536943733692169189 0.20236414670944213867 0.13581770658493041992 0.20155234634876251221 0.18427090346813201904 0.14240495860576629639 
