ncols        19
nrows        23
xllcorner    508536.404131802963
yllcorner    5265348.997906560078
cellsize     570.000000000000
NODATA_value -9999
0.050344001501798629761 0.050344001501798629761 0.050344001501798629761 0.050344001501798629761 0.050344001501798629761 0.050344001501798629761 0.050344001501798629761 0.10353830456733703613 0.050344001501798629761 0.050344001501798629761 0.050344001501798629761 0.050344001501798629761 0.15531055629253387451 0.10331038385629653931 3.8965265750885009766 5.4784302711486816406 4.6374578475952148438 4.682132720947265625 3.2320919036865234375 
0.050344001501798629761 0.050344001501798629761 0.050344001501798629761 0.050344001501798629761 0.056529004126787185669 0.53215247392654418945 0.78381699323654174805 0.62249726057052612305 0.050344001501798629761 0.050344001501798629761 0.22193431854248046875 0.9815006256103515625 2.3944106101989746094 3.5825200080871582031 2.5249385833740234375 5.6289706230163574219 3.4396054744720458984 4.2777018547058105469 1.904805302619934082 
0.050344001501798629761 0.050344001501798629761 0.050344001501798629761 0.054467335343360900879 0.49630898237228393555 0.75760918855667114258 0.88573628664016723633 0.050344001501798629761 0.054467335343360900879 0.47087585926055908203 3.5225808620452880859 3.6865055561065673828 3.4212589263916015625 3.5073256492614746094 3.7497439384460449219 3.4402158260345458984 2.3115313053131103516 1.4301253557205200195 2.5792670249938964844 
0.050344001501798629761 0.050344001501798629761 0.050344001501798629761 0.18682876229286193848 0.70657908916473388672 0.82252025604248046875 1.2331547737121582031 0.34283047914505004883 1.1566607952117919922 1.2529350519180297852 1.8707162141799926758 2.3285257816314697266 1.2777402400970458984 3.9815144538879394531 1.912804722785949707 2.1036319732666015625 2.4904475212097167969 1.1392109394073486328 2.6936051845550537109 
0.050344001501798629761 0.050344001501798629761 0.058855935931205749512 0.54120349884033203125 0.98884701728820800781 2.0224103927612304688 2.005489349365234375 1.1170659065246582031 1.0135722160339355469 0.37579056620597839355 0.82246237993240356445 1.5261746644973754883 4.0318379402160644531 2.4767322540283203125 2.1312508583068847656 0.50939160585403442383 1.5644674301147460938 0.60345518589019775391 0.48348316550254821777 
0.79782760143280029297 1.4401149749755859375 0.49732366204261779785 0.74517995119094848633 0.62702298164367675781 2.9815824031829833984 3.9080259799957275391 2.4421639442443847656 0.97794991731643676758 0.79208558797836303711 1.0613695383071899414 1.6093502044677734375 5.6392560005187988281 0.6953557133674621582 0.48842626810073852539 0.81066566705703735352 0.79345250129699707031 0.55445390939712524414 0.58345842361450195312 
1.1979097127914428711 1.9505349397659301758 0.82364821434020996094 0.8049042820930480957 1.0054444074630737305 3.3701126575469970703 2.7642571926116943359 1.7356036901473999023 1.9297695159912109375 1.2101844549179077148 1.1318870782852172852 1.3139322996139526367 6.4782953262329101562 0.66783529520034790039 0.6214053034782409668 0.799713134765625 0.85817992687225341797 0.58654075860977172852 0.57372570037841796875 
2.9151811599731445312 3.20609283447265625 0.85310840606689453125 0.80018156766891479492 1.8048598766326904297 1.4297829866409301758 1.7565933465957641602 2.9846134185791015625 2.2351536750793457031 2.350704193115234375 1.380863189697265625 2.0266907215118408203 5.2368211746215820312 0.78188431262969970703 0.77308249473571777344 1.0047945976257324219 0.65207386016845703125 0.55886274576187133789 0.77451461553573608398 
3.6588890552520751953 3.0237512588500976562 0.86670452356338500977 0.88854748010635375977 1.9582629203796386719 2.7588865756988525391 1.7472492456436157227 1.2450851202011108398 1.1421326398849487305 1.3413252830505371094 0.52335661649703979492 1.5753916501998901367 3.6310801506042480469 1.3777642250061035156 0.86128962039947509766 1.0826847553253173828 0.46734026074409484863 0.68254804611206054688 0.66693872213363647461 
2.9683938026428222656 2.7049198150634765625 2.2669770717620849609 0.86089044809341430664 1.7882078886032104492 0.99983966350555419922 1.7063333988189697266 0.91237539052963256836 0.61048996448516845703 0.92161995172500610352 0.17165613174438476562 0.57461076974868774414 7.4128317832946777344 1.5313107967376708984 1.4455269575119018555 0.73723137378692626953 0.63281285762786865234 0.6049137115478515625 0.24195052683353424072 
0.91747051477432250977 2.8040080070495605469 2.3284363746643066406 0.82247686386108398438 1.0998709201812744141 0.98846393823623657227 1.968959808349609375 0.69156026840209960938 1.0606414079666137695 0.93495959043502807617 0.83642309904098510742 4.4931840896606445312 1.616536259651184082 1.6600197553634643555 1.5713675022125244141 0.60962688922882080078 0.44670516252517700195 0.90257233381271362305 0.59023320674896240234 
1.3423792123794555664 3.0440862178802490234 0.60069459676742553711 1.2640581130981445312 1.5055466890335083008 0.91192454099655151367 0.25889527797698974609 1.0718327760696411133 1.3297659158706665039 1.5654093027114868164 0.86712670326232910156 2.2244353294372558594 2.6990885734558105469 1.2538875341415405273 2.1442267894744873047 0.14775982499122619629 0.40522795915603637695 0.6106020808219909668 0.56314408779144287109 
3.2650008201599121094 0.79397338628768920898 1.0287322998046875 0.98247468471527099609 0.71089649200439453125 0.32018163800239562988 0.44022539258003234863 0.36520314216613769531 0.6185665130615234375 0.97817957401275634766 0.84507697820663452148 1.1597239971160888672 2.0733644962310791016 1.5851496458053588867 1.2456066608428955078 1.7903742790222167969 0.67255246639251708984 1.0604318380355834961 1.2281706333160400391 
2.2772016525268554688 1.59412384033203125 1.9024537801742553711 0.98908382654190063477 1.6222611665725708008 1.099333643913269043 1.0091520547866821289 1.4328187704086303711 1.0754660367965698242 0.94746065139770507812 0.38894307613372802734 0.45832586288452148438 1.2844775915145874023 1.5633494853973388672 1.3243726491928100586 0.84754765033721923828 0.80187249183654785156 0.72230494022369384766 0.59073060750961303711 
1.0830106735229492188 1.2292448282241821289 0.72604334354400634766 0.15646363794803619385 2.774066925048828125 1.3541212081909179688 1.0220400094985961914 0.31872004270553588867 0.80482459068298339844 0.78581041097640991211 0.47931230068206787109 0.92819398641586303711 1.3149149417877197266 1.9153530597686767578 1.5058991909027099609 0.78396004438400268555 0.68984591960906982422 1.3517900705337524414 2.2097573280334472656 
1.3849091529846191406 0.88363683223724365234 0.26490300893783569336 1.6658786535263061523 1.773451685905456543 0.89566707611083984375 0.40810802578926086426 0.6287899017333984375 0.38686236739158630371 0.77327692508697509766 0.70276778936386108398 0.50456893444061279297 1.6342374086380004883 1.2345874309539794922 2.0700907707214355469 1.3663746118545532227 2.0899834632873535156 2.2190265655517578125 0.85985392332077026367 
0.9108448028564453125 1.0425993204116821289 0.10472171753644943237 2.1194183826446533203 2.3670654296875 1.2221275568008422852 0.30483070015907287598 0.63732421398162841797 0.73112636804580688477 0.83547407388687133789 0.73440068960189819336 0.93562227487564086914 0.98056691884994506836 0.84017741680145263672 1.6158879995346069336 0.85347944498062133789 0.9626280665397644043 0.96231949329376220703 0.84101760387420654297 
1.1827006340026855469 0.82979029417037963867 0.98625642061233520508 0.34198942780494689941 1.2526328563690185547 0.62682455778121948242 0.29942899942398071289 0.61157006025314331055 0.9222361445426940918 0.81185156106948852539 0.93455177545547485352 1.0138846635818481445 0.44625034928321838379 1.829071044921875 1.4548562765121459961 0.88891458511352539062 1.1364825963973999023 0.7874215245246887207 0.84460121393203735352 
0.77585816383361816406 1.1872564554214477539 0.24204154312610626221 0.73493397235870361328 1.4052819013595581055 0.47303301095962524414 0.16416852176189422607 1.061507105827331543 0.96668738126754760742 0.58767694234848022461 0.81635826826095581055 0.85088628530502319336 0.60191237926483154297 1.0116803646087646484 0.7758019566535949707 0.99699193239212036133 1.1898818016052246094 0.97089672088623046875 0.85638248920440673828 
1.6505666971206665039 1.0010961294174194336 0.16213594377040863037 0.79386812448501586914 1.146040797233581543 2.3932309150695800781 0.42923104763031005859 0.94536292552947998047 1.1231601238250732422 0.82891249656677246094 1.2909440994262695312 0.90856707096099853516 1.5418316125869750977 1.2704875469207763672 0.85907596349716186523 1.0062112808227539062 1.2302744388580322266 0.99345910549163818359 0.77122086286544799805 
1.9236536026000976562 0.82327634096145629883 0.79661458730697631836 0.73085832595825195312 1.2636419534683227539 1.2727485895156860352 1.8784047365188598633 0.79375511407852172852 1.0004212856292724609 1.1059279441833496094 1.5522131919860839844 1.1745086908340454102 1.3836492300033569336 1.0600607395172119141 0.62561488151550292969 0.7326990962028503418 0.85509246587753295898 0.81417435407638549805 2.2301466464996337891 
0.64276319742202758789 1.1411385536193847656 0.80810260772705078125 0.53068721294403076172 0.57057535648345947266 1.5759464502334594727 1.6349341869354248047 0.58845925331115722656 0.83715027570724487305 0.81506323814392089844 0.71059697866439819336 0.62640297412872314453 0.3881110846996307373 0.69986182451248168945 0.4882310330867767334 0.70289212465286254883 1.02213287353515625 0.85041016340255737305 1.3311669826507568359 
0.36081108450889587402 0.81777769327163696289 0.27206602692604064941 0.26866751909255981445 0.7376740574836730957 1.488474726676940918 1.1225870847702026367 0.85919404029846191406 0.81032764911651611328 0.52682894468307495117 0.31166151165962219238 0.81679338216781616211 0.7874609827995300293 0.80304884910583496094 0.82863754034042358398 0.55357438325881958008 0.82114577293395996094 0.75160080194473266602 0.58052814006805419922 
