ncols        87
nrows        107
xllcorner    508562.338426187926
yllcorner    5265596.272683421150
cellsize     120.000000000000
NODATA_value -9999
0.0 0 0 0 0 0 0 0 0 0 0 0 0 0 0 0 0 0 0 0 0 0 0 0 0 0 0 0 0 0 0 0 0 0 0 0 0 0 0 0 0 0 0 0 0 0 0 0 0 0 0 0 0 0 0 0 0 0 0 0 0 0 0 0 0 0 0 0 0 0 0 0 0 0 0 0 0 0 0 0 0 0 0 0 0 0 0 
0 0 0 0 0 0 0 0 0 0 0 0 0 0 0 0 0 0 0 0 0 0 0 0 0 0 0 0 0 0 0 0 0 0 0 0 0 0 0 0 0 0 0 0 0 0 0 0 0 0 0 0 0 0 0 0 0 0 0 0 0 0 0 0 0 0 0 0 0 0 0 0 0 0 0 0 0 0 0 0 0 0 0 0 0 0 0 
0 0 0 0 0 0 0 0 0 0 0 0 0 0 0 0 0 0 0 0 0 0 0 0 0 0 0 0 0 0 0 0 0 0 0 0 0 0 0 0 0 0 0 0 0 0 0 0 0 0 0 0 0 0 0 0 0 0 0 0 0 0 0 0 0 415.187347412109375 428.093231201171875 107.9240875244140625 0 0 0 0 0 0 0 0 0 0 0 0 0 0 0 0 0 0 0 
0 0 0 0 0 0 0 0 0 0 0 0 0 0 0 0 0 0 0 0 0 0 0 0 0 0 0 0 0 0 0 0 0 0 0 0 0 0 0 0 0 0 0 0 0 0 0 0 0 0 0 0 0 0 0 0 0 0 0 0 0 0 0 0 0 1139.2359619140625 397.4835205078125 340.19873046875 0 0 0 0 0 0 0 0 0 0 0 0 0 0 0 0 0 0 0 
0 0 0 0 0 0 0 0 0 0 0 0 0 0 0 0 0 0 0 0 0 0 0 0 0 0 0 0 0 0 0 0 0 0 0 0 0 0 0 0 0 0 0 0 0 0 0 0 0 0 0 0 0 0 0 0 0 0 0 0 0 0 0 0 1281.6678466796875 1260.35400390625 375.681549072265625 304.2845458984375 0 0 0 0 0 0 0 0 0 0 0 0 0 0 0 0 0 0 0 
0 0 0 0 0 0 0 0 0 0 0 0 0 0 0 0 0 0 0 0 0 0 0 0 0 0 0 0 0 0 0 0 0 0 0 0 0 0 0 0 0 0 0 0 0 0 0 0 0 0 0 0 0 0 0 0 0 0 0 0 0 0 120.57172393798828125 328.18609619140625 1436.6702880859375 1536.39501953125 464.0726318359375 347.849609375 0 0 0 0 0 0 0 0 0 0 0 0 0 0 0 0 0 0 0 
0 0 0 0 0 0 0 0 0 0 0 0 0 0 0 0 0 0 0 0 0 0 0 0 0 0 0 0 0 0 0 0 0 0 0 0 0 0 0 0 0 0 0 0 0 0 0 0 0 0 0 0 0 0 0 0 0 0 0 0 0 0 315.7593994140625 412.715118408203125 537.78558349609375 519.88134765625 478.642578125 369.011962890625 0 0 0 0 0 0 0 0 0 0 0 0 0 0 0 0 0 0 0 
0 0 0 0 0 0 0 0 0 0 0 0 0 0 0 0 0 0 0 0 0 0 0 0 0 0 0 0 0 0 0 0 0 0 0 0 0 0 0 0 0 0 0 0 0 0 0 0 0 0 0 0 0 0 0 0 0 0 0 0 0 0 380.74920654296875 479.546417236328125 1189.8634033203125 1033.8707275390625 417.890625 572.119873046875 0 0 0 0 0 0 0 0 0 0 0 0 0 0 0 0 0 0 0 
0 0 0 0 0 0 0 0 0 0 0 0 0 0 0 0 0 0 0 0 0 0 0 0 0 0 0 0 0 0 0 0 0 0 0 0 0 0 0 0 0 0 0 0 0 0 0 0 0 0 0 0 0 0 0 0 0 0 0 0 0 191.698394775390625 462.983673095703125 476.36297607421875 1131.1722412109375 968.60400390625 461.3111572265625 398.953460693359375 74.80377197265625 0 0 0 0 0 0 0 0 0 0 0 0 0 0 0 0 0 0 
0 0 0 0 0 0 0 0 0 0 0 0 0 0 0 0 0 0 0 0 0 0 0 0 0 0 0 0 0 0 0 0 0 0 0 0 0 0 0 0 0 0 0 0 0 0 0 0 0 0 0 0 0 0 0 0 0 0 0 0 0 218.4930572509765625 482.938812255859375 479.265838623046875 481.119476318359375 1004.39288330078125 488.1298828125 575.576416015625 31.722278594970703125 0 0 0 0 0 0 0 0 0 0 0 0 0 0 0 0 0 0 
0 0 0 0 0 0 0 0 0 0 0 0 0 0 0 0 0 0 0 0 0 0 0 0 0 0 0 0 0 0 0 0 0 0 0 0 0 0 0 0 0 0 0 0 0 0 0 0 0 0 0 0 0 0 0 0 0 0 0 0 0 218.5509490966796875 709.40032958984375 671.43804931640625 484.34136962890625 1016.9757080078125 488.62420654296875 379.9375 0 0 0 0 0 0 0 0 0 0 0 0 0 0 0 0 0 0 0 
0 0 0 0 0 0 0 0 0 0 0 0 0 0 0 0 0 0 0 0 0 0 0 0 0 0 0 0 0 0 0 0 0 0 0 0 0 0 0 0 0 0 0 0 0 0 0 0 0 0 0 0 0 0 0 0 0 0 0 0 0 308.525421142578125 709.40032958984375 683.1929931640625 1023.79296875 1047.90771484375 477.331085205078125 369.662445068359375 0 0 0 0 0 0 0 0 0 0 0 0 0 0 0 0 0 0 0 
0 0 0 0 0 0 0 0 0 0 0 0 0 0 0 0 0 0 0 0 0 0 0 0 0 0 0 0 0 0 0 0 0 0 0 0 0 0 0 0 0 0 0 0 0 0 0 0 0 0 0 0 0 0 0 0 0 0 0 0 0 357.1922607421875 477.223876953125 941.02838134765625 1028.892578125 518.26495361328125 471.895233154296875 0 0 0 0 0 0 0 0 0 0 0 0 0 0 0 0 0 0 0 0 
0 0 0 0 0 0 0 0 0 0 0 0 0 0 0 0 0 0 0 0 0 0 0 0 0 0 0 0 0 0 0 0 0 0 0 0 0 0 0 0 0 0 0 0 0 0 0 0 0 0 0 0 0 0 0 0 0 0 0 0 366.660980224609375 397.0245361328125 482.863250732421875 949.79217529296875 531.04180908203125 491.174072265625 454.74853515625 0 0 0 0 0 0 0 0 0 0 0 0 0 0 0 0 0 0 0 0 
0 0 0 0 0 0 0 0 0 0 0 0 0 0 0 0 0 0 0 0 0 0 0 0 0 0 0 0 0 0 0 0 0 0 0 0 0 0 0 0 0 0 0 0 0 0 0 0 0 0 0 0 0 0 0 0 0 0 0 71.34946441650390625 303.460235595703125 562.9586181640625 398.95074462890625 680.23828125 515.263671875 476.395965576171875 193.328582763671875 0 0 0 0 0 0 0 0 0 0 0 0 0 0 0 0 0 0 0 0 
0 0 0 0 0 0 0 0 0 0 0 0 0 0 0 0 0 0 0 0 0 0 0 0 0 0 0 0 0 0 0 0 0 0 0 0 0 0 0 0 0 0 0 0 0 0 0 0 0 0 0 0 0 0 0 0 0 0 0 531.0482177734375 537.0374755859375 367.759033203125 422.97894287109375 500.7186279296875 522.39373779296875 477.87493896484375 201.120269775390625 0 0 0 0 0 0 0 0 0 0 0 0 0 0 0 0 0 0 0 0 
0 0 0 0 0 0 0 0 0 0 0 0 0 0 0 0 0 0 0 0 0 0 0 0 0 0 0 0 0 0 0 0 0 0 0 0 0 0 0 0 0 0 0 0 0 0 0 0 0 0 0 0 0 0 0 0 0 0 0 707.29815673828125 714.193359375 435.302093505859375 417.275787353515625 520.11968994140625 524.0662841796875 461.8389892578125 101.3480224609375 0 0 0 0 0 0 0 0 0 0 0 0 0 0 0 0 0 0 0 0 
0 0 0 0 0 0 0 0 0 0 0 0 0 0 0 0 0 0 0 0 0 0 0 0 0 0 0 0 0 0 0 0 0 0 0 0 0 0 0 0 0 0 0 0 0 0 0 0 0 0 0 0 0 0 0 0 0 0 0 0 458.311614990234375 463.746246337890625 685.98876953125 764.296630859375 737.06610107421875 456.236083984375 197.9645233154296875 0 0 0 0 0 0 0 0 0 0 0 0 0 0 0 0 0 0 0 0 
0 0 0 0 0 0 0 0 0 0 0 0 0 0 0 0 0 0 0 0 0 0 0 0 0 0 0 0 0 0 0 0 0 0 0 0 0 0 0 0 0 0 0 0 0 0 0 0 0 0 0 0 0 0 0 0 0 0 194.83935546875 440.967315673828125 464.91156005859375 502.01116943359375 517.3228759765625 523.99884033203125 499.58636474609375 480.1185302734375 383.973663330078125 385.23358154296875 388.086578369140625 258.62786865234375 176.657135009765625 52.824615478515625 0 0 0 0 0 0 0 0 0 0 0 0 0 0 0 
0 0 0 0 0 0 0 0 0 0 0 0 0 0 0 0 0 0 0 0 0 0 0 0 0 0 0 0 0 0 0 0 0 0 0 0 0 0 0 0 0 0 0 0 0 0 0 0 0 0 0 0 0 0 0 0 0 0 533.20379638671875 479.895843505859375 487.90911865234375 512.9813232421875 508.70098876953125 490.848602294921875 462.4322509765625 470.971771240234375 387.168792724609375 361.789642333984375 357.758941650390625 360.70965576171875 252.122833251953125 183.190032958984375 28.267221450805664062 0 0 0 0 0 0 0 0 0 0 0 0 0 0 
0 0 0 0 0 0 0 0 0 0 0 0 0 0 0 0 0 0 0 0 0 0 0 0 0 0 0 0 0 0 0 0 0 0 0 0 0 0 0 0 0 0 0 0 0 0 0 0 0 0 0 0 0 0 0 0 0 0 293.081085205078125 474.36474609375 486.213958740234375 481.201751708984375 463.959808349609375 462.036224365234375 452.178466796875 407.405487060546875 564.1739501953125 519.400146484375 359.250640869140625 370.020233154296875 343.630645751953125 217.2569580078125 36.747386932373046875 0 0 0 0 0 0 0 0 0 0 0 0 0 0 
0 0 0 0 0 0 0 0 0 0 0 0 0 0 0 0 0 0 0 0 0 0 0 0 0 0 0 0 0 0 0 0 0 0 0 0 0 0 0 0 0 0 0 0 0 0 0 0 0 0 0 0 0 0 0 0 123.046844482421875 359.660919189453125 451.47705078125 470.1746826171875 491.39483642578125 477.261505126953125 330.142913818359375 406.833892822265625 398.7991943359375 391.765655517578125 388.019317626953125 365.0003662109375 354.921630859375 345.744964599609375 349.486846923828125 284.939971923828125 0 0 0 0 0 0 0 0 0 0 0 0 0 0 0 
0 0 0 0 0 0 0 0 0 0 0 0 0 0 0 0 0 0 0 0 0 0 0 0 0 0 0 0 0 0 0 0 0 0 0 0 0 0 0 0 0 0 0 0 0 0 0 0 0 0 0 0 0 0 0 0 197.0665740966796875 363.08154296875 454.475311279296875 485.487396240234375 478.782196044921875 448.7550048828125 299.8592529296875 461.12078857421875 383.068267822265625 369.12127685546875 359.50067138671875 337.2659912109375 349.82818603515625 401.748687744140625 352.10491943359375 162.2274322509765625 37.82123565673828125 0 0 377.72772216796875 377.72772216796875 257.824737548828125 0 0 0 0 0 0 0 0 0 
0 0 0 0 0 0 0 0 0 0 0 0 0 0 0 0 0 0 0 0 0 0 0 0 0 0 0 0 0 0 0 0 0 0 0 0 0 0 0 0 0 0 0 0 0 0 0 0 0 0 0 0 0 0 25.29149627685546875 174.02105712890625 392.49969482421875 398.176025390625 448.242095947265625 492.762451171875 461.96649169921875 368.5767822265625 379.61328125 421.4678955078125 337.107879638671875 452.952545166015625 337.5277099609375 278.436614990234375 316.0517578125 375.61456298828125 318.518829345703125 340.4345703125 377.80023193359375 439.074249267578125 363.701507568359375 364.236785888671875 367.877105712890625 370.211761474609375 325.9093017578125 0 0 0 0 0 0 0 0 
0 0 0 0 0 0 0 0 0 0 0 0 0 0 0 0 0 0 0 0 0 0 0 0 0 0 0 0 0 0 0 0 0 0 0 0 0 0 0 0 0 0 0 0 0 0 0 0 0 0 0 0 0 77.5209197998046875 175.0291290283203125 400.51416015625 399.563568115234375 398.506927490234375 443.369293212890625 493.38250732421875 457.15313720703125 438.494415283203125 380.30828857421875 324.8287353515625 351.931182861328125 223.104949951171875 252.0279083251953125 307.085296630859375 281.471710205078125 383.10302734375 345.484283447265625 281.504364013671875 334.8426513671875 304.82110595703125 334.86834716796875 359.139007568359375 379.388702392578125 381.940185546875 175.7804718017578125 0 0 0 0 0 0 0 0 
0 0 0 0 0 0 0 0 0 0 0 0 0 0 0 0 0 0 0 0 0 0 0 0 0 0 0 0 0 0 0 0 0 0 0 0 0 0 0 0 0 0 0 0 0 0 0 0 0 0 0 0 0 301.02130126953125 391.2803955078125 393.794403076171875 478.184356689453125 458.49163818359375 444.500091552734375 480.1337890625 467.6007080078125 376.86920166015625 385.6331787109375 379.290435791015625 342.83355712890625 341.17742919921875 266.865509033203125 338.907012939453125 346.038177490234375 357.140594482421875 281.72149658203125 372.543060302734375 387.513580322265625 334.028900146484375 337.73455810546875 344.33935546875 850.0064697265625 351.10968017578125 176.4072265625 0 0 0 0 0 0 0 0 
0 0 0 0 0 0 0 0 0 0 0 0 0 0 0 0 0 0 0 0 0 0 0 0 0 0 0 0 0 0 0 0 0 0 0 0 0 0 0 0 0 0 0 0 0 0 0 0 0 0 0 0 137.6688385009765625 352.692596435546875 382.9315185546875 383.28656005859375 399.128997802734375 450.844482421875 468.24310302734375 484.145721435546875 423.6622314453125 397.651092529296875 322.660369873046875 249.117919921875 348.137908935546875 357.01202392578125 323.671417236328125 366.430267333984375 375.49755859375 369.065185546875 274.2010498046875 276.67486572265625 332.0321044921875 283.78125 343.7398681640625 331.2100830078125 856.613037109375 338.819427490234375 320.73687744140625 0 0 0 0 0 0 0 0 
0 0 0 0 0 0 0 0 0 0 0 0 0 0 0 0 0 0 0 0 0 0 0 0 0 0 0 0 0 0 0 0 0 0 0 0 0 0 0 0 0 0 0 0 0 0 0 0 0 0 0 0 179.421295166015625 365.758331298828125 382.875518798828125 377.08294677734375 383.523406982421875 453.478790283203125 654.36199951171875 496.565216064453125 466.7896728515625 402.87286376953125 373.91510009765625 351.05963134765625 296.93780517578125 349.032623291015625 269.531707763671875 548.58831787109375 317.8927001953125 331.5518798828125 338.2396240234375 313.4683837890625 317.75823974609375 448.46612548828125 280.867401123046875 324.44921875 699.84893798828125 322.88568115234375 365.153228759765625 143.703643798828125 0 0 0 0 0 0 0 
0 0 0 0 0 0 0 0 0 0 0 0 0 0 0 0 0 0 0 0 0 0 0 0 0 0 0 0 0 0 0 0 0 0 0 0 0 0 0 0 0 0 0 0 0 0 0 0 0 0 0 182.1436004638671875 359.6536865234375 497.951904296875 375.993988037109375 384.618621826171875 386.72137451171875 440.235626220703125 463.96612548828125 509.59210205078125 488.8226318359375 385.76068115234375 266.7044677734375 267.393829345703125 354.063079833984375 338.97674560546875 265.39556884765625 334.3408203125 340.79180908203125 341.916900634765625 337.905120849609375 343.702606201171875 334.188201904296875 335.533935546875 371.20794677734375 313.75311279296875 308.383087158203125 319.177886962890625 339.734222412109375 296.58734130859375 22.35042572021484375 0 0 0 0 0 0 
0 0 0 0 0 0 0 0 0 0 0 0 0 0 0 0 0 0 0 0 0 0 0 0 0 0 0 0 0 0 0 0 0 0 0 0 0 0 0 0 0 0 0 0 0 0 0 0 0 0 21.85942840576171875 225.54132080078125 358.700164794921875 354.122314453125 391.12713623046875 405.99786376953125 389.402923583984375 445.77423095703125 677.9481201171875 496.890533447265625 469.0794677734375 384.61285400390625 197.7674102783203125 258.730133056640625 282.313812255859375 332.349365234375 278.263458251953125 325.120880126953125 329.21051025390625 331.59930419921875 327.598785400390625 332.17730712890625 326.991790771484375 322.277435302734375 262.77972412109375 322.12567138671875 318.8333740234375 317.874908447265625 338.888671875 352.212158203125 132.8912200927734375 0 0 0 0 0 0 
0 0 0 0 0 0 0 0 0 0 0 0 0 0 0 0 0 0 0 0 0 0 0 0 0 0 0 0 0 0 0 0 0 0 0 0 0 0 0 0 0 0 0 0 0 0 0 0 131.2349395751953125 175.4853973388671875 215.4693145751953125 346.9324951171875 347.89324951171875 342.214080810546875 363.58203125 382.24993896484375 375.449798583984375 425.962646484375 430.590484619140625 694.76702880859375 650.0841064453125 399.656951904296875 347.75555419921875 316.37518310546875 377.780303955078125 378.87567138671875 272.474884033203125 324.43585205078125 326.11260986328125 338.7027587890625 329.100372314453125 319.274078369140625 319.0867919921875 316.906005859375 313.341796875 319.84552001953125 319.221649169921875 320.5880126953125 703.469970703125 299.90313720703125 42.278194427490234375 0 0 0 0 0 0 
0 0 0 0 0 0 0 0 0 0 0 0 0 0 0 0 0 0 0 0 0 0 0 0 0 0 0 0 0 0 0 0 0 0 0 0 0 0 0 0 0 0 0 0 0 0 0 0 259.5989990234375 343.1756591796875 344.4600830078125 326.30035400390625 322.188262939453125 322.971893310546875 336.75079345703125 356.096832275390625 360.40679931640625 594.98980712890625 664.16632080078125 481.062164306640625 461.5625 404.483001708984375 392.92437744140625 366.512115478515625 352.63818359375 328.53631591796875 313.332550048828125 327.38214111328125 324.535919189453125 334.002044677734375 325.739715576171875 313.93194580078125 318.1400146484375 322.84442138671875 301.63665771484375 257.303680419921875 323.554595947265625 332.799957275390625 343.624114990234375 196.704437255859375 0 0 0 0 0 0 0 
0 0 0 0 0 0 0 0 0 0 0 0 0 0 0 0 0 0 0 0 0 0 0 0 0 0 0 0 0 0 0 0 0 0 0 0 0 0 0 0 0 0 0 0 0 0 0 0 257.330108642578125 339.14141845703125 323.74365234375 319.36358642578125 314.935760498046875 310.981903076171875 315.729888916015625 345.05902099609375 356.100677490234375 428.63690185546875 471.955169677734375 471.66448974609375 362.06536865234375 379.870697021484375 375.80108642578125 261.240203857421875 343.709136962890625 322.0931396484375 360.643157958984375 317.993743896484375 336.435394287109375 330.985198974609375 319.6837158203125 309.8143310546875 317.155609130859375 330.526336669921875 319.590087890625 270.429412841796875 326.288970947265625 339.541259765625 323.040069580078125 22.044870376586914062 0 0 0 0 0 0 0 
0 0 0 0 0 0 0 0 0 0 0 0 0 0 0 0 0 0 0 0 0 0 0 0 0 0 0 0 0 0 0 0 0 0 0 0 0 0 0 0 0 0 0 0 0 0 0 0 188.939666748046875 332.41015625 324.885498046875 325.4080810546875 302.174774169921875 301.483489990234375 300.567291259765625 330.23773193359375 355.58551025390625 428.99871826171875 466.744781494140625 438.4412841796875 373.963104248046875 356.403289794921875 331.468475341796875 342.4305419921875 502.75311279296875 272.821746826171875 258.821441650390625 322.238250732421875 337.933990478515625 322.942138671875 312.591644287109375 316.931304931640625 318.8194580078125 326.131072998046875 319.829864501953125 300.968414306640625 310.748016357421875 344.960205078125 110.08048248291015625 0 0 0 0 0 0 0 0 
0 0 0 0 0 0 0 0 0 0 0 0 0 0 0 0 0 0 0 0 0 0 0 0 0 0 0 0 0 0 0 0 0 0 0 0 0 0 0 0 0 0 0 0 0 0 0 0 118.14825439453125 315.284881591796875 315.9859619140625 305.51019287109375 302.365081787109375 293.146484375 299.543060302734375 331.841278076171875 358.17144775390625 578.33111572265625 623.213623046875 628.7408447265625 393.282073974609375 358.23760986328125 335.219451904296875 334.65264892578125 289.86846923828125 295.60693359375 293.5621337890625 317.258941650390625 332.17767333984375 340.36944580078125 324.205810546875 321.75738525390625 311.448486328125 308.720947265625 318.614044189453125 357.475799560546875 247.4507904052734375 247.572418212890625 0 0 0 0 0 0 0 0 0 
0 0 0 0 0 0 0 0 0 0 0 0 0 0 0 0 0 0 0 0 0 0 0 0 0 0 0 0 0 0 0 0 0 0 0 0 0 0 0 0 0 0 0 0 0 0 0 0 252.41485595703125 307.75604248046875 242.0820465087890625 277.300323486328125 302.921783447265625 301.25970458984375 319.501068115234375 330.68255615234375 352.8326416015625 484.78802490234375 413.09002685546875 628.7408447265625 418.798126220703125 329.738677978515625 307.158660888671875 266.199005126953125 310.117401123046875 319.417999267578125 320.14898681640625 316.729705810546875 324.234344482421875 351.339111328125 335.02825927734375 317.016845703125 314.8504638671875 311.78302001953125 282.794403076171875 313.25457763671875 192.5201263427734375 310.3031005859375 0 0 0 0 0 0 0 0 0 
0 0 0 0 0 0 0 0 0 0 0 0 0 0 0 0 0 0 0 0 0 0 0 0 0 0 0 0 0 0 0 0 0 0 0 0 0 0 0 0 0 0 0 0 0 0 0 0 267.382110595703125 267.411956787109375 269.0574951171875 285.02099609375 293.07659912109375 297.013336181640625 329.682525634765625 349.84344482421875 345.034820556640625 522.54345703125 555.897705078125 627.2760009765625 603.49017333984375 335.606658935546875 272.426116943359375 273.382232666015625 306.105255126953125 298.36346435546875 297.523406982421875 294.3851318359375 297.9041748046875 326.431121826171875 318.226654052734375 315.51708984375 315.71588134765625 324.1278076171875 310.593231201171875 319.34246826171875 218.921661376953125 43.46730804443359375 0 0 0 0 0 0 0 0 0 
0 0 0 0 0 0 0 0 0 0 0 0 0 0 0 0 0 0 0 0 0 0 0 0 0 0 0 0 0 0 0 0 0 0 0 0 0 0 0 0 0 0 0 0 0 0 221.99627685546875 318.213134765625 273.327392578125 233.230255126953125 282.67510986328125 297.470184326171875 286.80108642578125 296.48291015625 326.049713134765625 335.44415283203125 546.9195556640625 398.550933837890625 437.890106201171875 651.73284912109375 372.77960205078125 192.849334716796875 336.303375244140625 367.07049560546875 326.211639404296875 291.04498291015625 293.08367919921875 290.667999267578125 265.7281494140625 299.43603515625 308.83465576171875 299.70697021484375 315.22247314453125 347.2628173828125 307.229339599609375 588.14703369140625 362.556396484375 0 0 0 0 0 0 0 0 0 0 
0 0 0 0 0 0 0 0 0 0 0 0 0 0 0 0 0 0 0 0 0 0 0 0 0 0 0 0 0 0 0 0 0 0 0 0 0 0 0 0 0 0 0 0 85.83365631103515625 275.160369873046875 242.3780364990234375 250.2703704833984375 309.46441650390625 287.41510009765625 332.6630859375 278.315765380859375 290.951324462890625 296.722747802734375 323.004486083984375 322.628448486328125 482.891082763671875 430.033355712890625 450.29583740234375 601.83941650390625 340.1925048828125 306.731719970703125 305.10223388671875 290.274688720703125 287.13946533203125 297.34393310546875 261.867034912109375 312.31219482421875 298.923797607421875 354.023590087890625 305.765472412109375 305.960968017578125 316.619171142578125 363.7349853515625 340.927886962890625 323.593902587890625 187.17498779296875 77.3828125 0 0 0 0 0 0 0 0 0 
0 0 0 0 0 0 0 0 0 0 0 0 0 0 0 0 0 0 0 0 0 0 0 0 0 0 0 0 0 0 0 0 0 0 0 0 0 0 0 0 0 0 0 130.2545166015625 343.39654541015625 367.385833740234375 220.2845001220703125 279.665557861328125 301.7833251953125 301.7913818359375 309.16705322265625 301.06134033203125 300.516204833984375 311.1390380859375 317.68267822265625 316.25616455078125 325.806304931640625 594.4561767578125 605.78271484375 381.637237548828125 325.979339599609375 309.2142333984375 311.569183349609375 279.06085205078125 275.12396240234375 260.829498291015625 267.784149169921875 277.71124267578125 306.87310791015625 326.61285400390625 320.3916015625 326.211212158203125 268.60260009765625 364.29034423828125 318.157562255859375 305.651123046875 304.445281982421875 240.7864837646484375 0 0 0 0 0 0 0 0 0 
0 0 0 0 0 0 0 0 0 0 0 0 0 0 0 0 0 0 0 0 0 0 0 0 0 0 0 0 0 0 0 0 0 0 0 0 0 0 0 0 0 0 47.539081573486328125 307.02911376953125 334.56744384765625 295.377349853515625 263.864044189453125 249.537384033203125 297.836151123046875 295.9617919921875 327.9140625 319.57196044921875 307.521881103515625 316.373992919921875 309.093292236328125 313.949493408203125 331.33447265625 591.3458251953125 610.60247802734375 386.13714599609375 324.2261962890625 296.509613037109375 297.691192626953125 298.467193603515625 209.839599609375 116.68706512451171875 252.0361785888671875 285.14715576171875 307.412445068359375 329.1102294921875 321.802764892578125 344.849334716796875 328.068267822265625 345.7520751953125 323.8328857421875 314.55670166015625 257.2088623046875 231.521148681640625 0 0 0 0 0 0 0 0 0 
0 0 0 0 0 0 0 0 0 0 0 0 0 0 0 0 0 0 0 0 0 0 0 0 0 0 0 0 0 0 0 0 0 0 0 0 0 0 0 0 0 0 138.486419677734375 328.579620361328125 292.951568603515625 192.526885986328125 235.018951416015625 217.8302154541015625 289.908905029296875 322.06182861328125 327.95294189453125 316.14801025390625 308.411651611328125 318.176300048828125 311.0189208984375 302.211517333984375 333.190399169921875 362.200897216796875 450.015380859375 403.806365966796875 366.868865966796875 317.596954345703125 313.175811767578125 284.15643310546875 287.041412353515625 274.971405029296875 277.5687255859375 299.966094970703125 320.642059326171875 346.505645751953125 349.44158935546875 358.254486083984375 343.29278564453125 266.501861572265625 232.346832275390625 260.03240966796875 186.7568206787109375 13.009505271911621094 0 0 0 0 0 0 0 0 0 
0 0 0 0 0 0 0 0 0 0 0 0 0 0 0 0 0 0 0 0 0 0 0 0 0 0 0 0 0 0 0 0 0 0 0 0 0 0 0 0 0 0 281.28131103515625 289.057037353515625 294.998260498046875 288.955322265625 277.96875 288.682098388671875 322.80548095703125 351.8406982421875 316.709991455078125 308.7315673828125 314.96148681640625 321.892547607421875 309.193756103515625 300.450439453125 315.05841064453125 343.2509765625 394.125457763671875 614.68365478515625 423.873809814453125 396.786376953125 388.06048583984375 342.398223876953125 339.002227783203125 309.71630859375 297.503143310546875 282.6376953125 307.93902587890625 352.987518310546875 351.440765380859375 764.41748046875 342.98193359375 346.4805908203125 292.032073974609375 57.70938873291015625 0 0 0 0 0 0 0 0 0 0 0 
0 0 0 0 0 0 0 0 0 0 0 0 0 0 0 0 0 0 0 0 0 0 0 0 0 0 0 0 0 0 0 0 0 0 0 0 0 0 0 0 0 339.13934326171875 261.801910400390625 282.700958251953125 271.929931640625 299.811370849609375 282.78173828125 295.195556640625 628.0416259765625 652.4921875 327.57012939453125 311.510162353515625 315.707672119140625 639.47003173828125 294.728240966796875 280.6455078125 304.60009765625 322.977569580078125 349.406219482421875 565.0013427734375 441.88946533203125 358.690460205078125 397.831512451171875 381.64739990234375 349.871551513671875 369.3128662109375 306.256500244140625 287.021270751953125 302.972686767578125 342.88482666015625 351.4754638671875 353.905487060546875 294.609161376953125 319.89727783203125 233.04986572265625 0 0 0 0 0 0 0 0 0 0 0 0 
0 0 0 0 0 0 0 0 0 0 0 0 0 0 0 0 0 0 0 0 0 0 0 0 0 0 0 0 0 0 0 0 0 0 0 0 0 0 0 98.40497589111328125 220.920928955078125 234.0515899658203125 303.0821533203125 275.21575927734375 293.7293701171875 300.5501708984375 291.08123779296875 296.3272705078125 615.02484130859375 629.54241943359375 294.06121826171875 303.884765625 309.26629638671875 615.841796875 294.32733154296875 291.494598388671875 295.76702880859375 309.01080322265625 464.999542236328125 394.004730224609375 394.712677001953125 342.158111572265625 328.2374267578125 330.39813232421875 317.72381591796875 296.908721923828125 287.482391357421875 277.663818359375 288.712860107421875 426.373291015625 330.383026123046875 322.791900634765625 314.94158935546875 280.64208984375 122.1843719482421875 0 0 0 0 0 0 0 0 0 0 0 0 
0 0 0 0 0 0 0 0 0 0 0 0 0 0 0 0 0 0 0 0 0 0 0 0 0 0 0 0 0 0 0 0 0 0 0 0 0 0 102.735931396484375 367.771759033203125 252.064605712890625 217.5312042236328125 178.9194793701171875 367.40228271484375 306.10723876953125 294.535736083984375 287.503662109375 608.1788330078125 601.468994140625 291.95623779296875 308.72247314453125 590.65673828125 305.325408935546875 601.16650390625 294.590484619140625 295.189788818359375 296.032135009765625 296.883026123046875 429.94793701171875 388.619476318359375 381.24957275390625 323.2000732421875 313.191925048828125 314.082061767578125 304.42523193359375 292.460357666015625 287.382720947265625 252.70654296875 210.137451171875 262.47369384765625 287.69354248046875 299.7967529296875 302.451141357421875 304.879302978515625 57.27392578125 0 0 0 0 0 0 0 0 0 0 0 0 
0 0 0 0 0 0 0 0 0 0 0 0 0 0 0 0 0 0 0 0 0 0 0 0 0 0 0 0 0 0 0 0 0 0 0 0 0 0 162.4140472412109375 213.533538818359375 279.224029541015625 266.08770751953125 276.009002685546875 279.8675537109375 301.3609619140625 279.224212646484375 303.0501708984375 583.9735107421875 282.44305419921875 272.7667236328125 308.723114013671875 579.670654296875 597.78021240234375 288.7054443359375 286.87115478515625 283.132598876953125 296.717437744140625 305.33099365234375 447.5179443359375 389.4708251953125 390.783935546875 310.3226318359375 304.869903564453125 296.98529052734375 286.81640625 292.58380126953125 288.551666259765625 256.27496337890625 55.057491302490234375 72.60845947265625 238.0694427490234375 280.768524169921875 251.5277252197265625 57.48780059814453125 0 0 0 0 0 0 0 0 0 0 0 0 0 
0 0 0 0 0 0 0 0 0 0 0 0 0 0 0 0 0 0 0 0 0 0 0 0 0 0 0 0 0 0 0 0 0 0 0 0 0 123.83966064453125 271.07830810546875 223.6435394287109375 273.66473388671875 263.887939453125 527.77581787109375 330.36248779296875 270.6544189453125 273.279052734375 595.0819091796875 595.90814208984375 275.569915771484375 274.735504150390625 276.575927734375 288.691680908203125 283.6241455078125 281.805694580078125 280.50616455078125 278.878387451171875 300.9486083984375 301.89739990234375 389.425140380859375 599.48260498046875 318.080322265625 293.970977783203125 281.02197265625 276.290802001953125 276.711181640625 193.5516204833984375 203.118316650390625 50.36823272705078125 0 0 0 0 0 0 0 0 0 0 0 0 0 0 0 0 0 0 0 
0 0 0 0 0 0 0 0 0 0 0 0 0 0 0 0 0 0 0 0 0 0 0 0 0 0 0 0 0 0 0 0 0 0 0 0 613.009033203125 294.4132080078125 273.67578125 288.0184326171875 286.07373046875 232.0153656005859375 233.842254638671875 224.091094970703125 231.455413818359375 282.91510009765625 279.85467529296875 266.975250244140625 267.292877197265625 253.5080108642578125 269.49981689453125 285.365234375 280.827880859375 277.9307861328125 377.14739990234375 272.40911865234375 340.24212646484375 326.086944580078125 520.94049072265625 391.272430419921875 255.2699737548828125 311.206085205078125 269.815948486328125 275.407135009765625 194.9295806884765625 0 0 0 0 0 0 0 0 0 0 0 0 0 0 0 0 0 0 0 0 0 0 
0 0 0 0 0 0 0 0 0 0 0 0 0 0 0 0 0 0 0 0 0 0 0 0 0 0 0 0 0 0 0 0 0 0 0 42.25428009033203125 289.205078125 280.351654052734375 278.610443115234375 306.52801513671875 397.022003173828125 237.847869873046875 346.91937255859375 266.5469970703125 267.366241455078125 293.18597412109375 292.85357666015625 284.231353759765625 276.639129638671875 275.130035400390625 278.8382568359375 288.882843017578125 284.662261962890625 279.634124755859375 292.27423095703125 404.077545166015625 338.909576416015625 217.6608123779296875 370.56927490234375 279.553466796875 244.2930755615234375 328.608001708984375 327.4556884765625 219.064300537109375 0 0 0 0 0 0 0 0 0 0 0 0 0 0 0 0 0 0 0 0 0 0 0 
0 0 0 0 0 0 0 0 0 0 0 0 0 0 0 0 0 0 0 0 0 0 0 0 0 0 0 0 0 0 0 0 0 0 0 178.267425537109375 285.89404296875 274.699310302734375 283.418701171875 344.09930419921875 236.389251708984375 388.917816162109375 355.413726806640625 354.156036376953125 289.393768310546875 301.003509521484375 300.60870361328125 290.710968017578125 291.35546875 287.794586181640625 279.955810546875 276.260894775390625 279.62115478515625 240.1701812744140625 504.314422607421875 249.7630767822265625 243.51165771484375 313.13787841796875 399.01116943359375 254.72454833984375 220.7220306396484375 254.7020721435546875 190.151947021484375 317.21661376953125 0 0 0 0 0 0 0 0 0 0 0 0 0 0 0 0 0 0 0 0 0 0 0 
0 0 0 0 0 0 0 0 0 0 0 0 0 0 0 0 0 0 0 0 0 0 0 0 0 0 0 0 0 0 0 0 0 0 0 249.474273681640625 228.5255889892578125 240.3007049560546875 559.9273681640625 299.100189208984375 150.533599853515625 282.07574462890625 295.418426513671875 576.40899658203125 311.8720703125 317.7481689453125 312.185272216796875 306.707855224609375 341.12646484375 294.1009521484375 281.4166259765625 275.271392822265625 322.363037109375 346.273345947265625 296.157501220703125 321.35888671875 293.892059326171875 253.36138916015625 258.17059326171875 251.6555633544921875 248.727386474609375 198.8289337158203125 225.5466461181640625 0 0 0 0 0 0 0 0 0 0 0 0 0 0 0 0 0 0 0 0 0 0 0 0 
0 0 0 0 0 0 0 0 0 0 0 0 0 0 0 0 0 0 0 0 0 0 0 0 0 0 0 0 0 0 0 18.89815521240234375 30.237049102783203125 207.1546783447265625 241.4861297607421875 132.7007904052734375 124.62615966796875 150.7584686279296875 605.92340087890625 174.8005523681640625 133.59442138671875 285.16522216796875 314.663116455078125 324.15264892578125 341.147125244140625 374.91534423828125 364.114990234375 375.98089599609375 373.103729248046875 376.337982177734375 340.0159912109375 346.931976318359375 354.4913330078125 278.2479248046875 257.05023193359375 217.236968994140625 193.291839599609375 242.7319793701171875 342.066436767578125 228.1133575439453125 226.012359619140625 242.6522216796875 165.981903076171875 0 0 0 0 0 0 0 0 0 0 0 0 0 0 0 0 0 0 0 0 0 0 0 0 
0 0 0 0 0 0 0 0 0 0 0 0 0 0 0 0 0 0 0 0 0 0 0 0 0 0 0 0 0 0 39.27057647705078125 111.06108856201171875 204.2962493896484375 274.37408447265625 251.68798828125 222.2262420654296875 151.89190673828125 287.958526611328125 296.09442138671875 168.683013916015625 230.208587646484375 468.47784423828125 351.631927490234375 366.59552001953125 402.175262451171875 369.731658935546875 286.901519775390625 341.802947998046875 347.513946533203125 347.271331787109375 336.19488525390625 270.545989990234375 271.02667236328125 268.36602783203125 300.109222412109375 206.0186767578125 212.9780120849609375 235.2696380615234375 325.660247802734375 267.7412109375 229.5912017822265625 139.928680419921875 256.751678466796875 52.208019256591796875 0 0 0 0 0 0 0 0 0 0 0 0 0 0 0 0 0 0 0 0 0 0 0 
0 0 0 0 0 0 0 0 0 0 0 0 0 0 0 0 0 0 0 0 0 0 0 0 0 0 181.9138641357421875 164.277740478515625 0 47.062793731689453125 150.820587158203125 174.656158447265625 182.4407501220703125 257.45159912109375 355.97509765625 157.372161865234375 306.320068359375 284.6639404296875 191.4130401611328125 238.1749267578125 349.125274658203125 380.718994140625 368.28662109375 340.735076904296875 291.251617431640625 289.85321044921875 292.4990234375 291.688385009765625 286.923919677734375 279.26519775390625 260.31591796875 253.8670806884765625 264.54266357421875 376.37982177734375 338.408782958984375 200.069305419921875 235.1705780029296875 216.3341827392578125 222.1355438232421875 224.0827178955078125 132.1139984130859375 212.7109527587890625 219.6958465576171875 97.53987884521484375 0 0 0 0 0 0 0 0 0 0 0 0 0 0 0 0 0 0 0 0 0 0 0 
0 0 0 0 0 0 0 0 0 0 0 0 0 0 0 0 0 0 0 0 0 0 0 0 0 132.5359954833984375 222.7675323486328125 488.82537841796875 230.710968017578125 236.6092071533203125 130.2442474365234375 125.969696044921875 138.0751190185546875 132.4645843505859375 198.257476806640625 711.33465576171875 349.998016357421875 244.20416259765625 333.1329345703125 339.76806640625 187.566162109375 104.165863037109375 296.6123046875 408.031829833984375 287.43646240234375 279.98089599609375 290.715118408203125 289.215545654296875 370.898406982421875 277.184326171875 271.465423583984375 236.989593505859375 240.142120361328125 301.408416748046875 191.9794158935546875 229.1172027587890625 259.301513671875 224.7145233154296875 163.118499755859375 174.95404052734375 276.457550048828125 199.3338165283203125 162.0806884765625 0 0 0 0 0 0 0 0 0 0 0 0 0 0 0 0 0 0 0 0 0 0 0 0 
0 0 0 0 0 0 0 0 0 0 0 0 0 0 0 0 0 0 0 0 0 0 0 0 0 186.5302886962890625 286.429901123046875 350.538299560546875 207.4055328369140625 294.134429931640625 208.801422119140625 162.2708740234375 170.973419189453125 150.008026123046875 205.634674072265625 285.7493896484375 411.960174560546875 287.277801513671875 209.0027313232421875 206.7933807373046875 254.022308349609375 80.211639404296875 391.633026123046875 403.675811767578125 271.73089599609375 265.833770751953125 277.483978271484375 284.134307861328125 225.1258544921875 203.33026123046875 182.65179443359375 184.01104736328125 143.733734130859375 129.60693359375 206.4979248046875 218.262542724609375 208.376708984375 190.836822509765625 178.5061492919921875 159.17279052734375 185.2843017578125 181.191497802734375 137.3350982666015625 0 0 0 0 0 0 0 0 0 0 0 0 0 0 0 0 0 0 0 0 0 0 0 0 
0 0 0 0 0 0 0 0 0 0 0 0 0 0 0 0 0 0 0 0 0 0 0 0 216.7684173583984375 280.527313232421875 341.8131103515625 254.712158203125 242.2739715576171875 375.86297607421875 284.55291748046875 136.7523651123046875 189.435821533203125 189.276763916015625 182.78692626953125 225.056732177734375 222.610443115234375 160.4379119873046875 276.3990478515625 282.80645751953125 202.9238128662109375 536.6156005859375 249.835784912109375 249.350982666015625 252.282440185546875 251.8397216796875 256.74420166015625 243.423095703125 195.923004150390625 184.470306396484375 192.7844390869140625 154.766265869140625 181.2211456298828125 192.921783447265625 193.7155914306640625 205.544525146484375 179.940155029296875 198.4041748046875 252.8649749755859375 157.3141632080078125 187.752227783203125 164.4398651123046875 149.4917449951171875 0 0 0 0 0 0 0 0 0 0 0 0 0 0 0 0 0 0 0 0 0 0 0 0 
0 0 0 0 0 0 0 0 0 0 0 0 0 0 0 0 0 0 0 0 0 0 167.323883056640625 360.76727294921875 244.629180908203125 229.5334014892578125 302.277313232421875 218.5706939697265625 228.0027008056640625 248.712738037109375 235.191802978515625 200.7578582763671875 277.2894287109375 368.112823486328125 246.3657073974609375 249.3244171142578125 247.0148162841796875 186.3813018798828125 217.9181060791015625 184.915740966796875 170.1048736572265625 327.91796875 234.733489990234375 234.51800537109375 247.0176239013671875 216.519378662109375 235.047882080078125 307.513458251953125 256.2249755859375 253.7279815673828125 241.6974029541015625 240.9769439697265625 248.36761474609375 238.828369140625 223.0714111328125 287.15631103515625 204.88482666015625 187.3511962890625 188.370697021484375 194.8800048828125 181.6421966552734375 172.3222808837890625 121.42447662353515625 0 0 0 0 0 0 0 0 0 0 0 0 0 0 0 0 0 0 0 0 0 0 0 0 
0 0 0 0 0 0 0 0 0 0 0 0 0 0 0 0 0 0 0 0 0 212.617706298828125 243.6756439208984375 258.409912109375 197.832489013671875 206.92169189453125 233.255462646484375 254.9254150390625 287.814208984375 235.58782958984375 292.89166259765625 310.180999755859375 365.848480224609375 809.8204345703125 738.82244873046875 395.6126708984375 264.332489013671875 221.1449127197265625 226.0126953125 238.0151519775390625 163.330291748046875 332.559112548828125 196.659027099609375 226.1246490478515625 317.244964599609375 263.348480224609375 270.56646728515625 272.22344970703125 282.509552001953125 277.79998779296875 246.2042694091796875 261.586700439453125 258.035552978515625 255.379119873046875 238.864593505859375 230.155181884765625 218.872039794921875 282.634796142578125 203.3033905029296875 205.8869781494140625 198.0666961669921875 190.085235595703125 89.26660919189453125 0 0 0 0 0 0 0 0 0 0 0 0 0 0 0 0 0 0 0 0 0 0 0 0 
0 0 0 0 0 0 0 0 0 0 0 0 0 0 0 0 58.8572235107421875 117.714447021484375 0 0 0 154.8661041259765625 272.88043212890625 281.09698486328125 193.735748291015625 229.35467529296875 145.6003570556640625 302.84478759765625 118.32141876220703125 106.02399444580078125 170.1931915283203125 511.840484619140625 190.018524169921875 874.890869140625 441.957916259765625 304.151824951171875 210.277862548828125 167.685150146484375 158.8206024169921875 185.28851318359375 164.65252685546875 260.165985107421875 263.231201171875 263.763427734375 271.24560546875 263.13128662109375 266.35931396484375 272.9420166015625 280.972259521484375 295.59954833984375 311.39532470703125 261.156341552734375 262.6314697265625 263.82763671875 259.56561279296875 253.708892822265625 242.9092864990234375 228.1141357421875 224.2447662353515625 479.783050537109375 219.376251220703125 126.38936614990234375 12.54438018798828125 0 0 0 0 0 0 0 0 0 0 0 0 0 0 0 0 0 0 0 0 0 0 0 0 
0 0 0 0 0 0 0 0 0 0 0 0 0 0 0 0 76.1138458251953125 236.5086517333984375 110.3355560302734375 0 69.6988525390625 148.966522216796875 118.2592010498046875 181.257415771484375 170.6895294189453125 190.584259033203125 192.8819580078125 369.13397216796875 365.4344482421875 465.65765380859375 765.58660888671875 189.41156005859375 174.4994964599609375 249.7100067138671875 393.340606689453125 239.267242431640625 144.2929534912109375 135.574310302734375 200.4188995361328125 227.4566497802734375 209.2584381103515625 264.278839111328125 272.328857421875 274.866607666015625 274.917449951171875 274.5765380859375 263.93145751953125 275.22955322265625 294.704376220703125 315.08355712890625 314.961669921875 279.77410888671875 277.776611328125 274.963470458984375 268.464996337890625 260.7857666015625 248.9922332763671875 235.33056640625 231.1695556640625 228.4522247314453125 209.408355712890625 38.942836761474609375 0 0 0 0 0 0 0 0 0 0 0 0 0 0 0 0 0 0 0 0 0 0 0 0 0 
0 0 0 0 0 0 0 0 0 0 0 0 0 0 0 0 245.5996246337890625 272.823516845703125 268.631805419921875 235.4201202392578125 229.4923553466796875 196.420257568359375 259.62689208984375 202.4387969970703125 223.7055206298828125 315.423980712890625 352.771942138671875 336.23809814453125 447.150909423828125 500.46099853515625 295.0487060546875 164.715240478515625 193.19696044921875 207.9433746337890625 125.9467315673828125 136.3003082275390625 248.1454620361328125 282.561370849609375 220.4895172119140625 205.932769775390625 259.2430419921875 270.40142822265625 278.388824462890625 264.3389892578125 258.6348876953125 267.980987548828125 272.38592529296875 283.29718017578125 321.159393310546875 292.407470703125 293.497222900390625 354.1590576171875 352.92974853515625 348.272552490234375 297.30712890625 324.873992919921875 307.60211181640625 292.796539306640625 235.2110595703125 221.611114501953125 41.884380340576171875 0 0 0 0 0 0 0 0 0 0 0 0 0 0 0 0 0 0 0 0 0 0 0 0 0 0 
0 0 0 0 0 0 0 0 0 0 0 0 0 0 0 0 238.3924407958984375 260.699981689453125 236.5400848388671875 310.212310791015625 246.24505615234375 192.1515655517578125 238.0131378173828125 209.4217529296875 257.96075439453125 720.57080078125 357.381011962890625 324.87762451171875 316.170379638671875 260.279388427734375 247.370361328125 183.6226959228515625 199.3679351806640625 167.07269287109375 191.5097503662109375 269.60223388671875 292.644622802734375 162.958892822265625 191.418853759765625 276.115570068359375 275.247222900390625 278.267059326171875 274.41571044921875 263.54888916015625 267.44287109375 260.9407958984375 265.3277587890625 280.484375 294.922149658203125 305.20916748046875 302.6890869140625 363.324859619140625 357.33721923828125 348.958160400390625 297.78302001953125 286.857208251953125 314.095123291015625 301.503997802734375 293.999725341796875 91.9155120849609375 0 0 0 0 0 0 0 0 0 0 0 0 0 0 0 0 0 0 0 0 0 0 0 0 0 0 0 
0 0 0 0 0 0 0 0 0 0 0 0 0 0 0 151.370819091796875 187.9412994384765625 146.40753173828125 245.8828125 305.737030029296875 182.941497802734375 147.9099273681640625 158.910003662109375 720.07330322265625 846.64215087890625 386.505859375 270.029876708984375 382.608154296875 254.535888671875 248.23565673828125 239.337188720703125 172.5542755126953125 211.9003753662109375 277.591461181640625 246.8624114990234375 161.7490081787109375 232.6484375 224.8393402099609375 239.1793212890625 548.08673095703125 302.429656982421875 303.5531005859375 300.174560546875 273.929107666015625 275.211700439453125 266.0999755859375 283.589569091796875 294.154266357421875 303.623291015625 335.554046630859375 368.591766357421875 381.687469482421875 375.56585693359375 366.10052490234375 355.353179931640625 341.06829833984375 331.53497314453125 328.72882080078125 238.69012451171875 0 0 0 0 0 0 0 0 0 0 0 0 0 0 0 0 0 0 0 0 0 0 0 0 0 0 0 0 
0 0 0 0 0 0 0 0 0 0 0 0 160.910064697265625 193.4848480224609375 216.7065277099609375 175.0705413818359375 262.710693359375 181.987579345703125 228.022857666015625 214.2431182861328125 260.97930908203125 885.37158203125 893.81298828125 859.02740478515625 807.8232421875 208.3486785888671875 250.041229248046875 233.089111328125 236.5929718017578125 227.7722625732421875 211.7893524169921875 228.99383544921875 244.275848388671875 332.09857177734375 223.6482696533203125 226.0446319580078125 229.289642333984375 512.76318359375 526.383544921875 556.28582763671875 295.09228515625 302.142333984375 303.061767578125 281.4161376953125 229.553924560546875 67.873870849609375 38.804325103759765625 317.781158447265625 312.58544921875 0 0 388.033782958984375 384.187896728515625 0 0 0 0 0 0 0 0 0 0 0 0 0 0 0 0 0 0 0 0 0 0 0 0 0 0 0 0 0 0 0 0 0 0 
0 0 0 0 0 0 0 0 0 0 0 204.837615966796875 250.5136566162109375 224.2667236328125 195.8222198486328125 217.6198577880859375 160.1251068115234375 236.6783447265625 778.769287109375 944.7945556640625 982.5078125 976.339599609375 921.5384521484375 723.6068115234375 272.9117431640625 201.5226593017578125 208.03399658203125 229.025482177734375 230.157501220703125 216.53778076171875 213.4462127685546875 264.993499755859375 261.17919921875 214.2940673828125 398.724639892578125 232.3834381103515625 236.37158203125 539.4493408203125 548.1328125 600.75140380859375 293.26519775390625 296.466888427734375 224.7241058349609375 70.7431488037109375 0 0 0 0 0 0 0 0 0 0 0 0 0 0 0 0 0 0 0 0 0 0 0 0 0 0 0 0 0 0 0 0 0 0 0 0 0 0 0 0 0 0 0 
0 0 0 0 0 0 0 0 0 0 243.243804931640625 253.9184112548828125 242.830169677734375 223.5970306396484375 208.6168060302734375 198.3567047119140625 776.9013671875 982.29656982421875 1023.66412353515625 1023.79864501953125 855.82415771484375 701.349609375 271.3475341796875 205.9364776611328125 313.535003662109375 211.9973907470703125 220.216094970703125 214.0076904296875 294.0892333984375 191.4327392578125 356.907379150390625 258.514251708984375 271.01019287109375 208.13372802734375 216.2791290283203125 242.517059326171875 261.70623779296875 562.17864990234375 567.53314208984375 603.91973876953125 299.9886474609375 174.4807281494140625 54.525226593017578125 0 0 0 0 0 0 0 0 0 0 0 0 0 0 0 0 0 0 0 0 0 0 0 0 0 0 0 0 0 0 0 0 0 0 0 0 0 0 0 0 0 0 0 0 
0 0 0 0 0 0 0 0 35.345977783203125 72.5401458740234375 281.09368896484375 254.124420166015625 251.410858154296875 184.909698486328125 241.7292633056640625 499.36590576171875 1004.28070068359375 1012.77508544921875 997.680908203125 554.754150390625 333.5362548828125 342.709014892578125 204.7452545166015625 197.493255615234375 211.36798095703125 221.215667724609375 219.117156982421875 213.12445068359375 193.7996826171875 200.609771728515625 178.0346221923828125 211.7550201416015625 223.453643798828125 235.947509765625 238.3045196533203125 254.1417083740234375 540.69970703125 479.164642333984375 0 0 0 0 0 0 0 0 0 0 0 0 0 0 0 0 0 0 0 0 0 0 0 0 0 0 0 0 0 0 0 0 0 0 0 0 0 0 0 0 0 0 0 0 0 0 0 0 0 
0 0 0 0 0 0 0 17.11124420166015625 210.075042724609375 267.306549072265625 275.15435791015625 247.3009185791015625 146.75732421875 291.864776611328125 337.70086669921875 962.0345458984375 999.20550537109375 902.108642578125 848.9754638671875 292.2996826171875 229.570037841796875 188.1620330810546875 181.2465972900390625 194.3999786376953125 212.057373046875 214.3619537353515625 208.950408935546875 202.209442138671875 202.840362548828125 204.0782470703125 170.0141754150390625 218.631866455078125 233.2853546142578125 245.6217498779296875 265.663604736328125 265.938201904296875 555.845703125 0 0 0 0 0 0 0 0 0 0 0 0 0 0 0 0 0 0 0 0 0 0 0 0 0 0 0 0 0 0 0 0 0 0 0 0 0 0 0 0 0 0 0 0 0 0 0 0 0 0 
0 0 0 0 0 0 0 139.6949310302734375 266.50531005859375 512.10845947265625 513.836669921875 545.69769287109375 205.2051849365234375 241.9071502685546875 841.04058837890625 986.1224365234375 943.952392578125 821.34320068359375 443.727752685546875 254.9864349365234375 215.8927154541015625 190.1063232421875 177.48388671875 193.6976776123046875 204.961761474609375 206.647430419921875 193.879486083984375 201.005401611328125 210.3569793701171875 218.00042724609375 237.009857177734375 228.3273468017578125 250.0022735595703125 257.15234375 244.3391265869140625 215.2816314697265625 0 0 0 0 0 0 0 0 0 0 0 0 0 0 0 0 0 0 0 0 0 0 0 0 0 0 0 0 0 0 0 0 0 0 0 0 0 0 0 0 0 0 0 0 0 0 0 0 0 0 0 
0 0 0 0 0 0 0 338.63433837890625 407.35430908203125 278.232025146484375 311.08135986328125 179.775726318359375 138.6754150390625 175.6050262451171875 627.734375 977.996337890625 963.90582275390625 432.404876708984375 374.03839111328125 216.159912109375 387.526947021484375 187.2872161865234375 241.88275146484375 174.9222259521484375 199.665313720703125 212.0794677734375 204.0467987060546875 217.1478271484375 440.238922119140625 221.792236328125 234.8507232666015625 231.0645904541015625 258.84613037109375 268.537445068359375 250.7065582275390625 310.1759033203125 0 0 0 0 0 0 0 0 0 0 0 0 0 0 0 0 0 0 0 0 0 0 0 0 0 0 0 0 0 0 0 0 0 0 0 0 0 0 0 0 0 0 0 0 0 0 0 0 0 0 0 
0 0 0 0 0 0 44.73340606689453125 162.65679931640625 200.3601226806640625 241.70318603515625 150.878173828125 200.4141693115234375 190.6334075927734375 294.08941650390625 391.83251953125 832.76849365234375 323.30389404296875 261.894805908203125 229.620880126953125 205.2415771484375 179.79510498046875 175.3604888916015625 169.1680145263671875 180.4665679931640625 196.743499755859375 208.694091796875 203.877960205078125 216.9366302490234375 220.8421630859375 231.794525146484375 244.5448760986328125 252.6230926513671875 274.569580078125 196.697479248046875 155.0027313232421875 0 0 0 0 0 0 0 0 0 0 0 0 0 0 0 0 0 0 0 0 0 0 0 0 0 0 0 0 0 0 0 0 0 0 0 0 0 0 0 0 0 0 0 0 0 0 0 0 0 0 0 0 
0 0 0 0 0 0 257.185302734375 124.963836669921875 239.6148529052734375 260.82012939453125 231.3049468994140625 152.0050201416015625 132.66229248046875 806.78436279296875 934.8914794921875 402.670135498046875 284.933349609375 226.86224365234375 223.4976043701171875 192.38031005859375 175.055023193359375 168.8003997802734375 168.4877471923828125 181.77880859375 199.0800933837890625 217.0109100341796875 214.3867645263671875 216.058135986328125 229.470794677734375 513.86572265625 265.980804443359375 295.543975830078125 214.2012939453125 39.441295623779296875 0 0 0 0 0 0 0 0 0 0 0 0 0 0 0 0 0 0 0 0 0 0 0 0 0 0 0 0 0 0 0 0 0 0 0 0 0 0 0 0 0 0 0 0 0 0 0 0 0 0 0 0 0 
0 0 0 0 0 0 131.4719696044921875 142.6508026123046875 268.990142822265625 354.3675537109375 178.2975616455078125 221.962890625 167.109893798828125 563.79571533203125 843.78955078125 317.450164794921875 172.7902069091796875 169.8733673095703125 145.922027587890625 172.68792724609375 150.508209228515625 172.6469268798828125 167.686126708984375 179.2350006103515625 208.45782470703125 227.64678955078125 221.2905731201171875 224.518798828125 502.99652099609375 507.10113525390625 293.98101806640625 286.8128662109375 145.4474334716796875 34.511135101318359375 0 0 0 0 0 0 0 0 0 0 0 0 0 0 0 0 0 0 0 0 0 0 0 0 0 0 0 0 0 0 0 0 0 0 0 0 0 0 0 0 0 0 0 0 0 0 0 0 0 0 0 0 0 
0 0 0 0 0 0 208.5924224853515625 248.93255615234375 235.277435302734375 247.8752288818359375 286.363128662109375 646.80303955078125 816.72906494140625 983.73394775390625 960.40362548828125 294.48895263671875 222.956390380859375 171.5686187744140625 129.9910430908203125 155.3262176513671875 154.0897064208984375 169.5342254638671875 168.43310546875 189.773681640625 218.7268829345703125 229.353912353515625 227.4534149169921875 229.7195892333984375 505.675750732421875 507.872802734375 318.440216064453125 244.3871917724609375 13.923369407653808594 0 0 0 0 0 0 0 0 0 0 0 0 0 0 0 0 0 0 0 0 0 0 0 0 0 0 0 0 0 0 0 0 0 0 0 0 0 0 0 0 0 0 0 0 0 0 0 0 0 0 0 0 0 0 
0 0 0 0 0 321.252105712890625 226.1530914306640625 587.96868896484375 257.67108154296875 245.3134765625 247.5314178466796875 968.5443115234375 1066.65283203125 1057.861328125 859.4227294921875 290.57342529296875 198.49664306640625 167.4138336181640625 167.2559051513671875 158.9336700439453125 189.067413330078125 177.4138031005859375 344.656646728515625 194.7134552001953125 225.0378265380859375 228.4839324951171875 228.8070526123046875 482.400299072265625 509.013153076171875 286.392669677734375 302.093719482421875 424.85491943359375 0 0 0 0 0 0 0 0 0 0 0 0 0 0 0 0 0 0 0 0 0 0 0 0 0 0 0 0 0 0 0 0 0 0 0 0 0 0 0 0 0 0 0 0 0 0 0 0 0 0 0 0 0 0 0 
0 0 0 0 0 273.35504150390625 291.834808349609375 267.33154296875 241.8169403076171875 255.79193115234375 770.91497802734375 1122.517578125 1088.616943359375 1021.6204833984375 788.36248779296875 525.29400634765625 214.25653076171875 161.7917938232421875 124.689910888671875 154.82769775390625 164.48529052734375 180.5650634765625 184.2788543701171875 214.2435760498046875 220.8961944580078125 235.2090911865234375 238.968048095703125 255.5371551513671875 281.876190185546875 300.6602783203125 194.2493133544921875 0 0 0 0 0 0 0 0 0 0 0 0 0 0 0 0 0 0 0 0 0 0 0 0 0 0 0 0 0 0 0 0 0 0 0 0 0 0 0 0 0 0 0 0 0 0 0 0 0 0 0 0 0 0 0 0 
0 0 0 0 0 361.12286376953125 309.2100830078125 263.83172607421875 243.4748382568359375 447.74658203125 1079.287841796875 1220.061279296875 968.7457275390625 926.64251708984375 870.4033203125 567.20831298828125 200.396759033203125 156.1648101806640625 144.323272705078125 132.574859619140625 190.6666259765625 205.5503387451171875 292.42889404296875 227.3987884521484375 235.69464111328125 246.9465484619140625 251.223785400390625 261.89202880859375 281.069549560546875 254.577880859375 0 0 0 0 0 0 0 0 0 0 0 0 0 0 0 0 0 0 0 0 0 0 0 0 0 0 0 0 0 0 0 0 0 0 0 0 0 0 0 0 0 0 0 0 0 0 0 0 0 0 0 0 0 0 0 0 0 
0 0 0 0 0 371.320159912109375 277.80963134765625 280.010345458984375 242.8294677734375 905.19720458984375 1235.685302734375 1188.613525390625 842.74493408203125 861.384521484375 911.65240478515625 606.5931396484375 317.92364501953125 171.6134796142578125 150.031890869140625 152.1657562255859375 197.5234375 208.874755859375 219.8231201171875 237.7939605712890625 255.225860595703125 250.69464111328125 262.52783203125 280.42041015625 156.9404144287109375 148.889007568359375 0 0 0 0 0 0 0 0 0 0 0 0 0 0 0 0 0 0 0 0 0 0 0 0 0 0 0 0 0 0 0 0 0 0 0 0 0 0 0 0 0 0 0 0 0 0 0 0 0 0 0 0 0 0 0 0 0 
0 0 0 0 0 0 267.75250244140625 312.15032958984375 133.496826171875 1134.72607421875 1233.4300537109375 1010.80413818359375 694.72857666015625 682.6455078125 749.8328857421875 447.9100341796875 261.5567626953125 200.0265350341796875 191.9063568115234375 188.4608917236328125 202.7116241455078125 278.312652587890625 225.7243804931640625 253.0857086181640625 261.32427978515625 253.4934844970703125 267.286865234375 293.14617919921875 74.1224517822265625 0 0 0 0 0 0 0 0 0 0 0 0 0 0 0 0 0 0 0 0 0 0 0 0 0 0 0 0 0 0 0 0 0 0 0 0 0 0 0 0 0 0 0 0 0 0 0 0 0 0 0 0 0 0 0 0 0 0 
0 0 0 0 0 0 257.61517333984375 219.1944580078125 380.9808349609375 725.45819091796875 947.02459716796875 340.421295166015625 260.242828369140625 208.0497589111328125 547.8712158203125 256.1082763671875 322.623077392578125 223.599945068359375 213.542083740234375 217.4227752685546875 217.282806396484375 218.89056396484375 229.6482391357421875 522.18768310546875 260.3841552734375 260.6937255859375 261.108489990234375 585.60577392578125 0 0 0 0 0 0 0 0 0 0 0 0 0 0 0 0 0 0 0 0 0 0 0 0 0 0 0 0 0 0 0 0 0 0 0 0 0 0 0 0 0 0 0 0 0 0 0 0 0 0 0 0 0 0 0 0 0 0 0 
0 0 0 0 0 165.9195709228515625 268.931640625 602.00311279296875 895.48895263671875 1155.6873779296875 993.95660400390625 345.916656494140625 179.4767608642578125 224.524078369140625 623.8302001953125 293.91839599609375 247.5164794921875 218.8605804443359375 213.2958984375 220.487884521484375 228.0561370849609375 231.934844970703125 243.45001220703125 274.8345947265625 276.80511474609375 284.6453857421875 557.24853515625 219.055572509765625 0 0 0 0 0 0 0 0 0 0 0 0 0 0 0 0 0 0 0 0 0 0 0 0 0 0 0 0 0 0 0 0 0 0 0 0 0 0 0 0 0 0 0 0 0 0 0 0 0 0 0 0 0 0 0 0 0 0 0 
0 0 0 0 0 287.5728759765625 252.4344329833984375 154.9822235107421875 273.92572021484375 317.440887451171875 380.51800537109375 745.5625 184.98388671875 246.9698944091796875 679.1234130859375 249.5837860107421875 213.7969512939453125 208.9184417724609375 207.933349609375 218.3565673828125 233.486968994140625 239.9858551025390625 259.1812744140625 269.70697021484375 276.648284912109375 300.578582763671875 270.6103515625 164.5637359619140625 0 0 0 0 0 0 0 0 0 0 0 0 0 0 0 0 0 0 0 0 0 0 0 0 0 0 0 0 0 0 0 0 0 0 0 0 0 0 0 0 0 0 0 0 0 0 0 0 0 0 0 0 0 0 0 0 0 0 0 
0 0 0 0 0 246.89892578125 207.1168670654296875 208.5245208740234375 200.5340118408203125 257.72003173828125 380.51800537109375 591.516357421875 94.87364959716796875 211.3449859619140625 443.2332763671875 280.44451904296875 220.1421356201171875 213.431549072265625 214.2454681396484375 218.95184326171875 233.88446044921875 238.0962066650390625 252.145477294921875 265.210357666015625 248.592498779296875 238.406890869140625 52.027385711669921875 0 0 0 0 0 0 0 0 0 0 0 0 0 0 0 0 0 0 0 0 0 0 0 0 0 0 0 0 0 0 0 0 0 0 0 0 0 0 0 0 0 0 0 0 0 0 0 0 0 0 0 0 0 0 0 0 0 0 0 0 
0 0 0 0 0 184.8288116455078125 228.55194091796875 204.105682373046875 350.229461669921875 180.574005126953125 312.0108642578125 202.6471405029296875 113.067840576171875 284.447174072265625 872.3033447265625 308.340545654296875 240.00152587890625 218.7198028564453125 219.845458984375 224.635772705078125 232.714263916015625 235.849761962890625 241.355224609375 271.892669677734375 268.2764892578125 0 0 0 0 0 0 0 0 0 0 0 0 0 0 0 0 0 0 0 0 0 0 0 0 0 0 0 0 0 0 0 0 0 0 0 0 0 0 0 0 0 0 0 0 0 0 0 0 0 0 0 0 0 0 0 0 0 0 0 0 0 0 
0 0 0 0 0 191.3695526123046875 217.2186737060546875 190.172698974609375 241.6224212646484375 245.0311431884765625 279.118072509765625 335.859222412109375 368.9986572265625 299.35931396484375 888.5260009765625 353.2755126953125 245.98883056640625 237.4922027587890625 229.3978271484375 227.129425048828125 233.8602447509765625 236.7532501220703125 604.842041015625 269.16632080078125 240.950408935546875 0 0 0 0 0 0 0 0 0 0 0 0 0 0 0 0 0 0 0 0 0 0 0 0 0 0 0 0 0 0 0 0 0 0 0 0 0 0 0 0 0 0 0 0 0 0 0 0 0 0 0 0 0 0 0 0 0 0 0 0 0 0 
0 0 0 0 0 281.985107421875 132.895416259765625 126.79094696044921875 237.2512359619140625 232.4948577880859375 182.5426025390625 286.933624267578125 359.45660400390625 249.3428497314453125 842.03594970703125 778.70599365234375 238.384674072265625 226.7710113525390625 242.2974090576171875 227.8767852783203125 233.004852294921875 231.24609375 246.85662841796875 234.21502685546875 100.50093841552734375 0 0 0 0 0 0 0 0 0 0 0 0 0 0 0 0 0 0 0 0 0 0 0 0 0 0 0 0 0 0 0 0 0 0 0 0 0 0 0 0 0 0 0 0 0 0 0 0 0 0 0 0 0 0 0 0 0 0 0 0 0 0 
0 0 0 0 0 225.8468017578125 146.4794464111328125 216.1341094970703125 163.6613006591796875 210.9623565673828125 228.8191375732421875 305.53021240234375 944.89044189453125 572.71881103515625 613.58416748046875 314.317596435546875 185.2220611572265625 236.0958251953125 249.5194091796875 248.793487548828125 241.1839141845703125 207.5001068115234375 233.5159149169921875 254.5081787109375 50.400440216064453125 0 0 0 0 0 0 0 0 0 0 0 0 0 0 0 0 0 0 0 0 0 0 0 0 0 0 0 0 0 0 0 0 0 0 0 0 0 0 0 0 0 0 0 0 0 0 0 0 0 0 0 0 0 0 0 0 0 0 0 0 0 0 
0 0 0 0 0 57.579273223876953125 0 171.3277740478515625 184.1269378662109375 234.0910186767578125 159.810211181640625 263.84710693359375 994.701416015625 485.069427490234375 576.8778076171875 287.7059326171875 182.6855621337890625 281.654205322265625 245.534515380859375 250.4698638916015625 249.10552978515625 244.355682373046875 231.6168365478515625 229.601104736328125 61.288761138916015625 0 0 0 0 0 0 0 0 0 0 0 0 0 0 0 0 0 0 0 0 0 0 0 0 0 0 0 0 0 0 0 0 0 0 0 0 0 0 0 0 0 0 0 0 0 0 0 0 0 0 0 0 0 0 0 0 0 0 0 0 0 0 
0 0 0 0 0 0 0 4.8488616943359375 106.58927154541015625 226.3903656005859375 179.9749908447265625 212.3942718505859375 951.36627197265625 1005.01776123046875 407.634429931640625 201.901458740234375 206.3860015869140625 232.20562744140625 245.4445648193359375 246.9698333740234375 346.6328125 211.8945465087890625 233.88629150390625 252.7353668212890625 63.44287872314453125 0 0 0 0 0 0 0 0 0 0 0 0 0 0 0 0 0 0 0 0 0 0 0 0 0 0 0 0 0 0 0 0 0 0 0 0 0 0 0 0 0 0 0 0 0 0 0 0 0 0 0 0 0 0 0 0 0 0 0 0 0 0 
0 0 0 0 0 0 0 34.994342803955078125 150.66522216796875 239.4464263916015625 231.4004974365234375 238.525238037109375 848.005615234375 915.90386962890625 580.29931640625 354.6893310546875 245.50885009765625 258.999053955078125 252.911834716796875 245.230712890625 258.352752685546875 264.816131591796875 269.44232177734375 213.9327239990234375 32.36771392822265625 0 0 0 0 0 0 0 0 0 0 0 0 0 0 0 0 0 0 0 0 0 0 0 0 0 0 0 0 0 0 0 0 0 0 0 0 0 0 0 0 0 0 0 0 0 0 0 0 0 0 0 0 0 0 0 0 0 0 0 0 0 0 
0 0 0 0 0 0 0 195.889801025390625 244.125396728515625 238.3302764892578125 200.3156890869140625 126.13838958740234375 914.8765869140625 914.8765869140625 670.5361328125 413.82611083984375 312.219757080078125 264.93572998046875 259.473388671875 255.1234588623046875 249.0454864501953125 204.0028076171875 203.1868896484375 51.06134033203125 0 0 0 0 0 0 0 0 0 0 0 0 0 0 0 0 0 0 0 0 0 0 0 0 0 0 0 0 0 0 0 0 0 0 0 0 0 0 0 0 0 0 0 0 0 0 0 0 0 0 0 0 0 0 0 0 0 0 0 0 0 0 0 
0 0 0 0 0 99.02581787109375 556.6419677734375 222.0680084228515625 238.878936767578125 198.1097412109375 220.7270660400390625 209.1881866455078125 272.74615478515625 841.03076171875 567.10736083984375 311.847442626953125 281.010772705078125 271.3740234375 266.800079345703125 259.40533447265625 0 0 0 0 0 0 0 0 0 0 0 0 0 0 0 0 0 0 0 0 0 0 0 0 0 0 0 0 0 0 0 0 0 0 0 0 0 0 0 0 0 0 0 0 0 0 0 0 0 0 0 0 0 0 0 0 0 0 0 0 0 0 0 0 0 0 0 
0 0 0 0 0 49.512908935546875 559.52386474609375 245.0537872314453125 229.223297119140625 335.07098388671875 233.423736572265625 233.06524658203125 791.4803466796875 791.4803466796875 749.43414306640625 336.230682373046875 287.43353271484375 270.403839111328125 279.2266845703125 238.946746826171875 0 0 0 0 0 0 0 0 0 0 0 0 0 0 0 0 0 0 0 0 0 0 0 0 0 0 0 0 0 0 0 0 0 0 0 0 0 0 0 0 0 0 0 0 0 0 0 0 0 0 0 0 0 0 0 0 0 0 0 0 0 0 0 0 0 0 0 
0 0 0 0 0 0 68.00452423095703125 260.7220458984375 230.32818603515625 331.8597412109375 230.12542724609375 260.28955078125 810.09228515625 384.62274169921875 405.58624267578125 841.57159423828125 245.07696533203125 213.665985107421875 309.694305419921875 9.2615814208984375 0 0 0 0 0 0 0 0 0 0 0 0 0 0 0 0 0 0 0 0 0 0 0 0 0 0 0 0 0 0 0 0 0 0 0 0 0 0 0 0 0 0 0 0 0 0 0 0 0 0 0 0 0 0 0 0 0 0 0 0 0 0 0 0 0 0 0 
0 0 0 0 0 0 71.0423431396484375 283.950958251953125 283.995025634765625 283.743011474609375 234.060882568359375 342.278106689453125 401.981414794921875 410.456298828125 343.441009521484375 669.71478271484375 241.078948974609375 291.202545166015625 255.094024658203125 74.79360198974609375 0 0 0 0 0 0 0 0 0 0 0 0 0 0 0 0 0 0 0 0 0 0 0 0 0 0 0 0 0 0 0 0 0 0 0 0 0 0 0 0 0 0 0 0 0 0 0 0 0 0 0 0 0 0 0 0 0 0 0 0 0 0 0 0 0 0 0 
0 0 0 0 0 0 74.26277923583984375 281.201507568359375 289.731170654296875 273.55615234375 244.7787322998046875 359.8131103515625 365.6361083984375 400.966552734375 336.32275390625 320.71923828125 252.2304840087890625 280.09765625 291.20458984375 95.02337646484375 0 0 0 0 0 0 0 0 0 0 0 0 0 0 0 0 0 0 0 0 0 0 0 0 0 0 0 0 0 0 0 0 0 0 0 0 0 0 0 0 0 0 0 0 0 0 0 0 0 0 0 0 0 0 0 0 0 0 0 0 0 0 0 0 0 0 0 
0 0 0 0 0 0 30.016668319702148438 320.615234375 324.715240478515625 306.3662109375 386.78045654296875 279.021728515625 347.7811279296875 877.17181396484375 359.897705078125 306.9915771484375 271.251739501953125 263.35699462890625 117.5246124267578125 237.558441162109375 0 0 0 0 0 0 0 0 0 0 0 0 0 0 0 0 0 0 0 0 0 0 0 0 0 0 0 0 0 0 0 0 0 0 0 0 0 0 0 0 0 0 0 0 0 0 0 0 0 0 0 0 0 0 0 0 0 0 0 0 0 0 0 0 0 0 0 
0 0 0 0 0 0 328.493896484375 314.900177001953125 308.0111083984375 319.132415771484375 301.01116943359375 335.796630859375 698.70819091796875 859.299072265625 309.751800537109375 235.976287841796875 304.20343017578125 266.807769775390625 0 0 0 0 0 0 0 0 0 0 0 0 0 0 0 0 0 0 0 0 0 0 0 0 0 0 0 0 0 0 0 0 0 0 0 0 0 0 0 0 0 0 0 0 0 0 0 0 0 0 0 0 0 0 0 0 0 0 0 0 0 0 0 0 0 0 0 0 0 
0 0 0 0 0 0 0 316.82745361328125 304.680419921875 305.21795654296875 335.040557861328125 767.45025634765625 828.0364990234375 437.4132080078125 508.6505126953125 0 0 0 0 0 0 0 0 0 0 0 0 0 0 0 0 0 0 0 0 0 0 0 0 0 0 0 0 0 0 0 0 0 0 0 0 0 0 0 0 0 0 0 0 0 0 0 0 0 0 0 0 0 0 0 0 0 0 0 0 0 0 0 0 0 0 0 0 0 0 0 0 
0 0 0 0 0 0 0 0 315.714996337890625 341.00372314453125 783.604248046875 352.6837158203125 378.09637451171875 0 0 0 0 0 0 0 0 0 0 0 0 0 0 0 0 0 0 0 0 0 0 0 0 0 0 0 0 0 0 0 0 0 0 0 0 0 0 0 0 0 0 0 0 0 0 0 0 0 0 0 0 0 0 0 0 0 0 0 0 0 0 0 0 0 0 0 0 0 0 0 0 0 0 
0 0 0 0 0 0 0 0 0 464.638519287109375 0 0 0 0 0 0 0 0 0 0 0 0 0 0 0 0 0 0 0 0 0 0 0 0 0 0 0 0 0 0 0 0 0 0 0 0 0 0 0 0 0 0 0 0 0 0 0 0 0 0 0 0 0 0 0 0 0 0 0 0 0 0 0 0 0 0 0 0 0 0 0 0 0 0 0 0 0 
0 0 0 0 0 0 0 0 0 0 0 0 0 0 0 0 0 0 0 0 0 0 0 0 0 0 0 0 0 0 0 0 0 0 0 0 0 0 0 0 0 0 0 0 0 0 0 0 0 0 0 0 0 0 0 0 0 0 0 0 0 0 0 0 0 0 0 0 0 0 0 0 0 0 0 0 0 0 0 0 0 0 0 0 0 0 0 
0 0 0 0 0 0 0 0 0 0 0 0 0 0 0 0 0 0 0 0 0 0 0 0 0 0 0 0 0 0 0 0 0 0 0 0 0 0 0 0 0 0 0 0 0 0 0 0 0 0 0 0 0 0 0 0 0 0 0 0 0 0 0 0 0 0 0 0 0 0 0 0 0 0 0 0 0 0 0 0 0 0 0 0 0 0 0 
0 0 0 0 0 0 0 0 0 0 0 0 0 0 0 0 0 0 0 0 0 0 0 0 0 0 0 0 0 0 0 0 0 0 0 0 0 0 0 0 0 0 0 0 0 0 0 0 0 0 0 0 0 0 0 0 0 0 0 0 0 0 0 0 0 0 0 0 0 0 0 0 0 0 0 0 0 0 0 0 0 0 0 0 0 0 0 
0 0 0 0 0 0 0 0 0 0 0 0 0 0 0 0 0 0 0 0 0 0 0 0 0 0 0 0 0 0 0 0 0 0 0 0 0 0 0 0 0 0 0 0 0 0 0 0 0 0 0 0 0 0 0 0 0 0 0 0 0 0 0 0 0 0 0 0 0 0 0 0 0 0 0 0 0 0 0 0 0 0 0 0 0 0 0 
