ncols        19
nrows        23
xllcorner    508562.338426187926
yllcorner    5265326.272683421150
cellsize     570.000000000000
NODATA_value -9999
0.0 0 0 0 0 0 0 0 0 0 0 0 0 0 33.222625732421875 0 0 0 0 
0 0 0 0 0 0 0 0 0 0 0 0 6.3774785995483398438 476.315887451171875 87.9416656494140625 0 0 0 0 
0 0 0 0 0 0 0 0 0 0 0 0 12.429841995239257812 491.798095703125 14.368976593017578125 0 0 0 0 
0 0 0 0 0 0 0 0 0 0 0 0 494.372100830078125 497.064971923828125 55.452243804931640625 0.73113656044006347656 0 0 0 
0 0 0 0 0 0 0 0 0 0 0 30.40459442138671875 474.429931640625 476.011962890625 342.635589599609375 68.91049957275390625 54.970561981201171875 0 0 
0 0 0 0 0 0 0 0 0 0 6.0408000946044921875 301.957183837890625 466.03973388671875 373.292510986328125 354.526123046875 331.056488037109375 200.9076995849609375 0 0 
0 0 0 0 0 0 0 0 0 0 196.5822906494140625 353.215667724609375 458.948760986328125 319.532684326171875 325.766571044921875 313.62835693359375 253.7665557861328125 0 0 
0 0 0 0 0 0 0 0 0 0 256.022979736328125 318.953125 599.1070556640625 302.37908935546875 314.066986083984375 314.66839599609375 45.876026153564453125 0 0 
0 0 0 0 0 0 0 0 14.321492195129394531 234.01983642578125 305.009490966796875 313.024810791015625 405.9742431640625 284.366180419921875 314.60943603515625 312.06768798828125 53.8377838134765625 0 0 
0 0 0 0 0 0 0 3.5411214828491210938 172.837799072265625 289.955078125 610.155029296875 295.4595947265625 402.221954345703125 305.719329833984375 237.883514404296875 152.16546630859375 0 0 0 
0 0 0 0 0 0 0 113.1399383544921875 296.186370849609375 283.62677001953125 279.324462890625 311.890411376953125 274.20391845703125 89.38961029052734375 2.2323870658874511719 0 0 0 0 
0 0 0 0 0 219.6746826171875 175.207611083984375 230.74554443359375 280.07244873046875 354.9813232421875 351.77008056640625 255.0893096923828125 231.8251495361328125 47.608432769775390625 0 0 0 0 0 
0 0 0 20.807886123657226562 59.190067291259765625 253.1125640869140625 244.011199951171875 220.1144561767578125 211.2303009033203125 254.6319580078125 294.554840087890625 239.9030303955078125 193.9306488037109375 19.516344070434570312 0 0 0 0 0 
0 0 28.809396743774414062 170.7811431884765625 206.6825408935546875 359.9976806640625 278.0235595703125 227.033203125 287.16229248046875 207.6248779296875 337.83538818359375 342.429962158203125 42.36977386474609375 0 0 0 0 0 0 
0 41.775836944580078125 216.69146728515625 923.57928466796875 353.340118408203125 210.3259124755859375 211.5989532470703125 505.224700927734375 17.937490463256835938 0 0 0 0 0 0 0 0 0 0 
0 243.494415283203125 209.008514404296875 328.84783935546875 173.7767181396484375 214.36126708984375 524.47418212890625 20.872859954833984375 0 0 0 0 0 0 0 0 0 0 0 
0 216.532562255859375 1006.50640869140625 171.774505615234375 193.7611846923828125 246.6307830810546875 62.050983428955078125 0 0 0 0 0 0 0 0 0 0 0 0 
0 183.001220703125 315.1474609375 289.522247314453125 235.344879150390625 188.707916259765625 0 0 0 0 0 0 0 0 0 0 0 0 0 
0 214.3157501220703125 265.486968994140625 228.2452392578125 239.290069580078125 34.71504974365234375 0 0 0 0 0 0 0 0 0 0 0 0 0 
0 105.93410491943359375 873.44097900390625 256.660003662109375 154.5704345703125 7.8519959449768066406 0 0 0 0 0 0 0 0 0 0 0 0 0 
0 127.37085723876953125 350.185943603515625 326.19500732421875 8.31761932373046875 0 0 0 0 0 0 0 0 0 0 0 0 0 0 
0 6.2176656723022460938 368.339019775390625 0 0 0 0 0 0 0 0 0 0 0 0 0 0 0 0 
0 0 0 0 0 0 0 0 0 0 0 0 0 0 0 0 0 0 0 
