ncols        19
nrows        23
xllcorner    508562.338426187926
yllcorner    5265326.272683421150
cellsize     570.000000000000
NODATA_value -9999
0.0 0 0 0 0 0 0 0 0 0 0 0 0 0 2.0948116779327392578 0 0 0 0 
0 0 0 0 0 0 0 0 0 0 0 0 0 164.6233673095703125 7.3487958908081054688 0 0 0 0 
0 0 0 0 0 0 0 0 0 0 0 0 0.71919834613800048828 104.34900665283203125 0 0 0 0 0 
0 0 0 0 0 0 0 0 0 0 0 0 69.85831451416015625 110.51628875732421875 9.1957607269287109375 0 0 0 0 
0 0 0 0 0 0 0 0 0 0 0 2.6777186393737792969 118.526336669921875 112.982391357421875 65.30117034912109375 10.695161819458007812 8.1962604522705078125 0 0 
0 0 0 0 0 0 0 0 0 0 0 48.8719635009765625 117.53050994873046875 78.67946624755859375 65.922607421875 64.05057525634765625 47.217437744140625 0 0 
0 0 0 0 0 0 0 0 0 0 39.058353424072265625 81.474029541015625 115.581939697265625 69.66686248779296875 74.78692626953125 74.3202362060546875 59.1280517578125 0 0 
0 0 0 0 0 0 0 0 0 0 56.5528717041015625 75.708648681640625 172.809844970703125 69.76703643798828125 77.55075836181640625 76.0999908447265625 7.1734395027160644531 0 0 
0 0 0 0 0 0 0 0 0 39.2906494140625 65.279296875 69.97255706787109375 126.30353546142578125 66.35112762451171875 81.40995025634765625 74.27870941162109375 7.175128936767578125 0 0 
0 0 0 0 0 0 0 0.73069334030151367188 27.170694351196289062 65.77553558349609375 128.4708709716796875 71.0482635498046875 134.4652862548828125 70.8205108642578125 57.772663116455078125 35.080562591552734375 0 0 0 
0 0 0 0 0 0 0 18.492336273193359375 59.81508636474609375 56.606708526611328125 67.77895355224609375 112.35552978515625 71.3769683837890625 18.815074920654296875 0.4930604398250579834 0 0 0 0 
0 0 0 0 0 43.083927154541015625 33.1986541748046875 65.32425689697265625 75.68198394775390625 106.6802825927734375 106.36865234375 60.482219696044921875 63.31476593017578125 9.5755939483642578125 0 0 0 0 0 
0 0 0 3.2409372329711914062 8.4683704376220703125 63.02408599853515625 82.803375244140625 85.6266326904296875 61.173004150390625 68.41947174072265625 80.198638916015625 78.54059600830078125 66.21575927734375 4.2597956657409667969 0 0 0 0 0 
0 0 3.5983109474182128906 34.7903289794921875 45.94281768798828125 121.448333740234375 86.031005859375 79.11292266845703125 76.8049774169921875 53.57791900634765625 72.3273162841796875 95.183990478515625 14.542750358581542969 0 0 0 0 0 0 
0 2.2459874153137207031 42.45227813720703125 479.13812255859375 137.52587890625 55.271472930908203125 56.5855712890625 106.53679656982421875 2.1961622238159179688 0 0 0 0 0 0 0 0 0 0 
0 55.13500213623046875 49.02750396728515625 153.77197265625 51.83679962158203125 54.889278411865234375 130.3468170166015625 5.8736104965209960938 0 0 0 0 0 0 0 0 0 0 0 
0 55.65576934814453125 449.1585693359375 45.67668914794921875 47.841098785400390625 60.398723602294921875 13.782213211059570312 0 0 0 0 0 0 0 0 0 0 0 0 
0 31.9195098876953125 131.8582305908203125 98.9483642578125 57.777957916259765625 45.659755706787109375 0 0 0 0 0 0 0 0 0 0 0 0 0 
0 54.993072509765625 95.1108551025390625 52.791019439697265625 60.477214813232421875 8.1725091934204101562 0 0 0 0 0 0 0 0 0 0 0 0 0 
0 25.6763153076171875 329.032806396484375 60.255382537841796875 35.93582916259765625 1.8454554080963134766 0 0 0 0 0 0 0 0 0 0 0 0 0 
0 24.75278472900390625 124.74419403076171875 110.8178253173828125 1.753063201904296875 0 0 0 0 0 0 0 0 0 0 0 0 0 0 
0 1.6553572416305541992 103.28961181640625 0 0 0 0 0 0 0 0 0 0 0 0 0 0 0 0 
0 0 0 0 0 0 0 0 0 0 0 0 0 0 0 0 0 0 0 
