ncols        87
nrows        107
xllcorner    508562.338426187926
yllcorner    5265596.272683421150
cellsize     120.000000000000
NODATA_value -9999
0.0 0 0 0 0 0 0 0 0 0 0 0 0 0 0 0 0 0 0 0 0 0 0 0 0 0 0 0 0 0 0 0 0 0 0 0 0 0 0 0 0 0 0 0 0 0 0 0 0 0 0 0 0 0 0 0 0 0 0 0 0 0 0 0 0 0 0 0 0 0 0 0 0 0 0 0 0 0 0 0 0 0 0 0 0 0 0 
0 0 0 0 0 0 0 0 0 0 0 0 0 0 0 0 0 0 0 0 0 0 0 0 0 0 0 0 0 0 0 0 0 0 0 0 0 0 0 0 0 0 0 0 0 0 0 0 0 0 0 0 0 0 0 0 0 0 0 0 0 0 0 0 0 0 0 0 0 0 0 0 0 0 0 0 0 0 0 0 0 0 0 0 0 0 0 
0 0 0 0 0 0 0 0 0 0 0 0 0 0 0 0 0 0 0 0 0 0 0 0 0 0 0 0 0 0 0 0 0 0 0 0 0 0 0 0 0 0 0 0 0 0 0 0 0 0 0 0 0 0 0 0 0 0 0 0 0 0 0 0 0 184.4834136962890625 89.6205902099609375 0 0 0 0 0 0 0 0 0 0 0 0 0 0 0 0 0 0 0 0 
0 0 0 0 0 0 0 0 0 0 0 0 0 0 0 0 0 0 0 0 0 0 0 0 0 0 0 0 0 0 0 0 0 0 0 0 0 0 0 0 0 0 0 0 0 0 0 0 0 0 0 0 0 0 0 0 0 0 0 0 0 0 0 0 0 538.00408935546875 72.12943267822265625 0 0 0 0 0 0 0 0 0 0 0 0 0 0 0 0 0 0 0 0 
0 0 0 0 0 0 0 0 0 0 0 0 0 0 0 0 0 0 0 0 0 0 0 0 0 0 0 0 0 0 0 0 0 0 0 0 0 0 0 0 0 0 0 0 0 0 0 0 0 0 0 0 0 0 0 0 0 0 0 0 0 0 0 0 158.8406982421875 635.36279296875 136.38812255859375 36.781597137451171875 0 0 0 0 0 0 0 0 0 0 0 0 0 0 0 0 0 0 0 
0 0 0 0 0 0 0 0 0 0 0 0 0 0 0 0 0 0 0 0 0 0 0 0 0 0 0 0 0 0 0 0 0 0 0 0 0 0 0 0 0 0 0 0 0 0 0 0 0 0 0 0 0 0 0 0 0 0 0 0 0 0 0 98.62696075439453125 439.859283447265625 717.9447021484375 178.353485107421875 22.7107391357421875 0 0 0 0 0 0 0 0 0 0 0 0 0 0 0 0 0 0 0 
0 0 0 0 0 0 0 0 0 0 0 0 0 0 0 0 0 0 0 0 0 0 0 0 0 0 0 0 0 0 0 0 0 0 0 0 0 0 0 0 0 0 0 0 0 0 0 0 0 0 0 0 0 0 0 0 0 0 0 0 0 0 0 98.62696075439453125 308.45294189453125 284.88177490234375 190.957244873046875 18.6052398681640625 0 0 0 0 0 0 0 0 0 0 0 0 0 0 0 0 0 0 0 
0 0 0 0 0 0 0 0 0 0 0 0 0 0 0 0 0 0 0 0 0 0 0 0 0 0 0 0 0 0 0 0 0 0 0 0 0 0 0 0 0 0 0 0 0 0 0 0 0 0 0 0 0 0 0 0 0 0 0 0 0 0 101.706939697265625 181.760498046875 501.259063720703125 473.230743408203125 160.133026123046875 0 0 0 0 0 0 0 0 0 0 0 0 0 0 0 0 0 0 0 0 
0 0 0 0 0 0 0 0 0 0 0 0 0 0 0 0 0 0 0 0 0 0 0 0 0 0 0 0 0 0 0 0 0 0 0 0 0 0 0 0 0 0 0 0 0 0 0 0 0 0 0 0 0 0 0 0 0 0 0 0 0 0 140.6212005615234375 161.2909088134765625 398.580413818359375 353.874267578125 137.1170196533203125 0 0 0 0 0 0 0 0 0 0 0 0 0 0 0 0 0 0 0 0 
0 0 0 0 0 0 0 0 0 0 0 0 0 0 0 0 0 0 0 0 0 0 0 0 0 0 0 0 0 0 0 0 0 0 0 0 0 0 0 0 0 0 0 0 0 0 0 0 0 0 0 0 0 0 0 0 0 0 0 0 0 0 128.52667236328125 135.61236572265625 153.7566986083984375 353.298431396484375 143.58123779296875 0 0 0 0 0 0 0 0 0 0 0 0 0 0 0 0 0 0 0 0 
0 0 0 0 0 0 0 0 0 0 0 0 0 0 0 0 0 0 0 0 0 0 0 0 0 0 0 0 0 0 0 0 0 0 0 0 0 0 0 0 0 0 0 0 0 0 0 0 0 0 0 0 0 0 0 0 0 0 0 0 0 0 198.3092803955078125 186.0436553955078125 140.471343994140625 345.4156494140625 148.1169586181640625 55.211666107177734375 0 0 0 0 0 0 0 0 0 0 0 0 0 0 0 0 0 0 0 
0 0 0 0 0 0 0 0 0 0 0 0 0 0 0 0 0 0 0 0 0 0 0 0 0 0 0 0 0 0 0 0 0 0 0 0 0 0 0 0 0 0 0 0 0 0 0 0 0 0 0 0 0 0 0 0 0 0 0 0 0 0 198.3092803955078125 193.8525848388671875 347.04766845703125 362.1539306640625 118.023956298828125 27.641561508178710938 0 0 0 0 0 0 0 0 0 0 0 0 0 0 0 0 0 0 0 
0 0 0 0 0 0 0 0 0 0 0 0 0 0 0 0 0 0 0 0 0 0 0 0 0 0 0 0 0 0 0 0 0 0 0 0 0 0 0 0 0 0 0 0 0 0 0 0 0 0 0 0 0 0 0 0 0 0 0 0 0 0 132.3355865478515625 296.050018310546875 322.219970703125 164.0408172607421875 77.077484130859375 0 0 0 0 0 0 0 0 0 0 0 0 0 0 0 0 0 0 0 0 
0 0 0 0 0 0 0 0 0 0 0 0 0 0 0 0 0 0 0 0 0 0 0 0 0 0 0 0 0 0 0 0 0 0 0 0 0 0 0 0 0 0 0 0 0 0 0 0 0 0 0 0 0 0 0 0 0 0 0 0 0 0 132.2071685791015625 307.667022705078125 159.949462890625 148.24310302734375 69.51416778564453125 0 0 0 0 0 0 0 0 0 0 0 0 0 0 0 0 0 0 0 0 
0 0 0 0 0 0 0 0 0 0 0 0 0 0 0 0 0 0 0 0 0 0 0 0 0 0 0 0 0 0 0 0 0 0 0 0 0 0 0 0 0 0 0 0 0 0 0 0 0 0 0 0 0 0 0 0 0 0 0 0 0 141.832244873046875 152.5879364013671875 225.9330596923828125 157.287994384765625 148.838531494140625 55.18628692626953125 0 0 0 0 0 0 0 0 0 0 0 0 0 0 0 0 0 0 0 0 
0 0 0 0 0 0 0 0 0 0 0 0 0 0 0 0 0 0 0 0 0 0 0 0 0 0 0 0 0 0 0 0 0 0 0 0 0 0 0 0 0 0 0 0 0 0 0 0 0 0 0 0 0 0 0 0 0 0 0 45.873531341552734375 138.329010009765625 125.64521026611328125 156.455322265625 147.31890869140625 150.1829071044921875 149.183685302734375 0 0 0 0 0 0 0 0 0 0 0 0 0 0 0 0 0 0 0 0 0 
0 0 0 0 0 0 0 0 0 0 0 0 0 0 0 0 0 0 0 0 0 0 0 0 0 0 0 0 0 0 0 0 0 0 0 0 0 0 0 0 0 0 0 0 0 0 0 0 0 0 0 0 0 0 0 0 0 0 0 45.873531341552734375 183.4941253662109375 149.0907135009765625 157.180816650390625 152.639007568359375 146.987274169921875 143.846588134765625 0 0 0 0 0 0 0 0 0 0 0 0 0 0 0 0 0 0 0 0 0 
0 0 0 0 0 0 0 0 0 0 0 0 0 0 0 0 0 0 0 0 0 0 0 0 0 0 0 0 0 0 0 0 0 0 0 0 0 0 0 0 0 0 0 0 0 0 0 0 0 0 0 0 0 0 0 0 0 0 0 0 168.3495330810546875 142.78466796875 205.818878173828125 210.058624267578125 207.7803497314453125 134.3818359375 0 0 0 0 0 0 0 0 0 0 0 0 0 0 0 0 0 0 0 0 0 
0 0 0 0 0 0 0 0 0 0 0 0 0 0 0 0 0 0 0 0 0 0 0 0 0 0 0 0 0 0 0 0 0 0 0 0 0 0 0 0 0 0 0 0 0 0 0 0 0 0 0 0 0 0 0 0 0 0 0 58.329227447509765625 132.12451171875 149.29962158203125 150.4422454833984375 153.5989532470703125 148.5842437744140625 141.0230712890625 143.031341552734375 124.91846466064453125 119.0258331298828125 87.48876190185546875 60.171535491943359375 0 0 0 0 0 0 0 0 0 0 0 0 0 0 0 0 
0 0 0 0 0 0 0 0 0 0 0 0 0 0 0 0 0 0 0 0 0 0 0 0 0 0 0 0 0 0 0 0 0 0 0 0 0 0 0 0 0 0 0 0 0 0 0 0 0 0 0 0 0 0 0 0 0 0 197.7203369140625 135.19366455078125 137.050750732421875 155.57098388671875 155.667938232421875 151.82452392578125 141.248443603515625 139.4243011474609375 149.9074554443359375 133.192657470703125 125.670928955078125 124.72315216064453125 90.28495025634765625 26.2384490966796875 0 0 0 0 0 0 0 0 0 0 0 0 0 0 0 
0 0 0 0 0 0 0 0 0 0 0 0 0 0 0 0 0 0 0 0 0 0 0 0 0 0 0 0 0 0 0 0 0 0 0 0 0 0 0 0 0 0 0 0 0 0 0 0 0 0 0 0 0 0 0 0 0 0 117.635040283203125 147.16680908203125 150.4459228515625 157.9637908935546875 154.4279022216796875 150.5323638916015625 133.667999267578125 156.3022003173828125 203.14117431640625 193.9442901611328125 144.2987060546875 123.963134765625 114.51064300537109375 39.3418731689453125 0 0 0 0 0 0 0 0 0 0 0 0 0 0 0 
0 0 0 0 0 0 0 0 0 0 0 0 0 0 0 0 0 0 0 0 0 0 0 0 0 0 0 0 0 0 0 0 0 0 0 0 0 0 0 0 0 0 0 0 0 0 0 0 0 0 0 0 0 0 0 0 0 102.53270721435546875 148.62542724609375 155.0227203369140625 157.2164764404296875 158.2580108642578125 134.4134063720703125 154.2982177734375 151.524688720703125 152.8172607421875 132.488311767578125 126.5999755859375 151.2738800048828125 117.544891357421875 113.3794708251953125 0 0 0 0 0 0 0 0 0 0 0 0 0 0 0 0 
0 0 0 0 0 0 0 0 0 0 0 0 0 0 0 0 0 0 0 0 0 0 0 0 0 0 0 0 0 0 0 0 0 0 0 0 0 0 0 0 0 0 0 0 0 0 0 0 0 0 0 0 0 0 0 0 54.31906890869140625 124.42122650146484375 151.3560791015625 164.058380126953125 158.6321258544921875 150.435577392578125 107.22418975830078125 143.9874267578125 150.560546875 148.01824951171875 129.0488739013671875 114.77355194091796875 150.08782958984375 158.211212158203125 117.950958251953125 0 0 0 0 0 0 66.47003173828125 0 0 0 0 0 0 0 0 0 
0 0 0 0 0 0 0 0 0 0 0 0 0 0 0 0 0 0 0 0 0 0 0 0 0 0 0 0 0 0 0 0 0 0 0 0 0 0 0 0 0 0 0 0 0 0 0 0 0 0 0 0 0 0 0 8.83376312255859375 88.8192901611328125 149.896697998046875 151.808380126953125 162.1137847900390625 158.05010986328125 146.9792633056640625 143.5307769775390625 153.0762481689453125 132.0616607666015625 181.5310211181640625 126.92632293701171875 97.5207366943359375 107.277496337890625 124.1906890869140625 105.9555816650390625 102.2957916259765625 113.36200714111328125 129.3861541748046875 110.67757415771484375 103.9385223388671875 105.12438201904296875 125.40185546875 115.3433380126953125 0 0 0 0 0 0 0 0 
0 0 0 0 0 0 0 0 0 0 0 0 0 0 0 0 0 0 0 0 0 0 0 0 0 0 0 0 0 0 0 0 0 0 0 0 0 0 0 0 0 0 0 0 0 0 0 0 0 0 0 0 0 0 35.7497100830078125 56.38158416748046875 140.12030029296875 147.3864898681640625 153.7871246337890625 164.4208984375 157.7967376708984375 166.6756591796875 141.3954925537109375 122.2476348876953125 136.9327392578125 82.09304046630859375 97.8382720947265625 111.36820220947265625 92.88022613525390625 113.33880615234375 101.66889190673828125 84.16571044921875 106.61162567138671875 88.03485870361328125 92.464996337890625 95.446136474609375 112.86487579345703125 140.051727294921875 57.770275115966796875 0 0 0 0 0 0 0 0 
0 0 0 0 0 0 0 0 0 0 0 0 0 0 0 0 0 0 0 0 0 0 0 0 0 0 0 0 0 0 0 0 0 0 0 0 0 0 0 0 0 0 0 0 0 0 0 0 0 0 0 0 0 0 143.655609130859375 145.64923095703125 140.0882568359375 148.409820556640625 154.2170562744140625 172.46087646484375 169.1681365966796875 152.420318603515625 148.9174041748046875 140.32366943359375 131.11114501953125 133.014892578125 97.2906494140625 120.1775054931640625 117.9971923828125 111.6515350341796875 83.61034393310546875 113.63416290283203125 106.72461700439453125 93.05548095703125 97.46421051025390625 106.23602294921875 379.747406005859375 124.42181396484375 57.138118743896484375 0 0 0 0 0 0 0 0 
0 0 0 0 0 0 0 0 0 0 0 0 0 0 0 0 0 0 0 0 0 0 0 0 0 0 0 0 0 0 0 0 0 0 0 0 0 0 0 0 0 0 0 0 0 0 0 0 0 0 0 0 0 81.3578338623046875 147.26531982421875 147.25079345703125 152.3197174072265625 153.8946990966796875 167.338592529296875 169.2521820068359375 147.769287109375 148.5272216796875 122.546112060546875 92.99279022216796875 135.545013427734375 138.905792236328125 124.77874755859375 125.2152862548828125 120.35088348388671875 118.3888702392578125 85.81304931640625 85.89847564697265625 103.422607421875 84.032623291015625 105.3542022705078125 114.77337646484375 457.611541748046875 140.53668212890625 112.36766815185546875 0 0 0 0 0 0 0 0 
0 0 0 0 0 0 0 0 0 0 0 0 0 0 0 0 0 0 0 0 0 0 0 0 0 0 0 0 0 0 0 0 0 0 0 0 0 0 0 0 0 0 0 0 0 0 0 0 0 0 0 0 0 106.27713775634765625 148.291778564453125 144.6307220458984375 149.1645355224609375 154.375518798828125 229.2567596435546875 168.704010009765625 156.5577392578125 145.7942962646484375 153.7333984375 136.9358978271484375 114.16620635986328125 125.85369110107421875 94.6259002685546875 183.449127197265625 104.2694549560546875 99.2508544921875 108.5867919921875 100.5081939697265625 100.77466583251953125 147.9980926513671875 89.0133819580078125 112.7700958251953125 319.82684326171875 134.7505340576171875 123.08809661865234375 0 0 0 0 0 0 0 0 
0 0 0 0 0 0 0 0 0 0 0 0 0 0 0 0 0 0 0 0 0 0 0 0 0 0 0 0 0 0 0 0 0 0 0 0 0 0 0 0 0 0 0 0 0 0 0 0 0 0 0 15.228152275085449219 79.38275146484375 192.9847869873046875 139.805511474609375 140.15020751953125 136.1887969970703125 135.4223785400390625 151.8356475830078125 169.6457061767578125 154.1578369140625 143.1661834716796875 98.29888916015625 99.69731903076171875 127.48227691650390625 123.06884765625 93.6351165771484375 119.58019256591796875 111.17708587646484375 106.94336700439453125 109.1459197998046875 110.36530303955078125 116.04593658447265625 117.70879364013671875 118.3363494873046875 117.7005615234375 117.0229644775390625 111.43015289306640625 114.18064117431640625 80.7964324951171875 0 0 0 0 0 0 0 
0 0 0 0 0 0 0 0 0 0 0 0 0 0 0 0 0 0 0 0 0 0 0 0 0 0 0 0 0 0 0 0 0 0 0 0 0 0 0 0 0 0 0 0 0 0 0 0 0 0 0 60.40363311767578125 122.9386749267578125 123.65657806396484375 151.571319580078125 147.4310150146484375 141.6495361328125 131.7748260498046875 225.19757080078125 167.0312042236328125 152.927276611328125 142.60302734375 76.79384613037109375 101.03736114501953125 102.9463348388671875 124.73259735107421875 107.39345550537109375 123.185394287109375 111.13106536865234375 106.54888153076171875 107.44750213623046875 111.2513580322265625 112.7919464111328125 117.27689361572265625 93.07285308837890625 112.5334625244140625 112.32622528076171875 109.74967193603515625 122.49835205078125 89.45208740234375 0 0 0 0 0 0 0 
0 0 0 0 0 0 0 0 0 0 0 0 0 0 0 0 0 0 0 0 0 0 0 0 0 0 0 0 0 0 0 0 0 0 0 0 0 0 0 0 0 0 0 0 0 0 0 0 43.7809600830078125 57.634540557861328125 45.86035919189453125 57.126674652099609375 115.76291656494140625 125.359283447265625 150.379150390625 152.2843475341796875 147.15185546875 137.201812744140625 144.2555694580078125 237.7826385498046875 213.6848602294921875 142.8618316650390625 121.3198089599609375 116.434173583984375 139.9548797607421875 147.27667236328125 103.75565338134765625 125.1324005126953125 119.15375518798828125 114.7484588623046875 113.571746826171875 114.30789947509765625 110.4952392578125 118.3745269775390625 110.765899658203125 111.573028564453125 112.45366668701171875 117.25237274169921875 265.742523193359375 94.62970733642578125 0 0 0 0 0 0 0 
0 0 0 0 0 0 0 0 0 0 0 0 0 0 0 0 0 0 0 0 0 0 0 0 0 0 0 0 0 0 0 0 0 0 0 0 0 0 0 0 0 0 0 0 0 0 0 0 85.20508575439453125 114.1043853759765625 115.48575592041015625 101.0101776123046875 111.29803466796875 126.70233154296875 140.5045166015625 144.23089599609375 148.5164337158203125 211.8115081787109375 226.796783447265625 159.873199462890625 140.7204437255859375 152.148223876953125 145.1603240966796875 137.07550048828125 133.482574462890625 119.4629364013671875 108.053558349609375 115.32131195068359375 115.625701904296875 110.8059844970703125 105.98906707763671875 111.80529022216796875 115.6102294921875 120.3698883056640625 109.28022003173828125 86.21442413330078125 117.1471099853515625 125.0098876953125 119.26306915283203125 70.24190521240234375 0 0 0 0 0 0 0 
0 0 0 0 0 0 0 0 0 0 0 0 0 0 0 0 0 0 0 0 0 0 0 0 0 0 0 0 0 0 0 0 0 0 0 0 0 0 0 0 0 0 0 0 0 0 0 0 87.56103515625 108.81249237060546875 113.8714141845703125 108.462554931640625 106.7060546875 125.58202362060546875 138.642547607421875 141.1153411865234375 139.6620025634765625 160.8983154296875 166.014251708984375 160.7093353271484375 145.1532440185546875 152.1263580322265625 148.9518890380859375 103.05255126953125 123.276397705078125 113.0407562255859375 129.800872802734375 105.3928070068359375 113.4804229736328125 107.01313018798828125 102.949615478515625 107.8437652587890625 116.08029937744140625 114.46875 107.09214019775390625 87.94530487060546875 119.1173248291015625 124.476654052734375 108.97446441650390625 7.7127203941345214844 0 0 0 0 0 0 0 
0 0 0 0 0 0 0 0 0 0 0 0 0 0 0 0 0 0 0 0 0 0 0 0 0 0 0 0 0 0 0 0 0 0 0 0 0 0 0 0 0 0 0 0 0 0 0 0 69.47301483154296875 120.4170379638671875 113.15995025634765625 115.5270233154296875 108.66121673583984375 114.93621826171875 135.660064697265625 137.457611083984375 141.511688232421875 158.513702392578125 170.6804046630859375 152.3458709716796875 153.8872528076171875 144.568756103515625 137.06219482421875 134.5991363525390625 184.648895263671875 100.6969757080078125 93.3475189208984375 111.65189361572265625 118.645233154296875 110.45439910888671875 106.0470733642578125 113.5682373046875 109.49761199951171875 113.10430908203125 113.898406982421875 122.6175994873046875 118.5326080322265625 122.0716705322265625 36.168010711669921875 0 0 0 0 0 0 0 0 
0 0 0 0 0 0 0 0 0 0 0 0 0 0 0 0 0 0 0 0 0 0 0 0 0 0 0 0 0 0 0 0 0 0 0 0 0 0 0 0 0 0 0 0 0 0 0 0 0 119.5177001953125 110.5276031494140625 108.77376556396484375 108.8378753662109375 119.46915435791015625 131.2072906494140625 137.3822479248046875 141.2494964599609375 211.8375091552734375 229.3512725830078125 230.773193359375 139.4832611083984375 139.3602752685546875 130.4821929931640625 128.063751220703125 115.11666107177734375 110.22808074951171875 109.32353973388671875 119.650848388671875 124.7170867919921875 117.29616546630859375 115.19474029541015625 118.2111663818359375 112.11936187744140625 116.21466064453125 119.46358489990234375 139.2060546875 94.49493408203125 4.0361437797546386719 0 0 0 0 0 0 0 0 0 
0 0 0 0 0 0 0 0 0 0 0 0 0 0 0 0 0 0 0 0 0 0 0 0 0 0 0 0 0 0 0 0 0 0 0 0 0 0 0 0 0 0 0 0 0 0 0 0 52.5207977294921875 111.773040771484375 83.45099639892578125 96.57691192626953125 111.169769287109375 129.446533203125 132.66558837890625 135.321380615234375 137.618072509765625 188.127716064453125 157.301483154296875 230.773193359375 157.5601959228515625 134.6191864013671875 126.572998046875 103.26682281494140625 118.39117431640625 122.46793365478515625 124.18297576904296875 125.48412322998046875 125.9104766845703125 135.0731201171875 127.6977691650390625 126.7827606201171875 121.0785369873046875 117.7409515380859375 109.53949737548828125 121.2724609375 73.19379425048828125 18.835338592529296875 0 0 0 0 0 0 0 0 0 
0 0 0 0 0 0 0 0 0 0 0 0 0 0 0 0 0 0 0 0 0 0 0 0 0 0 0 0 0 0 0 0 0 0 0 0 0 0 0 0 0 0 0 0 0 0 0 0 102.49997711181640625 102.86344146728515625 94.79875946044921875 100.1414947509765625 113.57108306884765625 126.62609100341796875 138.376983642578125 134.80291748046875 126.1131439208984375 176.112457275390625 208.4688720703125 246.2811737060546875 229.730621337890625 144.11859130859375 105.6432037353515625 97.907806396484375 113.973052978515625 118.197601318359375 123.93021392822265625 119.70148468017578125 118.05533599853515625 143.9384918212890625 126.59677886962890625 129.7107391357421875 123.06786346435546875 125.05391693115234375 118.21840667724609375 109.79150390625 39.603145599365234375 0 0 0 0 0 0 0 0 0 0 
0 0 0 0 0 0 0 0 0 0 0 0 0 0 0 0 0 0 0 0 0 0 0 0 0 0 0 0 0 0 0 0 0 0 0 0 0 0 0 0 0 0 0 0 0 0 30.659540176391601562 110.9690399169921875 106.42275238037109375 78.42119598388671875 85.71337127685546875 92.818878173828125 104.5107269287109375 122.55324554443359375 134.91717529296875 133.160614013671875 181.2608795166015625 142.7910308837890625 163.550872802734375 241.5189208984375 147.2186431884765625 70.2994384765625 123.31157684326171875 131.4386138916015625 109.5630645751953125 110.47592926025390625 119.7453155517578125 121.5189971923828125 109.4075469970703125 121.864013671875 122.06153106689453125 123.4252777099609375 122.5484161376953125 143.5708465576171875 109.50510406494140625 211.88104248046875 130.611602783203125 0 0 0 0 0 0 0 0 0 0 
0 0 0 0 0 0 0 0 0 0 0 0 0 0 0 0 0 0 0 0 0 0 0 0 0 0 0 0 0 0 0 0 0 0 0 0 0 0 0 0 0 0 0 0 29.574972152709960938 93.40447998046875 86.4373321533203125 91.9346160888671875 121.3594818115234375 100.97676849365234375 101.5227508544921875 97.37303924560546875 105.18793487548828125 114.0502166748046875 124.99639892578125 134.1616363525390625 199.5867156982421875 169.1733551025390625 175.1162261962890625 225.18109130859375 140.1882476806640625 114.9754486083984375 113.4904327392578125 108.23895263671875 100.44577789306640625 107.5299530029296875 103.0589752197265625 135.003814697265625 131.1106109619140625 133.3308258056640625 124.7816619873046875 119.64019012451171875 137.6414794921875 160.082916259765625 133.6638031005859375 119.253631591796875 45.79991912841796875 8.7616872787475585938 0 0 0 0 0 0 0 0 0 
0 0 0 0 0 0 0 0 0 0 0 0 0 0 0 0 0 0 0 0 0 0 0 0 0 0 0 0 0 0 0 0 0 0 0 0 0 0 0 0 0 0 0 0 118.00937652587890625 136.2719268798828125 79.42134857177734375 105.0385284423828125 107.8723297119140625 105.568023681640625 103.031524658203125 102.572601318359375 106.20412445068359375 115.1558074951171875 123.53328704833984375 131.0706939697265625 137.996490478515625 245.3567047119140625 241.0729522705078125 135.7746124267578125 129.7315826416015625 118.4290008544921875 122.27457427978515625 108.7185516357421875 113.4058837890625 99.47483062744140625 105.873687744140625 111.8830108642578125 121.99591064453125 133.5626220703125 128.6216888427734375 130.618072509765625 108.597930908203125 152.155426025390625 118.46613311767578125 106.61392974853515625 103.5572662353515625 28.505388259887695312 0 0 0 0 0 0 0 0 0 
0 0 0 0 0 0 0 0 0 0 0 0 0 0 0 0 0 0 0 0 0 0 0 0 0 0 0 0 0 0 0 0 0 0 0 0 0 0 0 0 0 0 0 0 106.88176727294921875 100.708160400390625 94.43401336669921875 91.98492431640625 107.1240386962890625 104.0301055908203125 111.26788330078125 105.72686767578125 102.767822265625 108.8996124267578125 111.9589996337890625 125.98805999755859375 140.968292236328125 244.2164764404296875 239.4344940185546875 144.1536102294921875 129.6886749267578125 113.93145751953125 111.11991119384765625 116.68987274169921875 85.83560943603515625 47.106502532958984375 100.16595458984375 111.405426025390625 129.3595428466796875 131.3006744384765625 127.9251708984375 141.027130126953125 138.1396636962890625 140.539947509765625 121.0926971435546875 113.24954986572265625 90.6081085205078125 20.359136581420898438 0 0 0 0 0 0 0 0 0 
0 0 0 0 0 0 0 0 0 0 0 0 0 0 0 0 0 0 0 0 0 0 0 0 0 0 0 0 0 0 0 0 0 0 0 0 0 0 0 0 0 0 0 48.6840057373046875 81.6590576171875 59.56685638427734375 72.4851837158203125 67.23905181884765625 93.31635284423828125 104.86834716796875 109.3705291748046875 105.8118896484375 107.53044891357421875 111.446533203125 109.82335662841796875 118.66284942626953125 143.07196044921875 155.540069580078125 161.4427490234375 149.5412139892578125 129.9585723876953125 122.8660888671875 121.0779876708984375 111.77643585205078125 112.8415374755859375 114.0841064453125 121.7190399169921875 129.1911163330078125 131.482666015625 137.499725341796875 137.005340576171875 145.736572265625 154.8172149658203125 109.6060028076171875 99.108734130859375 104.93691253662109375 41.806842803955078125 2.9235606193542480469 0 0 0 0 0 0 0 0 0 
0 0 0 0 0 0 0 0 0 0 0 0 0 0 0 0 0 0 0 0 0 0 0 0 0 0 0 0 0 0 0 0 0 0 0 0 0 0 0 0 0 0 78.14504241943359375 88.1930389404296875 88.60699462890625 95.813690185546875 97.628173828125 96.9030914306640625 104.37587738037109375 107.86365509033203125 99.120880126953125 104.34100341796875 114.2488250732421875 119.35400390625 122.38140869140625 132.32110595703125 138.165802001953125 144.1275482177734375 149.1595001220703125 237.0637969970703125 158.7039794921875 143.80731201171875 142.424957275390625 118.445892333984375 125.3051910400390625 122.00627899169921875 130.4732666015625 129.938873291015625 125.47417449951171875 138.06524658203125 140.7501983642578125 283.247772216796875 133.053924560546875 145.3607940673828125 137.1266021728515625 0 0 0 0 0 0 0 0 0 0 0 0 
0 0 0 0 0 0 0 0 0 0 0 0 0 0 0 0 0 0 0 0 0 0 0 0 0 0 0 0 0 0 0 0 0 0 0 0 0 0 0 0 0 84.01723480224609375 88.03173065185546875 104.534576416015625 99.68390655517578125 108.48603057861328125 104.02367401123046875 103.089752197265625 199.6811676025390625 188.26348876953125 114.98671722412109375 102.772064208984375 107.72019195556640625 237.3900909423828125 112.1754608154296875 119.77677154541015625 134.7020416259765625 142.96270751953125 147.467315673828125 237.0775604248046875 165.8481903076171875 146.6806488037109375 145.1385040283203125 141.681610107421875 133.516082763671875 131.6517486572265625 131.756439208984375 127.87100982666015625 127.4400634765625 142.600982666015625 137.213623046875 133.04620361328125 119.72537994384765625 140.952911376953125 0 0 0 0 0 0 0 0 0 0 0 0 0 
0 0 0 0 0 0 0 0 0 0 0 0 0 0 0 0 0 0 0 0 0 0 0 0 0 0 0 0 0 0 0 0 0 0 0 0 0 0 0 0 30.901685714721679688 40.50939178466796875 113.62877655029296875 105.809539794921875 105.2286376953125 111.42432403564453125 108.60961151123046875 101.159088134765625 198.400421142578125 178.1365966796875 102.67304229736328125 99.80948638916015625 100.585845947265625 213.1103973388671875 115.3488616943359375 126.82939910888671875 128.1195068359375 129.967864990234375 186.6666259765625 166.2881011962890625 167.390472412109375 128.7585296630859375 121.6253814697265625 132.15240478515625 134.88201904296875 119.9778594970703125 110.5936431884765625 110.95969390869140625 136.1959228515625 192.8526763916015625 142.822052001953125 131.807891845703125 128.5337066650390625 106.3006744384765625 0 0 0 0 0 0 0 0 0 0 0 0 0 
0 0 0 0 0 0 0 0 0 0 0 0 0 0 0 0 0 0 0 0 0 0 0 0 0 0 0 0 0 0 0 0 0 0 0 0 0 0 0 114.767303466796875 80.8650970458984375 72.89752960205078125 64.3112945556640625 121.121185302734375 102.1694793701171875 104.5653839111328125 101.62982940673828125 204.726959228515625 197.747406005859375 96.27911376953125 110.74078369140625 203.0528717041015625 100.33574676513671875 204.220001220703125 118.73370361328125 125.13948822021484375 124.2801971435546875 133.4687042236328125 179.2868194580078125 165.019195556640625 164.21820068359375 121.9792938232421875 114.58271026611328125 123.0850067138671875 123.72397613525390625 113.105194091796875 103.53362274169921875 95.21019744873046875 91.10999298095703125 107.3181610107421875 118.84595489501953125 118.63690948486328125 118.1197357177734375 107.93817138671875 0 0 0 0 0 0 0 0 0 0 0 0 0 
0 0 0 0 0 0 0 0 0 0 0 0 0 0 0 0 0 0 0 0 0 0 0 0 0 0 0 0 0 0 0 0 0 0 0 0 0 0 36.193115234375 68.29062652587890625 95.011505126953125 86.91536712646484375 85.08281707763671875 86.54550933837890625 103.84181976318359375 90.99138641357421875 104.63671875 204.3765716552734375 92.43614959716796875 90.74330902099609375 100.12253570556640625 189.831024169921875 193.727691650390625 103.9006500244140625 113.51723480224609375 117.94393157958984375 125.060455322265625 128.2763671875 191.266021728515625 165.4625396728515625 164.874420166015625 122.76099395751953125 113.61048126220703125 112.26416778564453125 110.063568115234375 105.06806182861328125 98.0124359130859375 43.0968780517578125 20.531530380249023438 28.630321502685546875 0 65.7534942626953125 91.85083770751953125 19.727384567260742188 0 0 0 0 0 0 0 0 0 0 0 0 0 
0 0 0 0 0 0 0 0 0 0 0 0 0 0 0 0 0 0 0 0 0 0 0 0 0 0 0 0 0 0 0 0 0 0 0 0 0 36.137393951416015625 79.32691192626953125 72.909881591796875 87.1561279296875 81.85669708251953125 163.71337890625 100.13712310791015625 86.547760009765625 85.58913421630859375 187.0516510009765625 194.7728271484375 91.74541473388671875 90.19078826904296875 90.1551361083984375 88.03478240966796875 87.675018310546875 104.0645294189453125 116.2300262451171875 119.22491455078125 127.104156494140625 134.073516845703125 175.2337493896484375 268.83544921875 133.4922332763671875 112.44812774658203125 103.63950347900390625 97.381011962890625 68.6189422607421875 18.180128097534179688 72.2661285400390625 17.952936172485351562 0 0 0 0 0 0 0 0 0 0 0 0 0 0 0 0 0 0 0 
0 0 0 0 0 0 0 0 0 0 0 0 0 0 0 0 0 0 0 0 0 0 0 0 0 0 0 0 0 0 0 0 0 0 0 0 143.9937286376953125 96.94937896728515625 89.769805908203125 91.3201751708984375 95.2087249755859375 66.96334075927734375 64.7386016845703125 61.992198944091796875 72.26178741455078125 90.7668609619140625 94.73193359375 93.023162841796875 96.80788421630859375 96.28446197509765625 95.44532012939453125 92.7099609375 89.5458221435546875 104.1633453369140625 150.1594390869140625 116.9616241455078125 135.091522216796875 136.821563720703125 228.0812225341796875 170.9724578857421875 102.22573089599609375 112.8708343505859375 89.003265380859375 84.39447784423828125 59.627475738525390625 0 0 0 0 0 0 0 0 0 0 0 0 0 0 0 0 0 0 0 0 0 0 
0 0 0 0 0 0 0 0 0 0 0 0 0 0 0 0 0 0 0 0 0 0 0 0 0 0 0 0 0 0 0 0 0 0 0 0 66.22830963134765625 95.04449462890625 91.83856964111328125 102.84597015380859375 132.5897369384765625 71.4253082275390625 101.81543731689453125 79.09729766845703125 80.4788970947265625 96.80499267578125 101.847198486328125 102.34923553466796875 104.578216552734375 108.8720245361328125 103.40436553955078125 101.2793731689453125 103.7045440673828125 105.51247406005859375 115.7994537353515625 163.4258575439453125 137.843902587890625 91.34339141845703125 163.243927001953125 115.66489410400390625 92.44303131103515625 102.64342498779296875 101.1286163330078125 66.26013946533203125 0 0 0 0 0 0 0 0 0 0 0 0 0 0 0 0 0 0 0 0 0 0 0 
0 0 0 0 0 0 0 0 0 0 0 0 0 0 0 0 0 0 0 0 0 0 0 0 0 0 0 0 0 0 0 0 0 0 0 11.41516876220703125 73.852447509765625 97.63446044921875 96.40416717529296875 105.92690277099609375 75.53170013427734375 120.92060089111328125 115.435791015625 108.79380035400390625 92.5582427978515625 102.76605224609375 106.54461669921875 107.13436126708984375 112.70835113525390625 116.8636627197265625 107.21966552734375 105.7696685791015625 110.38779449462890625 94.9027557373046875 221.969268798828125 106.45058441162109375 101.5485382080078125 127.1716766357421875 170.133270263671875 96.18927001953125 79.90148162841796875 79.04415130615234375 55.44312286376953125 95.442596435546875 0 0 0 0 0 0 0 0 0 0 0 0 0 0 0 0 0 0 0 0 0 0 0 
0 0 0 0 0 0 0 0 0 0 0 0 0 0 0 0 0 0 0 0 0 0 0 0 0 0 0 0 0 0 0 0 0 0 0 14.622501373291015625 74.84613037109375 83.676910400390625 181.2724761962890625 100.267333984375 44.974109649658203125 90.41471099853515625 91.8769378662109375 173.1120758056640625 103.27559661865234375 118.71617889404296875 106.13205718994140625 105.14935302734375 115.866851806640625 113.350830078125 111.55513763427734375 111.22008514404296875 144.243988037109375 154.683746337890625 137.9314422607421875 146.9403228759765625 126.99249267578125 104.15027618408203125 111.2802734375 103.62439727783203125 97.61582183837890625 72.8586578369140625 71.64597320556640625 0 0 0 0 0 0 0 0 0 0 0 0 0 0 0 0 0 0 0 0 0 0 0 0 
0 0 0 0 0 0 0 0 0 0 0 0 0 0 0 0 0 0 0 0 0 0 0 0 0 0 0 0 0 0 0 0 0 0 12.041547775268554688 40.455333709716796875 45.930217742919921875 53.675037384033203125 190.9297332763671875 50.6012420654296875 42.5911865234375 91.0882415771484375 100.61614990234375 105.71661376953125 112.52745819091796875 137.766082763671875 137.3168792724609375 140.865386962890625 136.9922332763671875 143.9647216796875 138.314117431640625 141.5762176513671875 151.01080322265625 119.95888519287109375 119.5769805908203125 93.241607666015625 78.97135162353515625 101.03363800048828125 154.348480224609375 103.877471923828125 93.813262939453125 100.45020294189453125 59.74517822265625 0 0 0 0 0 0 0 0 0 0 0 0 0 0 0 0 0 0 0 0 0 0 0 0 
0 0 0 0 0 0 0 0 0 0 0 0 0 0 0 0 0 0 0 0 0 0 0 0 0 0 0 0 0 0 6.1624550819396972656 0 15.342992782592773438 28.888738632202148438 58.406223297119140625 76.744537353515625 49.578319549560546875 99.0647430419921875 96.3472900390625 51.008350372314453125 71.71880340576171875 142.307220458984375 116.15966033935546875 129.4144134521484375 143.9984283447265625 143.4974517822265625 107.7197265625 131.906494140625 134.4084320068359375 145.6705474853515625 147.3040771484375 117.2709808349609375 116.30495452880859375 112.6546478271484375 122.0466461181640625 82.7872161865234375 87.68029022216796875 98.47492218017578125 142.56048583984375 126.861419677734375 108.2307891845703125 58.27564239501953125 97.135467529296875 7.26568603515625 0 0 0 0 0 0 0 0 0 0 0 0 0 0 0 0 0 0 0 0 0 0 0 
0 0 0 0 0 0 0 0 0 0 0 0 0 0 0 0 0 0 0 0 0 0 0 0 0 0 59.967044830322265625 52.725341796875 0 0 49.523609161376953125 34.5364837646484375 23.883640289306640625 82.4686431884765625 108.1353912353515625 62.688442230224609375 111.32154083251953125 102.33394622802734375 61.95843505859375 73.5601959228515625 122.93381500244140625 132.3155975341796875 130.5678863525390625 130.578460693359375 102.6019439697265625 107.50586700439453125 100.133697509765625 101.62274932861328125 111.9035186767578125 111.6938629150390625 103.16168212890625 100.6771087646484375 105.05718231201171875 144.921173095703125 127.340057373046875 75.64163970947265625 91.48027801513671875 86.87230682373046875 87.9561920166015625 97.8870391845703125 55.106861114501953125 88.28326416015625 91.96244049072265625 23.283695220947265625 0 0 0 0 0 0 0 0 0 0 0 0 0 0 0 0 0 0 0 0 0 0 0 
0 0 0 0 0 0 0 0 0 0 0 0 0 0 0 0 0 0 0 0 0 0 0 0 0 15.186635017395019531 70.7747955322265625 160.8768768310546875 63.524944305419921875 57.703948974609375 39.823947906494140625 38.00347137451171875 45.87940216064453125 43.318904876708984375 61.0443115234375 337.15362548828125 162.7728118896484375 97.22481536865234375 121.689727783203125 128.216033935546875 69.28493499755859375 35.951507568359375 96.511627197265625 140.0916595458984375 99.688079833984375 99.76529693603515625 96.80309295654296875 105.83873748779296875 134.211395263671875 114.3399505615234375 103.6054229736328125 95.86756134033203125 97.908111572265625 112.8150177001953125 73.6483306884765625 89.485687255859375 89.16147613525390625 83.279876708984375 60.0943603515625 70.426788330078125 115.84332275390625 79.8930206298828125 36.490756988525390625 0 0 0 0 0 0 0 0 0 0 0 0 0 0 0 0 0 0 0 0 0 0 0 0 
0 0 0 0 0 0 0 0 0 0 0 0 0 0 0 0 0 0 0 0 0 0 0 0 0 52.69837188720703125 97.3299713134765625 109.5269317626953125 60.1297760009765625 92.0684967041015625 60.95452117919921875 48.852657318115234375 59.449626922607421875 52.13774871826171875 67.42932891845703125 141.7235870361328125 230.6900177001953125 116.07221221923828125 76.287811279296875 70.26956939697265625 96.3423004150390625 28.95330047607421875 134.58172607421875 142.424560546875 101.6979522705078125 98.08701324462890625 101.393218994140625 110.92584228515625 90.1666412353515625 89.4130859375 78.7006683349609375 82.2332000732421875 62.92322540283203125 54.940471649169921875 89.4570770263671875 95.67160797119140625 83.8168182373046875 78.156768798828125 78.6566925048828125 71.25591278076171875 84.38135528564453125 76.7727813720703125 18.792484283447265625 0 0 0 0 0 0 0 0 0 0 0 0 0 0 0 0 0 0 0 0 0 0 0 0 
0 0 0 0 0 0 0 0 0 0 0 0 0 0 0 0 0 0 0 0 0 0 0 0 19.260766983032226562 97.61940765380859375 121.07891082763671875 75.74478912353515625 79.7390289306640625 118.4087066650390625 94.3215484619140625 48.8624267578125 67.9022369384765625 69.71381378173828125 66.18087005615234375 105.977081298828125 106.864105224609375 64.3138580322265625 105.18888092041015625 103.07938385009765625 67.67205047607421875 188.13690185546875 102.74729156494140625 103.6929779052734375 111.48193359375 109.93963623046875 110.84690093994140625 103.6042022705078125 83.103729248046875 75.66500091552734375 80.255035400390625 67.2308807373046875 79.11602783203125 89.03380584716796875 89.40023040771484375 95.23918914794921875 89.33580780029296875 97.66643524169921875 118.13719940185546875 79.475982666015625 101.16943359375 84.84893798828125 0 0 0 0 0 0 0 0 0 0 0 0 0 0 0 0 0 0 0 0 0 0 0 0 0 
0 0 0 0 0 0 0 0 0 0 0 0 0 0 0 0 0 0 0 0 0 0 0 85.11949920654296875 83.699676513671875 77.17011260986328125 106.642791748046875 71.74713134765625 79.457366943359375 83.89670562744140625 88.84963226318359375 68.60015106201171875 97.28215789794921875 164.316864013671875 111.45693206787109375 110.17743682861328125 107.8288421630859375 76.0896759033203125 84.4333343505859375 68.8427276611328125 65.72974395751953125 135.4051055908203125 115.54463958740234375 117.0859222412109375 119.65872955322265625 103.82012176513671875 107.13852691650390625 134.89666748046875 106.95853424072265625 103.3637237548828125 101.58319091796875 102.76229095458984375 112.52362060546875 113.55263519287109375 106.50102996826171875 139.9519500732421875 106.73352813720703125 103.7031402587890625 108.21710205078125 96.59191131591796875 93.9671173095703125 88.69553375244140625 22.29282379150390625 0 0 0 0 0 0 0 0 0 0 0 0 0 0 0 0 0 0 0 0 0 0 0 0 
0 0 0 0 0 0 0 0 0 0 0 0 0 0 0 0 0 0 0 0 0 0 30.454622268676757812 71.7389068603515625 64.5832366943359375 66.161468505859375 74.2097930908203125 79.75348663330078125 96.626678466796875 78.00394439697265625 102.339691162109375 122.0793304443359375 159.0825653076171875 506.106781005859375 388.06768798828125 173.842254638671875 112.38056182861328125 87.52323150634765625 88.316925048828125 106.98049163818359375 82.290374755859375 151.5704345703125 99.86388397216796875 115.79486083984375 149.84014892578125 129.579498291015625 124.545166015625 116.391845703125 113.8625946044921875 111.44988250732421875 104.0884552001953125 114.0608673095703125 119.978973388671875 126.76300811767578125 122.9596405029296875 122.33548736572265625 121.19957733154296875 159.98138427734375 114.4132232666015625 106.5758819580078125 107.4727020263671875 105.369384765625 25.886188507080078125 0 0 0 0 0 0 0 0 0 0 0 0 0 0 0 0 0 0 0 0 0 0 0 0 
0 0 0 0 0 0 0 0 0 0 0 0 0 0 0 0 20.3642578125 40.728515625 0 0 0 42.138622283935546875 70.329925537109375 96.29315948486328125 75.38767242431640625 87.70130157470703125 54.15125274658203125 108.45281982421875 39.02202606201171875 34.04833984375 63.001567840576171875 222.3074951171875 90.61893463134765625 602.9842529296875 271.797515869140625 135.021575927734375 85.880889892578125 65.6984100341796875 64.6030426025390625 80.6175994873046875 86.71395111083984375 128.683563232421875 124.08548736572265625 126.77068328857421875 123.65187835693359375 124.33437347412109375 126.172821044921875 119.3935089111328125 113.792205810546875 110.89386749267578125 113.4828033447265625 121.45584869384765625 127.9152679443359375 133.3965911865234375 136.2978515625 139.7472381591796875 135.0123443603515625 127.887115478515625 118.819122314453125 241.1456298828125 116.94773101806640625 70.58655548095703125 7.0192084312438964844 0 0 0 0 0 0 0 0 0 0 0 0 0 0 0 0 0 0 0 0 0 0 0 0 
0 0 0 0 0 0 0 0 0 0 0 0 0 0 0 0 27.4251861572265625 50.0350494384765625 0 0 0 49.5020599365234375 38.3213653564453125 65.42180633544921875 59.97234344482421875 67.58588409423828125 73.3125152587890625 136.660369873046875 126.0856170654296875 169.2138519287109375 324.646026611328125 76.59942626953125 84.030548095703125 175.276611328125 253.3883819580078125 109.52252960205078125 56.602787017822265625 54.13542938232421875 82.15357208251953125 112.10468292236328125 100.46796417236328125 117.92583465576171875 115.720001220703125 122.82976531982421875 118.752532958984375 116.3459320068359375 111.55263519287109375 115.628753662109375 116.9983367919921875 120.41208648681640625 117.7734375 125.0292205810546875 131.001556396484375 142.2982177734375 142.4954986572265625 145.714599609375 141.5121307373046875 136.9843292236328125 134.3863372802734375 126.15262603759765625 112.9239959716796875 21.490753173828125 0 0 0 0 0 0 0 0 0 0 0 0 0 0 0 0 0 0 0 0 0 0 0 0 0 
0 0 0 0 0 0 0 0 0 0 0 0 0 0 0 0 24.2546844482421875 98.373748779296875 61.88874053955078125 61.120929718017578125 44.399654388427734375 73.300079345703125 95.9677886962890625 78.068634033203125 85.26270294189453125 113.230010986328125 138.966522216796875 130.5909271240234375 175.07275390625 200.9003448486328125 133.3426055908203125 60.936397552490234375 71.10919189453125 94.6724700927734375 60.409557342529296875 54.9507598876953125 96.14703369140625 106.20108795166015625 103.024169921875 97.3142852783203125 118.1251220703125 113.98159027099609375 111.97473907470703125 113.19142913818359375 114.19026947021484375 111.22200775146484375 110.5397491455078125 114.24477386474609375 121.72672271728515625 130.2766265869140625 139.628448486328125 146.5185546875 149.8413543701171875 152.5027008056640625 140.02423095703125 147.300262451171875 141.589813232421875 136.17694091796875 143.1029052734375 124.60173797607421875 23.5293121337890625 0 0 0 0 0 0 0 0 0 0 0 0 0 0 0 0 0 0 0 0 0 0 0 0 0 0 
0 0 0 0 0 0 0 0 0 0 0 0 0 0 0 0 23.6232147216796875 91.267974853515625 83.29144287109375 113.11225128173828125 94.47087860107421875 73.81571197509765625 93.0820465087890625 81.243621826171875 101.60440826416015625 283.7265625 137.970611572265625 123.88578033447265625 109.889862060546875 90.01683807373046875 93.83391571044921875 66.115570068359375 66.9516448974609375 61.20781707763671875 72.053314208984375 106.92224884033203125 115.48203277587890625 73.9633636474609375 88.3556060791015625 132.080902099609375 118.51284027099609375 115.30096435546875 113.1631011962890625 111.3853759765625 109.8360137939453125 106.83483123779296875 107.45066070556640625 111.52083587646484375 132.2184906005859375 127.05878448486328125 144.2230072021484375 151.4550018310546875 152.931793212890625 150.9475250244140625 138.1881103515625 147.7407073974609375 145.0562744140625 140.18658447265625 111.94842529296875 51.327404022216796875 0 0 0 0 0 0 0 0 0 0 0 0 0 0 0 0 0 0 0 0 0 0 0 0 0 0 0 
0 0 0 0 0 0 0 0 0 0 0 0 0 0 0 0 70.6880645751953125 57.00388336181640625 98.17264556884765625 132.5862884521484375 73.32308197021484375 59.8061676025390625 63.322734832763671875 321.600860595703125 359.69415283203125 154.7057037353515625 104.058197021484375 150.0285186767578125 87.44326019287109375 87.044891357421875 75.0672760009765625 54.585018157958984375 76.20009613037109375 105.811859130859375 96.35009765625 76.84735870361328125 110.36046600341796875 107.5172271728515625 112.09942626953125 243.3480682373046875 114.71075439453125 123.32657623291015625 122.73825836181640625 109.8637542724609375 112.44103240966796875 108.5464630126953125 102.911376953125 107.17662811279296875 124.9920654296875 128.031219482421875 144.1842193603515625 149.5612335205078125 150.9959259033203125 94.22484588623046875 140.390228271484375 139.2978057861328125 142.2357635498046875 141.5731658935546875 35.22650146484375 0 0 0 0 0 0 0 0 0 0 0 0 0 0 0 0 0 0 0 0 0 0 0 0 0 0 0 0 
0 0 0 0 0 0 0 0 0 0 0 0 0 35.117702484130859375 87.06410980224609375 51.601802825927734375 104.92531585693359375 76.89801788330078125 98.35057830810546875 90.60242462158203125 103.95354461669921875 377.82659912109375 381.875 394.874725341796875 364.300445556640625 86.177001953125 96.146484375 90.28510284423828125 83.5025787353515625 79.317626953125 69.45963287353515625 81.51015472412109375 91.765167236328125 130.208953857421875 95.25533294677734375 105.62530517578125 106.63408660888671875 241.89794921875 243.7466888427734375 232.5138092041015625 116.3431396484375 124.58807373046875 126.59177398681640625 114.98200225830078125 28.856420516967773438 27.338121414184570312 15.385800361633300781 42.464939117431640625 8.4609088897705078125 0 0 59.53437042236328125 94.34320068359375 0 0 0 0 0 0 0 0 0 0 0 0 0 0 0 0 0 0 0 0 0 0 0 0 0 0 0 0 0 0 0 0 0 0 
0 0 0 0 0 0 0 0 0 0 0 19.49080657958984375 83.82520294189453125 76.4357147216796875 79.2711639404296875 93.3456268310546875 73.629364013671875 109.912841796875 363.38800048828125 480.907196044921875 525.81573486328125 504.51556396484375 481.73577880859375 387.805999755859375 119.2259063720703125 82.42258453369140625 81.62247467041015625 84.858245849609375 82.058685302734375 70.85163116455078125 69.01978302001953125 95.69803619384765625 106.7891082763671875 98.3307037353515625 185.795806884765625 108.243927001953125 104.05584716796875 231.6192779541015625 232.0529937744140625 232.0778350830078125 116.486541748046875 122.44350433349609375 68.7386016845703125 29.137729644775390625 0 0 0 0 0 0 0 0 0 0 0 0 0 0 0 0 0 0 0 0 0 0 0 0 0 0 0 0 0 0 0 0 0 0 0 0 0 0 0 0 0 0 0 
0 0 0 0 0 0 0 0 0 0 0 85.91649627685546875 91.185302734375 82.316802978515625 78.05587005615234375 88.85157012939453125 396.286468505859375 502.34503173828125 536.3011474609375 565.63641357421875 476.6656494140625 414.8900146484375 152.633636474609375 115.826141357421875 123.54400634765625 83.6663818359375 83.80124664306640625 84.173583984375 116.5063018798828125 65.4952850341796875 119.838470458984375 98.68158721923828125 108.23097991943359375 85.2661895751953125 94.437957763671875 104.8641204833984375 99.19927978515625 209.9364013671875 210.01654052734375 228.5482330322265625 113.0632781982421875 0 0 0 0 0 0 0 0 0 0 0 0 0 0 0 0 0 0 0 0 0 0 0 0 0 0 0 0 0 0 0 0 0 0 0 0 0 0 0 0 0 0 0 0 0 0 
0 0 0 0 0 0 0 0 0 0 24.86200714111328125 88.72251129150390625 87.2062225341796875 66.12284088134765625 98.77935028076171875 264.93756103515625 583.6922607421875 583.53778076171875 530.63922119140625 252.4972686767578125 144.6881866455078125 146.6527862548828125 80.63959503173828125 80.25963592529296875 82.65465545654296875 79.808135986328125 80.12317657470703125 85.92779541015625 84.14249420166015625 72.53331756591796875 71.0473175048828125 87.4587554931640625 84.527862548828125 93.39284515380859375 100.1319427490234375 107.2416839599609375 179.06939697265625 147.935516357421875 0 0 0 0 0 0 0 0 0 0 0 0 0 0 0 0 0 0 0 0 0 0 0 0 0 0 0 0 0 0 0 0 0 0 0 0 0 0 0 0 0 0 0 0 0 0 0 0 0 
0 0 0 0 0 0 0 0 0 37.4272003173828125 98.31390380859375 86.0426025390625 53.524013519287109375 122.93349456787109375 145.6514129638671875 500.449188232421875 615.29608154296875 566.5721435546875 512.1387939453125 143.5997467041015625 88.77716827392578125 71.30150604248046875 63.301239013671875 72.18965911865234375 80.6380615234375 81.960723876953125 80.164703369140625 80.75681304931640625 83.41152191162109375 78.55965423583984375 68.8642578125 86.0142974853515625 87.78067779541015625 97.73784637451171875 106.94135284423828125 108.522918701171875 140.94921875 0 0 0 0 0 0 0 0 0 0 0 0 0 0 0 0 0 0 0 0 0 0 0 0 0 0 0 0 0 0 0 0 0 0 0 0 0 0 0 0 0 0 0 0 0 0 0 0 0 0 
0 0 0 0 0 0 0 0 37.628520965576171875 174.240264892578125 185.0832061767578125 192.436553955078125 78.10074615478515625 102.429351806640625 404.68414306640625 548.4288330078125 638.025146484375 571.2271728515625 261.1956787109375 102.5519866943359375 78.9019012451171875 69.1186065673828125 62.02324676513671875 71.0923004150390625 76.85379791259765625 80.556732177734375 81.3136138916015625 82.9165496826171875 87.92254638671875 87.47632598876953125 95.4075469970703125 94.00628662109375 98.14630126953125 107.72209930419921875 105.0125732421875 83.10358428955078125 0 0 0 0 0 0 0 0 0 0 0 0 0 0 0 0 0 0 0 0 0 0 0 0 0 0 0 0 0 0 0 0 0 0 0 0 0 0 0 0 0 0 0 0 0 0 0 0 0 0 0 
0 0 0 0 0 0 0 111.3229522705078125 138.8465576171875 94.66803741455078125 109.5376129150390625 58.83055877685546875 53.036808013916015625 81.4126739501953125 323.92919921875 544.07965087890625 619.28802490234375 264.40234375 209.6775054931640625 77.971893310546875 155.0667877197265625 70.31279754638671875 96.820281982421875 63.598224639892578125 66.94405364990234375 75.06745147705078125 81.0007476806640625 86.00040435791015625 186.6501922607421875 88.78679656982421875 84.08602142333984375 93.3656463623046875 110.2080535888671875 110.58550262451171875 102.47141265869140625 0 0 0 0 0 0 0 0 0 0 0 0 0 0 0 0 0 0 0 0 0 0 0 0 0 0 0 0 0 0 0 0 0 0 0 0 0 0 0 0 0 0 0 0 0 0 0 0 0 0 0 0 
0 0 0 0 0 0 0 26.809602737426757812 64.90024566650390625 78.1471099853515625 53.1086578369140625 68.169036865234375 74.658721923828125 140.0178985595703125 214.662200927734375 472.383270263671875 182.9542083740234375 138.928985595703125 75.090240478515625 78.05236053466796875 75.861053466796875 70.49266815185546875 63.67704010009765625 62.703693389892578125 70.23604583740234375 74.9873809814453125 81.28556060791015625 84.9634246826171875 86.20611572265625 94.55101776123046875 94.90345001220703125 96.8462982177734375 109.26444244384765625 79.7283172607421875 59.652416229248046875 0 0 0 0 0 0 0 0 0 0 0 0 0 0 0 0 0 0 0 0 0 0 0 0 0 0 0 0 0 0 0 0 0 0 0 0 0 0 0 0 0 0 0 0 0 0 0 0 0 0 0 0 
0 0 0 0 0 0 19.640407562255859375 39.06329345703125 72.90009307861328125 80.5240936279296875 86.84502410888671875 58.72078704833984375 51.115962982177734375 421.771728515625 520.18377685546875 229.6627960205078125 146.81005859375 77.57212066650390625 73.33425140380859375 76.18487548828125 74.8186492919921875 68.39150238037109375 65.321441650390625 69.16259002685546875 73.802642822265625 75.23979949951171875 77.920562744140625 85.54976654052734375 88.2187652587890625 182.28070068359375 100.58966827392578125 113.283782958984375 85.55234527587890625 15.334162712097167969 0 0 0 0 0 0 0 0 0 0 0 0 0 0 0 0 0 0 0 0 0 0 0 0 0 0 0 0 0 0 0 0 0 0 0 0 0 0 0 0 0 0 0 0 0 0 0 0 0 0 0 0 0 
0 0 0 0 0 0 28.80463409423828125 45.920215606689453125 81.9556427001953125 114.07672882080078125 66.9430389404296875 85.836090087890625 66.31296539306640625 307.424896240234375 460.113800048828125 173.1066741943359375 66.10320281982421875 61.30065155029296875 52.6069793701171875 66.76039886474609375 65.0345306396484375 73.2399749755859375 70.4275360107421875 72.412841796875 76.0121002197265625 78.54007720947265625 82.07663726806640625 87.886474609375 175.9935302734375 184.3806304931640625 111.556121826171875 115.70130157470703125 58.42151641845703125 13.417392730712890625 0 0 0 0 0 0 0 0 0 0 0 0 0 0 0 0 0 0 0 0 0 0 0 0 0 0 0 0 0 0 0 0 0 0 0 0 0 0 0 0 0 0 0 0 0 0 0 0 0 0 0 0 0 
0 0 0 0 0 0 67.77468109130859375 92.39762115478515625 92.62906646728515625 85.27420806884765625 116.46784210205078125 260.1431884765625 383.075653076171875 538.01519775390625 507.96734619140625 148.40704345703125 85.18056488037109375 67.95733642578125 49.31683349609375 56.847980499267578125 67.316925048828125 77.37795257568359375 72.01016998291015625 70.5578460693359375 75.72772216796875 81.9163970947265625 85.27953338623046875 88.5264129638671875 183.5804901123046875 187.6268310546875 121.8227081298828125 91.2884063720703125 5.7122850418090820312 0 0 0 0 0 0 0 0 0 0 0 0 0 0 0 0 0 0 0 0 0 0 0 0 0 0 0 0 0 0 0 0 0 0 0 0 0 0 0 0 0 0 0 0 0 0 0 0 0 0 0 0 0 0 
0 0 0 0 0 0 89.93267822265625 216.2658843994140625 98.90061187744140625 87.766876220703125 96.52931976318359375 432.275848388671875 573.1553955078125 574.65673828125 439.81561279296875 121.718048095703125 72.6053314208984375 66.16507720947265625 60.0811004638671875 55.315166473388671875 69.232513427734375 81.00397491455078125 163.3151397705078125 77.81060028076171875 79.703857421875 76.18558502197265625 84.15576934814453125 196.7301483154296875 200.522918701171875 105.4483642578125 111.921783447265625 0 0 0 0 0 0 0 0 0 0 0 0 0 0 0 0 0 0 0 0 0 0 0 0 0 0 0 0 0 0 0 0 0 0 0 0 0 0 0 0 0 0 0 0 0 0 0 0 0 0 0 0 0 0 0 0 
0 0 0 0 0 0 114.78473663330078125 111.5683441162109375 94.116546630859375 92.852630615234375 295.176666259765625 507.1983642578125 570.43707275390625 555.4412841796875 430.168792724609375 242.44036865234375 74.12287139892578125 59.096569061279296875 50.418811798095703125 62.6434478759765625 62.512813568115234375 68.59185791015625 68.91280364990234375 70.07241058349609375 72.47466278076171875 85.8636016845703125 84.0353851318359375 88.8385467529296875 104.2358551025390625 109.2880859375 0 0 0 0 0 0 0 0 0 0 0 0 0 0 0 0 0 0 0 0 0 0 0 0 0 0 0 0 0 0 0 0 0 0 0 0 0 0 0 0 0 0 0 0 0 0 0 0 0 0 0 0 0 0 0 0 0 
0 0 0 0 0 0 122.39090728759765625 96.17032623291015625 87.850799560546875 163.8831939697265625 444.9931640625 575.13720703125 525.480712890625 501.17083740234375 413.304840087890625 232.00457763671875 76.8876495361328125 64.447967529296875 57.840030670166015625 52.46022796630859375 70.8245086669921875 77.485137939453125 100.787933349609375 75.04077911376953125 79.875396728515625 87.6758880615234375 82.8816680908203125 86.818511962890625 97.89798736572265625 43.768009185791015625 0 0 0 0 0 0 0 0 0 0 0 0 0 0 0 0 0 0 0 0 0 0 0 0 0 0 0 0 0 0 0 0 0 0 0 0 0 0 0 0 0 0 0 0 0 0 0 0 0 0 0 0 0 0 0 0 0 
0 0 0 0 0 0 102.1255340576171875 97.07155609130859375 88.83951568603515625 375.940521240234375 525.57843017578125 564.9051513671875 436.871429443359375 438.845001220703125 418.338104248046875 260.569488525390625 123.06618499755859375 67.47054290771484375 59.69097900390625 58.67197418212890625 71.7526092529296875 77.9785003662109375 74.2640380859375 81.87825775146484375 90.46733856201171875 87.21851348876953125 86.9394073486328125 94.80983734130859375 59.208709716796875 16.64888763427734375 0 0 0 0 0 0 0 0 0 0 0 0 0 0 0 0 0 0 0 0 0 0 0 0 0 0 0 0 0 0 0 0 0 0 0 0 0 0 0 0 0 0 0 0 0 0 0 0 0 0 0 0 0 0 0 0 0 
0 0 0 0 0 0 23.34751129150390625 117.37450408935546875 49.828968048095703125 488.546478271484375 549.5472412109375 496.67120361328125 315.320068359375 311.118438720703125 343.62506103515625 185.0355224609375 110.113433837890625 78.72320556640625 75.21895599365234375 74.37613677978515625 76.32804107666015625 102.84563446044921875 74.5244903564453125 87.0648651123046875 98.60495758056640625 85.921905517578125 90.053680419921875 98.0861968994140625 23.204885482788085938 0 0 0 0 0 0 0 0 0 0 0 0 0 0 0 0 0 0 0 0 0 0 0 0 0 0 0 0 0 0 0 0 0 0 0 0 0 0 0 0 0 0 0 0 0 0 0 0 0 0 0 0 0 0 0 0 0 0 
0 0 0 0 0 0 20.431976318359375 93.3157806396484375 162.19171142578125 324.9031982421875 512.1328125 193.507568359375 133.93035888671875 82.840545654296875 273.169219970703125 122.88056182861328125 127.931610107421875 79.73020172119140625 77.0785064697265625 84.32381439208984375 84.4447021484375 77.29802703857421875 84.2705535888671875 186.59136962890625 93.54141998291015625 89.998382568359375 89.41838836669921875 203.0105133056640625 0 0 0 0 0 0 0 0 0 0 0 0 0 0 0 0 0 0 0 0 0 0 0 0 0 0 0 0 0 0 0 0 0 0 0 0 0 0 0 0 0 0 0 0 0 0 0 0 0 0 0 0 0 0 0 0 0 0 0 
0 0 0 0 0 0 98.84857940673828125 251.9937286376953125 387.803619384765625 560.0335693359375 534.90447998046875 179.1019287109375 65.438873291015625 86.42392730712890625 285.519500732421875 122.4292144775390625 91.7785186767578125 81.69593048095703125 78.96054840087890625 83.09838104248046875 84.623138427734375 82.08905029296875 84.93144989013671875 95.6699981689453125 99.2734832763671875 92.310089111328125 199.5548248291015625 85.02602386474609375 0 0 0 0 0 0 0 0 0 0 0 0 0 0 0 0 0 0 0 0 0 0 0 0 0 0 0 0 0 0 0 0 0 0 0 0 0 0 0 0 0 0 0 0 0 0 0 0 0 0 0 0 0 0 0 0 0 0 0 
0 0 0 0 0 0 96.57501220703125 64.95684051513671875 140.147369384765625 192.1551971435546875 159.8292236328125 338.89569091796875 80.242034912109375 102.8572540283203125 316.63812255859375 101.6717987060546875 85.0660858154296875 80.73681640625 79.7914581298828125 83.86763763427734375 86.096832275390625 86.21247100830078125 91.8497161865234375 94.438629150390625 94.877105712890625 98.63304901123046875 94.3409881591796875 55.9601593017578125 0 0 0 0 0 0 0 0 0 0 0 0 0 0 0 0 0 0 0 0 0 0 0 0 0 0 0 0 0 0 0 0 0 0 0 0 0 0 0 0 0 0 0 0 0 0 0 0 0 0 0 0 0 0 0 0 0 0 0 
0 0 0 0 0 0 83.43050384521484375 76.21770477294921875 81.5294189453125 104.38634490966796875 159.8292236328125 265.69683837890625 42.050189971923828125 100.88657379150390625 193.8521270751953125 106.51825714111328125 86.3328857421875 80.85173797607421875 81.02508544921875 82.7022247314453125 88.1146392822265625 86.196563720703125 93.37035369873046875 91.42533111572265625 83.92574310302734375 78.5974273681640625 18.047895431518554688 0 0 0 0 0 0 0 0 0 0 0 0 0 0 0 0 0 0 0 0 0 0 0 0 0 0 0 0 0 0 0 0 0 0 0 0 0 0 0 0 0 0 0 0 0 0 0 0 0 0 0 0 0 0 0 0 0 0 0 0 
0 0 0 0 0 65.160736083984375 105.17453765869140625 79.64776611328125 132.02362060546875 76.24216461181640625 127.7716827392578125 89.36142730712890625 49.051975250244140625 127.25537109375 453.2081298828125 129.8000030517578125 87.9654541015625 84.426605224609375 85.823638916015625 85.57860565185546875 88.8425445556640625 85.5968780517578125 94.130584716796875 90.35869598388671875 86.48998260498046875 0 0 0 0 0 0 0 0 0 0 0 0 0 0 0 0 0 0 0 0 0 0 0 0 0 0 0 0 0 0 0 0 0 0 0 0 0 0 0 0 0 0 0 0 0 0 0 0 0 0 0 0 0 0 0 0 0 0 0 0 0 0 
0 0 0 0 0 96.35198211669921875 98.488433837890625 79.29262542724609375 90.07457733154296875 93.0817108154296875 110.44087982177734375 148.8137054443359375 147.474639892578125 124.9830780029296875 459.781036376953125 153.1212005615234375 95.03093719482421875 92.6117401123046875 92.115875244140625 80.62470245361328125 82.29935455322265625 79.92827606201171875 209.7040557861328125 83.38446044921875 73.80045318603515625 0 0 0 0 0 0 0 0 0 0 0 0 0 0 0 0 0 0 0 0 0 0 0 0 0 0 0 0 0 0 0 0 0 0 0 0 0 0 0 0 0 0 0 0 0 0 0 0 0 0 0 0 0 0 0 0 0 0 0 0 0 0 
0 0 0 0 0 140.5663604736328125 57.078205108642578125 50.524875640869140625 91.701202392578125 86.9816436767578125 70.1317901611328125 119.90195465087890625 146.7301177978515625 102.43549346923828125 419.538818359375 330.040435791015625 97.785919189453125 90.72069549560546875 93.7592315673828125 88.73220062255859375 91.222442626953125 85.74604034423828125 88.21746826171875 72.661834716796875 30.666128158569335938 0 0 0 0 0 0 0 0 0 0 0 0 0 0 0 0 0 0 0 0 0 0 0 0 0 0 0 0 0 0 0 0 0 0 0 0 0 0 0 0 0 0 0 0 0 0 0 0 0 0 0 0 0 0 0 0 0 0 0 0 0 0 
0 0 0 0 0 52.923614501953125 64.5844268798828125 88.083099365234375 66.84618377685546875 86.579864501953125 94.69193267822265625 125.20262908935546875 382.23968505859375 222.848541259765625 268.37493896484375 122.107208251953125 76.72403717041015625 97.2409210205078125 96.0894775390625 91.82912445068359375 90.12653350830078125 73.564788818359375 79.877777099609375 78.887481689453125 15.800340652465820312 0 0 0 0 0 0 0 0 0 0 0 0 0 0 0 0 0 0 0 0 0 0 0 0 0 0 0 0 0 0 0 0 0 0 0 0 0 0 0 0 0 0 0 0 0 0 0 0 0 0 0 0 0 0 0 0 0 0 0 0 0 0 
0 0 0 0 0 0 0 72.60832977294921875 72.9979705810546875 101.3026123046875 69.30046844482421875 118.22277069091796875 432.580780029296875 194.698211669921875 235.15631103515625 113.00995635986328125 69.4597930908203125 123.6886444091796875 95.3125152587890625 90.309295654296875 92.51458740234375 89.45839691162109375 79.52503204345703125 77.569488525390625 20.6497802734375 0 0 0 0 0 0 0 0 0 0 0 0 0 0 0 0 0 0 0 0 0 0 0 0 0 0 0 0 0 0 0 0 0 0 0 0 0 0 0 0 0 0 0 0 0 0 0 0 0 0 0 0 0 0 0 0 0 0 0 0 0 0 
0 0 0 0 0 0 0 1.9795891046524047852 41.47283935546875 86.65750885009765625 78.1356048583984375 101.98250579833984375 435.935089111328125 434.662322998046875 173.221893310546875 80.5661468505859375 87.2511444091796875 98.99491119384765625 96.78375244140625 92.31598663330078125 141.3265838623046875 76.482818603515625 84.0839080810546875 86.82360076904296875 21.620357513427734375 0 0 0 0 0 0 0 0 0 0 0 0 0 0 0 0 0 0 0 0 0 0 0 0 0 0 0 0 0 0 0 0 0 0 0 0 0 0 0 0 0 0 0 0 0 0 0 0 0 0 0 0 0 0 0 0 0 0 0 0 0 0 
0 0 0 0 0 0 0 13.569272041320800781 56.638698577880859375 91.11077880859375 94.11060333251953125 107.58625030517578125 391.483306884765625 425.759368896484375 280.8138427734375 135.7874298095703125 103.3824462890625 104.97336578369140625 100.43941497802734375 96.672454833984375 101.22637176513671875 97.26448822021484375 93.93970489501953125 74.738555908203125 11.374847412109375 0 0 0 0 0 0 0 0 0 0 0 0 0 0 0 0 0 0 0 0 0 0 0 0 0 0 0 0 0 0 0 0 0 0 0 0 0 0 0 0 0 0 0 0 0 0 0 0 0 0 0 0 0 0 0 0 0 0 0 0 0 0 
0 0 0 0 0 0 0 13.169189453125 92.65171051025390625 92.08103179931640625 78.3902435302734375 56.400554656982421875 426.2032470703125 426.2032470703125 324.637603759765625 160.6318359375 118.26798248291015625 103.7694549560546875 99.1457366943359375 94.73040008544921875 92.8119659423828125 75.09173583984375 69.4681243896484375 17.452428817749023438 0 0 0 0 0 0 0 0 0 0 0 0 0 0 0 0 0 0 0 0 0 0 0 0 0 0 0 0 0 0 0 0 0 0 0 0 0 0 0 0 0 0 0 0 0 0 0 0 0 0 0 0 0 0 0 0 0 0 0 0 0 0 0 
0 0 0 0 0 0 120.051666259765625 87.55025482177734375 90.831756591796875 77.11586761474609375 83.89013671875 87.24689483642578125 126.40242767333984375 429.4224853515625 266.80657958984375 129.751708984375 105.0094451904296875 100.709320068359375 96.73178863525390625 90.6060333251953125 0 0 0 0 0 0 0 0 0 0 0 0 0 0 0 0 0 0 0 0 0 0 0 0 0 0 0 0 0 0 0 0 0 0 0 0 0 0 0 0 0 0 0 0 0 0 0 0 0 0 0 0 0 0 0 0 0 0 0 0 0 0 0 0 0 0 0 
0 0 0 0 0 0 91.855010986328125 99.611968994140625 94.0565948486328125 137.00689697265625 104.5216064453125 103.6710052490234375 423.008514404296875 423.008514404296875 380.1756591796875 145.5708770751953125 104.00037384033203125 92.33713531494140625 93.04449462890625 27.336290359497070312 0 0 0 0 0 0 0 0 0 0 0 0 0 0 0 0 0 0 0 0 0 0 0 0 0 0 0 0 0 0 0 0 0 0 0 0 0 0 0 0 0 0 0 0 0 0 0 0 0 0 0 0 0 0 0 0 0 0 0 0 0 0 0 0 0 0 0 
0 0 0 0 0 0 0 55.852359771728515625 93.3363494873046875 138.9978790283203125 103.8421630859375 123.3273773193359375 388.391326904296875 199.444061279296875 194.019500732421875 350.927978515625 96.3951873779296875 69.75223541259765625 102.2383575439453125 0 0 0 0 0 0 0 0 0 0 0 0 0 0 0 0 0 0 0 0 0 0 0 0 0 0 0 0 0 0 0 0 0 0 0 0 0 0 0 0 0 0 0 0 0 0 0 0 0 0 0 0 0 0 0 0 0 0 0 0 0 0 0 0 0 0 0 0 
0 0 0 0 0 0 0 52.9767608642578125 105.678314208984375 101.13634490966796875 100.85224151611328125 173.8239898681640625 216.52618408203125 216.889007568359375 177.1956634521484375 309.83544921875 92.9172210693359375 100.0731201171875 83.1395721435546875 24.344442367553710938 0 0 0 0 0 0 0 0 0 0 0 0 0 0 0 0 0 0 0 0 0 0 0 0 0 0 0 0 0 0 0 0 0 0 0 0 0 0 0 0 0 0 0 0 0 0 0 0 0 0 0 0 0 0 0 0 0 0 0 0 0 0 0 0 0 0 0 
0 0 0 0 0 0 6.7158665657043457031 57.026309967041015625 107.33221435546875 103.31766510009765625 99.27207183837890625 180.8309783935546875 194.337982177734375 219.7487335205078125 156.961822509765625 138.457763671875 95.1615142822265625 95.742950439453125 95.8297882080078125 0 0 0 0 0 0 0 0 0 0 0 0 0 0 0 0 0 0 0 0 0 0 0 0 0 0 0 0 0 0 0 0 0 0 0 0 0 0 0 0 0 0 0 0 0 0 0 0 0 0 0 0 0 0 0 0 0 0 0 0 0 0 0 0 0 0 0 0 
0 0 0 0 0 0 10.745387077331542969 113.4171905517578125 113.5582733154296875 112.598419189453125 154.8812255859375 128.3097991943359375 167.21728515625 349.96405029296875 144.386260986328125 126.3944244384765625 106.55307769775390625 89.70440673828125 38.396816253662109375 0 0 0 0 0 0 0 0 0 0 0 0 0 0 0 0 0 0 0 0 0 0 0 0 0 0 0 0 0 0 0 0 0 0 0 0 0 0 0 0 0 0 0 0 0 0 0 0 0 0 0 0 0 0 0 0 0 0 0 0 0 0 0 0 0 0 0 0 
0 0 0 0 0 0 36.72605133056640625 114.37332916259765625 109.386993408203125 112.220428466796875 115.5913543701171875 136.66778564453125 294.316162109375 364.42901611328125 125.32741546630859375 87.69124603271484375 101.459686279296875 88.31746673583984375 0 0 0 0 0 0 0 0 0 0 0 0 0 0 0 0 0 0 0 0 0 0 0 0 0 0 0 0 0 0 0 0 0 0 0 0 0 0 0 0 0 0 0 0 0 0 0 0 0 0 0 0 0 0 0 0 0 0 0 0 0 0 0 0 0 0 0 0 0 
0 0 0 0 0 0 0 113.36989593505859375 108.414825439453125 112.54595947265625 128.956390380859375 302.299346923828125 328.182098388671875 184.920989990234375 217.649322509765625 0 0 0 0 0 0 0 0 0 0 0 0 0 0 0 0 0 0 0 0 0 0 0 0 0 0 0 0 0 0 0 0 0 0 0 0 0 0 0 0 0 0 0 0 0 0 0 0 0 0 0 0 0 0 0 0 0 0 0 0 0 0 0 0 0 0 0 0 0 0 0 0 
0 0 0 0 0 0 0 0 110.97739410400390625 133.2537841796875 308.15472412109375 132.495025634765625 143.0417022705078125 0 0 0 0 0 0 0 0 0 0 0 0 0 0 0 0 0 0 0 0 0 0 0 0 0 0 0 0 0 0 0 0 0 0 0 0 0 0 0 0 0 0 0 0 0 0 0 0 0 0 0 0 0 0 0 0 0 0 0 0 0 0 0 0 0 0 0 0 0 0 0 0 0 0 
0 0 0 0 0 0 0 0 0 204.6073150634765625 0 0 0 0 0 0 0 0 0 0 0 0 0 0 0 0 0 0 0 0 0 0 0 0 0 0 0 0 0 0 0 0 0 0 0 0 0 0 0 0 0 0 0 0 0 0 0 0 0 0 0 0 0 0 0 0 0 0 0 0 0 0 0 0 0 0 0 0 0 0 0 0 0 0 0 0 0 
0 0 0 0 0 0 0 0 0 0 0 0 0 0 0 0 0 0 0 0 0 0 0 0 0 0 0 0 0 0 0 0 0 0 0 0 0 0 0 0 0 0 0 0 0 0 0 0 0 0 0 0 0 0 0 0 0 0 0 0 0 0 0 0 0 0 0 0 0 0 0 0 0 0 0 0 0 0 0 0 0 0 0 0 0 0 0 
0 0 0 0 0 0 0 0 0 0 0 0 0 0 0 0 0 0 0 0 0 0 0 0 0 0 0 0 0 0 0 0 0 0 0 0 0 0 0 0 0 0 0 0 0 0 0 0 0 0 0 0 0 0 0 0 0 0 0 0 0 0 0 0 0 0 0 0 0 0 0 0 0 0 0 0 0 0 0 0 0 0 0 0 0 0 0 
0 0 0 0 0 0 0 0 0 0 0 0 0 0 0 0 0 0 0 0 0 0 0 0 0 0 0 0 0 0 0 0 0 0 0 0 0 0 0 0 0 0 0 0 0 0 0 0 0 0 0 0 0 0 0 0 0 0 0 0 0 0 0 0 0 0 0 0 0 0 0 0 0 0 0 0 0 0 0 0 0 0 0 0 0 0 0 
0 0 0 0 0 0 0 0 0 0 0 0 0 0 0 0 0 0 0 0 0 0 0 0 0 0 0 0 0 0 0 0 0 0 0 0 0 0 0 0 0 0 0 0 0 0 0 0 0 0 0 0 0 0 0 0 0 0 0 0 0 0 0 0 0 0 0 0 0 0 0 0 0 0 0 0 0 0 0 0 0 0 0 0 0 0 0 
