ncols        87
nrows        107
xllcorner    508562.338426187926
yllcorner    5265596.272683421150
cellsize     120.000000000000
NODATA_value -9999
0.0 0 0 0 0 0 0 0 0 0 0 0 0 0 0 0 0 0 0 0 0 0 0 0 0 0 0 0 0 0 0 0 0 0 0 0 0 0 0 0 0 0 0 0 0 0 0 0 0 0 0 0 0 0 0 0 0 0 0 0 0 0 0 0 0 0 0 0 0 0 0 0 0 0 0 0 0 0 0 0 0 0 0 0 0 0 0 
0 0 0 0 0 0 0 0 0 0 0 0 0 0 0 0 0 0 0 0 0 0 0 0 0 0 0 0 0 0 0 0 0 0 0 0 0 0 0 0 0 0 0 0 0 0 0 0 0 0 0 0 0 0 0 0 0 0 0 0 0 0 0 0 0 0 0 0 0 0 0 0 0 0 0 0 0 0 0 0 0 0 0 0 0 0 0 
0 0 0 0 0 0 0 0 0 0 0 0 0 0 0 0 0 0 0 0 0 0 0 0 0 0 0 0 0 0 0 0 0 0 0 0 0 0 0 0 0 0 0 0 0 0 0 0 0 0 0 0 0 0 0 0 0 0 0 0 0 0 0 0 0 280.75897216796875 250.296661376953125 47.382099151611328125 0 0 0 0 0 0 0 0 0 0 0 0 0 0 0 0 0 0 0 
0 0 0 0 0 0 0 0 0 0 0 0 0 0 0 0 0 0 0 0 0 0 0 0 0 0 0 0 0 0 0 0 0 0 0 0 0 0 0 0 0 0 0 0 0 0 0 0 0 0 0 0 0 0 0 0 0 0 0 0 0 0 0 0 0 859.02264404296875 238.2493743896484375 150.3254547119140625 0 0 0 0 0 0 0 0 0 0 0 0 0 0 0 0 0 0 0 
0 0 0 0 0 0 0 0 0 0 0 0 0 0 0 0 0 0 0 0 0 0 0 0 0 0 0 0 0 0 0 0 0 0 0 0 0 0 0 0 0 0 0 0 0 0 0 0 0 0 0 0 0 0 0 0 0 0 0 0 0 0 0 0 815.857666015625 820.32244873046875 165.1067657470703125 130.0974884033203125 0 0 0 0 0 0 0 0 0 0 0 0 0 0 0 0 0 0 0 
0 0 0 0 0 0 0 0 0 0 0 0 0 0 0 0 0 0 0 0 0 0 0 0 0 0 0 0 0 0 0 0 0 0 0 0 0 0 0 0 0 0 0 0 0 0 0 0 0 0 0 0 0 0 0 0 0 0 0 0 0 0 47.68616485595703125 138.959259033203125 760.7364501953125 843.042724609375 258.0924072265625 148.52490234375 0 0 0 0 0 0 0 0 0 0 0 0 0 0 0 0 0 0 0 
0 0 0 0 0 0 0 0 0 0 0 0 0 0 0 0 0 0 0 0 0 0 0 0 0 0 0 0 0 0 0 0 0 0 0 0 0 0 0 0 0 0 0 0 0 0 0 0 0 0 0 0 0 0 0 0 0 0 0 0 0 0 123.724853515625 171.7728729248046875 364.57659912109375 346.150787353515625 266.072540283203125 154.4210052490234375 0 0 0 0 0 0 0 0 0 0 0 0 0 0 0 0 0 0 0 
0 0 0 0 0 0 0 0 0 0 0 0 0 0 0 0 0 0 0 0 0 0 0 0 0 0 0 0 0 0 0 0 0 0 0 0 0 0 0 0 0 0 0 0 0 0 0 0 0 0 0 0 0 0 0 0 0 0 0 0 0 0 160.9082489013671875 268.405426025390625 751.50006103515625 708.6400146484375 243.6264801025390625 244.169830322265625 0 0 0 0 0 0 0 0 0 0 0 0 0 0 0 0 0 0 0 
0 0 0 0 0 0 0 0 0 0 0 0 0 0 0 0 0 0 0 0 0 0 0 0 0 0 0 0 0 0 0 0 0 0 0 0 0 0 0 0 0 0 0 0 0 0 0 0 0 0 0 0 0 0 0 0 0 0 0 0 0 80.5899505615234375 227.07666015625 252.5043792724609375 617.953125 577.0269775390625 226.8039398193359375 175.1213226318359375 32.835247039794921875 0 0 0 0 0 0 0 0 0 0 0 0 0 0 0 0 0 0 
0 0 0 0 0 0 0 0 0 0 0 0 0 0 0 0 0 0 0 0 0 0 0 0 0 0 0 0 0 0 0 0 0 0 0 0 0 0 0 0 0 0 0 0 0 0 0 0 0 0 0 0 0 0 0 0 0 0 0 0 0 86.8247222900390625 234.42724609375 244.0876922607421875 258.596282958984375 595.8233642578125 269.1229248046875 252.6221923828125 13.878806114196777344 0 0 0 0 0 0 0 0 0 0 0 0 0 0 0 0 0 0 
0 0 0 0 0 0 0 0 0 0 0 0 0 0 0 0 0 0 0 0 0 0 0 0 0 0 0 0 0 0 0 0 0 0 0 0 0 0 0 0 0 0 0 0 0 0 0 0 0 0 0 0 0 0 0 0 0 0 0 0 0 88.40716552734375 355.211395263671875 339.63482666015625 258.99755859375 616.34503173828125 260.179473876953125 193.3466644287109375 0 0 0 0 0 0 0 0 0 0 0 0 0 0 0 0 0 0 0 
0 0 0 0 0 0 0 0 0 0 0 0 0 0 0 0 0 0 0 0 0 0 0 0 0 0 0 0 0 0 0 0 0 0 0 0 0 0 0 0 0 0 0 0 0 0 0 0 0 0 0 0 0 0 0 0 0 0 0 0 0 140.0980682373046875 355.211395263671875 351.589385986328125 611.13702392578125 646.623291015625 265.79754638671875 191.75048828125 0 0 0 0 0 0 0 0 0 0 0 0 0 0 0 0 0 0 0 
0 0 0 0 0 0 0 0 0 0 0 0 0 0 0 0 0 0 0 0 0 0 0 0 0 0 0 0 0 0 0 0 0 0 0 0 0 0 0 0 0 0 0 0 0 0 0 0 0 0 0 0 0 0 0 0 0 0 0 0 0 152.8043212890625 237.7798004150390625 524.13397216796875 557.04339599609375 298.021881103515625 265.030364990234375 0 0 0 0 0 0 0 0 0 0 0 0 0 0 0 0 0 0 0 0 
0 0 0 0 0 0 0 0 0 0 0 0 0 0 0 0 0 0 0 0 0 0 0 0 0 0 0 0 0 0 0 0 0 0 0 0 0 0 0 0 0 0 0 0 0 0 0 0 0 0 0 0 0 0 0 0 0 0 0 0 166.7908935546875 167.271575927734375 242.71600341796875 549.1185302734375 298.46795654296875 271.62188720703125 248.78643798828125 0 0 0 0 0 0 0 0 0 0 0 0 0 0 0 0 0 0 0 0 
0 0 0 0 0 0 0 0 0 0 0 0 0 0 0 0 0 0 0 0 0 0 0 0 0 0 0 0 0 0 0 0 0 0 0 0 0 0 0 0 0 0 0 0 0 0 0 0 0 0 0 0 0 0 0 0 0 0 0 30.412942886352539062 129.1143035888671875 268.550628662109375 174.4212493896484375 392.318878173828125 287.21246337890625 273.17767333984375 89.634185791015625 0 0 0 0 0 0 0 0 0 0 0 0 0 0 0 0 0 0 0 0 
0 0 0 0 0 0 0 0 0 0 0 0 0 0 0 0 0 0 0 0 0 0 0 0 0 0 0 0 0 0 0 0 0 0 0 0 0 0 0 0 0 0 0 0 0 0 0 0 0 0 0 0 0 0 0 0 0 0 0 263.177398681640625 259.464141845703125 154.2235260009765625 190.1688385009765625 265.992095947265625 286.22503662109375 277.7314453125 99.3722381591796875 0 0 0 0 0 0 0 0 0 0 0 0 0 0 0 0 0 0 0 0 
0 0 0 0 0 0 0 0 0 0 0 0 0 0 0 0 0 0 0 0 0 0 0 0 0 0 0 0 0 0 0 0 0 0 0 0 0 0 0 0 0 0 0 0 0 0 0 0 0 0 0 0 0 0 0 0 0 0 0 351.4639892578125 346.416748046875 191.6146240234375 191.7672882080078125 285.777069091796875 285.239288330078125 260.362091064453125 47.334125518798828125 0 0 0 0 0 0 0 0 0 0 0 0 0 0 0 0 0 0 0 0 
0 0 0 0 0 0 0 0 0 0 0 0 0 0 0 0 0 0 0 0 0 0 0 0 0 0 0 0 0 0 0 0 0 0 0 0 0 0 0 0 0 0 0 0 0 0 0 0 0 0 0 0 0 0 0 0 0 0 0 0 221.2669677734375 261.53436279296875 385.534912109375 406.94268798828125 402.60504150390625 246.1091766357421875 89.2112579345703125 0 0 0 0 0 0 0 0 0 0 0 0 0 0 0 0 0 0 0 0 
0 0 0 0 0 0 0 0 0 0 0 0 0 0 0 0 0 0 0 0 0 0 0 0 0 0 0 0 0 0 0 0 0 0 0 0 0 0 0 0 0 0 0 0 0 0 0 0 0 0 0 0 0 0 0 0 0 0 97.18781280517578125 230.7757568359375 248.078857421875 286.0213623046875 290.5426025390625 301.71832275390625 288.6270751953125 265.821441650390625 173.830230712890625 159.85980224609375 156.5537261962890625 108.3744964599609375 75.56412506103515625 22.752714157104492188 0 0 0 0 0 0 0 0 0 0 0 0 0 0 0 
0 0 0 0 0 0 0 0 0 0 0 0 0 0 0 0 0 0 0 0 0 0 0 0 0 0 0 0 0 0 0 0 0 0 0 0 0 0 0 0 0 0 0 0 0 0 0 0 0 0 0 0 0 0 0 0 0 0 273.621307373046875 263.0679931640625 268.444610595703125 308.88909912109375 305.376068115234375 296.136566162109375 262.1796875 256.42529296875 187.5411224365234375 168.267425537109375 162.5843658447265625 161.885101318359375 113.022186279296875 76.67710113525390625 11.929984092712402344 0 0 0 0 0 0 0 0 0 0 0 0 0 0 
0 0 0 0 0 0 0 0 0 0 0 0 0 0 0 0 0 0 0 0 0 0 0 0 0 0 0 0 0 0 0 0 0 0 0 0 0 0 0 0 0 0 0 0 0 0 0 0 0 0 0 0 0 0 0 0 0 0 158.8761138916015625 278.6387939453125 290.334259033203125 305.076202392578125 296.242431640625 285.794036865234375 242.5933837890625 181.65997314453125 252.951446533203125 242.010009765625 176.6582489013671875 154.95025634765625 141.7904815673828125 91.2105560302734375 15.50897979736328125 0 0 0 0 0 0 0 0 0 0 0 0 0 0 
0 0 0 0 0 0 0 0 0 0 0 0 0 0 0 0 0 0 0 0 0 0 0 0 0 0 0 0 0 0 0 0 0 0 0 0 0 0 0 0 0 0 0 0 0 0 0 0 0 0 0 0 0 0 0 0 57.307849884033203125 166.9163360595703125 258.27410888671875 284.021026611328125 305.02069091796875 305.5462646484375 162.1986846923828125 191.215728759765625 179.138885498046875 175.423492431640625 167.4184722900390625 156.9401702880859375 179.40716552734375 148.9050140380859375 139.7011260986328125 118.55306243896484375 0 0 0 0 0 0 0 0 0 0 0 0 0 0 0 
0 0 0 0 0 0 0 0 0 0 0 0 0 0 0 0 0 0 0 0 0 0 0 0 0 0 0 0 0 0 0 0 0 0 0 0 0 0 0 0 0 0 0 0 0 0 0 0 0 0 0 0 0 0 0 0 92.18468475341796875 170.575531005859375 262.609405517578125 308.57904052734375 310.34295654296875 290.071380615234375 135.95159912109375 194.5323944091796875 176.945556640625 176.183929443359375 161.1851806640625 146.18756103515625 179.969757080078125 190.29541015625 144.4708251953125 60.067138671875 13.515203475952148438 0 0 145.0978546142578125 145.0978546142578125 103.37735748291015625 0 0 0 0 0 0 0 0 0 
0 0 0 0 0 0 0 0 0 0 0 0 0 0 0 0 0 0 0 0 0 0 0 0 0 0 0 0 0 0 0 0 0 0 0 0 0 0 0 0 0 0 0 0 0 0 0 0 0 0 0 0 0 0 10.671233177185058594 77.88225555419921875 184.5238037109375 188.656280517578125 266.58056640625 309.0103759765625 295.270263671875 176.402923583984375 175.6824951171875 181.4639892578125 154.9138336181640625 230.5211334228515625 163.06982421875 126.8750152587890625 140.5328216552734375 154.4869384765625 127.20476531982421875 123.40251922607421875 136.1618804931640625 146.4552154541015625 130.071014404296875 133.420013427734375 139.9627685546875 146.81610107421875 128.7394561767578125 0 0 0 0 0 0 0 0 
0 0 0 0 0 0 0 0 0 0 0 0 0 0 0 0 0 0 0 0 0 0 0 0 0 0 0 0 0 0 0 0 0 0 0 0 0 0 0 0 0 0 0 0 0 0 0 0 0 0 0 0 0 32.942188262939453125 74.51519012451171875 173.841094970703125 188.787078857421875 192.87548828125 270.781890869140625 309.64801025390625 287.214691162109375 206.21771240234375 174.05670166015625 148.890380859375 167.827972412109375 106.1159515380859375 122.42336273193359375 144.3714599609375 125.97313690185546875 152.451812744140625 129.5277862548828125 101.19853973388671875 122.22955322265625 97.912078857421875 112.47631072998046875 119.83061981201171875 139.712890625 155.0392913818359375 68.42829132080078125 0 0 0 0 0 0 0 0 
0 0 0 0 0 0 0 0 0 0 0 0 0 0 0 0 0 0 0 0 0 0 0 0 0 0 0 0 0 0 0 0 0 0 0 0 0 0 0 0 0 0 0 0 0 0 0 0 0 0 0 0 0 131.5078125 174.6719207763671875 176.66741943359375 262.63836669921875 268.623291015625 275.17919921875 314.59295654296875 302.82305908203125 172.8685455322265625 175.38787841796875 169.587677001953125 163.13323974609375 163.9120941162109375 124.84201812744140625 157.971893310546875 152.523193359375 142.001617431640625 103.07933807373046875 133.20855712890625 130.33447265625 111.50390625 113.5783233642578125 119.383026123046875 396.62078857421875 145.1052398681640625 67.9760284423828125 0 0 0 0 0 0 0 0 
0 0 0 0 0 0 0 0 0 0 0 0 0 0 0 0 0 0 0 0 0 0 0 0 0 0 0 0 0 0 0 0 0 0 0 0 0 0 0 0 0 0 0 0 0 0 0 0 0 0 0 0 60.7310791015625 160.8857421875 179.34478759765625 179.9660797119140625 193.2821807861328125 266.28387451171875 279.882965087890625 306.01812744140625 257.14178466796875 177.56353759765625 142.915618896484375 109.861541748046875 162.1227569580078125 166.350341796875 147.1183013916015625 155.5921173095703125 150.471893310546875 143.6217803955078125 100.71352386474609375 101.592620849609375 113.25714874267578125 94.48717498779296875 116.068389892578125 130.0171966552734375 482.894775390625 156.21380615234375 127.773406982421875 0 0 0 0 0 0 0 0 
0 0 0 0 0 0 0 0 0 0 0 0 0 0 0 0 0 0 0 0 0 0 0 0 0 0 0 0 0 0 0 0 0 0 0 0 0 0 0 0 0 0 0 0 0 0 0 0 0 0 0 0 76.8891448974609375 166.57635498046875 179.8372955322265625 181.0634613037109375 190.8067474365234375 271.8800048828125 397.44354248046875 304.079315185546875 275.335968017578125 178.7488250732421875 182.8895721435546875 163.17681884765625 133.680633544921875 145.27203369140625 110.0767059326171875 229.2713165283203125 126.92887115478515625 122.7728729248046875 126.66584014892578125 118.2088623046875 119.56592559814453125 161.0298614501953125 96.5914306640625 124.3281097412109375 337.529327392578125 142.3446197509765625 144.2645416259765625 55.90387725830078125 0 0 0 0 0 0 0 
0 0 0 0 0 0 0 0 0 0 0 0 0 0 0 0 0 0 0 0 0 0 0 0 0 0 0 0 0 0 0 0 0 0 0 0 0 0 0 0 0 0 0 0 0 0 0 0 0 0 0 75.6697998046875 152.5900726318359375 221.736541748046875 174.2180938720703125 180.6659698486328125 180.537567138671875 236.8213958740234375 267.03387451171875 297.703216552734375 270.5009765625 175.93890380859375 122.42910003662109375 124.66692352294921875 149.352264404296875 140.22698974609375 108.53865814208984375 136.156158447265625 132.6387939453125 133.2449798583984375 133.4590301513671875 126.41188812255859375 127.00144195556640625 121.4403839111328125 129.700469970703125 125.00402069091796875 127.80631256103515625 128.59326171875 132.7328643798828125 112.9068603515625 8.8087663650512695312 0 0 0 0 0 0 
0 0 0 0 0 0 0 0 0 0 0 0 0 0 0 0 0 0 0 0 0 0 0 0 0 0 0 0 0 0 0 0 0 0 0 0 0 0 0 0 0 0 0 0 0 0 0 0 0 0 8.4810724258422851562 90.9271392822265625 150.126739501953125 149.55938720703125 175.7608184814453125 179.66552734375 177.48309326171875 238.256134033203125 392.947021484375 290.4969482421875 261.2030029296875 173.4229736328125 92.2622833251953125 116.81143951416015625 122.4371490478515625 137.894866943359375 118.17974853515625 139.371612548828125 132.53802490234375 132.1757659912109375 129.2828369140625 127.1737518310546875 128.56085205078125 128.1619873046875 102.93653106689453125 126.65949249267578125 129.99261474609375 133.81591796875 139.674346923828125 143.7715606689453125 53.275424957275390625 0 0 0 0 0 0 
0 0 0 0 0 0 0 0 0 0 0 0 0 0 0 0 0 0 0 0 0 0 0 0 0 0 0 0 0 0 0 0 0 0 0 0 0 0 0 0 0 0 0 0 0 0 0 0 52.696140289306640625 71.04695892333984375 85.7135772705078125 135.879791259765625 139.9753265380859375 150.25787353515625 170.8212890625 172.4654388427734375 175.14947509765625 237.865081787109375 241.05877685546875 418.153778076171875 383.266571044921875 170.984161376953125 148.666778564453125 136.3325653076171875 161.2282562255859375 163.9234161376953125 116.06697845458984375 139.6282196044921875 135.86785888671875 135.662445068359375 131.265899658203125 128.3363494873046875 128.9170074462890625 130.441192626953125 125.18988037109375 135.2171783447265625 135.644622802734375 140.20416259765625 315.41851806640625 129.48626708984375 18.46318817138671875 0 0 0 0 0 0 
0 0 0 0 0 0 0 0 0 0 0 0 0 0 0 0 0 0 0 0 0 0 0 0 0 0 0 0 0 0 0 0 0 0 0 0 0 0 0 0 0 0 0 0 0 0 0 0 104.10858917236328125 142.884918212890625 143.545562744140625 132.0516204833984375 133.01824951171875 154.3176422119140625 169.591796875 171.414581298828125 174.8647003173828125 362.97296142578125 389.157562255859375 288.7235107421875 251.9823150634765625 174.344085693359375 163.1356201171875 157.6651763916015625 150.6273651123046875 133.95513916015625 123.75193023681640625 130.5667572021484375 136.20355224609375 135.02618408203125 133.0353851318359375 129.5107879638671875 131.4529571533203125 136.815338134765625 128.0008697509765625 106.70829010009765625 142.6016387939453125 148.7818145751953125 153.994384765625 87.42365264892578125 0 0 0 0 0 0 0 
0 0 0 0 0 0 0 0 0 0 0 0 0 0 0 0 0 0 0 0 0 0 0 0 0 0 0 0 0 0 0 0 0 0 0 0 0 0 0 0 0 0 0 0 0 0 0 0 105.4261932373046875 137.101593017578125 135.1067352294921875 129.788543701171875 129.6997833251953125 147.2628631591796875 167.24444580078125 171.04302978515625 172.1846771240234375 265.531341552734375 289.482452392578125 283.844970703125 171.1295166015625 170.888916015625 161.2078704833984375 112.70670318603515625 134.886871337890625 126.46930694580078125 144.3856964111328125 120.822235107421875 131.912200927734375 135.4610137939453125 133.3740997314453125 130.9962310791015625 133.4600830078125 137.12310791015625 128.864501953125 109.39492034912109375 144.77386474609375 150.0802001953125 141.783935546875 9.7856302261352539062 0 0 0 0 0 0 0 
0 0 0 0 0 0 0 0 0 0 0 0 0 0 0 0 0 0 0 0 0 0 0 0 0 0 0 0 0 0 0 0 0 0 0 0 0 0 0 0 0 0 0 0 0 0 0 0 77.227783203125 134.179901123046875 131.7643890380859375 141.8654022216796875 135.54449462890625 139.4173431396484375 162.83319091796875 163.8160247802734375 169.082794189453125 264.077423095703125 292.07708740234375 262.793548583984375 174.3007354736328125 163.031890869140625 144.1232757568359375 145.4527435302734375 216.553253173828125 109.29615020751953125 97.94440460205078125 125.45586395263671875 132.480072021484375 129.512481689453125 130.401275634765625 134.672454833984375 135.2733154296875 137.174774169921875 137.7151641845703125 148 136.74761962890625 150.6719970703125 46.46230316162109375 0 0 0 0 0 0 0 0 
0 0 0 0 0 0 0 0 0 0 0 0 0 0 0 0 0 0 0 0 0 0 0 0 0 0 0 0 0 0 0 0 0 0 0 0 0 0 0 0 0 0 0 0 0 0 0 0 47.427234649658203125 127.7544403076171875 125.7005767822265625 132.0603790283203125 133.2756805419921875 137.1692352294921875 151.5473175048828125 157.8511962890625 164.0131378173828125 330.651214599609375 369.435455322265625 408.669189453125 236.188232421875 163.592315673828125 143.2676849365234375 139.909210205078125 123.8064117431640625 122.41329193115234375 119.7067718505859375 134.35784912109375 139.8756561279296875 135.181427001953125 132.37603759765625 139.46484375 143.0611114501953125 139.82080078125 137.5295867919921875 159.3156280517578125 108.09368896484375 104.19681549072265625 0 0 0 0 0 0 0 0 0 
0 0 0 0 0 0 0 0 0 0 0 0 0 0 0 0 0 0 0 0 0 0 0 0 0 0 0 0 0 0 0 0 0 0 0 0 0 0 0 0 0 0 0 0 0 0 0 0 104.34749603271484375 120.748077392578125 94.818206787109375 115.1355743408203125 129.516326904296875 139.9289703369140625 150.0611114501953125 153.6643829345703125 161.10540771484375 225.116851806640625 247.6117095947265625 408.669189453125 267.548828125 155.5645599365234375 138.7030487060546875 114.32230377197265625 131.32958984375 135.065460205078125 135.7236480712890625 138.014617919921875 141.10223388671875 152.5072479248046875 141.7615203857421875 144.2557220458984375 152.6204986572265625 142.762237548828125 127.33315277099609375 138.048614501953125 83.72430419921875 126.04425811767578125 0 0 0 0 0 0 0 0 0 
0 0 0 0 0 0 0 0 0 0 0 0 0 0 0 0 0 0 0 0 0 0 0 0 0 0 0 0 0 0 0 0 0 0 0 0 0 0 0 0 0 0 0 0 0 0 0 0 109.88716888427734375 107.05971527099609375 104.57338714599609375 115.0763702392578125 126.34943389892578125 136.89324951171875 155.6687164306640625 156.7771759033203125 157.3565521240234375 291.846099853515625 324.319610595703125 420.2816162109375 407.0516357421875 160.0862884521484375 122.731719970703125 120.01031494140625 132.28472900390625 136.4490966796875 135.3941497802734375 132.602996826171875 134.68939208984375 159.8152618408203125 141.861053466796875 144.0455169677734375 144.5069732666015625 153.871063232421875 141.04656982421875 136.4038543701171875 95.84648895263671875 18.9295501708984375 0 0 0 0 0 0 0 0 0 
0 0 0 0 0 0 0 0 0 0 0 0 0 0 0 0 0 0 0 0 0 0 0 0 0 0 0 0 0 0 0 0 0 0 0 0 0 0 0 0 0 0 0 0 0 0 83.86946868896484375 125.00382232666015625 109.1791839599609375 85.42754364013671875 99.33319854736328125 112.366241455078125 121.9144287109375 131.73638916015625 149.0647430419921875 154.2172393798828125 316.962493896484375 216.58819580078125 246.033111572265625 422.70648193359375 252.414398193359375 82.2737274169921875 143.7464599609375 156.3621978759765625 134.1907958984375 126.95993804931640625 130.402191162109375 134.1260986328125 123.03223419189453125 144.5635986328125 140.8011474609375 137.7781982421875 145.7681732177734375 180.70660400390625 134.6739349365234375 269.410247802734375 166.0748138427734375 0 0 0 0 0 0 0 0 0 0 
0 0 0 0 0 0 0 0 0 0 0 0 0 0 0 0 0 0 0 0 0 0 0 0 0 0 0 0 0 0 0 0 0 0 0 0 0 0 0 0 0 0 0 0 34.096454620361328125 107.6040802001953125 93.64060211181640625 98.184906005859375 126.82190704345703125 107.209014892578125 121.79931640625 109.07924652099609375 114.8621673583984375 123.72324371337890625 134.3221588134765625 145.8069610595703125 231.10443115234375 266.980865478515625 281.898345947265625 380.316131591796875 156.803009033203125 132.97900390625 129.05499267578125 125.59234619140625 124.642852783203125 129.2653350830078125 115.70287322998046875 141.366729736328125 136.490936279296875 153.341949462890625 137.0111083984375 138.6425323486328125 153.0520477294921875 185.30743408203125 154.044647216796875 142.5172119140625 84.49829864501953125 31.771070480346679688 0 0 0 0 0 0 0 0 0 
0 0 0 0 0 0 0 0 0 0 0 0 0 0 0 0 0 0 0 0 0 0 0 0 0 0 0 0 0 0 0 0 0 0 0 0 0 0 0 0 0 0 0 48.9881439208984375 134.42352294921875 144.4805908203125 84.68602752685546875 113.26493072509765625 115.769561767578125 117.2305908203125 122.2070465087890625 117.12689971923828125 116.8337860107421875 125.86163330078125 135.519378662109375 142.92779541015625 155.0537109375 374.396392822265625 399.890411376953125 231.3670806884765625 150.3460693359375 136.33770751953125 139.3118896484375 122.86887359619140625 129.316741943359375 115.9321136474609375 122.40465545654296875 125.5654296875 130.3678741455078125 146.1593017578125 140.162811279296875 149.7505340576171875 127.98348236083984375 171.6493682861328125 134.44598388671875 127.15453338623046875 124.3456878662109375 98.30905914306640625 0 0 0 0 0 0 0 0 0 
0 0 0 0 0 0 0 0 0 0 0 0 0 0 0 0 0 0 0 0 0 0 0 0 0 0 0 0 0 0 0 0 0 0 0 0 0 0 0 0 0 0 16.7991485595703125 113.55005645751953125 124.546783447265625 115.2788238525390625 105.2255401611328125 100.76131439208984375 115.12718963623046875 114.160186767578125 130.5757598876953125 122.42749786376953125 118.4960784912109375 127.31496429443359375 128.4355316162109375 140.2555084228515625 161.116546630859375 367.1402587890625 402.0423583984375 239.7941741943359375 153.5172882080078125 136.3994598388671875 132.490753173828125 134.8050537109375 104.16876983642578125 55.788555145263671875 116.594635009765625 131.3020782470703125 141.1134185791015625 147.4585113525390625 141.5946807861328125 159.964599609375 156.146728515625 161.5329437255859375 137.312713623046875 131.5987548828125 104.59732818603515625 94.62598419189453125 0 0 0 0 0 0 0 0 0 
0 0 0 0 0 0 0 0 0 0 0 0 0 0 0 0 0 0 0 0 0 0 0 0 0 0 0 0 0 0 0 0 0 0 0 0 0 0 0 0 0 0 50.699459075927734375 118.5393218994140625 101.43918609619140625 70.04962921142578125 87.42649078369140625 81.3274383544921875 108.1100921630859375 123.466400146484375 128.178070068359375 121.40061187744140625 123.2160491943359375 126.40943145751953125 131.5118255615234375 146.740478515625 166.817962646484375 174.490478515625 262.679534912109375 249.0314483642578125 218.7667236328125 147.1766510009765625 147.3713226318359375 134.2978668212890625 142.4912567138671875 140.036163330078125 148.292572021484375 158.63983154296875 163.78521728515625 154.24017333984375 157.2896728515625 171.8057098388671875 163.7928009033203125 117.38773345947265625 106.009613037109375 115.26503753662109375 82.01514434814453125 5.2865095138549804688 0 0 0 0 0 0 0 0 0 
0 0 0 0 0 0 0 0 0 0 0 0 0 0 0 0 0 0 0 0 0 0 0 0 0 0 0 0 0 0 0 0 0 0 0 0 0 0 0 0 0 0 101.79322052001953125 108.500396728515625 104.319122314453125 110.0614776611328125 112.169952392578125 112.1979217529296875 122.7395477294921875 128.8484954833984375 116.79969024658203125 117.9481048583984375 123.65683746337890625 129.1880035400390625 143.5570220947265625 159.9259033203125 161.851531982421875 161.868072509765625 220.1793670654296875 368.86517333984375 260.267974853515625 234.1651611328125 244.917755126953125 142.7760772705078125 151.57220458984375 147.7969970703125 158.475494384765625 174.3281707763671875 167.75604248046875 163.3907623291015625 169.035003662109375 359.029388427734375 151.314788818359375 155.475738525390625 140.959991455078125 27.3469390869140625 0 0 0 0 0 0 0 0 0 0 0 
0 0 0 0 0 0 0 0 0 0 0 0 0 0 0 0 0 0 0 0 0 0 0 0 0 0 0 0 0 0 0 0 0 0 0 0 0 0 0 0 0 128.11859130859375 100.40576934814453125 107.665252685546875 99.6747283935546875 122.55998992919921875 112.941680908203125 112.6143646240234375 229.3399810791015625 236.02032470703125 132.271148681640625 118.17871856689453125 121.7656402587890625 265.948883056640625 135.1231231689453125 150.3011932373046875 161.1185760498046875 158.7226104736328125 159.32940673828125 353.84735107421875 267.435302734375 158.6395111083984375 255.7030792236328125 233.913543701171875 205.532958984375 213.4093017578125 162.623077392578125 163.6231689453125 162.13995361328125 171.17242431640625 168.923004150390625 165.5867462158203125 134.2599945068359375 147.036865234375 105.19043731689453125 0 0 0 0 0 0 0 0 0 0 0 0 
0 0 0 0 0 0 0 0 0 0 0 0 0 0 0 0 0 0 0 0 0 0 0 0 0 0 0 0 0 0 0 0 0 0 0 0 0 0 0 36.85031890869140625 85.296966552734375 88.15966033935546875 117.08330535888671875 101.37717437744140625 107.3872222900390625 121.1891632080078125 120.8219757080078125 116.37294769287109375 229.9842529296875 224.3389129638671875 116.0945587158203125 111.12595367431640625 114.15656280517578125 244.43035888671875 133.6737060546875 155.0178375244140625 157.10235595703125 152.3655548095703125 203.6330108642578125 257.549713134765625 252.3560028076171875 146.2681884765625 142.7917633056640625 154.0283355712890625 159.9184112548828125 141.314056396484375 137.313873291015625 136.8180999755859375 162.635406494140625 235.07025146484375 174.826446533203125 155.7118988037109375 146.2991485595703125 122.63303375244140625 51.84925079345703125 0 0 0 0 0 0 0 0 0 0 0 0 
0 0 0 0 0 0 0 0 0 0 0 0 0 0 0 0 0 0 0 0 0 0 0 0 0 0 0 0 0 0 0 0 0 0 0 0 0 0 38.85711669921875 135.3998565673828125 94.84600830078125 83.733551025390625 69.17751312255859375 136.6619110107421875 109.620452880859375 113.822021484375 120.0474700927734375 244.127532958984375 235.178802490234375 114.07757568359375 129.7928009033203125 230.521728515625 112.9446258544921875 235.12353515625 135.4229583740234375 151.32550048828125 153.69415283203125 154.208770751953125 209.56707763671875 255.5197906494140625 247.2812042236328125 143.860382080078125 141.421600341796875 147.805145263671875 144.147674560546875 130.7390594482421875 128.113922119140625 118.98777008056640625 109.9766998291015625 128.603240966796875 138.424163818359375 143.2325439453125 138.968719482421875 128.2838287353515625 24.3043365478515625 0 0 0 0 0 0 0 0 0 0 0 0 
0 0 0 0 0 0 0 0 0 0 0 0 0 0 0 0 0 0 0 0 0 0 0 0 0 0 0 0 0 0 0 0 0 0 0 0 0 0 62.991191864013671875 80.93848419189453125 105.812774658203125 97.59706878662109375 101.93442535400390625 105.1504364013671875 120.4670562744140625 107.782928466796875 126.7262115478515625 244.411865234375 115.58383941650390625 113.58150482177734375 118.27730560302734375 216.156158447265625 224.9534759521484375 117.4860992431640625 129.495086669921875 141.5487213134765625 146.6824951171875 143.2714385986328125 211.0701141357421875 236.5400238037109375 257.718017578125 147.041473388671875 135.037567138671875 137.528472900390625 131.8104248046875 126.59687042236328125 122.1660308837890625 114.0726318359375 26.492572784423828125 33.761569976806640625 124.68502044677734375 136.02935791015625 111.5505218505859375 23.056100845336914062 0 0 0 0 0 0 0 0 0 0 0 0 0 
0 0 0 0 0 0 0 0 0 0 0 0 0 0 0 0 0 0 0 0 0 0 0 0 0 0 0 0 0 0 0 0 0 0 0 0 0 46.17441558837890625 102.0789337158203125 87.63388824462890625 104.23085784912109375 103.72190093994140625 207.44378662109375 125.8368682861328125 103.774627685546875 107.60375213623046875 233.0228271484375 236.8396453857421875 112.252410888671875 111.44972991943359375 107.03334808349609375 108.1723785400390625 106.9493255615234375 114.1685638427734375 128.609405517578125 133.0934295654296875 139.425811767578125 147.365966796875 238.069091796875 373.12957763671875 160.324432373046875 141.3465728759765625 128.196746826171875 123.0420989990234375 118.29798126220703125 82.01650238037109375 88.77393341064453125 22.147874832153320312 0 0 0 0 0 0 0 0 0 0 0 0 0 0 0 0 0 0 0 
0 0 0 0 0 0 0 0 0 0 0 0 0 0 0 0 0 0 0 0 0 0 0 0 0 0 0 0 0 0 0 0 0 0 0 0 233.3174896240234375 112.6909027099609375 109.2207489013671875 112.2634735107421875 111.93212127685546875 84.72796630859375 81.9868621826171875 76.9530792236328125 89.16255950927734375 110.25843048095703125 115.78339385986328125 115.069854736328125 120.41393280029296875 120.98089599609375 119.33792877197265625 121.3674163818359375 118.666473388671875 120.94097900390625 173.808319091796875 131.79473876953125 207.1715087890625 205.9706878662109375 325.49395751953125 243.454833984375 116.968231201171875 137.522308349609375 111.3156280517578125 105.9173583984375 78.94817352294921875 0 0 0 0 0 0 0 0 0 0 0 0 0 0 0 0 0 0 0 0 0 0 
0 0 0 0 0 0 0 0 0 0 0 0 0 0 0 0 0 0 0 0 0 0 0 0 0 0 0 0 0 0 0 0 0 0 0 17.014539718627929688 116.39756011962890625 111.9140472412109375 113.25060272216796875 122.9073944091796875 165.19537353515625 89.2321929931640625 123.1346893310546875 95.7760009765625 102.02129364013671875 119.6307220458984375 123.76200103759765625 122.633819580078125 131.97064208984375 135.856689453125 131.31146240234375 130.0911102294921875 132.13372802734375 129.0583953857421875 140.39373779296875 196.98175048828125 208.68841552734375 137.666748046875 236.5177001953125 131.557098388671875 106.053955078125 129.7826690673828125 127.177032470703125 84.06363677978515625 0 0 0 0 0 0 0 0 0 0 0 0 0 0 0 0 0 0 0 0 0 0 0 
0 0 0 0 0 0 0 0 0 0 0 0 0 0 0 0 0 0 0 0 0 0 0 0 0 0 0 0 0 0 0 0 0 0 0 70.0447540283203125 114.72406005859375 113.2534637451171875 116.13468170166015625 132.065521240234375 94.17926788330078125 146.8351898193359375 128.961822509765625 130.4146881103515625 110.434356689453125 128.91021728515625 130.490203857421875 127.3279876708984375 136.437042236328125 142.2552032470703125 137.26031494140625 132.191558837890625 135.6256256103515625 115.66739654541015625 291.506744384765625 154.1780548095703125 151.552642822265625 160.9886322021484375 215.460845947265625 118.92539215087890625 97.9120330810546875 100.05553436279296875 72.47429656982421875 121.2313079833984375 0 0 0 0 0 0 0 0 0 0 0 0 0 0 0 0 0 0 0 0 0 0 0 
0 0 0 0 0 0 0 0 0 0 0 0 0 0 0 0 0 0 0 0 0 0 0 0 0 0 0 0 0 0 0 0 0 0 0 101.24969482421875 92.58234405517578125 98.64815521240234375 221.9148712158203125 119.220123291015625 56.88143157958984375 104.9115447998046875 105.82410430908203125 195.5035552978515625 119.180511474609375 140.5842742919921875 137.5090484619140625 135.2749481201171875 185.212005615234375 143.11761474609375 143.238372802734375 138.95135498046875 193.2289581298828125 212.076019287109375 187.3363494873046875 207.441497802734375 148.890777587890625 128.5327911376953125 138.5478973388671875 134.2992401123046875 118.39931488037109375 87.165679931640625 97.58354949951171875 0 0 0 0 0 0 0 0 0 0 0 0 0 0 0 0 0 0 0 0 0 0 0 0 
0 0 0 0 0 0 0 0 0 0 0 0 0 0 0 0 0 0 0 0 0 0 0 0 0 0 0 0 0 0 0 7.1297779083251953125 11.407645225524902344 76.74520111083984375 92.82042694091796875 53.110553741455078125 54.60089111328125 66.19608306884765625 245.6356658935546875 67.62772369384765625 56.394802093505859375 109.693603515625 116.126251220703125 123.44513702392578125 130.3818511962890625 199.4961395263671875 191.8148040771484375 197.75213623046875 205.0405426025390625 203.663238525390625 200.0754547119140625 194.028167724609375 202.633514404296875 137.6266021728515625 137.6820220947265625 114.8402862548828125 94.717132568359375 117.47405242919921875 175.7347412109375 119.33782958984375 112.51543426513671875 120.0669708251953125 77.2523345947265625 0 0 0 0 0 0 0 0 0 0 0 0 0 0 0 0 0 0 0 0 0 0 0 0 
0 0 0 0 0 0 0 0 0 0 0 0 0 0 0 0 0 0 0 0 0 0 0 0 0 0 0 0 0 0 14.835491180419921875 41.5021514892578125 79.74884033203125 115.33160400390625 105.44107818603515625 94.89225006103515625 80.02310943603515625 152.6287841796875 150.405242919921875 91.536468505859375 92.12396240234375 227.448486328125 174.440826416015625 189.6816864013671875 199.5275115966796875 203.5650482177734375 122.76096343994140625 192.5411224365234375 205.360748291015625 193.0863800048828125 201.18328857421875 149.3672332763671875 143.336517333984375 131.38671875 140.4911956787109375 97.535888671875 102.3205108642578125 111.1794281005859375 165.9199066162109375 140.7013397216796875 118.45081329345703125 67.47902679443359375 119.04148101806640625 24.135114669799804688 0 0 0 0 0 0 0 0 0 0 0 0 0 0 0 0 0 0 0 0 0 0 0 
0 0 0 0 0 0 0 0 0 0 0 0 0 0 0 0 0 0 0 0 0 0 0 0 0 0 72.8992462158203125 61.75307464599609375 0 17.843036651611328125 62.3529815673828125 72.537994384765625 75.9837188720703125 117.72220611572265625 157.1555938720703125 86.43436431884765625 162.9491119384765625 148.6024932861328125 98.844207763671875 132.30718994140625 191.1883544921875 195.1199188232421875 196.56488037109375 185.582000732421875 112.351409912109375 120.525054931640625 118.10324859619140625 122.6930999755859375 129.43994140625 128.4278717041015625 123.745208740234375 124.065460205078125 126.0871734619140625 166.520904541015625 146.406707763671875 92.17462921142578125 108.7120361328125 100.86896514892578125 105.104095458984375 110.558837890625 62.7371368408203125 100.22602081298828125 103.80193328857421875 45.783809661865234375 0 0 0 0 0 0 0 0 0 0 0 0 0 0 0 0 0 0 0 0 0 0 0 
0 0 0 0 0 0 0 0 0 0 0 0 0 0 0 0 0 0 0 0 0 0 0 0 0 50.813343048095703125 84.6809844970703125 203.81787109375 84.61539459228515625 89.0681304931640625 53.7548828125 53.659938812255859375 62.337604522705078125 63.701267242431640625 103.30423736572265625 393.225341796875 198.674407958984375 146.5742034912109375 190.3275909423828125 187.9910736083984375 84.6483306884765625 41.086544036865234375 111.4401702880859375 153.421417236328125 105.5444488525390625 106.08336639404296875 112.23656463623046875 123.33490753173828125 157.897064208984375 134.896881103515625 128.40533447265625 111.78868865966796875 115.76576995849609375 132.290618896484375 86.20745849609375 110.14307403564453125 112.39836883544921875 92.41058349609375 67.96038055419921875 76.68538665771484375 127.235565185546875 92.885955810546875 73.4454498291015625 0 0 0 0 0 0 0 0 0 0 0 0 0 0 0 0 0 0 0 0 0 0 0 0 
0 0 0 0 0 0 0 0 0 0 0 0 0 0 0 0 0 0 0 0 0 0 0 0 0 75.16278076171875 124.4567413330078125 142.2345428466796875 74.69223785400390625 112.13628387451171875 84.37896728515625 68.72225189208984375 80.30072784423828125 95.80931854248046875 120.13948822021484375 164.3208770751953125 245.755035400390625 178.7093505859375 116.91278839111328125 120.45868682861328125 116.17877960205078125 44.4017181396484375 147.1795196533203125 150.337005615234375 104.19213104248046875 101.3406219482421875 108.30768585205078125 117.918365478515625 102.8983001708984375 100.87044525146484375 89.94928741455078125 91.5116424560546875 71.5405426025390625 63.862186431884765625 104.26276397705078125 111.74611663818359375 95.67636871337890625 82.84714508056640625 77.6734771728515625 74.07904052734375 91.7266082763671875 87.3150177001953125 62.536472320556640625 0 0 0 0 0 0 0 0 0 0 0 0 0 0 0 0 0 0 0 0 0 0 0 0 
0 0 0 0 0 0 0 0 0 0 0 0 0 0 0 0 0 0 0 0 0 0 0 0 78.45006561279296875 107.746246337890625 159.6986846923828125 104.8207550048828125 107.003570556640625 157.5495147705078125 115.74739837646484375 60.795696258544921875 88.58754730224609375 119.963775634765625 115.45725250244140625 142.3491363525390625 137.341339111328125 100.310394287109375 180.4358062744140625 177.3932647705078125 120.0698089599609375 314.153533935546875 107.96588134765625 107.60248565673828125 108.74506378173828125 111.548828125 116.50687408447265625 113.32732391357421875 89.745452880859375 82.36614227294921875 94.308807373046875 76.79050445556640625 92.3418426513671875 105.4113922119140625 108.1287841796875 111.5126495361328125 105.98188018798828125 104.69211578369140625 129.0258941650390625 82.1639251708984375 99.07831573486328125 84.492706298828125 70.86896514892578125 0 0 0 0 0 0 0 0 0 0 0 0 0 0 0 0 0 0 0 0 0 0 0 0 
0 0 0 0 0 0 0 0 0 0 0 0 0 0 0 0 0 0 0 0 0 0 67.06551361083984375 139.1948699951171875 91.36511993408203125 89.62369537353515625 132.82470703125 94.2278594970703125 101.60303497314453125 105.3203125 105.46118927001953125 117.7478179931640625 160.69384765625 230.9205322265625 160.915191650390625 158.2702484130859375 153.9495391845703125 115.92282867431640625 138.7498626708984375 118.1627349853515625 111.55637359619140625 226.707794189453125 113.80267333984375 117.6162109375 122.06256103515625 104.37969970703125 107.8005523681640625 141.606842041015625 119.1191558837890625 118.5136566162109375 123.29528045654296875 125.2590789794921875 136.8971710205078125 139.848968505859375 135.082366943359375 177.450347900390625 124.336151123046875 115.91864776611328125 115.242523193359375 103.73310089111328125 98.00836181640625 88.74337005615234375 59.744159698486328125 0 0 0 0 0 0 0 0 0 0 0 0 0 0 0 0 0 0 0 0 0 0 0 0 
0 0 0 0 0 0 0 0 0 0 0 0 0 0 0 0 0 0 0 0 0 87.9307403564453125 92.35819244384765625 96.84468841552734375 75.6173858642578125 84.80547332763671875 110.821380615234375 129.8862762451171875 165.993988037109375 135.1289825439453125 165.26837158203125 183.998870849609375 222.590362548828125 542.2247314453125 463.639862060546875 247.1946563720703125 167.45660400390625 136.7397308349609375 144.793853759765625 175.2477874755859375 79.44857025146484375 267.31353759765625 97.12036895751953125 112.07581329345703125 146.39691162109375 131.5584716796875 130.5648040771484375 125.6464385986328125 188.973114013671875 189.9987640380859375 132.12152099609375 143.31707763671875 144.033935546875 155.6242523193359375 150.924591064453125 147.26177978515625 140.359405517578125 177.55133056640625 130.9845123291015625 123.232879638671875 121.82201385498046875 113.7120513916015625 49.38339996337890625 0 0 0 0 0 0 0 0 0 0 0 0 0 0 0 0 0 0 0 0 0 0 0 0 
0 0 0 0 0 0 0 0 0 0 0 0 0 0 0 0 23.552980422973632812 47.105960845947265625 0 0 0 61.076206207275390625 100.2229156494140625 106.2989349365234375 77.8099517822265625 93.6346588134765625 83.76680755615234375 175.0172882080078125 64.80011749267578125 55.918941497802734375 97.663970947265625 318.847503662109375 116.44936370849609375 587.258056640625 287.30999755859375 183.4974822998046875 132.072296142578125 102.53250885009765625 104.27536773681640625 137.6916351318359375 88.938507080078125 128.766021728515625 125.57543182373046875 130.4243621826171875 130.88934326171875 133.7247314453125 135.3280029296875 195.2872161865234375 188.94549560546875 193.1229248046875 193.771820068359375 152.4756317138671875 158.8740234375 168.9188690185546875 173.9146575927734375 175.228302001953125 170.939849853515625 152.6603546142578125 136.5594482421875 287.740478515625 132.3974761962890625 76.5473480224609375 7.7197513580322265625 0 0 0 0 0 0 0 0 0 0 0 0 0 0 0 0 0 0 0 0 0 0 0 0 
0 0 0 0 0 0 0 0 0 0 0 0 0 0 0 0 31.256290435791015625 98.36957550048828125 46.77535247802734375 0 27.577989578247070312 60.249664306640625 47.23133087158203125 71.67649078369140625 66.971771240234375 73.76952362060546875 113.1111907958984375 222.293548583984375 191.57586669921875 275.449615478515625 494.11956787109375 104.94853973388671875 102.1531524658203125 151.4870147705078125 227.581207275390625 131.9672088623046875 85.49462890625 82.45555877685546875 139.48822021484375 121.80706787109375 107.46282958984375 125.93898773193359375 126.54205322265625 132.238433837890625 131.823333740234375 181.1403045654296875 180.7579803466796875 187.420623779296875 194.2261199951171875 207.0272979736328125 203.4781951904296875 156.0109100341796875 163.891204833984375 177.061920166015625 181.7079925537109375 187.0508575439453125 180.87939453125 164.5436859130859375 159.2786865234375 150.6198272705078125 129.3170623779296875 23.225950241088867188 0 0 0 0 0 0 0 0 0 0 0 0 0 0 0 0 0 0 0 0 0 0 0 0 0 
0 0 0 0 0 0 0 0 0 0 0 0 0 0 0 0 102.70532989501953125 114.96076202392578125 111.2329559326171875 94.63011932373046875 92.74663543701171875 79.90979766845703125 108.06005859375 89.868377685546875 105.62967681884765625 179.3258819580078125 217.878692626953125 198.2558135986328125 243.8767242431640625 277.0531005859375 174.111419677734375 75.01763153076171875 107.98424530029296875 118.68772125244140625 70.680328369140625 75.149261474609375 145.426300048828125 172.3760223388671875 117.79132080078125 106.0297088623046875 127.466583251953125 127.74863433837890625 130.6822357177734375 132.383209228515625 136.54058837890625 136.731781005859375 181.302276611328125 193.4878082275390625 209.724517822265625 172.0001220703125 177.139556884765625 236.41046142578125 239.8265228271484375 237.947662353515625 178.897735595703125 244.901031494140625 249.0779571533203125 242.8829498291015625 171.1852264404296875 146.236236572265625 26.060047149658203125 0 0 0 0 0 0 0 0 0 0 0 0 0 0 0 0 0 0 0 0 0 0 0 0 0 0 
0 0 0 0 0 0 0 0 0 0 0 0 0 0 0 0 99.68158721923828125 108.05631256103515625 94.50408172607421875 129.4140472412109375 106.39698028564453125 86.4402008056640625 107.3524322509765625 96.990936279296875 157.2341156005859375 443.102447509765625 203.8953857421875 174.4531707763671875 147.4549102783203125 118.59754180908203125 115.74306488037109375 80.74029541015625 109.183135986328125 94.53653717041015625 110.48255157470703125 158.975830078125 176.0039825439453125 85.12621307373046875 97.9657745361328125 139.237396240234375 128.1089019775390625 130.3216705322265625 133.9260101318359375 136.5196990966796875 139.0131988525390625 133.7958221435546875 180.4513397216796875 190.725799560546875 165.23797607421875 167.887603759765625 180.3873291015625 238.3016357421875 238.800689697265625 238.3742523193359375 181.39996337890625 191.0009918212890625 251.0282440185546875 245.2519378662109375 239.598358154296875 58.9241790771484375 0 0 0 0 0 0 0 0 0 0 0 0 0 0 0 0 0 0 0 0 0 0 0 0 0 0 0 
0 0 0 0 0 0 0 0 0 0 0 0 0 0 0 64.66139984130859375 84.8225555419921875 68.5255126953125 113.94140625 147.53204345703125 85.94345855712890625 73.92060089111328125 74.39937591552734375 520.08489990234375 594.5631103515625 252.018310546875 156.528839111328125 235.8772430419921875 107.6537933349609375 108.92547607421875 99.12750244140625 71.25063323974609375 120.5239715576171875 165.293487548828125 151.703857421875 89.4524993896484375 129.5538482666015625 124.14084625244140625 126.32373046875 272.97430419921875 184.462066650390625 183.5255584716796875 188.8916015625 141.367523193359375 146.489105224609375 136.4340667724609375 173.3394775390625 179.2006378173828125 161.88018798828125 215.1523284912109375 229.4633941650390625 235.199554443359375 235.2681884765625 237.500762939453125 230.6050872802734375 228.673095703125 239.56561279296875 237.559783935546875 177.3836669921875 0 0 0 0 0 0 0 0 0 0 0 0 0 0 0 0 0 0 0 0 0 0 0 0 0 0 0 0 
0 0 0 0 0 0 0 0 0 0 0 0 69.99939727783203125 86.3984222412109375 102.077606201171875 82.25449371337890625 124.05884552001953125 91.6639404296875 115.07256317138671875 148.3356781005859375 164.5457763671875 606.6689453125 634.64404296875 606.11883544921875 530.28857421875 101.08383941650390625 121.1596832275390625 105.82555389404296875 137.341796875 99.65554046630859375 87.24031829833984375 100.56391143798828125 153.5311279296875 210.9116668701171875 125.81125640869140625 126.1410369873046875 127.6016387939453125 282.2777099609375 279.578704833984375 271.030059814453125 184.9003448486328125 193.7629852294921875 198.4818878173828125 152.710540771484375 123.46764373779296875 34.4283447265625 19.149280548095703125 184.8990325927734375 187.961181640625 0 0 233.752288818359375 234.03118896484375 0 0 0 0 0 0 0 0 0 0 0 0 0 0 0 0 0 0 0 0 0 0 0 0 0 0 0 0 0 0 0 0 0 0 
0 0 0 0 0 0 0 0 0 0 0 96.362548828125 114.80365753173828125 106.466278076171875 95.524383544921875 99.9860076904296875 83.62160491943359375 130.9529876708984375 565.12969970703125 717.01788330078125 707.49444580078125 709.56768798828125 678.963623046875 500.3046875 168.4285430908203125 103.37084197998046875 106.67641448974609375 110.926544189453125 129.590972900390625 91.2230224609375 87.30841064453125 115.9853363037109375 118.4077911376953125 117.28739166259765625 225.884674072265625 132.5417938232421875 133.334716796875 277.11846923828125 273.801025390625 363.9666748046875 191.356292724609375 196.5018463134765625 122.7261505126953125 38.73464202880859375 0 0 0 0 0 0 0 0 0 0 0 0 0 0 0 0 0 0 0 0 0 0 0 0 0 0 0 0 0 0 0 0 0 0 0 0 0 0 0 0 0 0 0 
0 0 0 0 0 0 0 0 0 0 103.8741455078125 109.26029205322265625 111.992919921875 104.82141876220703125 102.13590240478515625 99.9365081787109375 538.609619140625 694.078125 725.895751953125 751.953125 610.22589111328125 480.992584228515625 179.11370849609375 134.9979095458984375 151.2059173583984375 108.857666015625 109.55138397216796875 102.38527679443359375 195.73687744140625 90.05755615234375 159.6859130859375 125.25014495849609375 139.677764892578125 98.99085235595703125 104.7538299560546875 131.7103424072265625 134.241180419921875 265.2138671875 268.102691650390625 356.722076416015625 184.42333984375 98.23671722412109375 30.698974609375 0 0 0 0 0 0 0 0 0 0 0 0 0 0 0 0 0 0 0 0 0 0 0 0 0 0 0 0 0 0 0 0 0 0 0 0 0 0 0 0 0 0 0 0 
0 0 0 0 0 0 0 0 15.23751068115234375 31.579732894897460938 118.0220794677734375 115.62457275390625 114.1881256103515625 85.9439697265625 115.57785797119140625 345.089599609375 692.29718017578125 716.47113037109375 715.00457763671875 350.446075439453125 209.9478302001953125 227.82464599609375 101.62005615234375 104.184173583984375 108.93354034423828125 105.29962158203125 104.69493865966796875 101.55682373046875 137.5226287841796875 99.27143096923828125 88.83951568603515625 110.544158935546875 111.37220001220703125 112.63722991943359375 117.2019500732421875 134.82867431640625 262.76763916015625 230.7479095458984375 0 0 0 0 0 0 0 0 0 0 0 0 0 0 0 0 0 0 0 0 0 0 0 0 0 0 0 0 0 0 0 0 0 0 0 0 0 0 0 0 0 0 0 0 0 0 0 0 0 
0 0 0 0 0 0 0 7.8961124420166015625 94.26892852783203125 116.6497955322265625 119.2954254150390625 116.4866790771484375 75.825531005859375 183.36224365234375 172.062225341796875 667.6663818359375 737.33056640625 643.04791259765625 578.802734375 175.947509765625 113.25119781494140625 89.4286346435546875 85.27303314208984375 95.52310943603515625 104.991058349609375 100.6891021728515625 100.66759490966796875 100.49683380126953125 104.61748504638671875 101.5511474609375 87.38062286376953125 110.20473480224609375 107.07315826416015625 117.41988372802734375 174.3483734130859375 135.57806396484375 271.681427001953125 0 0 0 0 0 0 0 0 0 0 0 0 0 0 0 0 0 0 0 0 0 0 0 0 0 0 0 0 0 0 0 0 0 0 0 0 0 0 0 0 0 0 0 0 0 0 0 0 0 0 
0 0 0 0 0 0 0 61.43602752685546875 121.4139251708984375 236.7399139404296875 259.35595703125 268.41522216796875 103.02205657958984375 147.1496124267578125 573.95477294921875 706.38421630859375 722.98388671875 579.06463623046875 272.163116455078125 140.220855712890625 104.58621978759765625 92.43222808837890625 87.91693878173828125 97.828369140625 98.71173095703125 98.836090087890625 94.832183837890625 101.803009033203125 110.8977508544921875 106.3466339111328125 111.3443756103515625 106.8271331787109375 114.5523834228515625 170.6092071533203125 133.8146209716796875 110.81952667236328125 0 0 0 0 0 0 0 0 0 0 0 0 0 0 0 0 0 0 0 0 0 0 0 0 0 0 0 0 0 0 0 0 0 0 0 0 0 0 0 0 0 0 0 0 0 0 0 0 0 0 0 
0 0 0 0 0 0 0 140.608428955078125 173.6533203125 123.95711517333984375 149.302886962890625 84.4043121337890625 72.67794036865234375 97.925262451171875 407.99591064453125 669.288330078125 777.25177001953125 286.650726318359375 231.113494873046875 106.4657745361328125 197.7340240478515625 95.42836761474609375 135.6451873779296875 91.01000213623046875 92.5171356201171875 98.85919189453125 100.65143585205078125 108.86834716796875 224.19232177734375 104.58933258056640625 103.304779052734375 110.97823333740234375 128.1263427734375 173.2543792724609375 140.5077056884765625 152.89947509765625 0 0 0 0 0 0 0 0 0 0 0 0 0 0 0 0 0 0 0 0 0 0 0 0 0 0 0 0 0 0 0 0 0 0 0 0 0 0 0 0 0 0 0 0 0 0 0 0 0 0 0 
0 0 0 0 0 0 19.983888626098632812 68.6797943115234375 80.3609466552734375 105.86356353759765625 71.7136993408203125 93.64920806884765625 105.305084228515625 183.2519989013671875 289.067474365234375 541.581787109375 217.9209136962890625 159.2021331787109375 100.402374267578125 97.35533905029296875 95.7217864990234375 94.189208984375 85.96939849853515625 92.2365264892578125 101.147216796875 104.67852020263671875 103.8744964599609375 101.9929962158203125 104.36647796630859375 108.30724334716796875 110.37830352783203125 111.68337249755859375 179.9565277099609375 104.603057861328125 80.9197998046875 0 0 0 0 0 0 0 0 0 0 0 0 0 0 0 0 0 0 0 0 0 0 0 0 0 0 0 0 0 0 0 0 0 0 0 0 0 0 0 0 0 0 0 0 0 0 0 0 0 0 0 0 
0 0 0 0 0 0 105.52288818359375 48.07367706298828125 95.2166290283203125 121.33472442626953125 113.21414947509765625 77.5544281005859375 69.071563720703125 516.5517578125 684.65826416015625 288.967926025390625 180.623291015625 99.040313720703125 94.1833953857421875 90.6471710205078125 90.53368377685546875 89.187713623046875 84.2449798583984375 95.166595458984375 104.92649078369140625 103.3477783203125 99.62934112548828125 103.0182647705078125 104.85800933837890625 223.295928955078125 115.12737274169921875 136.2657470703125 105.099273681640625 19.444225311279296875 0 0 0 0 0 0 0 0 0 0 0 0 0 0 0 0 0 0 0 0 0 0 0 0 0 0 0 0 0 0 0 0 0 0 0 0 0 0 0 0 0 0 0 0 0 0 0 0 0 0 0 0 0 
0 0 0 0 0 0 53.934783935546875 55.268283843994140625 106.62915802001953125 153.8572235107421875 87.2692413330078125 109.6187896728515625 86.16457366943359375 376.864227294921875 611.09661865234375 214.1919097900390625 80.87622833251953125 71.08514404296875 62.348155975341796875 78.3808135986328125 75.076324462890625 90.22173309326171875 89.41948699951171875 96.16063690185546875 108.4707183837890625 102.8907623291015625 103.17578125 107.22913360595703125 218.4105377197265625 222.8426971435546875 128.7223358154296875 127.0466461181640625 69.418121337890625 17.013696670532226562 0 0 0 0 0 0 0 0 0 0 0 0 0 0 0 0 0 0 0 0 0 0 0 0 0 0 0 0 0 0 0 0 0 0 0 0 0 0 0 0 0 0 0 0 0 0 0 0 0 0 0 0 0 
0 0 0 0 0 0 85.49720001220703125 110.85297393798828125 112.43670654296875 104.27544403076171875 143.1450958251953125 403.7891845703125 504.94549560546875 669.74407958984375 648.15020751953125 178.3857269287109375 103.91155242919921875 79.6259613037109375 59.108455657958984375 68.644744873046875 77.35323333740234375 91.8157958984375 90.9962921142578125 97.32262420654296875 109.5402679443359375 106.3870086669921875 109.84159088134765625 107.401641845703125 229.470672607421875 217.2491607666015625 140.4733123779296875 102.93115997314453125 6.2628583908081054688 0 0 0 0 0 0 0 0 0 0 0 0 0 0 0 0 0 0 0 0 0 0 0 0 0 0 0 0 0 0 0 0 0 0 0 0 0 0 0 0 0 0 0 0 0 0 0 0 0 0 0 0 0 0 
0 0 0 0 0 174.6182861328125 109.91857147216796875 266.196441650390625 111.5491485595703125 104.0218048095703125 148.7010650634765625 607.4678955078125 719.27008056640625 726.254150390625 580.1622314453125 154.1610260009765625 87.84234619140625 79.6395416259765625 73.6203155517578125 68.75484466552734375 93.2834930419921875 102.84056854248046875 192.07745361328125 95.51517486572265625 110.886566162109375 106.84912872314453125 109.3709869384765625 212.77197265625 219.1207427978515625 119.87709808349609375 129.2917938232421875 173.503662109375 0 0 0 0 0 0 0 0 0 0 0 0 0 0 0 0 0 0 0 0 0 0 0 0 0 0 0 0 0 0 0 0 0 0 0 0 0 0 0 0 0 0 0 0 0 0 0 0 0 0 0 0 0 0 0 
0 0 0 0 0 150.0682830810546875 137.7815093994140625 131.80511474609375 109.351104736328125 111.94141387939453125 484.29486083984375 718.7799072265625 714.2823486328125 696.54595947265625 554.2230224609375 306.35015869140625 91.87822723388671875 73.0137481689453125 57.761943817138671875 74.3448944091796875 76.985260009765625 86.5197906494140625 85.2318878173828125 94.60173797607421875 98.3634490966796875 104.83712005615234375 108.26488494873046875 110.10888671875 120.37674713134765625 124.84026336669921875 78.22051239013671875 0 0 0 0 0 0 0 0 0 0 0 0 0 0 0 0 0 0 0 0 0 0 0 0 0 0 0 0 0 0 0 0 0 0 0 0 0 0 0 0 0 0 0 0 0 0 0 0 0 0 0 0 0 0 0 0 
0 0 0 0 0 182.273712158203125 149.8889923095703125 115.690460205078125 103.6131744384765625 203.1514129638671875 624.89422607421875 710.25994873046875 613.47442626953125 607.90753173828125 567.17535400390625 317.89898681640625 93.602752685546875 78.194671630859375 72.9658050537109375 69.168670654296875 90.92601776123046875 96.53665924072265625 130.51422119140625 98.3457489013671875 101.9294281005859375 109.726806640625 109.07849884033203125 113.32848358154296875 120.8799896240234375 133.31451416015625 0 0 0 0 0 0 0 0 0 0 0 0 0 0 0 0 0 0 0 0 0 0 0 0 0 0 0 0 0 0 0 0 0 0 0 0 0 0 0 0 0 0 0 0 0 0 0 0 0 0 0 0 0 0 0 0 0 
0 0 0 0 0 197.078338623046875 123.80792236328125 114.47115325927734375 103.7533111572265625 540.21826171875 697.679443359375 659.93170166015625 515.6796875 526.88800048828125 556.519775390625 354.697998046875 147.727203369140625 86.56851959228515625 78.09610748291015625 79.85982513427734375 92.1373748779296875 95.9851531982421875 95.4207611083984375 104.4887847900390625 108.00550079345703125 109.369171142578125 114.62890625 128.45562744140625 85.673553466796875 78.91053009033203125 0 0 0 0 0 0 0 0 0 0 0 0 0 0 0 0 0 0 0 0 0 0 0 0 0 0 0 0 0 0 0 0 0 0 0 0 0 0 0 0 0 0 0 0 0 0 0 0 0 0 0 0 0 0 0 0 0 
0 0 0 0 0 0 114.58661651611328125 130.793792724609375 57.815586090087890625 701.0234375 681.2960205078125 542.77325439453125 397.39813232421875 381.282562255859375 436.23358154296875 257.659515380859375 159.8485565185546875 104.19498443603515625 96.16117095947265625 96.32415771484375 100.5622100830078125 135.1674957275390625 99.2464599609375 109.60654449462890625 114.78964996337890625 109.913787841796875 116.91841888427734375 127.30251312255859375 30.37395477294921875 0 0 0 0 0 0 0 0 0 0 0 0 0 0 0 0 0 0 0 0 0 0 0 0 0 0 0 0 0 0 0 0 0 0 0 0 0 0 0 0 0 0 0 0 0 0 0 0 0 0 0 0 0 0 0 0 0 0 
0 0 0 0 0 0 109.64864349365234375 122.41413116455078125 212.7674102783203125 442.191131591796875 537.45263671875 192.6909637451171875 144.2874298095703125 92.524444580078125 344.435882568359375 149.799072265625 190.7567901611328125 110.1403350830078125 100.2838287353515625 107.0278472900390625 108.38451385498046875 105.00836944580078125 107.19062042236328125 235.2444305419921875 127.61299896240234375 119.260223388671875 115.00019073486328125 251.9480743408203125 0 0 0 0 0 0 0 0 0 0 0 0 0 0 0 0 0 0 0 0 0 0 0 0 0 0 0 0 0 0 0 0 0 0 0 0 0 0 0 0 0 0 0 0 0 0 0 0 0 0 0 0 0 0 0 0 0 0 0 
0 0 0 0 0 72.01375579833984375 114.25475311279296875 361.107879638671875 549.33740234375 714.98284912109375 590.56243896484375 204.5636444091796875 71.62030792236328125 95.212799072265625 402.077117919921875 172.6139678955078125 112.73987579345703125 109.5055084228515625 105.244903564453125 107.8651580810546875 108.6459808349609375 110.286865234375 117.6224822998046875 129.3109588623046875 126.79154205322265625 123.673553466796875 247.3837432861328125 97.3489227294921875 0 0 0 0 0 0 0 0 0 0 0 0 0 0 0 0 0 0 0 0 0 0 0 0 0 0 0 0 0 0 0 0 0 0 0 0 0 0 0 0 0 0 0 0 0 0 0 0 0 0 0 0 0 0 0 0 0 0 0 
0 0 0 0 0 133.9852142333984375 112.86824798583984375 93.59870147705078125 169.753387451171875 189.846649169921875 172.5403900146484375 467.413787841796875 108.16156005859375 114.583587646484375 444.41461181640625 159.6174163818359375 102.04479217529296875 100.88784027099609375 100.44805908203125 107.4940032958984375 117.04018402099609375 117.3702239990234375 122.601837158203125 124.69591522216796875 126.83770751953125 129.92034912109375 115.99660491943359375 80.18912506103515625 0 0 0 0 0 0 0 0 0 0 0 0 0 0 0 0 0 0 0 0 0 0 0 0 0 0 0 0 0 0 0 0 0 0 0 0 0 0 0 0 0 0 0 0 0 0 0 0 0 0 0 0 0 0 0 0 0 0 0 
0 0 0 0 0 105.936492919921875 94.3389739990234375 120.7952880859375 95.2623138427734375 121.410400390625 172.5403900146484375 347.882293701171875 55.051570892333984375 134.1901702880859375 281.922210693359375 161.1442413330078125 107.85713958740234375 101.9588623046875 103.300537109375 109.9311981201171875 116.9909210205078125 115.57648468017578125 119.47119140625 120.70318603515625 110.2935943603515625 103.76192474365234375 23.01270294189453125 0 0 0 0 0 0 0 0 0 0 0 0 0 0 0 0 0 0 0 0 0 0 0 0 0 0 0 0 0 0 0 0 0 0 0 0 0 0 0 0 0 0 0 0 0 0 0 0 0 0 0 0 0 0 0 0 0 0 0 0 
0 0 0 0 0 97.8798065185546875 114.590789794921875 94.06327056884765625 157.135986328125 82.7479095458984375 197.8088226318359375 122.61037445068359375 68.69366455078125 177.1081085205078125 534.33123779296875 182.256439208984375 156.2556304931640625 104.97057342529296875 109.8013763427734375 115.887542724609375 119.53830718994140625 116.9779205322265625 119.45510101318359375 119.236114501953125 116.0662384033203125 0 0 0 0 0 0 0 0 0 0 0 0 0 0 0 0 0 0 0 0 0 0 0 0 0 0 0 0 0 0 0 0 0 0 0 0 0 0 0 0 0 0 0 0 0 0 0 0 0 0 0 0 0 0 0 0 0 0 0 0 0 0 
0 0 0 0 0 108.500701904296875 117.4099578857421875 100.5377197265625 109.68791961669921875 107.82392120361328125 129.7681732177734375 190.721588134765625 226.3569183349609375 183.769683837890625 554.7056884765625 222.7955322265625 115.08815765380859375 112.08319854736328125 113.52703094482421875 107.955657958984375 113.7002105712890625 113.25070953369140625 303.766632080078125 118.3726348876953125 105.2592010498046875 0 0 0 0 0 0 0 0 0 0 0 0 0 0 0 0 0 0 0 0 0 0 0 0 0 0 0 0 0 0 0 0 0 0 0 0 0 0 0 0 0 0 0 0 0 0 0 0 0 0 0 0 0 0 0 0 0 0 0 0 0 0 
0 0 0 0 0 152.5032806396484375 73.52696990966796875 64.27886199951171875 117.055328369140625 111.09432220458984375 85.475494384765625 170.93218994140625 220.6822052001953125 153.560791015625 545.31134033203125 522.5789794921875 111.70131683349609375 106.4409332275390625 114.66025543212890625 107.43646240234375 113.2623291015625 111.76697540283203125 115.6506805419921875 101.450439453125 45.462154388427734375 0 0 0 0 0 0 0 0 0 0 0 0 0 0 0 0 0 0 0 0 0 0 0 0 0 0 0 0 0 0 0 0 0 0 0 0 0 0 0 0 0 0 0 0 0 0 0 0 0 0 0 0 0 0 0 0 0 0 0 0 0 0 
0 0 0 0 0 123.9161834716796875 78.49797821044921875 112.43503570556640625 84.7025604248046875 110.31452178955078125 113.38782501220703125 198.249755859375 573.4053955078125 342.807647705078125 385.377777099609375 188.82763671875 91.6552734375 108.51731109619140625 113.822235107421875 114.81584930419921875 110.43692779541015625 95.28558349609375 108.77544403076171875 110.5769500732421875 21.63629150390625 0 0 0 0 0 0 0 0 0 0 0 0 0 0 0 0 0 0 0 0 0 0 0 0 0 0 0 0 0 0 0 0 0 0 0 0 0 0 0 0 0 0 0 0 0 0 0 0 0 0 0 0 0 0 0 0 0 0 0 0 0 0 
0 0 0 0 0 31.981657028198242188 0 87.319244384765625 91.11402130126953125 123.34860992431640625 81.20270538330078125 134.0854034423828125 625.06854248046875 310.84912109375 378.854583740234375 176.7584228515625 82.1374664306640625 131.7185516357421875 116.1077728271484375 113.31463623046875 105.0514373779296875 108.31935882568359375 106.76001739501953125 104.82568359375 28.033172607421875 0 0 0 0 0 0 0 0 0 0 0 0 0 0 0 0 0 0 0 0 0 0 0 0 0 0 0 0 0 0 0 0 0 0 0 0 0 0 0 0 0 0 0 0 0 0 0 0 0 0 0 0 0 0 0 0 0 0 0 0 0 0 
0 0 0 0 0 0 0 2.4597001075744628906 51.449615478515625 107.28539276123046875 91.3698577880859375 119.7007598876953125 613.098388671875 638.58087158203125 274.411529541015625 92.37197113037109375 95.91168212890625 107.86562347412109375 117.41164398193359375 113.08229827880859375 148.895477294921875 91.2675018310546875 101.49048614501953125 110.9573516845703125 27.9366607666015625 0 0 0 0 0 0 0 0 0 0 0 0 0 0 0 0 0 0 0 0 0 0 0 0 0 0 0 0 0 0 0 0 0 0 0 0 0 0 0 0 0 0 0 0 0 0 0 0 0 0 0 0 0 0 0 0 0 0 0 0 0 0 
0 0 0 0 0 0 0 16.898420333862304688 70.28546905517578125 110.6640167236328125 111.17980194091796875 123.40789031982421875 531.72918701171875 572.59228515625 372.13031005859375 222.237548828125 112.18286895751953125 121.42913818359375 116.368072509765625 107.83823394775390625 110.30683135986328125 108.59856414794921875 109.89430999755859375 88.29888916015625 13.493016242980957031 0 0 0 0 0 0 0 0 0 0 0 0 0 0 0 0 0 0 0 0 0 0 0 0 0 0 0 0 0 0 0 0 0 0 0 0 0 0 0 0 0 0 0 0 0 0 0 0 0 0 0 0 0 0 0 0 0 0 0 0 0 0 
0 0 0 0 0 0 0 86.47259521484375 113.7625732421875 108.813873291015625 91.5802001953125 63.569652557373046875 558.22906494140625 558.22906494140625 418.674346923828125 268.035675048828125 188.1950531005859375 124.53919219970703125 119.818511962890625 110.44525909423828125 105.4186248779296875 84.3065948486328125 83.86595916748046875 21.25467681884765625 0 0 0 0 0 0 0 0 0 0 0 0 0 0 0 0 0 0 0 0 0 0 0 0 0 0 0 0 0 0 0 0 0 0 0 0 0 0 0 0 0 0 0 0 0 0 0 0 0 0 0 0 0 0 0 0 0 0 0 0 0 0 0 
0 0 0 0 0 43.314037322998046875 263.16546630859375 107.50006103515625 113.65572357177734375 94.70238494873046875 100.63694000244140625 104.80788421630859375 182.941986083984375 556.67572021484375 365.081024169921875 205.457733154296875 127.00856781005859375 121.99500274658203125 117.7284698486328125 108.30342864990234375 0 0 0 0 0 0 0 0 0 0 0 0 0 0 0 0 0 0 0 0 0 0 0 0 0 0 0 0 0 0 0 0 0 0 0 0 0 0 0 0 0 0 0 0 0 0 0 0 0 0 0 0 0 0 0 0 0 0 0 0 0 0 0 0 0 0 0 
0 0 0 0 0 21.657018661499023438 315.017425537109375 127.28685760498046875 121.58402252197265625 178.333038330078125 125.29947662353515625 118.6680908203125 559.34527587890625 559.34527587890625 509.40106201171875 229.3388519287109375 128.1221923828125 111.89427947998046875 113.48609161376953125 96.581787109375 0 0 0 0 0 0 0 0 0 0 0 0 0 0 0 0 0 0 0 0 0 0 0 0 0 0 0 0 0 0 0 0 0 0 0 0 0 0 0 0 0 0 0 0 0 0 0 0 0 0 0 0 0 0 0 0 0 0 0 0 0 0 0 0 0 0 0 
0 0 0 0 0 0 33.60413360595703125 132.1229400634765625 120.06383514404296875 172.564910888671875 128.35284423828125 144.5124359130859375 573.6402587890625 276.624847412109375 269.0987548828125 507.5943603515625 141.35491943359375 90.03084564208984375 131.0709686279296875 3.7144429683685302734 0 0 0 0 0 0 0 0 0 0 0 0 0 0 0 0 0 0 0 0 0 0 0 0 0 0 0 0 0 0 0 0 0 0 0 0 0 0 0 0 0 0 0 0 0 0 0 0 0 0 0 0 0 0 0 0 0 0 0 0 0 0 0 0 0 0 0 
0 0 0 0 0 0 35.486942291259765625 145.27606201171875 147.1571197509765625 178.7007598876953125 117.61914825439453125 189.6358184814453125 289.017791748046875 296.262603759765625 233.9420928955078125 403.942535400390625 108.521331787109375 127.38178253173828125 107.29393768310546875 31.915182113647460938 0 0 0 0 0 0 0 0 0 0 0 0 0 0 0 0 0 0 0 0 0 0 0 0 0 0 0 0 0 0 0 0 0 0 0 0 0 0 0 0 0 0 0 0 0 0 0 0 0 0 0 0 0 0 0 0 0 0 0 0 0 0 0 0 0 0 0 
0 0 0 0 0 0 37.27285003662109375 144.6662750244140625 149.230987548828125 132.7213287353515625 118.56308746337890625 196.4945526123046875 264.583038330078125 292.53570556640625 223.584259033203125 198.3599700927734375 114.57154083251953125 120.2713165283203125 121.73333740234375 41.28119659423828125 0 0 0 0 0 0 0 0 0 0 0 0 0 0 0 0 0 0 0 0 0 0 0 0 0 0 0 0 0 0 0 0 0 0 0 0 0 0 0 0 0 0 0 0 0 0 0 0 0 0 0 0 0 0 0 0 0 0 0 0 0 0 0 0 0 0 0 
0 0 0 0 0 0 15.03864288330078125 178.2168426513671875 179.12908935546875 173.9150543212890625 230.999359130859375 142.2417449951171875 234.3992462158203125 566.93096923828125 222.0838470458984375 185.326690673828125 129.1725921630859375 118.1740264892578125 54.289127349853515625 103.2029876708984375 0 0 0 0 0 0 0 0 0 0 0 0 0 0 0 0 0 0 0 0 0 0 0 0 0 0 0 0 0 0 0 0 0 0 0 0 0 0 0 0 0 0 0 0 0 0 0 0 0 0 0 0 0 0 0 0 0 0 0 0 0 0 0 0 0 0 0 
0 0 0 0 0 0 205.4280548095703125 192.7778472900390625 185.51654052734375 184.9419403076171875 186.0117645263671875 217.1869049072265625 478.253753662109375 596.85137939453125 185.3953399658203125 130.46148681640625 129.9805145263671875 120.5085296630859375 0 0 0 0 0 0 0 0 0 0 0 0 0 0 0 0 0 0 0 0 0 0 0 0 0 0 0 0 0 0 0 0 0 0 0 0 0 0 0 0 0 0 0 0 0 0 0 0 0 0 0 0 0 0 0 0 0 0 0 0 0 0 0 0 0 0 0 0 0 
0 0 0 0 0 0 0 195.0387420654296875 189.341705322265625 189.4564361572265625 220.7620391845703125 510.37664794921875 540.676513671875 284.4971923828125 323.892120361328125 0 0 0 0 0 0 0 0 0 0 0 0 0 0 0 0 0 0 0 0 0 0 0 0 0 0 0 0 0 0 0 0 0 0 0 0 0 0 0 0 0 0 0 0 0 0 0 0 0 0 0 0 0 0 0 0 0 0 0 0 0 0 0 0 0 0 0 0 0 0 0 0 
0 0 0 0 0 0 0 0 200.2111968994140625 237.29290771484375 532.11151123046875 222.0763702392578125 239.48785400390625 0 0 0 0 0 0 0 0 0 0 0 0 0 0 0 0 0 0 0 0 0 0 0 0 0 0 0 0 0 0 0 0 0 0 0 0 0 0 0 0 0 0 0 0 0 0 0 0 0 0 0 0 0 0 0 0 0 0 0 0 0 0 0 0 0 0 0 0 0 0 0 0 0 0 
0 0 0 0 0 0 0 0 0 325.995452880859375 0 0 0 0 0 0 0 0 0 0 0 0 0 0 0 0 0 0 0 0 0 0 0 0 0 0 0 0 0 0 0 0 0 0 0 0 0 0 0 0 0 0 0 0 0 0 0 0 0 0 0 0 0 0 0 0 0 0 0 0 0 0 0 0 0 0 0 0 0 0 0 0 0 0 0 0 0 
0 0 0 0 0 0 0 0 0 0 0 0 0 0 0 0 0 0 0 0 0 0 0 0 0 0 0 0 0 0 0 0 0 0 0 0 0 0 0 0 0 0 0 0 0 0 0 0 0 0 0 0 0 0 0 0 0 0 0 0 0 0 0 0 0 0 0 0 0 0 0 0 0 0 0 0 0 0 0 0 0 0 0 0 0 0 0 
0 0 0 0 0 0 0 0 0 0 0 0 0 0 0 0 0 0 0 0 0 0 0 0 0 0 0 0 0 0 0 0 0 0 0 0 0 0 0 0 0 0 0 0 0 0 0 0 0 0 0 0 0 0 0 0 0 0 0 0 0 0 0 0 0 0 0 0 0 0 0 0 0 0 0 0 0 0 0 0 0 0 0 0 0 0 0 
0 0 0 0 0 0 0 0 0 0 0 0 0 0 0 0 0 0 0 0 0 0 0 0 0 0 0 0 0 0 0 0 0 0 0 0 0 0 0 0 0 0 0 0 0 0 0 0 0 0 0 0 0 0 0 0 0 0 0 0 0 0 0 0 0 0 0 0 0 0 0 0 0 0 0 0 0 0 0 0 0 0 0 0 0 0 0 
0 0 0 0 0 0 0 0 0 0 0 0 0 0 0 0 0 0 0 0 0 0 0 0 0 0 0 0 0 0 0 0 0 0 0 0 0 0 0 0 0 0 0 0 0 0 0 0 0 0 0 0 0 0 0 0 0 0 0 0 0 0 0 0 0 0 0 0 0 0 0 0 0 0 0 0 0 0 0 0 0 0 0 0 0 0 0 
