ncols        19
nrows        23
xllcorner    508562.338426187926
yllcorner    5265326.272683421150
cellsize     570.000000000000
NODATA_value -9999
0.0 0 0 0 0 0 0 0 0 0 0 0 0 0 3.5373089313507080078 0 0 0 0 
0 0 0 0 0 0 0 0 0 0 0 0 0 194.545684814453125 12.336727142333984375 0 0 0 0 
0 0 0 0 0 0 0 0 0 0 0 0 1.233485102653503418 144.4738922119140625 0 0 0 0 0 
0 0 0 0 0 0 0 0 0 0 0 0 101.60692596435546875 147.1901702880859375 17.181585311889648438 0 0 0 0 
0 0 0 0 0 0 0 0 0 0 0 4.7915029525756835938 152.65826416015625 147.5270233154296875 120.52739715576171875 18.37306976318359375 15.005030632019042969 0 0 
0 0 0 0 0 0 0 0 0 0 0 87.9515380859375 158.649993896484375 142.5690460205078125 115.2504730224609375 101.10260009765625 68.5092010498046875 0 0 
0 0 0 0 0 0 0 0 0 0 59.937244415283203125 134.8703155517578125 152.096099853515625 119.90317535400390625 111.54315185546875 110.64134979248046875 84.2145538330078125 0 0 
0 0 0 0 0 0 0 0 0 0 87.43585968017578125 128.501434326171875 220.2162933349609375 116.453826904296875 121.4972076416015625 118.67781829833984375 11.504840850830078125 0 0 
0 0 0 0 0 0 0 0 0 65.58928680419921875 103.425933837890625 120.3410797119140625 152.4711151123046875 110.6799774169921875 128.0054168701171875 123.13704681396484375 12.204662322998046875 0 0 
0 0 0 0 0 0 0 1.0333273410797119141 44.369464874267578125 101.507049560546875 199.5531463623046875 117.1002655029296875 164.3717498779296875 114.66265869140625 92.1952667236328125 55.336116790771484375 0 0 0 
0 0 0 0 0 0 0 28.209377288818359375 93.83446502685546875 93.146697998046875 103.007476806640625 135.41656494140625 107.74378204345703125 28.930835723876953125 0.79569798707962036133 0 0 0 0 
0 0 0 0 0 66.58724212646484375 47.909671783447265625 81.09951019287109375 94.34439849853515625 130.225830078125 140.87750244140625 100.863372802734375 100.0172882080078125 15.157265663146972656 0 0 0 0 0 
0 0 0 5.2261900901794433594 13.846157073974609375 86.5179901123046875 97.90033721923828125 94.0561981201171875 83.61814117431640625 117.41310882568359375 114.8665618896484375 122.4196319580078125 104.34723663330078125 7.0001969337463378906 0 0 0 0 0 
0 0 5.5285267829895019531 48.916217803955078125 73.14246368408203125 142.08740234375 106.046417236328125 93.8560333251953125 116.077880859375 82.2073211669921875 107.3733367919921875 137.2032470703125 24.326751708984375 0 0 0 0 0 0 
0 3.2350347042083740234 63.256378173828125 519.30322265625 165.48944091796875 81.922149658203125 82.7772979736328125 164.6755523681640625 3.3088171482086181641 0 0 0 0 0 0 0 0 0 0 
0 72.44968414306640625 76.20011138916015625 176.91644287109375 69.29754638671875 79.4661407470703125 193.8475189208984375 8.333591461181640625 0 0 0 0 0 0 0 0 0 0 0 
0 79.787841796875 485.6661376953125 66.1426849365234375 71.38117218017578125 85.32305145263671875 19.513437271118164062 0 0 0 0 0 0 0 0 0 0 0 0 
0 47.797130584716796875 147.57525634765625 121.5338287353515625 86.1435546875 64.96891021728515625 0 0 0 0 0 0 0 0 0 0 0 0 0 
0 92.40253448486328125 115.4367523193359375 90.05960845947265625 85.61454010009765625 10.835135459899902344 0 0 0 0 0 0 0 0 0 0 0 0 0 
0 37.784389495849609375 420.9183349609375 98.805816650390625 54.09066009521484375 2.7192440032958984375 0 0 0 0 0 0 0 0 0 0 0 0 0 
0 36.3127288818359375 165.9493865966796875 142.357208251953125 2.605167388916015625 0 0 0 0 0 0 0 0 0 0 0 0 0 0 
0 2.4046599864959716797 144.2246551513671875 0 0 0 0 0 0 0 0 0 0 0 0 0 0 0 0 
0 0 0 0 0 0 0 0 0 0 0 0 0 0 0 0 0 0 0 
