ncols        87
nrows        107
xllcorner    508562.338426187926
yllcorner    5265596.272683421150
cellsize     120.000000000000
NODATA_value -9999
0.0 0 0 0 0 0 0 0 0 0 0 0 0 0 0 0 0 0 0 0 0 0 0 0 0 0 0 0 0 0 0 0 0 0 0 0 0 0 0 0 0 0 0 0 0 0 0 0 0 0 0 0 0 0 0 0 0 0 0 0 0 0 0 0 0 0 0 0 0 0 0 0 0 0 0 0 0 0 0 0 0 0 0 0 0 0 0 
0 0 0 0 0 0 0 0 0 0 0 0 0 0 0 0 0 0 0 0 0 0 0 0 0 0 0 0 0 0 0 0 0 0 0 0 0 0 0 0 0 0 0 0 0 0 0 0 0 0 0 0 0 0 0 0 0 0 0 0 0 0 0 0 0 0 0 0 0 0 0 0 0 0 0 0 0 0 0 0 0 0 0 0 0 0 0 
0 0 0 0 0 0 0 0 0 0 0 0 0 0 0 0 0 0 0 0 0 0 0 0 0 0 0 0 0 0 0 0 0 0 0 0 0 0 0 0 0 0 0 0 0 0 0 0 0 0 0 0 0 0 0 0 0 0 0 0 0 0 0 0 0 149.1575469970703125 64.4144134521484375 0 0 0 0 0 0 0 0 0 0 0 0 0 0 0 0 0 0 0 0 
0 0 0 0 0 0 0 0 0 0 0 0 0 0 0 0 0 0 0 0 0 0 0 0 0 0 0 0 0 0 0 0 0 0 0 0 0 0 0 0 0 0 0 0 0 0 0 0 0 0 0 0 0 0 0 0 0 0 0 0 0 0 0 0 0 446.716156005859375 53.92706298828125 0 0 0 0 0 0 0 0 0 0 0 0 0 0 0 0 0 0 0 0 
0 0 0 0 0 0 0 0 0 0 0 0 0 0 0 0 0 0 0 0 0 0 0 0 0 0 0 0 0 0 0 0 0 0 0 0 0 0 0 0 0 0 0 0 0 0 0 0 0 0 0 0 0 0 0 0 0 0 0 0 0 0 0 0 148.3928680419921875 593.57147216796875 79.33565521240234375 21.423725128173828125 0 0 0 0 0 0 0 0 0 0 0 0 0 0 0 0 0 0 0 
0 0 0 0 0 0 0 0 0 0 0 0 0 0 0 0 0 0 0 0 0 0 0 0 0 0 0 0 0 0 0 0 0 0 0 0 0 0 0 0 0 0 0 0 0 0 0 0 0 0 0 0 0 0 0 0 0 0 0 0 0 0 0 88.2258758544921875 436.760650634765625 689.479248046875 159.466094970703125 12.62994384765625 0 0 0 0 0 0 0 0 0 0 0 0 0 0 0 0 0 0 0 
0 0 0 0 0 0 0 0 0 0 0 0 0 0 0 0 0 0 0 0 0 0 0 0 0 0 0 0 0 0 0 0 0 0 0 0 0 0 0 0 0 0 0 0 0 0 0 0 0 0 0 0 0 0 0 0 0 0 0 0 0 0 0 88.2258758544921875 272.145965576171875 251.1190185546875 170.36810302734375 11.480710029602050781 0 0 0 0 0 0 0 0 0 0 0 0 0 0 0 0 0 0 0 
0 0 0 0 0 0 0 0 0 0 0 0 0 0 0 0 0 0 0 0 0 0 0 0 0 0 0 0 0 0 0 0 0 0 0 0 0 0 0 0 0 0 0 0 0 0 0 0 0 0 0 0 0 0 0 0 0 0 0 0 0 0 61.9195404052734375 144.855865478515625 363.73455810546875 346.391998291015625 127.391571044921875 0 0 0 0 0 0 0 0 0 0 0 0 0 0 0 0 0 0 0 0 
0 0 0 0 0 0 0 0 0 0 0 0 0 0 0 0 0 0 0 0 0 0 0 0 0 0 0 0 0 0 0 0 0 0 0 0 0 0 0 0 0 0 0 0 0 0 0 0 0 0 0 0 0 0 0 0 0 0 0 0 0 0 101.73850250244140625 119.5806121826171875 301.097808837890625 260.807281494140625 97.47270965576171875 0 0 0 0 0 0 0 0 0 0 0 0 0 0 0 0 0 0 0 0 
0 0 0 0 0 0 0 0 0 0 0 0 0 0 0 0 0 0 0 0 0 0 0 0 0 0 0 0 0 0 0 0 0 0 0 0 0 0 0 0 0 0 0 0 0 0 0 0 0 0 0 0 0 0 0 0 0 0 0 0 0 0 93.44289398193359375 100.0906829833984375 119.262969970703125 260.27838134765625 97.1515960693359375 0 0 0 0 0 0 0 0 0 0 0 0 0 0 0 0 0 0 0 0 
0 0 0 0 0 0 0 0 0 0 0 0 0 0 0 0 0 0 0 0 0 0 0 0 0 0 0 0 0 0 0 0 0 0 0 0 0 0 0 0 0 0 0 0 0 0 0 0 0 0 0 0 0 0 0 0 0 0 0 0 0 0 128.7240142822265625 134.5294647216796875 107.54427337646484375 252.17510986328125 105.47670745849609375 39.26715850830078125 0 0 0 0 0 0 0 0 0 0 0 0 0 0 0 0 0 0 0 
0 0 0 0 0 0 0 0 0 0 0 0 0 0 0 0 0 0 0 0 0 0 0 0 0 0 0 0 0 0 0 0 0 0 0 0 0 0 0 0 0 0 0 0 0 0 0 0 0 0 0 0 0 0 0 0 0 0 0 0 0 0 128.7240142822265625 133.587371826171875 251.618560791015625 264.354522705078125 84.66088104248046875 19.649608612060546875 0 0 0 0 0 0 0 0 0 0 0 0 0 0 0 0 0 0 0 
0 0 0 0 0 0 0 0 0 0 0 0 0 0 0 0 0 0 0 0 0 0 0 0 0 0 0 0 0 0 0 0 0 0 0 0 0 0 0 0 0 0 0 0 0 0 0 0 0 0 0 0 0 0 0 0 0 0 0 0 0 0 90.96007537841796875 243.38372802734375 262.52008056640625 118.92474365234375 54.99041748046875 0 0 0 0 0 0 0 0 0 0 0 0 0 0 0 0 0 0 0 0 
0 0 0 0 0 0 0 0 0 0 0 0 0 0 0 0 0 0 0 0 0 0 0 0 0 0 0 0 0 0 0 0 0 0 0 0 0 0 0 0 0 0 0 0 0 0 0 0 0 0 0 0 0 0 0 0 0 0 0 0 0 0 90.3103179931640625 234.9835205078125 124.05113983154296875 108.74536895751953125 49.019756317138671875 0 0 0 0 0 0 0 0 0 0 0 0 0 0 0 0 0 0 0 0 
0 0 0 0 0 0 0 0 0 0 0 0 0 0 0 0 0 0 0 0 0 0 0 0 0 0 0 0 0 0 0 0 0 0 0 0 0 0 0 0 0 0 0 0 0 0 0 0 0 0 0 0 0 0 0 0 0 0 0 0 0 93.1814117431640625 81.59209442138671875 166.0266265869140625 122.3167266845703125 110.195953369140625 31.040798187255859375 0 0 0 0 0 0 0 0 0 0 0 0 0 0 0 0 0 0 0 0 
0 0 0 0 0 0 0 0 0 0 0 0 0 0 0 0 0 0 0 0 0 0 0 0 0 0 0 0 0 0 0 0 0 0 0 0 0 0 0 0 0 0 0 0 0 0 0 0 0 0 0 0 0 0 0 0 0 0 0 30.781591415405273438 92.69239044189453125 67.72876739501953125 85.86916351318359375 109.669708251953125 117.9075164794921875 110.2901611328125 0 0 0 0 0 0 0 0 0 0 0 0 0 0 0 0 0 0 0 0 0 
0 0 0 0 0 0 0 0 0 0 0 0 0 0 0 0 0 0 0 0 0 0 0 0 0 0 0 0 0 0 0 0 0 0 0 0 0 0 0 0 0 0 0 0 0 0 0 0 0 0 0 0 0 0 0 0 0 0 0 30.781591415405273438 123.12636566162109375 79.12957000732421875 86.71378326416015625 112.2158203125 114.647857666015625 106.8462066650390625 0 0 0 0 0 0 0 0 0 0 0 0 0 0 0 0 0 0 0 0 0 
0 0 0 0 0 0 0 0 0 0 0 0 0 0 0 0 0 0 0 0 0 0 0 0 0 0 0 0 0 0 0 0 0 0 0 0 0 0 0 0 0 0 0 0 0 0 0 0 0 0 0 0 0 0 0 0 0 0 0 0 90.02542877197265625 99.4270477294921875 158.1938934326171875 170.41973876953125 164.4960174560546875 98.6944732666015625 0 0 0 0 0 0 0 0 0 0 0 0 0 0 0 0 0 0 0 0 0 
0 0 0 0 0 0 0 0 0 0 0 0 0 0 0 0 0 0 0 0 0 0 0 0 0 0 0 0 0 0 0 0 0 0 0 0 0 0 0 0 0 0 0 0 0 0 0 0 0 0 0 0 0 0 0 0 0 0 0 40.257236480712890625 93.50722503662109375 115.6369476318359375 121.5714111328125 126.85807037353515625 112.71854400634765625 96.74462127685546875 73.7702789306640625 69.1468963623046875 64.19963836669921875 44.060115814208984375 30.63253021240234375 0 0 0 0 0 0 0 0 0 0 0 0 0 0 0 0 
0 0 0 0 0 0 0 0 0 0 0 0 0 0 0 0 0 0 0 0 0 0 0 0 0 0 0 0 0 0 0 0 0 0 0 0 0 0 0 0 0 0 0 0 0 0 0 0 0 0 0 0 0 0 0 0 0 0 100.10532379150390625 91.650482177734375 97.95892333984375 129.1871490478515625 128.5584259033203125 123.97980499267578125 105.49098968505859375 99.20250701904296875 76.006317138671875 68.3890380859375 64.51979827880859375 63.93148040771484375 43.869903564453125 13.221134185791015625 0 0 0 0 0 0 0 0 0 0 0 0 0 0 0 
0 0 0 0 0 0 0 0 0 0 0 0 0 0 0 0 0 0 0 0 0 0 0 0 0 0 0 0 0 0 0 0 0 0 0 0 0 0 0 0 0 0 0 0 0 0 0 0 0 0 0 0 0 0 0 0 0 0 61.63939666748046875 108.49561309814453125 117.2537689208984375 129.73345947265625 126.2461700439453125 114.35498809814453125 83.54024505615234375 79.85723876953125 102.6995697021484375 98.5134735107421875 71.44687652587890625 72.418792724609375 61.521442413330078125 21.911983489990234375 0 0 0 0 0 0 0 0 0 0 0 0 0 0 0 
0 0 0 0 0 0 0 0 0 0 0 0 0 0 0 0 0 0 0 0 0 0 0 0 0 0 0 0 0 0 0 0 0 0 0 0 0 0 0 0 0 0 0 0 0 0 0 0 0 0 0 0 0 0 0 0 0 56.851776123046875 103.9803314208984375 126.05804443359375 126.3012237548828125 119.77220916748046875 70.07872772216796875 80.57448577880859375 77.0399322509765625 75.691986083984375 70.11540985107421875 71.52797698974609375 74.27024078369140625 71.840484619140625 67.51753997802734375 0 0 0 0 0 0 0 0 0 0 0 0 0 0 0 0 
0 0 0 0 0 0 0 0 0 0 0 0 0 0 0 0 0 0 0 0 0 0 0 0 0 0 0 0 0 0 0 0 0 0 0 0 0 0 0 0 0 0 0 0 0 0 0 0 0 0 0 0 0 0 0 0 30.450519561767578125 69.706573486328125 112.081085205078125 136.994140625 127.59278106689453125 112.10321044921875 59.23625946044921875 78.70298004150390625 74.30335235595703125 72.7254791259765625 67.07923126220703125 64.365631103515625 69.25267791748046875 82.93372344970703125 72.0880279541015625 0 0 0 0 0 0 33.36779022216796875 0 0 0 0 0 0 0 0 0 
0 0 0 0 0 0 0 0 0 0 0 0 0 0 0 0 0 0 0 0 0 0 0 0 0 0 0 0 0 0 0 0 0 0 0 0 0 0 0 0 0 0 0 0 0 0 0 0 0 0 0 0 0 0 0 4.9380917549133300781 49.9112701416015625 84.88251495361328125 121.8325653076171875 141.676605224609375 123.61865234375 82.6198577880859375 77.154571533203125 75.8837738037109375 67.0172271728515625 88.01474761962890625 70.02564239501953125 51.4008941650390625 54.27730560302734375 71.24274444580078125 58.3861236572265625 56.812042236328125 64.99310302734375 79.59976959228515625 68.2299957275390625 63.032489776611328125 63.370738983154296875 73.34233856201171875 62.138134002685546875 0 0 0 0 0 0 0 0 
0 0 0 0 0 0 0 0 0 0 0 0 0 0 0 0 0 0 0 0 0 0 0 0 0 0 0 0 0 0 0 0 0 0 0 0 0 0 0 0 0 0 0 0 0 0 0 0 0 0 0 0 0 0 20.088169097900390625 31.962350845336914062 79.783050537109375 87.728057861328125 124.89531707763671875 137.4222564697265625 119.65277862548828125 92.1835174560546875 76.99988555908203125 66.67469024658203125 73.5892791748046875 44.333740234375 51.70458984375 60.490642547607421875 50.15074920654296875 66.01224517822265625 61.477130889892578125 47.941162109375 58.060398101806640625 50.608509063720703125 58.2312469482421875 60.71266937255859375 73.9959869384765625 86.8624114990234375 34.19887542724609375 0 0 0 0 0 0 0 0 
0 0 0 0 0 0 0 0 0 0 0 0 0 0 0 0 0 0 0 0 0 0 0 0 0 0 0 0 0 0 0 0 0 0 0 0 0 0 0 0 0 0 0 0 0 0 0 0 0 0 0 0 0 0 79.899871826171875 81.493621826171875 88.57486724853515625 102.3828277587890625 119.372650146484375 133.3604736328125 123.24798583984375 83.74991607666015625 84.67983245849609375 77.33568572998046875 70.7630462646484375 73.76604461669921875 53.94913482666015625 67.42021942138671875 67.66526031494140625 62.253826141357421875 45.710590362548828125 63.756374359130859375 61.65581512451171875 53.672229766845703125 61.020198822021484375 73.7286376953125 251.1466217041015625 78.7506103515625 34.16948699951171875 0 0 0 0 0 0 0 0 
0 0 0 0 0 0 0 0 0 0 0 0 0 0 0 0 0 0 0 0 0 0 0 0 0 0 0 0 0 0 0 0 0 0 0 0 0 0 0 0 0 0 0 0 0 0 0 0 0 0 0 0 0 43.779018402099609375 77.04065704345703125 83.68520355224609375 82.89234161376953125 105.62609100341796875 124.05052947998046875 125.671600341796875 107.1292877197265625 86.232330322265625 68.6876068115234375 49.199146270751953125 73.62030029296875 79.85372161865234375 72.51734161376953125 69.516448974609375 72.40576934814453125 68.074249267578125 48.9383392333984375 48.9149017333984375 63.125461578369140625 48.06763458251953125 67.76059722900390625 92.8476409912109375 328.3692626953125 92.7201690673828125 72.35878753662109375 0 0 0 0 0 0 0 0 
0 0 0 0 0 0 0 0 0 0 0 0 0 0 0 0 0 0 0 0 0 0 0 0 0 0 0 0 0 0 0 0 0 0 0 0 0 0 0 0 0 0 0 0 0 0 0 0 0 0 0 0 0 57.167057037353515625 79.766937255859375 85.100494384765625 81.4638671875 105.39810943603515625 172.24224853515625 125.2604522705078125 114.712982177734375 84.1296539306640625 85.97307586669921875 75.0964508056640625 64.70354461669921875 75.18476104736328125 56.86871337890625 107.62625885009765625 58.816585540771484375 59.206966400146484375 65.2012786865234375 59.637577056884765625 57.684574127197265625 83.0486297607421875 56.976409912109375 84.92240142822265625 265.139190673828125 99.99892425537109375 78.413055419921875 0 0 0 0 0 0 0 0 
0 0 0 0 0 0 0 0 0 0 0 0 0 0 0 0 0 0 0 0 0 0 0 0 0 0 0 0 0 0 0 0 0 0 0 0 0 0 0 0 0 0 0 0 0 0 0 0 0 0 0 9.31331634521484375 47.150814056396484375 106.430145263671875 77.04782867431640625 79.7884674072265625 80.1945953369140625 91.8336639404296875 106.00107574462890625 126.12282562255859375 110.33827972412109375 76.8551177978515625 53.285427093505859375 55.940372467041015625 75.9758453369140625 76.239105224609375 58.741390228271484375 77.56451416015625 69.98439788818359375 70.451995849609375 74.8157958984375 69.316680908203125 66.82683563232421875 72.70160675048828125 70.8275909423828125 85.131256103515625 94.7436676025390625 86.5697784423828125 77.9008331298828125 51.44640350341796875 0 0 0 0 0 0 0 
0 0 0 0 0 0 0 0 0 0 0 0 0 0 0 0 0 0 0 0 0 0 0 0 0 0 0 0 0 0 0 0 0 0 0 0 0 0 0 0 0 0 0 0 0 0 0 0 0 0 0 37.455768585205078125 74.06726837158203125 72.74628448486328125 83.2823638916015625 84.54267120361328125 82.0281982421875 94.34316253662109375 162.5035858154296875 123.34229278564453125 112.264007568359375 79.96958160400390625 41.047527313232421875 55.3114776611328125 60.069255828857421875 76.92606353759765625 68.554107666015625 80.76656341552734375 73.0337982177734375 73.45296478271484375 75.1585540771484375 74.44842529296875 69.07691192626953125 75.20560455322265625 57.347400665283203125 76.81237030029296875 85.1896820068359375 79.58469390869140625 80.701263427734375 54.058635711669921875 0 0 0 0 0 0 0 
0 0 0 0 0 0 0 0 0 0 0 0 0 0 0 0 0 0 0 0 0 0 0 0 0 0 0 0 0 0 0 0 0 0 0 0 0 0 0 0 0 0 0 0 0 0 0 0 27.490146636962890625 40.424968719482421875 30.577472686767578125 37.390167236328125 76.07961273193359375 77.5245513916015625 90.84112548828125 88.7589569091796875 85.70471954345703125 104.5178070068359375 115.1277008056640625 168.3759002685546875 155.0509490966796875 80.501556396484375 69.435760498046875 69.448394775390625 81.5357513427734375 85.661651611328125 64.945526123046875 81.911224365234375 79.82384490966796875 75.1185150146484375 79.38831329345703125 76.9547271728515625 71.0575408935546875 77.0367889404296875 74.02921295166015625 85.0082244873046875 85.42807769775390625 84.39839935302734375 183.6860198974609375 64.27628326416015625 0 0 0 0 0 0 0 
0 0 0 0 0 0 0 0 0 0 0 0 0 0 0 0 0 0 0 0 0 0 0 0 0 0 0 0 0 0 0 0 0 0 0 0 0 0 0 0 0 0 0 0 0 0 0 0 50.54523468017578125 72.2127685546875 78.49237823486328125 69.5466461181640625 78.8182830810546875 80.87465667724609375 87.06156158447265625 87.37169647216796875 87.8101959228515625 160.8477325439453125 178.709197998046875 118.4697265625 106.50070953369140625 82.8558349609375 82.9310455322265625 81.4079437255859375 79.6285400390625 74.66381072998046875 72.30440521240234375 78.2383575439453125 73.2454071044921875 76.33910369873046875 78.29845428466796875 80.21025848388671875 78.05011749267578125 80.95455169677734375 73.23455047607421875 62.819866180419921875 87.96283721923828125 91.23558807373046875 86.95281982421875 46.340702056884765625 0 0 0 0 0 0 0 
0 0 0 0 0 0 0 0 0 0 0 0 0 0 0 0 0 0 0 0 0 0 0 0 0 0 0 0 0 0 0 0 0 0 0 0 0 0 0 0 0 0 0 0 0 0 0 0 50.536228179931640625 70.29506683349609375 75.2156829833984375 77.5785675048828125 77.39716339111328125 79.763031005859375 83.49318695068359375 83.3076171875 84.12175750732421875 129.1494140625 138.712493896484375 126.1462554931640625 80.76609039306640625 79.8728179931640625 83.4825592041015625 60.36884307861328125 73.531707763671875 69.60030364990234375 83.78691864013671875 67.3460540771484375 71.06795501708984375 71.2228851318359375 70.98377227783203125 76.63910675048828125 78.50867462158203125 77.7621307373046875 76.84401702880859375 63.6851654052734375 84.60541534423828125 85.8274078369140625 73.06472015380859375 5.0187544822692871094 0 0 0 0 0 0 0 
0 0 0 0 0 0 0 0 0 0 0 0 0 0 0 0 0 0 0 0 0 0 0 0 0 0 0 0 0 0 0 0 0 0 0 0 0 0 0 0 0 0 0 0 0 0 0 0 37.178615570068359375 71.167083740234375 70.43131256103515625 78.547607421875 70.7056427001953125 72.68346405029296875 81.8309783935546875 81.2711029052734375 79.9605255126953125 127.29976654052734375 143.89654541015625 125.94803619384765625 80.7419586181640625 75.9688262939453125 81.3539581298828125 89.5098724365234375 110.4512786865234375 61.456573486328125 57.6202392578125 72.7568817138671875 76.877532958984375 74.89340972900390625 73.12816619873046875 80.40225982666015625 75.721099853515625 80.51776123046875 79.8743133544921875 80.4253387451171875 73.6583709716796875 77.9110107421875 22.731258392333984375 0 0 0 0 0 0 0 0 
0 0 0 0 0 0 0 0 0 0 0 0 0 0 0 0 0 0 0 0 0 0 0 0 0 0 0 0 0 0 0 0 0 0 0 0 0 0 0 0 0 0 0 0 0 0 0 0 0 76.406951904296875 72.78289031982421875 70.65738677978515625 66.878265380859375 74.630706787109375 79.1276702880859375 78.17154693603515625 79.182647705078125 168.015045166015625 187.89556884765625 176.16351318359375 111.14548492431640625 73.6703338623046875 74.5590972900390625 79.4542083740234375 69.1215667724609375 69.1130523681640625 68.489654541015625 75.90203094482421875 82.0792083740234375 78.33038330078125 77.741729736328125 79.1624298095703125 77.67092132568359375 77.344879150390625 74.92958831787109375 85.36972808837890625 55.057861328125 2.2498345375061035156 0 0 0 0 0 0 0 0 0 
0 0 0 0 0 0 0 0 0 0 0 0 0 0 0 0 0 0 0 0 0 0 0 0 0 0 0 0 0 0 0 0 0 0 0 0 0 0 0 0 0 0 0 0 0 0 0 0 34.135173797607421875 76.06781768798828125 58.1268768310546875 63.450634002685546875 70.914825439453125 81.96556854248046875 80.55109405517578125 75.91119384765625 76.12060546875 119.51345062255859375 124.75995635986328125 176.16351318359375 117.79468536376953125 72.39109039306640625 69.88280487060546875 60.198444366455078125 70.07851409912109375 73.33663177490234375 75.7441558837890625 79.21014404296875 79.634521484375 84.97631072998046875 81.33274078369140625 78.4240264892578125 77.58721923828125 73.464202880859375 65.0637359619140625 76.06048583984375 42.349628448486328125 10.499227523803710938 0 0 0 0 0 0 0 0 0 
0 0 0 0 0 0 0 0 0 0 0 0 0 0 0 0 0 0 0 0 0 0 0 0 0 0 0 0 0 0 0 0 0 0 0 0 0 0 0 0 0 0 0 0 0 0 0 0 65.67911529541015625 61.593822479248046875 65.0778961181640625 65.731292724609375 73.757232666015625 79.85512542724609375 77.147552490234375 75.46274566650390625 70.851806640625 147.0492095947265625 169.7159881591796875 187.688812255859375 170.756591796875 77.10172271728515625 60.167186737060546875 58.21559906005859375 71.4037017822265625 67.43959808349609375 76.82126617431640625 79.3401947021484375 76.97496795654296875 86.0938262939453125 78.67076873779296875 79.93239593505859375 79.41898345947265625 74.572418212890625 70.7352294921875 68.20429229736328125 24.028371810913085938 0 0 0 0 0 0 0 0 0 0 
0 0 0 0 0 0 0 0 0 0 0 0 0 0 0 0 0 0 0 0 0 0 0 0 0 0 0 0 0 0 0 0 0 0 0 0 0 0 0 0 0 0 0 0 0 0 18.865985870361328125 66.54163360595703125 58.03949737548828125 54.65039825439453125 65.09940338134765625 57.218235015869140625 62.6844635009765625 72.1582489013671875 73.88944244384765625 73.2431640625 144.7781219482421875 123.141510009765625 131.816375732421875 185.3410797119140625 108.496734619140625 43.106685638427734375 70.68726348876953125 78.75531768798828125 80.02477264404296875 74.16845703125 75.260223388671875 76.2882843017578125 68.8181304931640625 72.9983062744140625 73.2494049072265625 78.8352813720703125 82.76947784423828125 87.3800048828125 66.457916259765625 124.022735595703125 76.45236968994140625 0 0 0 0 0 0 0 0 0 0 
0 0 0 0 0 0 0 0 0 0 0 0 0 0 0 0 0 0 0 0 0 0 0 0 0 0 0 0 0 0 0 0 0 0 0 0 0 0 0 0 0 0 0 0 17.10550689697265625 53.430393218994140625 52.77532958984375 55.58614349365234375 72.2431793212890625 67.9738616943359375 70.71144866943359375 59.928020477294921875 62.328639984130859375 67.53816986083984375 72.1925506591796875 75.53141021728515625 112.63282012939453125 141.4803314208984375 141.7366943359375 176.1882171630859375 81.318756103515625 60.752437591552734375 60.18335723876953125 61.9599151611328125 72.8594512939453125 72.5854644775390625 66.03973388671875 83.30660247802734375 80.9007720947265625 82.69081878662109375 74.08197021484375 72.7392578125 85.51236724853515625 97.9121551513671875 80.8498382568359375 67.732269287109375 24.745471954345703125 5.1737689971923828125 0 0 0 0 0 0 0 0 0 
0 0 0 0 0 0 0 0 0 0 0 0 0 0 0 0 0 0 0 0 0 0 0 0 0 0 0 0 0 0 0 0 0 0 0 0 0 0 0 0 0 0 0 0 66.977935791015625 70.4455413818359375 42.69902801513671875 61.193790435791015625 69.79061126708984375 67.9052734375 65.81659698486328125 64.45621490478515625 63.588726043701171875 68.26885223388671875 73.08377838134765625 73.70331573486328125 77.92844390869140625 208.8431396484375 199.331298828125 108.8248748779296875 75.43787384033203125 67.3380584716796875 66.46851348876953125 61.39719390869140625 69.2917327880859375 65.692474365234375 67.2146148681640625 72.150360107421875 79.43365478515625 79.03045654296875 76.2780303955078125 78.96514892578125 62.858158111572265625 91.57917022705078125 71.69828033447265625 61.498668670654296875 61.019481658935546875 17.258729934692382812 0 0 0 0 0 0 0 0 0 
0 0 0 0 0 0 0 0 0 0 0 0 0 0 0 0 0 0 0 0 0 0 0 0 0 0 0 0 0 0 0 0 0 0 0 0 0 0 0 0 0 0 0 0 61.2345123291015625 56.4342041015625 55.453777313232421875 57.18318939208984375 71.0351104736328125 65.249053955078125 68.330535888671875 65.2881011962890625 64.3040313720703125 64.54091644287109375 64.5269927978515625 69.08678436279296875 81.48218536376953125 206.13214111328125 197.561981201171875 115.536651611328125 75.48203277587890625 66.02976226806640625 63.171077728271484375 68.0796661376953125 52.42301177978515625 31.515228271484375 63.40637969970703125 74.9760894775390625 82.05529022216796875 82.5563812255859375 80.91422271728515625 85.894378662109375 81.488189697265625 85.6877593994140625 71.84380340576171875 65.020782470703125 52.975677490234375 11.94167327880859375 0 0 0 0 0 0 0 0 0 
0 0 0 0 0 0 0 0 0 0 0 0 0 0 0 0 0 0 0 0 0 0 0 0 0 0 0 0 0 0 0 0 0 0 0 0 0 0 0 0 0 0 0 33.2860870361328125 52.1996612548828125 34.75011444091796875 44.18839263916015625 45.680683135986328125 64.611419677734375 73.092376708984375 61.89371490478515625 61.373188018798828125 66.5045166015625 68.06714630126953125 64.5079345703125 65.1054534912109375 83.1933135986328125 96.2456817626953125 140.2920379638671875 125.30507659912109375 106.6735382080078125 73.60327911376953125 71.41632843017578125 69.3569183349609375 70.2570648193359375 71.5238037109375 73.40316009521484375 79.8353118896484375 81.88660430908203125 90.206787109375 90.22875213623046875 94.5762786865234375 89.6155853271484375 67.44486236572265625 58.629695892333984375 56.624385833740234375 22.436162948608398438 1.6320769786834716797 0 0 0 0 0 0 0 0 0 
0 0 0 0 0 0 0 0 0 0 0 0 0 0 0 0 0 0 0 0 0 0 0 0 0 0 0 0 0 0 0 0 0 0 0 0 0 0 0 0 0 0 51.94231414794921875 57.56261444091796875 58.224269866943359375 59.612972259521484375 59.195095062255859375 59.555820465087890625 59.1885833740234375 63.790256500244140625 66.98517608642578125 70.02935791015625 73.078399658203125 72.6487884521484375 65.9067535400390625 71.085601806640625 79.03495025634765625 86.8916168212890625 127.31334686279296875 203.2167816162109375 128.8669891357421875 115.19412994384765625 117.60324859619140625 74.59302520751953125 77.794403076171875 78.47354888916015625 84.660858154296875 85.3615570068359375 81.80301666259765625 93.21144866943359375 92.458038330078125 176.7939453125 86.777191162109375 87.904205322265625 76.6775054931640625 0 0 0 0 0 0 0 0 0 0 0 0 
0 0 0 0 0 0 0 0 0 0 0 0 0 0 0 0 0 0 0 0 0 0 0 0 0 0 0 0 0 0 0 0 0 0 0 0 0 0 0 0 0 55.496826171875 56.43816375732421875 62.42819976806640625 64.05094146728515625 70.144439697265625 67.310211181640625 64.7729949951171875 120.7277374267578125 122.46142578125 73.4167327880859375 65.775848388671875 67.8858795166015625 143.465118408203125 68.98133087158203125 66.00814056396484375 74.5148773193359375 80.70074462890625 86.41131591796875 196.494415283203125 135.5841827392578125 86.575408935546875 114.524932861328125 111.89887237548828125 103.733917236328125 100.65822601318359375 81.917999267578125 80.7736053466796875 79.783935546875 89.47332000732421875 85.6576995849609375 80.89603424072265625 74.2153167724609375 88.81385040283203125 0 0 0 0 0 0 0 0 0 0 0 0 0 
0 0 0 0 0 0 0 0 0 0 0 0 0 0 0 0 0 0 0 0 0 0 0 0 0 0 0 0 0 0 0 0 0 0 0 0 0 0 0 0 19.787900924682617188 24.801830291748046875 64.66748809814453125 63.17816162109375 65.7537078857421875 70.575775146484375 69.5185394287109375 66.7659149169921875 128.2464447021484375 117.11740875244140625 70.34468841552734375 63.561710357666015625 61.7475433349609375 129.827789306640625 68.69712066650390625 72.08876800537109375 72.36977386474609375 76.0542755126953125 114.741485595703125 138.302642822265625 139.08013916015625 79.4463348388671875 74.9933624267578125 79.27317047119140625 80.2991180419921875 75.6477508544921875 70.857208251953125 70.52178955078125 80.290985107421875 120.84272003173828125 86.66654205322265625 81.289093017578125 81.2558441162109375 63.95806121826171875 0 0 0 0 0 0 0 0 0 0 0 0 0 
0 0 0 0 0 0 0 0 0 0 0 0 0 0 0 0 0 0 0 0 0 0 0 0 0 0 0 0 0 0 0 0 0 0 0 0 0 0 0 74.7147216796875 50.994503021240234375 42.564769744873046875 35.7155303955078125 72.74224853515625 69.69681549072265625 67.69553375244140625 66.7718048095703125 131.737457275390625 131.780426025390625 66.647247314453125 74.9070281982421875 132.6534423828125 60.447887420654296875 125.17183685302734375 68.595245361328125 73.63677978515625 74.42841339111328125 77.33890533447265625 114.20899200439453125 136.36962890625 134.247589111328125 76.9939117431640625 71.11704254150390625 73.0143890380859375 74.4554290771484375 71.6199493408203125 64.910797119140625 60.510990142822265625 57.2559814453125 68.1771392822265625 72.24541473388671875 76.33150482177734375 75.640167236328125 69.93874359130859375 0 0 0 0 0 0 0 0 0 0 0 0 0 
0 0 0 0 0 0 0 0 0 0 0 0 0 0 0 0 0 0 0 0 0 0 0 0 0 0 0 0 0 0 0 0 0 0 0 0 0 0 24.486742019653320312 44.09629058837890625 56.651157379150390625 48.76389312744140625 55.70511627197265625 59.744419097900390625 67.53157806396484375 60.992816925048828125 69.86141204833984375 131.9432525634765625 67.34311676025390625 64.404754638671875 68.23302459716796875 121.3451080322265625 117.97748565673828125 65.21758270263671875 71.1130523681640625 79.22930145263671875 83.63214111328125 83.0003814697265625 133.5125579833984375 138.2704620361328125 130.708953857421875 75.17346954345703125 69.44910430908203125 69.545257568359375 69.0713653564453125 65.33526611328125 59.888484954833984375 27.210601806640625 13.727964401245117188 17.903713226318359375 0 41.630878448486328125 60.056362152099609375 12.961193084716796875 0 0 0 0 0 0 0 0 0 0 0 0 0 
0 0 0 0 0 0 0 0 0 0 0 0 0 0 0 0 0 0 0 0 0 0 0 0 0 0 0 0 0 0 0 0 0 0 0 0 0 25.553716659545898438 50.54311370849609375 41.699764251708984375 50.91576385498046875 53.890262603759765625 107.780517578125 74.3785400390625 56.813373565673828125 55.784847259521484375 113.49228668212890625 119.99608612060546875 61.7312469482421875 60.676239013671875 66.61553192138671875 63.5923309326171875 58.03563690185546875 65.93016815185546875 72.7748260498046875 80.091339111328125 87.5443878173828125 94.31182861328125 140.7428436279296875 213.5323486328125 86.32318115234375 72.9351959228515625 68.88312530517578125 62.31990814208984375 47.299102783203125 11.301882743835449219 44.853118896484375 11.124676704406738281 0 0 0 0 0 0 0 0 0 0 0 0 0 0 0 0 0 0 0 
0 0 0 0 0 0 0 0 0 0 0 0 0 0 0 0 0 0 0 0 0 0 0 0 0 0 0 0 0 0 0 0 0 0 0 0 89.07932281494140625 58.283214569091796875 53.51641082763671875 55.070369720458984375 54.682987213134765625 43.53166961669921875 46.0130462646484375 41.119747161865234375 45.96710968017578125 53.697841644287109375 55.78949737548828125 58.43321990966796875 61.947811126708984375 70.0686187744140625 73.8541412353515625 69.01853179931640625 62.657588958740234375 68.82151031494140625 95.3695220947265625 75.985595703125 100.69939422607421875 103.84745025634765625 180.779815673828125 139.274169921875 72.69036102294921875 72.96591949462890625 55.81459808349609375 56.441310882568359375 39.886005401611328125 0 0 0 0 0 0 0 0 0 0 0 0 0 0 0 0 0 0 0 0 0 0 
0 0 0 0 0 0 0 0 0 0 0 0 0 0 0 0 0 0 0 0 0 0 0 0 0 0 0 0 0 0 0 0 0 0 0 0 40.66030120849609375 58.84645843505859375 56.76868438720703125 61.276447296142578125 87.32440948486328125 48.10147857666015625 69.13545989990234375 47.126190185546875 46.312000274658203125 55.227016448974609375 58.244815826416015625 58.533946990966796875 62.31554412841796875 69.82794952392578125 71.347747802734375 67.4638519287109375 65.8772430419921875 67.3171234130859375 72.66161346435546875 109.0436859130859375 110.14105987548828125 69.76822662353515625 129.7656402587890625 77.92823028564453125 61.442729949951171875 65.37174224853515625 65.70807647705078125 42.090351104736328125 0 0 0 0 0 0 0 0 0 0 0 0 0 0 0 0 0 0 0 0 0 0 0 
0 0 0 0 0 0 0 0 0 0 0 0 0 0 0 0 0 0 0 0 0 0 0 0 0 0 0 0 0 0 0 0 0 0 0 8.0038633346557617188 49.18459320068359375 62.03946685791015625 58.147647857666015625 62.0277557373046875 51.698062896728515625 81.30005645751953125 73.42436981201171875 66.47380828857421875 52.4167022705078125 60.18379974365234375 60.362941741943359375 59.492565155029296875 65.58870697021484375 71.283660888671875 68.63909149169921875 66.19608306884765625 70.89922332763671875 61.27794647216796875 179.270660400390625 89.37389373779296875 87.0757598876953125 91.2392730712890625 110.64543914794921875 60.50778961181640625 48.57956695556640625 49.7316741943359375 34.818424224853515625 61.954555511474609375 0 0 0 0 0 0 0 0 0 0 0 0 0 0 0 0 0 0 0 0 0 0 0 
0 0 0 0 0 0 0 0 0 0 0 0 0 0 0 0 0 0 0 0 0 0 0 0 0 0 0 0 0 0 0 0 0 0 0 10.509564399719238281 53.690456390380859375 57.685443878173828125 113.65184783935546875 57.572662353515625 28.529542922973632812 59.140010833740234375 59.13559722900390625 108.9580841064453125 64.2646026611328125 75.3852081298828125 68.83963775634765625 67.9842987060546875 100.7105712890625 78.2671356201171875 74.51982879638671875 73.5254974365234375 123.4114227294921875 132.25482177734375 112.22869873046875 122.18755340576171875 90.90303802490234375 69.45068359375 76.76752471923828125 67.25972747802734375 67.009796142578125 45.087062835693359375 47.299407958984375 0 0 0 0 0 0 0 0 0 0 0 0 0 0 0 0 0 0 0 0 0 0 0 0 
0 0 0 0 0 0 0 0 0 0 0 0 0 0 0 0 0 0 0 0 0 0 0 0 0 0 0 0 0 0 0 0 0 0 8.9846086502075195312 33.121570587158203125 30.65863800048828125 37.33062744140625 126.63329315185546875 35.250766754150390625 25.064443588256835938 57.663272857666015625 62.40985870361328125 64.932159423828125 69.40973663330078125 116.84867095947265625 115.33704376220703125 115.0882568359375 106.937042236328125 104.3030853271484375 101.218017578125 112.71334075927734375 128.72979736328125 88.8576812744140625 87.12905120849609375 67.61406707763671875 53.60408782958984375 61.710803985595703125 97.01134490966796875 68.23321533203125 63.490619659423828125 62.683773040771484375 39.48906707763671875 0 0 0 0 0 0 0 0 0 0 0 0 0 0 0 0 0 0 0 0 0 0 0 0 
0 0 0 0 0 0 0 0 0 0 0 0 0 0 0 0 0 0 0 0 0 0 0 0 0 0 0 0 0 0 3.977191925048828125 0 11.101968765258789062 20.895961761474609375 43.413822174072265625 49.523189544677734375 39.865734100341796875 78.756805419921875 78.980804443359375 42.21014404296875 42.818561553955078125 122.5217742919921875 97.49161529541015625 105.0717010498046875 117.99359893798828125 120.09088897705078125 73.840484619140625 106.6808929443359375 100.42366790771484375 106.42249298095703125 108.77809906005859375 81.181976318359375 78.6027679443359375 76.54412078857421875 79.4884033203125 53.149440765380859375 51.869121551513671875 57.900836944580078125 91.11414337158203125 78.39707183837890625 72.86592864990234375 39.145740509033203125 64.0541839599609375 4.6776933670043945312 0 0 0 0 0 0 0 0 0 0 0 0 0 0 0 0 0 0 0 0 0 0 0 
0 0 0 0 0 0 0 0 0 0 0 0 0 0 0 0 0 0 0 0 0 0 0 0 0 0 37.59288787841796875 33.015277862548828125 0 0 33.463161468505859375 23.42897796630859375 15.452669143676757812 58.924755096435546875 77.813995361328125 57.219287872314453125 101.22486114501953125 87.7091217041015625 53.01251983642578125 58.073150634765625 93.72576141357421875 102.98766326904296875 101.49590301513671875 107.2875518798828125 63.26680755615234375 65.5135650634765625 68.19415283203125 70.75762176513671875 69.75128936767578125 70.521026611328125 70.77593231201171875 65.86518096923828125 63.50383758544921875 81.143402099609375 72.0943145751953125 43.00281524658203125 53.05623626708984375 52.91363525390625 56.650638580322265625 59.036556243896484375 32.658229827880859375 55.6903228759765625 56.516876220703125 14.331090927124023438 0 0 0 0 0 0 0 0 0 0 0 0 0 0 0 0 0 0 0 0 0 0 0 
0 0 0 0 0 0 0 0 0 0 0 0 0 0 0 0 0 0 0 0 0 0 0 0 0 8.9187040328979492188 43.30129241943359375 110.4536590576171875 52.107715606689453125 41.14757537841796875 28.61487579345703125 25.966623306274414062 29.718057632446289062 28.985895156860351562 47.980998992919921875 335.597412109375 153.52618408203125 80.18357086181640625 98.6807403564453125 93.24044036865234375 48.155620574951171875 19.90496063232421875 59.09307861328125 93.9032440185546875 62.295925140380859375 57.16915130615234375 60.961971282958984375 73.3502960205078125 79.0321044921875 74.13263702392578125 68.45946502685546875 57.79328155517578125 58.863910675048828125 66.90822601318359375 40.375293731689453125 53.225811004638671875 55.962459564208984375 54.650035858154296875 42.060634613037109375 47.019496917724609375 67.9141693115234375 52.355865478515625 22.554010391235351562 0 0 0 0 0 0 0 0 0 0 0 0 0 0 0 0 0 0 0 0 0 0 0 0 
0 0 0 0 0 0 0 0 0 0 0 0 0 0 0 0 0 0 0 0 0 0 0 0 0 31.55727386474609375 60.179668426513671875 77.5310211181640625 48.467220306396484375 67.28548431396484375 46.94001007080078125 32.92894744873046875 37.765888214111328125 35.77056884765625 49.71575164794921875 140.0401458740234375 231.73638916015625 98.66872406005859375 62.308330535888671875 57.33280181884765625 60.9016571044921875 21.844387054443359375 82.94718170166015625 89.72430419921875 63.2998199462890625 58.573917388916015625 66.76079559326171875 77.085205078125 54.4676513671875 55.201995849609375 47.670825958251953125 46.746021270751953125 36.874423980712890625 31.907335281372070312 53.631076812744140625 56.35919952392578125 54.334049224853515625 51.751636505126953125 50.391010284423828125 46.534984588623046875 53.284870147705078125 51.153095245361328125 12.384077072143554688 0 0 0 0 0 0 0 0 0 0 0 0 0 0 0 0 0 0 0 0 0 0 0 0 
0 0 0 0 0 0 0 0 0 0 0 0 0 0 0 0 0 0 0 0 0 0 0 0 11.552789688110351562 61.025501251220703125 77.443023681640625 53.02268218994140625 48.52701568603515625 74.67134857177734375 59.771152496337890625 30.212369918823242188 42.650966644287109375 49.40708160400390625 47.0517120361328125 95.3360137939453125 97.41661834716796875 52.573345184326171875 82.74951934814453125 75.00322723388671875 49.991481781005859375 144.8385009765625 64.6434478759765625 62.624149322509765625 64.33679962158203125 63.61095428466796875 67.529693603515625 65.7494964599609375 48.121540069580078125 45.263790130615234375 45.27037811279296875 37.26267242431640625 44.707912445068359375 52.03530120849609375 58.658496856689453125 61.31809234619140625 56.80460357666015625 62.896030426025390625 74.9723968505859375 48.730487823486328125 60.266628265380859375 52.674854278564453125 0 0 0 0 0 0 0 0 0 0 0 0 0 0 0 0 0 0 0 0 0 0 0 0 0 
0 0 0 0 0 0 0 0 0 0 0 0 0 0 0 0 0 0 0 0 0 0 0 58.2772369384765625 50.314411163330078125 48.220699310302734375 62.863758087158203125 41.69853973388671875 47.055278778076171875 50.91314697265625 49.51129150390625 48.677310943603515625 70.8537445068359375 144.0235137939453125 102.0796051025390625 104.163177490234375 92.3171844482421875 61.437328338623046875 62.897510528564453125 46.884857177734375 48.828800201416015625 105.65802001953125 66.067535400390625 65.64987945556640625 67.20989227294921875 57.488506317138671875 59.14591217041015625 78.6166534423828125 60.852787017822265625 58.542705535888671875 56.903369903564453125 58.355449676513671875 69.4297637939453125 72.61386871337890625 71.9540557861328125 90.78630828857421875 70.6396942138671875 68.25946044921875 67.26166534423828125 61.473392486572265625 59.900279998779296875 54.68589019775390625 13.389478683471679688 0 0 0 0 0 0 0 0 0 0 0 0 0 0 0 0 0 0 0 0 0 0 0 0 
0 0 0 0 0 0 0 0 0 0 0 0 0 0 0 0 0 0 0 0 0 0 18.525747299194335938 44.32219696044921875 41.857410430908203125 45.69734954833984375 56.938869476318359375 61.858791351318359375 69.23882293701171875 54.91121673583984375 84.3079376220703125 99.0659332275390625 133.917022705078125 513.76171875 400.44500732421875 177.6402740478515625 100.39554595947265625 71.83229827880859375 64.83258056640625 70.5142364501953125 43.634525299072265625 104.62293243408203125 52.6573028564453125 63.59112548828125 80.84783172607421875 71.81040191650390625 71.41143035888671875 69.47264862060546875 81.257049560546875 79.30095672607421875 62.1745452880859375 69.57202911376953125 74.9215087890625 81.44332122802734375 81.5969085693359375 80.82079315185546875 80.4575653076171875 106.70763397216796875 74.2188873291015625 70.3939056396484375 69.63657379150390625 64.3541107177734375 15.90169525146484375 0 0 0 0 0 0 0 0 0 0 0 0 0 0 0 0 0 0 0 0 0 0 0 0 
0 0 0 0 0 0 0 0 0 0 0 0 0 0 0 0 12.646081924438476562 25.292163848876953125 0 0 0 27.180583953857421875 43.432262420654296875 57.651668548583984375 43.57619476318359375 51.0149078369140625 37.007900238037109375 77.59633636474609375 28.932180404663085938 27.583429336547851562 52.82495880126953125 197.809844970703125 84.7894439697265625 628.1199951171875 280.504486083984375 137.5980224609375 75.073150634765625 53.607181549072265625 47.917484283447265625 57.56310272216796875 46.433345794677734375 67.26305389404296875 67.54510498046875 71.0942840576171875 74.544342041015625 76.27407073974609375 75.31108856201171875 82.7342376708984375 81.90334320068359375 79.4330596923828125 75.247314453125 77.15129852294921875 80.364471435546875 85.59029388427734375 87.2768402099609375 87.21578216552734375 84.27197265625 77.61853790283203125 79.833709716796875 153.58447265625 77.6158294677734375 44.03313446044921875 4.2728257179260253906 0 0 0 0 0 0 0 0 0 0 0 0 0 0 0 0 0 0 0 0 0 0 0 0 
0 0 0 0 0 0 0 0 0 0 0 0 0 0 0 0 16.9734649658203125 30.970041275024414062 0 0 0 29.127622604370117188 24.5155181884765625 35.465076446533203125 34.358089447021484375 39.599151611328125 49.45725250244140625 96.490875244140625 100.19916534423828125 131.413787841796875 278.389373779296875 73.005401611328125 83.03800201416015625 198.0366058349609375 290.38177490234375 118.36856842041015625 49.964481353759765625 43.757785797119140625 59.868022918701171875 65.6214141845703125 56.318981170654296875 65.50974273681640625 66.5798187255859375 72.046722412109375 77.3799285888671875 79.44881439208984375 78.121826171875 82.60201263427734375 82.49005126953125 83.20981597900390625 79.65554046630859375 82.0944671630859375 85.0046539306640625 91.48467254638671875 92.8180999755859375 89.82727813720703125 85.47974395751953125 80.61144256591796875 81.03716278076171875 78.66718292236328125 72.40601348876953125 13.662626266479492188 0 0 0 0 0 0 0 0 0 0 0 0 0 0 0 0 0 0 0 0 0 0 0 0 0 
0 0 0 0 0 0 0 0 0 0 0 0 0 0 0 0 16.926759719848632812 68.7906646728515625 43.681224822998046875 41.947734832763671875 27.354894638061523438 45.014766693115234375 56.37899017333984375 43.742290496826171875 44.20276641845703125 90.2584991455078125 115.85589599609375 110.3432464599609375 143.9095611572265625 169.134124755859375 120.98780059814453125 41.3244476318359375 59.02931976318359375 91.59243011474609375 62.18743133544921875 53.001361846923828125 80.913299560546875 87.14513397216796875 58.105442047119140625 55.608661651611328125 67.85161590576171875 68.7570037841796875 69.81827545166015625 72.9296417236328125 72.467742919921875 71.56349945068359375 79.26598358154296875 77.16634368896484375 80.231475830078125 76.84061431884765625 85.8566131591796875 97.68883514404296875 99.6837615966796875 101.72676849365234375 92.38741302490234375 98.50023651123046875 95.82643890380859375 89.82935333251953125 82.1977996826171875 75.9719085693359375 14.498136520385742188 0 0 0 0 0 0 0 0 0 0 0 0 0 0 0 0 0 0 0 0 0 0 0 0 0 0 
0 0 0 0 0 0 0 0 0 0 0 0 0 0 0 0 16.672681808471679688 66.62804412841796875 62.0211029052734375 76.69225311279296875 58.6622467041015625 45.832920074462890625 55.7799072265625 53.619083404541015625 96.923614501953125 264.492279052734375 129.174713134765625 114.3109283447265625 85.4263153076171875 62.92873382568359375 57.233280181884765625 39.453765869140625 48.166828155517578125 49.828327178955078125 59.728290557861328125 88.92774200439453125 88.02508544921875 44.414676666259765625 50.027873992919921875 69.20485687255859375 69.248992919921875 71.57045745849609375 72.95520782470703125 73.57976531982421875 71.6983184814453125 70.21515655517578125 72.4391632080078125 73.59911346435546875 78.2306976318359375 81.0808868408203125 92.52896881103515625 103.27277374267578125 105.0454864501953125 105.913116455078125 90.88626861572265625 92.54338836669921875 97.1733245849609375 91.6501617431640625 70.81305694580078125 30.29199981689453125 0 0 0 0 0 0 0 0 0 0 0 0 0 0 0 0 0 0 0 0 0 0 0 0 0 0 0 
0 0 0 0 0 0 0 0 0 0 0 0 0 0 0 0 53.642360687255859375 41.636623382568359375 68.42681884765625 93.9416961669921875 47.44919586181640625 38.68303680419921875 39.065670013427734375 245.1634674072265625 290.6717529296875 132.1051025390625 92.53759765625 128.92718505859375 62.13289642333984375 57.8353271484375 47.288181304931640625 33.58756256103515625 53.776935577392578125 76.31589508056640625 67.8037872314453125 44.26871490478515625 63.9350738525390625 61.043735504150390625 64.12960052490234375 141.1870269775390625 72.80072784423828125 83.70654296875 84.8582305908203125 75.23905181884765625 73.62903594970703125 71.530364990234375 69.660247802734375 72.4863433837890625 77.98288726806640625 85.83310699462890625 97.76325225830078125 101.974334716796875 105.83167266845703125 67.8339996337890625 102.5920867919921875 100.52445220947265625 98.56397247314453125 97.64171600341796875 24.35224151611328125 0 0 0 0 0 0 0 0 0 0 0 0 0 0 0 0 0 0 0 0 0 0 0 0 0 0 0 0 
0 0 0 0 0 0 0 0 0 0 0 0 0 23.541921615600585938 60.67423248291015625 36.87857818603515625 76.603271484375 55.300693511962890625 68.423309326171875 71.6262664794921875 86.02318572998046875 287.79443359375 282.912139892578125 300.113677978515625 299.29022216796875 67.2181854248046875 65.36757659912109375 58.693485260009765625 69.45854949951171875 53.016780853271484375 46.581836700439453125 52.70966339111328125 63.7373809814453125 93.33623504638671875 61.398468017578125 59.267780303955078125 59.140899658203125 138.8401641845703125 145.992279052734375 140.8850860595703125 74.53173828125 82.5201873779296875 84.681640625 76.506439208984375 18.343950271606445312 17.8595733642578125 9.8093538284301757812 28.736080169677734375 5.7352900505065917969 0 0 40.353885650634765625 66.64990997314453125 0 0 0 0 0 0 0 0 0 0 0 0 0 0 0 0 0 0 0 0 0 0 0 0 0 0 0 0 0 0 0 0 0 0 
0 0 0 0 0 0 0 0 0 0 0 11.962488174438476562 51.54207611083984375 49.283481597900390625 56.410175323486328125 59.434032440185546875 47.26062774658203125 74.42842864990234375 282.039337158203125 375.12841796875 434.389251708984375 418.2755126953125 406.736419677734375 330.13995361328125 111.03366851806640625 52.785007476806640625 49.13608551025390625 56.025508880615234375 64.35472869873046875 47.741039276123046875 48.05022430419921875 59.493083953857421875 63.629199981689453125 57.5124664306640625 105.3828277587890625 57.798442840576171875 59.57454681396484375 142.367034912109375 146.0918121337890625 146.33587646484375 75.93979644775390625 80.996429443359375 45.100032806396484375 19.045743942260742188 0 0 0 0 0 0 0 0 0 0 0 0 0 0 0 0 0 0 0 0 0 0 0 0 0 0 0 0 0 0 0 0 0 0 0 0 0 0 0 0 0 0 0 
0 0 0 0 0 0 0 0 0 0 0 60.929882049560546875 61.54845428466796875 56.881870269775390625 56.934055328369140625 61.003604888916015625 346.249053955078125 464.209625244140625 492.880401611328125 471.78729248046875 411.594268798828125 375.7261962890625 133.2386016845703125 97.6178131103515625 86.71575927734375 50.474109649658203125 52.9606475830078125 55.558757781982421875 85.20037078857421875 46.6685943603515625 85.29300689697265625 64.55919647216796875 67.090728759765625 49.984737396240234375 52.969287872314453125 59.331798553466796875 60.2415924072265625 139.076995849609375 142.22674560546875 148.9755401611328125 79.186187744140625 0 0 0 0 0 0 0 0 0 0 0 0 0 0 0 0 0 0 0 0 0 0 0 0 0 0 0 0 0 0 0 0 0 0 0 0 0 0 0 0 0 0 0 0 0 0 
0 0 0 0 0 0 0 0 0 0 15.574521064758300781 63.211986541748046875 61.15425872802734375 46.60968017578125 73.41098785400390625 239.505706787109375 551.9080810546875 555.99127197265625 481.288604736328125 205.0798187255859375 113.95406341552734375 119.3929443359375 58.14661407470703125 57.35345458984375 60.917926788330078125 55.052215576171875 54.764102935791015625 56.76194000244140625 63.359119415283203125 52.85164642333984375 48.84867095947265625 62.265583038330078125 57.223804473876953125 58.8097686767578125 62.870059967041015625 67.08492279052734375 115.60247039794921875 94.918975830078125 0 0 0 0 0 0 0 0 0 0 0 0 0 0 0 0 0 0 0 0 0 0 0 0 0 0 0 0 0 0 0 0 0 0 0 0 0 0 0 0 0 0 0 0 0 0 0 0 0 
0 0 0 0 0 0 0 0 0 25.220142364501953125 63.09503173828125 56.097873687744140625 33.183216094970703125 84.640045166015625 105.7587127685546875 452.61773681640625 608.575439453125 552.18182373046875 494.7591552734375 128.658660888671875 64.83660888671875 53.006069183349609375 44.439510345458984375 51.870899200439453125 57.8126983642578125 56.0652923583984375 54.113250732421875 55.498149871826171875 56.393207550048828125 57.191944122314453125 47.79290008544921875 63.74779510498046875 59.18981170654296875 60.635646820068359375 67.91009521484375 71.129425048828125 94.1226043701171875 0 0 0 0 0 0 0 0 0 0 0 0 0 0 0 0 0 0 0 0 0 0 0 0 0 0 0 0 0 0 0 0 0 0 0 0 0 0 0 0 0 0 0 0 0 0 0 0 0 0 
0 0 0 0 0 0 0 0 26.400653839111328125 116.4254608154296875 108.57151031494140625 111.77264404296875 50.402587890625 76.3024139404296875 365.266845703125 515.2991943359375 577.37078857421875 519.94451904296875 219.0588836669921875 82.93991851806640625 61.854526519775390625 53.07662200927734375 46.069660186767578125 50.675601959228515625 53.3359222412109375 51.99575042724609375 53.779651641845703125 58.19879150390625 61.238010406494140625 60.132831573486328125 62.31298065185546875 61.67739105224609375 64.81600189208984375 71.6135406494140625 73.18201446533203125 59.73980712890625 0 0 0 0 0 0 0 0 0 0 0 0 0 0 0 0 0 0 0 0 0 0 0 0 0 0 0 0 0 0 0 0 0 0 0 0 0 0 0 0 0 0 0 0 0 0 0 0 0 0 0 
0 0 0 0 0 0 0 75.55474853515625 97.38350677490234375 66.90631103515625 58.356197357177734375 33.817474365234375 30.9977569580078125 77.27698516845703125 286.6087646484375 506.921600341796875 502.610992431640625 214.2784423828125 163.3877105712890625 63.2501068115234375 119.52997589111328125 55.524078369140625 73.793548583984375 51.775333404541015625 51.217639923095703125 54.173587799072265625 53.54286956787109375 56.126590728759765625 123.66686248779296875 56.934406280517578125 55.0241546630859375 57.800334930419921875 70.8430328369140625 72.7605438232421875 72.460235595703125 0 0 0 0 0 0 0 0 0 0 0 0 0 0 0 0 0 0 0 0 0 0 0 0 0 0 0 0 0 0 0 0 0 0 0 0 0 0 0 0 0 0 0 0 0 0 0 0 0 0 0 0 
0 0 0 0 0 0 0 21.22792816162109375 49.7686920166015625 55.73538970947265625 34.489612579345703125 41.55257415771484375 67.18952178955078125 127.1818695068359375 192.468292236328125 429.801727294921875 163.934051513671875 121.8630828857421875 62.031261444091796875 59.9261932373046875 59.518589019775390625 54.66245269775390625 49.84854888916015625 49.644412994384765625 54.658233642578125 52.219394683837890625 52.370281219482421875 53.874042510986328125 53.3932647705078125 58.333736419677734375 63.560451507568359375 68.90386962890625 64.070770263671875 55.667461395263671875 42.30474090576171875 0 0 0 0 0 0 0 0 0 0 0 0 0 0 0 0 0 0 0 0 0 0 0 0 0 0 0 0 0 0 0 0 0 0 0 0 0 0 0 0 0 0 0 0 0 0 0 0 0 0 0 0 
0 0 0 0 0 0 16.500011444091796875 32.59578704833984375 60.079998016357421875 63.940364837646484375 55.145008087158203125 36.91155242919921875 34.149364471435546875 414.60662841796875 460.154327392578125 185.9535980224609375 129.710968017578125 59.6580352783203125 54.506946563720703125 54.683208465576171875 56.5151519775390625 53.1066436767578125 50.262950897216796875 51.27677154541015625 55.620021820068359375 52.9299774169921875 52.189243316650390625 52.17108154296875 54.656093597412109375 120.2112579345703125 65.8981475830078125 78.3127899169921875 54.411609649658203125 9.8208103179931640625 0 0 0 0 0 0 0 0 0 0 0 0 0 0 0 0 0 0 0 0 0 0 0 0 0 0 0 0 0 0 0 0 0 0 0 0 0 0 0 0 0 0 0 0 0 0 0 0 0 0 0 0 0 
0 0 0 0 0 0 23.394819259643554688 37.117008209228515625 67.55877685546875 89.98917388916015625 42.507610321044921875 56.50925445556640625 46.18149566650390625 303.92779541015625 404.057586669921875 145.7769317626953125 54.1367034912109375 41.84049224853515625 36.36347198486328125 47.771968841552734375 47.799907684326171875 53.673511505126953125 51.30224609375 51.747928619384765625 54.78646087646484375 55.896697998046875 54.960186004638671875 54.468585968017578125 117.91173553466796875 123.6644134521484375 77.6867523193359375 76.86952972412109375 36.66009521484375 8.5932092666625976562 0 0 0 0 0 0 0 0 0 0 0 0 0 0 0 0 0 0 0 0 0 0 0 0 0 0 0 0 0 0 0 0 0 0 0 0 0 0 0 0 0 0 0 0 0 0 0 0 0 0 0 0 0 
0 0 0 0 0 0 51.68222808837890625 70.3286590576171875 72.205841064453125 68.031982421875 74.85739898681640625 195.299163818359375 370.26214599609375 545.3006591796875 476.0609130859375 133.6888275146484375 65.4348297119140625 48.446624755859375 34.4788970947265625 40.045806884765625 47.07759857177734375 52.584278106689453125 50.113323211669921875 50.2855224609375 55.066143035888671875 60.42705535888671875 63.0702056884765625 60.20728302001953125 126.98186492919921875 128.288970947265625 89.26970672607421875 61.858966827392578125 3.4819569587707519531 0 0 0 0 0 0 0 0 0 0 0 0 0 0 0 0 0 0 0 0 0 0 0 0 0 0 0 0 0 0 0 0 0 0 0 0 0 0 0 0 0 0 0 0 0 0 0 0 0 0 0 0 0 0 
0 0 0 0 0 0 67.03385162353515625 153.7210235595703125 70.61174774169921875 64.75728607177734375 70.79378509521484375 365.12060546875 532.28546142578125 565.4320068359375 419.871856689453125 102.03057861328125 52.02481842041015625 44.683837890625 42.435832977294921875 39.238285064697265625 48.11113739013671875 52.652072906494140625 103.61775970458984375 51.0521697998046875 56.843433380126953125 58.310680389404296875 64.17626190185546875 130.08270263671875 128.877471923828125 73.76280975341796875 80.03397369384765625 0 0 0 0 0 0 0 0 0 0 0 0 0 0 0 0 0 0 0 0 0 0 0 0 0 0 0 0 0 0 0 0 0 0 0 0 0 0 0 0 0 0 0 0 0 0 0 0 0 0 0 0 0 0 0 0 
0 0 0 0 0 0 76.110595703125 72.899169921875 64.8455047607421875 62.812282562255859375 207.398040771484375 404.000152587890625 532.70050048828125 545.675537109375 391.7357177734375 195.1514434814453125 54.96062469482421875 42.24205780029296875 35.04230499267578125 41.029483795166015625 42.574695587158203125 46.779468536376953125 47.459178924560546875 48.93723297119140625 53.20318603515625 59.257862091064453125 59.052761077880859375 59.648487091064453125 74.24231719970703125 75.96624755859375 0 0 0 0 0 0 0 0 0 0 0 0 0 0 0 0 0 0 0 0 0 0 0 0 0 0 0 0 0 0 0 0 0 0 0 0 0 0 0 0 0 0 0 0 0 0 0 0 0 0 0 0 0 0 0 0 0 
0 0 0 0 0 0 86.4987335205078125 66.57073974609375 60.9063568115234375 113.74117279052734375 370.5113525390625 514.35211181640625 524.64599609375 491.908172607421875 370.915283203125 194.053070068359375 52.53781890869140625 45.35082244873046875 40.262176513671875 33.479717254638671875 45.574676513671875 49.280078887939453125 65.4778289794921875 49.749874114990234375 54.24886322021484375 59.52127838134765625 59.0189208984375 60.9249267578125 69.437255859375 32.802280426025390625 0 0 0 0 0 0 0 0 0 0 0 0 0 0 0 0 0 0 0 0 0 0 0 0 0 0 0 0 0 0 0 0 0 0 0 0 0 0 0 0 0 0 0 0 0 0 0 0 0 0 0 0 0 0 0 0 0 
0 0 0 0 0 0 81.4128265380859375 70.53087615966796875 59.694377899169921875 311.741119384765625 453.585540771484375 523.36822509765625 449.513427734375 464.5328369140625 418.638580322265625 230.5443572998046875 88.76610565185546875 46.237346649169921875 40.392734527587890625 37.2350311279296875 49.56661224365234375 51.10024261474609375 51.46575927734375 55.38299560546875 59.1394195556640625 60.01312255859375 61.338840484619140625 68.119873046875 47.59334564208984375 12.679212570190429688 0 0 0 0 0 0 0 0 0 0 0 0 0 0 0 0 0 0 0 0 0 0 0 0 0 0 0 0 0 0 0 0 0 0 0 0 0 0 0 0 0 0 0 0 0 0 0 0 0 0 0 0 0 0 0 0 0 
0 0 0 0 0 0 18.443040847778320312 77.93817138671875 35.71283721923828125 449.2371826171875 501.5303955078125 459.94781494140625 300.096527099609375 301.528961181640625 341.737579345703125 170.689453125 90.15697479248046875 50.6632232666015625 48.2787017822265625 47.78826904296875 49.853771209716796875 72.05393218994140625 52.79084014892578125 59.022281646728515625 64.6978607177734375 62.333858489990234375 68.962371826171875 77.28337860107421875 19.065820693969726562 0 0 0 0 0 0 0 0 0 0 0 0 0 0 0 0 0 0 0 0 0 0 0 0 0 0 0 0 0 0 0 0 0 0 0 0 0 0 0 0 0 0 0 0 0 0 0 0 0 0 0 0 0 0 0 0 0 0 
0 0 0 0 0 0 13.746773719787597656 81.31337738037109375 141.33038330078125 303.1566162109375 489.983428955078125 185.45684814453125 114.006988525390625 59.096405029296875 261.987335205078125 113.22624969482421875 110.434661865234375 53.36804962158203125 49.1999053955078125 51.18251800537109375 51.62683868408203125 51.5070953369140625 57.440643310546875 129.4445648193359375 67.94235992431640625 64.0479736328125 68.92150115966796875 145.3154449462890625 0 0 0 0 0 0 0 0 0 0 0 0 0 0 0 0 0 0 0 0 0 0 0 0 0 0 0 0 0 0 0 0 0 0 0 0 0 0 0 0 0 0 0 0 0 0 0 0 0 0 0 0 0 0 0 0 0 0 0 
0 0 0 0 0 0 67.26953887939453125 224.1265869140625 353.076629638671875 508.73345947265625 478.127655029296875 159.745086669921875 47.2184600830078125 55.586116790771484375 232.8985595703125 100.87049102783203125 60.775783538818359375 49.81871795654296875 49.093585968017578125 52.230274200439453125 54.30852508544921875 57.551727294921875 59.09273529052734375 64.98656463623046875 68.07054901123046875 64.258636474609375 144.8586883544921875 59.153972625732421875 0 0 0 0 0 0 0 0 0 0 0 0 0 0 0 0 0 0 0 0 0 0 0 0 0 0 0 0 0 0 0 0 0 0 0 0 0 0 0 0 0 0 0 0 0 0 0 0 0 0 0 0 0 0 0 0 0 0 0 
0 0 0 0 0 0 61.099163055419921875 49.858097076416015625 130.980255126953125 187.09417724609375 145.0258026123046875 317.540252685546875 67.4118804931640625 67.3940887451171875 232.128631591796875 75.81006622314453125 51.58154296875 47.498439788818359375 49.84416961669921875 55.4572601318359375 57.638576507568359375 58.23989105224609375 61.7235260009765625 63.702938079833984375 62.75311279296875 68.4026641845703125 66.44319915771484375 43.428684234619140625 0 0 0 0 0 0 0 0 0 0 0 0 0 0 0 0 0 0 0 0 0 0 0 0 0 0 0 0 0 0 0 0 0 0 0 0 0 0 0 0 0 0 0 0 0 0 0 0 0 0 0 0 0 0 0 0 0 0 0 
0 0 0 0 0 0 52.363948822021484375 55.1310272216796875 56.82352447509765625 66.73160552978515625 145.0258026123046875 244.0649261474609375 36.043422698974609375 92.0030364990234375 149.28057861328125 85.801849365234375 51.054988861083984375 46.46190643310546875 50.310577392578125 57.619525909423828125 60.422245025634765625 58.6711578369140625 62.76470184326171875 61.971584320068359375 56.976673126220703125 53.710235595703125 12.277830123901367188 0 0 0 0 0 0 0 0 0 0 0 0 0 0 0 0 0 0 0 0 0 0 0 0 0 0 0 0 0 0 0 0 0 0 0 0 0 0 0 0 0 0 0 0 0 0 0 0 0 0 0 0 0 0 0 0 0 0 0 0 
0 0 0 0 0 39.4013214111328125 63.60308074951171875 44.332309722900390625 74.55625152587890625 43.86382293701171875 83.753204345703125 71.63318634033203125 40.182483673095703125 108.7523651123046875 379.98272705078125 105.0063934326171875 59.7981719970703125 47.90181732177734375 53.01706695556640625 58.887836456298828125 62.93646240234375 63.099884033203125 65.9184417724609375 65.3530426025390625 64.2975616455078125 0 0 0 0 0 0 0 0 0 0 0 0 0 0 0 0 0 0 0 0 0 0 0 0 0 0 0 0 0 0 0 0 0 0 0 0 0 0 0 0 0 0 0 0 0 0 0 0 0 0 0 0 0 0 0 0 0 0 0 0 0 0 
0 0 0 0 0 60.82808685302734375 59.495326995849609375 44.8242034912109375 53.95302581787109375 55.20183563232421875 78.67566680908203125 120.23094940185546875 109.482818603515625 95.07944488525390625 388.4488525390625 109.7784423828125 58.0594329833984375 52.290340423583984375 53.261653900146484375 54.444141387939453125 61.117832183837890625 61.686985015869140625 143.5717926025390625 63.272251129150390625 56.390918731689453125 0 0 0 0 0 0 0 0 0 0 0 0 0 0 0 0 0 0 0 0 0 0 0 0 0 0 0 0 0 0 0 0 0 0 0 0 0 0 0 0 0 0 0 0 0 0 0 0 0 0 0 0 0 0 0 0 0 0 0 0 0 0 
0 0 0 0 0 85.51012420654296875 34.506427764892578125 31.7730255126953125 59.504474639892578125 53.532073974609375 44.228321075439453125 88.11890411376953125 112.0904083251953125 77.03798675537109375 390.177001953125 245.1543731689453125 63.068561553955078125 50.699192047119140625 54.088871002197265625 59.481868743896484375 64.6551055908203125 61.74704742431640625 65.37127685546875 54.240520477294921875 23.181926727294921875 0 0 0 0 0 0 0 0 0 0 0 0 0 0 0 0 0 0 0 0 0 0 0 0 0 0 0 0 0 0 0 0 0 0 0 0 0 0 0 0 0 0 0 0 0 0 0 0 0 0 0 0 0 0 0 0 0 0 0 0 0 0 
0 0 0 0 0 32.626766204833984375 38.6715850830078125 55.429668426513671875 41.435604095458984375 51.935733795166015625 59.679157257080078125 83.14154052734375 297.50994873046875 173.920562744140625 254.7029266357421875 94.54383087158203125 45.376041412353515625 54.872127532958984375 56.86710357666015625 61.491344451904296875 62.33782958984375 50.991031646728515625 56.924041748046875 59.329586029052734375 11.45108795166015625 0 0 0 0 0 0 0 0 0 0 0 0 0 0 0 0 0 0 0 0 0 0 0 0 0 0 0 0 0 0 0 0 0 0 0 0 0 0 0 0 0 0 0 0 0 0 0 0 0 0 0 0 0 0 0 0 0 0 0 0 0 0 
0 0 0 0 0 0 0 44.857074737548828125 45.164485931396484375 59.25481414794921875 43.261623382568359375 85.68946075439453125 349.67425537109375 156.3421630859375 189.7182159423828125 83.23862457275390625 41.7727813720703125 67.7953643798828125 55.007732391357421875 58.9819183349609375 62.652332305908203125 62.154178619384765625 55.13489532470703125 55.6737060546875 15.034733772277832031 0 0 0 0 0 0 0 0 0 0 0 0 0 0 0 0 0 0 0 0 0 0 0 0 0 0 0 0 0 0 0 0 0 0 0 0 0 0 0 0 0 0 0 0 0 0 0 0 0 0 0 0 0 0 0 0 0 0 0 0 0 0 
0 0 0 0 0 0 0 1.2448831796646118164 25.754236221313476562 50.993022918701171875 47.85443878173828125 72.34999847412109375 344.741546630859375 352.218170166015625 134.084014892578125 53.178813934326171875 49.516674041748046875 55.53920745849609375 56.895313262939453125 60.81816864013671875 87.0296173095703125 52.937908172607421875 56.434864044189453125 59.096302032470703125 14.828996658325195312 0 0 0 0 0 0 0 0 0 0 0 0 0 0 0 0 0 0 0 0 0 0 0 0 0 0 0 0 0 0 0 0 0 0 0 0 0 0 0 0 0 0 0 0 0 0 0 0 0 0 0 0 0 0 0 0 0 0 0 0 0 0 
0 0 0 0 0 0 0 9.6381168365478515625 38.4884185791015625 56.478404998779296875 57.030979156494140625 69.22158050537109375 284.21600341796875 318.2783203125 232.211517333984375 93.40076446533203125 59.2060089111328125 62.39017486572265625 60.652591705322265625 61.36475372314453125 63.725738525390625 66.0286712646484375 66.45116424560546875 51.4641876220703125 7.7989850044250488281 0 0 0 0 0 0 0 0 0 0 0 0 0 0 0 0 0 0 0 0 0 0 0 0 0 0 0 0 0 0 0 0 0 0 0 0 0 0 0 0 0 0 0 0 0 0 0 0 0 0 0 0 0 0 0 0 0 0 0 0 0 0 
0 0 0 0 0 0 0 9.5200223922729492188 65.4281768798828125 60.54824066162109375 49.560955047607421875 36.1144256591796875 319.71435546875 319.71435546875 282.741241455078125 116.0698089599609375 78.5159149169921875 63.782562255859375 59.60491943359375 57.403621673583984375 59.65737152099609375 50.842472076416015625 51.537143707275390625 12.931856155395507812 0 0 0 0 0 0 0 0 0 0 0 0 0 0 0 0 0 0 0 0 0 0 0 0 0 0 0 0 0 0 0 0 0 0 0 0 0 0 0 0 0 0 0 0 0 0 0 0 0 0 0 0 0 0 0 0 0 0 0 0 0 0 0 
0 0 0 0 0 0 78.36992645263671875 63.25372314453125 64.3314971923828125 52.3006134033203125 56.595428466796875 55.460239410400390625 78.7792816162109375 359.71405029296875 240.322723388671875 100.22710418701171875 72.73403167724609375 63.01849365234375 59.08119964599609375 57.26451873779296875 0 0 0 0 0 0 0 0 0 0 0 0 0 0 0 0 0 0 0 0 0 0 0 0 0 0 0 0 0 0 0 0 0 0 0 0 0 0 0 0 0 0 0 0 0 0 0 0 0 0 0 0 0 0 0 0 0 0 0 0 0 0 0 0 0 0 0 
0 0 0 0 0 0 60.358856201171875 66.7867889404296875 63.6475067138671875 87.80529022216796875 65.66803741455078125 65.98978424072265625 347.497100830078125 347.497100830078125 354.238006591796875 110.4467620849609375 69.306671142578125 59.019683837890625 58.855358123779296875 17.68347930908203125 0 0 0 0 0 0 0 0 0 0 0 0 0 0 0 0 0 0 0 0 0 0 0 0 0 0 0 0 0 0 0 0 0 0 0 0 0 0 0 0 0 0 0 0 0 0 0 0 0 0 0 0 0 0 0 0 0 0 0 0 0 0 0 0 0 0 0 
0 0 0 0 0 0 0 36.817844390869140625 59.706737518310546875 87.74371337890625 64.7740936279296875 78.5135040283203125 300.219482421875 170.80657958984375 168.6982879638671875 286.5284423828125 69.09407806396484375 44.173206329345703125 63.24744415283203125 0 0 0 0 0 0 0 0 0 0 0 0 0 0 0 0 0 0 0 0 0 0 0 0 0 0 0 0 0 0 0 0 0 0 0 0 0 0 0 0 0 0 0 0 0 0 0 0 0 0 0 0 0 0 0 0 0 0 0 0 0 0 0 0 0 0 0 0 
0 0 0 0 0 0 0 35.5042266845703125 70.93070220947265625 59.139957427978515625 64.435943603515625 109.2177581787109375 169.8000335693359375 168.674774169921875 144.753631591796875 267.015106201171875 68.3250274658203125 70.1121673583984375 52.147861480712890625 15.012227058410644531 0 0 0 0 0 0 0 0 0 0 0 0 0 0 0 0 0 0 0 0 0 0 0 0 0 0 0 0 0 0 0 0 0 0 0 0 0 0 0 0 0 0 0 0 0 0 0 0 0 0 0 0 0 0 0 0 0 0 0 0 0 0 0 0 0 0 0 
0 0 0 0 0 0 4.7550253868103027344 42.074398040771484375 76.52500152587890625 69.75860595703125 67.45208740234375 111.1011962890625 159.290802001953125 197.4687957763671875 120.97154998779296875 101.8667144775390625 68.448883056640625 65.8535614013671875 65.2586212158203125 0 0 0 0 0 0 0 0 0 0 0 0 0 0 0 0 0 0 0 0 0 0 0 0 0 0 0 0 0 0 0 0 0 0 0 0 0 0 0 0 0 0 0 0 0 0 0 0 0 0 0 0 0 0 0 0 0 0 0 0 0 0 0 0 0 0 0 0 
0 0 0 0 0 0 7.6080408096313476562 78.11617279052734375 75.75543975830078125 70.8556671142578125 91.5061187744140625 81.3842315673828125 131.2829742431640625 289.1688232421875 110.610687255859375 95.292938232421875 74.11009979248046875 63.346954345703125 27.130380630493164062 0 0 0 0 0 0 0 0 0 0 0 0 0 0 0 0 0 0 0 0 0 0 0 0 0 0 0 0 0 0 0 0 0 0 0 0 0 0 0 0 0 0 0 0 0 0 0 0 0 0 0 0 0 0 0 0 0 0 0 0 0 0 0 0 0 0 0 0 
0 0 0 0 0 0 27.108036041259765625 81.6950225830078125 75.28893280029296875 69.55490875244140625 68.3336334228515625 83.03106689453125 210.4158935546875 296.435455322265625 96.87834930419921875 66.94615936279296875 70.3890533447265625 61.22478485107421875 0 0 0 0 0 0 0 0 0 0 0 0 0 0 0 0 0 0 0 0 0 0 0 0 0 0 0 0 0 0 0 0 0 0 0 0 0 0 0 0 0 0 0 0 0 0 0 0 0 0 0 0 0 0 0 0 0 0 0 0 0 0 0 0 0 0 0 0 0 
0 0 0 0 0 0 0 81.69904327392578125 74.1421356201171875 72.4439849853515625 83.1122894287109375 201.6591949462890625 231.4534912109375 155.37127685546875 171.85308837890625 0 0 0 0 0 0 0 0 0 0 0 0 0 0 0 0 0 0 0 0 0 0 0 0 0 0 0 0 0 0 0 0 0 0 0 0 0 0 0 0 0 0 0 0 0 0 0 0 0 0 0 0 0 0 0 0 0 0 0 0 0 0 0 0 0 0 0 0 0 0 0 0 
0 0 0 0 0 0 0 0 72.98069000244140625 90.2296142578125 197.9141845703125 92.05661773681640625 101.01703643798828125 0 0 0 0 0 0 0 0 0 0 0 0 0 0 0 0 0 0 0 0 0 0 0 0 0 0 0 0 0 0 0 0 0 0 0 0 0 0 0 0 0 0 0 0 0 0 0 0 0 0 0 0 0 0 0 0 0 0 0 0 0 0 0 0 0 0 0 0 0 0 0 0 0 0 
0 0 0 0 0 0 0 0 0 147.480743408203125 0 0 0 0 0 0 0 0 0 0 0 0 0 0 0 0 0 0 0 0 0 0 0 0 0 0 0 0 0 0 0 0 0 0 0 0 0 0 0 0 0 0 0 0 0 0 0 0 0 0 0 0 0 0 0 0 0 0 0 0 0 0 0 0 0 0 0 0 0 0 0 0 0 0 0 0 0 
0 0 0 0 0 0 0 0 0 0 0 0 0 0 0 0 0 0 0 0 0 0 0 0 0 0 0 0 0 0 0 0 0 0 0 0 0 0 0 0 0 0 0 0 0 0 0 0 0 0 0 0 0 0 0 0 0 0 0 0 0 0 0 0 0 0 0 0 0 0 0 0 0 0 0 0 0 0 0 0 0 0 0 0 0 0 0 
0 0 0 0 0 0 0 0 0 0 0 0 0 0 0 0 0 0 0 0 0 0 0 0 0 0 0 0 0 0 0 0 0 0 0 0 0 0 0 0 0 0 0 0 0 0 0 0 0 0 0 0 0 0 0 0 0 0 0 0 0 0 0 0 0 0 0 0 0 0 0 0 0 0 0 0 0 0 0 0 0 0 0 0 0 0 0 
0 0 0 0 0 0 0 0 0 0 0 0 0 0 0 0 0 0 0 0 0 0 0 0 0 0 0 0 0 0 0 0 0 0 0 0 0 0 0 0 0 0 0 0 0 0 0 0 0 0 0 0 0 0 0 0 0 0 0 0 0 0 0 0 0 0 0 0 0 0 0 0 0 0 0 0 0 0 0 0 0 0 0 0 0 0 0 
0 0 0 0 0 0 0 0 0 0 0 0 0 0 0 0 0 0 0 0 0 0 0 0 0 0 0 0 0 0 0 0 0 0 0 0 0 0 0 0 0 0 0 0 0 0 0 0 0 0 0 0 0 0 0 0 0 0 0 0 0 0 0 0 0 0 0 0 0 0 0 0 0 0 0 0 0 0 0 0 0 0 0 0 0 0 0 
