ncols        19
nrows        23
xllcorner    508562.338426187926
yllcorner    5265326.272683421150
cellsize     570.000000000000
NODATA_value -9999
0.0 0 0 0 0 0 0 0 0 0 0 0 0 0 14.420395851135253906 0 0 0 0 
0 0 0 0 0 0 0 0 0 0 0 0 2.6190893650054931641 271.04107666015625 37.776920318603515625 0 0 0 0 
0 0 0 0 0 0 0 0 0 0 0 0 5.255580902099609375 261.69854736328125 6.2865672111511230469 0 0 0 0 
0 0 0 0 0 0 0 0 0 0 0 0 248.3466033935546875 276.272918701171875 23.32041168212890625 0.31491646170616149902 0 0 0 
0 0 0 0 0 0 0 0 0 0 0 14.217365264892578125 288.3961181640625 280.4058837890625 150.656402587890625 26.345460891723632812 21.61597442626953125 0 0 
0 0 0 0 0 0 0 0 0 0 2.5227742195129394531 138.57330322265625 282.862091064453125 172.5382843017578125 145.373382568359375 116.18207550048828125 81.16062164306640625 0 0 
0 0 0 0 0 0 0 0 0 0 80.00395965576171875 162.631439208984375 264.553985595703125 137.3150177001953125 132.011016845703125 127.3256072998046875 108.2448577880859375 0 0 
0 0 0 0 0 0 0 0 0 0 103.17531585693359375 147.948822021484375 370.146331787109375 130.059478759765625 137.0462493896484375 142.79937744140625 19.949878692626953125 0 0 
0 0 0 0 0 0 0 0 5.2519388198852539062 88.68743133544921875 117.71463775634765625 136.5239715576171875 246.8698272705078125 131.068450927734375 148.570556640625 143.03125 21.968059539794921875 0 0 
0 0 0 0 0 0 0 1.3203300237655639648 65.55867767333984375 113.560028076171875 234.48248291015625 137.155609130859375 252.067779541015625 140.116363525390625 119.41524505615234375 69.1103057861328125 0 0 0 
0 0 0 0 0 0 0 45.331317901611328125 114.925445556640625 113.3858184814453125 128.7995758056640625 192.7636871337890625 130.583648681640625 38.098178863525390625 0.98162329196929931641 0 0 0 0 
0 0 0 0 0 87.58221435546875 73.79656219482421875 129.026336669921875 149.5594482421875 186.4505462646484375 200.0272216796875 118.31769561767578125 111.5525054931640625 22.2800445556640625 0 0 0 0 0 
0 0 0 8.5305833816528320312 22.214780807495117188 140.245941162109375 143.665863037109375 135.02447509765625 139.73406982421875 121.6216583251953125 193.50799560546875 151.1704254150390625 115.9951934814453125 10.3415069580078125 0 0 0 0 0 
0 0 13.042257308959960938 75.699859619140625 89.848480224609375 218.3770904541015625 157.931884765625 135.770172119140625 182.9993438720703125 107.60045623779296875 213.424163818359375 236.6144561767578125 28.63202667236328125 0 0 0 0 0 0 
0 18.705295562744140625 98.70453643798828125 655.351318359375 229.6331024169921875 103.6268463134765625 103.1809539794921875 247.7992401123046875 9.9413976669311523438 0 0 0 0 0 0 0 0 0 0 
0 100.9389190673828125 101.42140960693359375 221.320281982421875 88.860626220703125 103.81151580810546875 232.6594390869140625 11.21918487548828125 0 0 0 0 0 0 0 0 0 0 0 
0 97.5565948486328125 620.89739990234375 82.484130859375 91.2431182861328125 109.6501312255859375 26.080760955810546875 0 0 0 0 0 0 0 0 0 0 0 0 
0 80.8273773193359375 190.5006866455078125 174.1699981689453125 113.63776397705078125 84.160736083984375 0 0 0 0 0 0 0 0 0 0 0 0 0 
0 111.20020294189453125 160.6036529541015625 107.75426483154296875 111.06719970703125 15.136929512023925781 0 0 0 0 0 0 0 0 0 0 0 0 0 
0 50.79024505615234375 564.68756103515625 116.25572967529296875 65.36908721923828125 3.3502171039581298828 0 0 0 0 0 0 0 0 0 0 0 0 0 
0 65.078399658203125 237.4664306640625 204.555450439453125 3.5594527721405029297 0 0 0 0 0 0 0 0 0 0 0 0 0 0 
0 3.3693902492523193359 237.4163818359375 0 0 0 0 0 0 0 0 0 0 0 0 0 0 0 0 
0 0 0 0 0 0 0 0 0 0 0 0 0 0 0 0 0 0 0 
