ncols        19
nrows        23
xllcorner    508536.404131802963
yllcorner    5265348.997906560078
cellsize     570.000000000000
NODATA_value -9999
0.094999998807907104492 0.094999998807907104492 0.094999998807907104492 0.094999998807907104492 0.094999998807907104492 0.094999998807907104492 0.09487257152795791626 0.1438175886869430542 0.094999998807907104492 0.094999998807907104492 0.094999998807907104492 0.094362877309322357178 0.20259216427803039551 0.22359685599803924561 1.6191163063049316406 4.2509913444519042969 3.4314439296722412109 2.7898256778717041016 1.1423202753067016602 
0.094999998807907104492 0.094999998807907104492 0.094999998807907104492 0.094999998807907104492 0.10124795138835906982 0.27622523903846740723 0.51238882541656494141 0.29944524168968200684 0.094999998807907104492 0.09487257152795791626 0.2442757338285446167 0.59497094154357910156 1.5515918731689453125 1.5264487266540527344 1.278031468391418457 3.8259325027465820312 2.4885411262512207031 3.2081017494201660156 1.8886247873306274414 
0.094999998807907104492 0.094999998807907104492 0.094999998807907104492 0.098430305719375610352 0.40869450569152832031 0.55948817729949951172 0.46747493743896484375 0.093947365880012512207 0.098782107234001159668 0.34398317337036132812 2.3734767436981201172 1.6257833242416381836 1.6923162937164306641 2.2593457698822021484 1.8961967229843139648 2.1761519908905029297 1.8072904348373413086 0.95613956451416015625 1.7402023077011108398 
0.094999998807907104492 0.094999998807907104492 0.094999998807907104492 0.21060779690742492676 0.63515323400497436523 0.65915799140930175781 0.63186657428741455078 0.25534257292747497559 0.69794458150863647461 0.87683862447738647461 1.2870956659317016602 1.1765029430389404297 1.8538467884063720703 2.9178767204284667969 0.9983914494514465332 1.6258410215377807617 1.5481284856796264648 0.75508916378021240234 2.0224351882934570312 
0.094999998807907104492 0.094999998807907104492 0.12436930835247039795 0.46952301263809204102 0.60701107978820800781 1.1778614521026611328 1.4110195636749267578 0.70826870203018188477 0.67164272069931030273 0.30949452519416809082 0.67386025190353393555 0.90306776762008666992 2.4020991325378417969 1.1324822902679443359 1.3864272832870483398 0.52551954984664916992 1.3975909948348999023 0.44706943631172180176 0.4352295994758605957 
0.47579231858253479004 1.0720387697219848633 0.59738767147064208984 0.61000901460647583008 0.47669482231140136719 1.4022003412246704102 2.3066728115081787109 1.7416168451309204102 0.78283894062042236328 0.5495548248291015625 0.8624890446662902832 1.0645678043365478516 3.0713427066802978516 0.48322400450706481934 0.39571407437324523926 0.63027924299240112305 0.72806239128112792969 0.48629143834114074707 0.57118964195251464844 
0.9283123016357421875 2.0315279960632324219 0.65908771753311157227 0.88547563552856445312 0.71571433544158935547 1.7418473958969116211 1.4317266941070556641 0.94773572683334350586 1.0461738109588623047 0.92379790544509887695 0.95276165008544921875 0.85567021369934082031 3.5544445514678955078 0.54058659076690673828 0.4715423583984375 0.63999140262603759766 0.72835892438888549805 0.47657498717308044434 0.88485002517700195312 
1.8667682409286499023 1.808625340461730957 0.63895618915557861328 0.77462583780288696289 1.2275977134704589844 1.0520970821380615234 1.0286617279052734375 2.2522747516632080078 1.7655006647109985352 1.7897309064865112305 1.0587540864944458008 1.6190140247344970703 4.7561354637145996094 0.61202460527420043945 0.62844306230545043945 0.62855356931686401367 0.60264933109283447266 0.75823080539703369141 0.79509347677230834961 
2.0285847187042236328 2.1752686500549316406 0.63299065828323364258 0.83173477649688720703 1.1292450428009033203 1.6089409589767456055 1.3682433366775512695 0.95775419473648071289 0.91457450389862060547 0.98698049783706665039 0.48707231879234313965 1.4507642984390258789 2.2252428531646728516 0.87870317697525024414 0.67965781688690185547 0.76947540044784545898 0.37321987748146057129 0.9257017970085144043 0.74718809127807617188 
1.2344675064086914062 1.5624738931655883789 1.3167433738708496094 0.64996141195297241211 1.5088348388671875 0.93111979961395263672 1.3353856801986694336 0.65210145711898803711 0.48659303784370422363 0.67805588245391845703 0.6063365936279296875 0.49744760990142822266 3.2924518585205078125 1.4198437929153442383 1.3647533655166625977 0.6070531010627746582 0.55467313528060913086 0.68614566326141357422 1.1393817663192749023 
0.86192786693572998047 2.0675449371337890625 1.3467829227447509766 0.62833827733993530273 0.82624101638793945312 0.8647747039794921875 1.3035844564437866211 0.71888172626495361328 1.0998544692993164062 0.64355194568634033203 0.62278103828430175781 2.4363329410552978516 1.2623164653778076172 1.0844198465347290039 1.1309224367141723633 0.51455652713775634766 0.4370161592960357666 0.73104995489120483398 0.44738683104515075684 
1.0271452665328979492 1.793280482292175293 0.5454546809196472168 0.98863482475280761719 1.1421244144439697266 0.7400162816047668457 0.38494101166725158691 0.54199355840682983398 0.87408185005187988281 1.1396132707595825195 0.67656141519546508789 1.7716214656829833984 2.0980513095855712891 1.0958898067474365234 1.4518694877624511719 0.19698849320411682129 0.36133077740669250488 0.5065390467643737793 0.44658711552619934082 
2.1057829856872558594 0.62126070261001586914 0.7826938629150390625 0.67361587285995483398 0.5326220393180847168 0.2980263829231262207 0.26259002089500427246 0.23992390930652618408 0.49870866537094116211 0.72800886631011962891 0.62874436378479003906 1.0020192861557006836 1.9532232284545898438 1.2857241630554199219 0.95948779582977294922 1.2612489461898803711 0.51125061511993408203 0.81238371133804321289 0.77503216266632080078 
1.7268793582916259766 1.0817352533340454102 1.2833918333053588867 0.65167868137359619141 1.0544493198394775391 1.320683598518371582 1.4045081138610839844 1.0045458078384399414 0.67941248416900634766 0.97030270099639892578 0.29753610491752624512 0.36623799800872802734 1.2563248872756958008 1.8529343605041503906 1.2700409889221191406 0.6244671940803527832 0.69390660524368286133 0.57401102781295776367 0.61913609504699707031 
0.8146851658821105957 0.94342440366744995117 0.56779533624649047852 1.2832273244857788086 3.0601911544799804688 1.2744007110595703125 0.78750860691070556641 0.65243178606033325195 0.64616185426712036133 0.93480265140533447266 0.60570043325424194336 1.0471221208572387695 0.9884675145149230957 1.873479008674621582 1.0402879714965820312 0.71744501590728759766 0.69866847991943359375 1.3019064664840698242 1.561004638671875 
1.1607128381729125977 0.80053675174713134766 0.27398374676704406738 1.6052738428115844727 1.444118499755859375 0.6949583888053894043 0.76334118843078613281 0.79672545194625854492 0.36370712518692016602 0.67446696758270263672 0.71579974889755249023 0.66808950901031494141 1.4192012548446655273 0.83773136138916015625 1.4238773584365844727 1.156859278678894043 1.877142786979675293 2.4713795185089111328 0.69894838333129882812 
0.69203716516494750977 0.75949573516845703125 1.21028900146484375 1.0795545578002929688 1.766501307487487793 0.74238628149032592773 0.70909941196441650391 0.75394678115844726562 0.61222183704376220703 0.72066366672515869141 0.64191102981567382812 0.91774630546569824219 0.83733731508255004883 0.64432984590530395508 1.2516982555389404297 0.84951490163803100586 1.0034193992614746094 0.90635907649993896484 0.74932980537414550781 
0.87450850009918212891 0.70720899105072021484 1.3000690937042236328 0.85574048757553100586 0.8225275874137878418 0.51753121614456176758 0.39397674798965454102 0.54654723405838012695 0.66110694408416748047 0.68411475419998168945 0.74303990602493286133 0.85182744264602661133 0.40375873446464538574 1.4382179975509643555 1.3761893510818481445 0.67903554439544677734 1.05587005615234375 0.71622699499130249023 0.64874100685119628906 
0.82828325033187866211 0.6884555816650390625 0.33511957526206970215 0.57571804523468017578 1.0768277645111083984 0.35721912980079650879 0.18889582157135009766 0.96535050868988037109 0.73832756280899047852 0.52230823040008544922 0.7058855891227722168 0.69169855117797851562 0.54165828227996826172 0.79794424772262573242 0.5899594426155090332 0.77143943309783935547 1.2536588907241821289 0.79763996601104736328 0.6424344182014465332 
1.3093537092208862305 0.72435849905014038086 1.2108538150787353516 0.59028619527816772461 0.9151223301887512207 1.4530920982360839844 0.40807566046714782715 1.0167130231857299805 0.79206097126007080078 0.64091575145721435547 0.86703640222549438477 0.75317329168319702148 1.2478226423263549805 0.7148373723030090332 0.73234212398529052734 0.74594062566757202148 0.97363805770874023438 0.80060780048370361328 0.71231943368911743164 
1.4380551576614379883 0.78106558322906494141 0.87863612174987792969 0.69285160303115844727 1.1631872653961181641 0.97771978378295898438 1.2911586761474609375 0.67189449071884155273 0.81541550159454345703 0.939075469970703125 1.3219879865646362305 1.2976229190826416016 1.3453675508499145508 0.8036549687385559082 0.47356551885604858398 0.66075086593627929688 0.6404399871826171875 0.6343371272087097168 1.1627091169357299805 
0.63711774349212646484 0.9201539158821105957 0.95098763704299926758 0.73725372552871704102 0.75056493282318115234 1.2338087558746337891 1.2421233654022216797 0.55106502771377563477 0.6379241943359375 0.62767463922500610352 0.5446236729621887207 0.49977889657020568848 0.32039153575897216797 0.54464536905288696289 0.38371136784553527832 0.56668502092361450195 0.91714018583297729492 0.65017217397689819336 0.67679077386856079102 
0.30922615528106689453 0.68884640932083129883 0.95685631036758422852 1.019923090934753418 0.6775360107421875 1.2430254220962524414 1.0252354145050048828 0.68734699487686157227 0.66476809978485107422 0.4189065098762512207 0.25885784626007080078 0.63354009389877319336 0.61971127986907958984 0.62970459461212158203 0.64016705751419067383 0.51928466558456420898 0.61169290542602539062 0.56869941949844360352 0.45336100459098815918 
