ncols        19
nrows        23
xllcorner    508536.404131802963
yllcorner    5265348.997906560078
cellsize     570.000000000000
NODATA_value -9999
0.015058999881148338318 0.015058999881148338318 0.015058999881148338318 0.015058999881148338318 0.015058999881148338318 0.015058999881148338318 0.016389306634664535522 0.22695989906787872314 0.015058999881148338318 0.015058999881148338318 0.015058999881148338318 0.021710537374019622803 0.69727903604507446289 0.90909671783447265625 5.3826861381530761719 7.9707131385803222656 7.2411236763000488281 7.214130401611328125 4.1474862098693847656 
0.015058999881148338318 0.015058999881148338318 0.015058999881148338318 0.015058999881148338318 0.028502324596047401428 1.1554968357086181641 1.6094938516616821289 1.1837561130523681641 0.015058999881148338318 0.016389306634664535522 0.72147709131240844727 3.1006846427917480469 5.1600880622863769531 6.5848650932312011719 5.3519458770751953125 8.6750841140747070312 6.6019964218139648438 6.8291387557983398438 3.8749983310699462891 
0.015058999881148338318 0.015058999881148338318 0.015058999881148338318 0.03195735439658164978 3.0439693927764892578 4.5608034133911132812 2.6985483169555664062 0.020680570974946022034 0.02536022476851940155 1.7379401922225952148 6.63658905029296875 6.4570107460021972656 6.4855556488037109375 7.5110640525817871094 6.2298631668090820312 6.1660404205322265625 4.8095827102661132812 2.9459245204925537109 4.9785261154174804688 
0.015058999881148338318 0.015058999881148338318 0.015058999881148338318 0.64612233638763427734 3.8065030574798583984 2.6573522090911865234 2.1615040302276611328 0.8281548619270324707 2.6213057041168212891 3.3369164466857910156 3.9724123477935791016 3.7722191810607910156 4.0586252212524414062 7.72271728515625 4.8199887275695800781 4.9076566696166992188 5.4284543991088867188 2.6615359783172607422 5.5454950332641601562 
0.015058999881148338318 0.015058999881148338318 0.21013063192367553711 2.7343015670776367188 4.1683669090270996094 3.9798586368560791016 4.9204502105712890625 3.9411864280700683594 2.8025138378143310547 1.131556391716003418 3.2170834541320800781 3.6166667938232421875 7.8678698539733886719 7.0018835067749023438 5.7589182853698730469 2.5306274890899658203 4.4215984344482421875 2.2937102317810058594 1.5517655611038208008 
2.0341432094573974609 3.2278413772583007812 2.8011879920959472656 4.0849461555480957031 2.9272148609161376953 4.83008575439453125 6.3057007789611816406 4.59355926513671875 2.7643935680389404297 2.3584239482879638672 3.2065536975860595703 5.0196857452392578125 8.5338954925537109375 2.6159486770629882812 2.6460106372833251953 2.73979949951171875 4.7440099716186523438 2.2593026161193847656 1.9837468862533569336 
3.4286656379699707031 4.9494071006774902344 2.9342827796936035156 1.7207368612289428711 3.8648421764373779297 5.8916301727294921875 5.2570919990539550781 3.9991960525512695312 3.8388514518737792969 3.2003648281097412109 2.3871307373046875 4.1015844345092773438 9.21454620361328125 3.6672182083129882812 3.3943347930908203125 3.6248204708099365234 2.7402269840240478516 1.8687298297882080078 3.5221621990203857422 
5.0534329414367675781 6.5610818862915039062 3.9951443672180175781 2.7467260360717773438 3.8112440109252929688 4.6760778427124023438 4.2505249977111816406 6.1225619316101074219 5.0377020835876464844 5.0506110191345214844 3.376163482666015625 5.0888600349426269531 8.74201202392578125 3.4214146137237548828 3.4051918983459472656 2.8571183681488037109 2.2765595912933349609 3.1055805683135986328 3.0769143104553222656 
6.8556952476501464844 6.3863673210144042969 3.1926617622375488281 1.8288767337799072266 4.9223165512084960938 5.3821935653686523438 4.2605862617492675781 2.810787200927734375 4.9071011543273925781 3.9593157768249511719 1.661327362060546875 4.0805315971374511719 6.5661520957946777344 4.1405501365661621094 3.9029603004455566406 3.1664493083953857422 2.6563920974731445312 4.7560687065124511719 6.0318198204040527344 
4.4419927597045898438 5.4458451271057128906 5.7507166862487792969 3.6307899951934814453 4.7831082344055175781 2.8752083778381347656 4.1488041877746582031 2.9086453914642333984 3.0065948963165283203 3.8361430168151855469 1.2118692398071289062 2.2558450698852539062 10.246149063110351562 3.9085717201232910156 4.3613443374633789062 3.30001068115234375 2.6616230010986328125 3.7203524112701416016 6.876232147216796875 
1.6067978143692016602 6.0716509819030761719 5.2182936668395996094 3.7284414768218994141 3.1963958740234375 2.4867608547210693359 4.08453369140625 3.3970558643341064453 3.4391272068023681641 3.6307840347290039062 3.4061160087585449219 6.7209568023681640625 3.8566536903381347656 3.8934888839721679688 4.6686177253723144531 2.8171544075012207031 2.2350025177001953125 4.1990871429443359375 3.0121827125549316406 
2.9636337757110595703 5.4114294052124023438 2.9575159549713134766 4.557636260986328125 4.1570978164672851562 2.1029820442199707031 1.0172686576843261719 1.9127701520919799805 2.7020592689514160156 5.0062890052795410156 5.2138395309448242188 4.6631784439086914062 5.0659017562866210938 4.1701221466064453125 4.7443871498107910156 0.36707657575607299805 2.3814527988433837891 3.0125534534454345703 3.0252938270568847656 
6.0020241737365722656 3.4345552921295166016 4.1115550994873046875 3.4821467399597167969 3.2769267559051513672 1.2954145669937133789 1.2433767318725585938 1.2113931179046630859 1.9935382604598999023 4.5077166557312011719 4.6237492561340332031 3.06256866455078125 5.0150561332702636719 4.8402628898620605469 3.6304309368133544922 4.4442548751831054688 2.3035509586334228516 3.0160021781921386719 3.9433703422546386719 
5.0080342292785644531 4.5968632698059082031 4.5538482666015625 3.6893246173858642578 4.5598993301391601562 3.4678890705108642578 2.8824241161346435547 2.3022882938385009766 3.963298797607421875 2.0792279243469238281 1.5785574913024902344 2.0451381206512451172 4.9943261146545410156 4.5751357078552246094 3.851612091064453125 2.887180328369140625 2.4774534702301025391 2.5232105255126953125 2.1170837879180908203 
3.518367767333984375 4.0103816986083984375 3.3480525016784667969 7.0800261497497558594 7.1389112472534179688 3.2941825389862060547 2.7912626266479492188 1.5780752897262573242 3.5790460109710693359 2.375255584716796875 1.6136474609375 3.769611358642578125 4.2899932861328125 5.214771270751953125 4.1387853622436523438 2.9386587142944335938 2.5236606597900390625 3.0660393238067626953 3.1455817222595214844 
3.52397918701171875 2.2876136302947998047 1.290696263313293457 5.8196692466735839844 4.7092585563659667969 2.9962897300720214844 2.1289343833923339844 4.7383513450622558594 2.2609355449676513672 4.5502862930297851562 3.9890036582946777344 2.8707067966461181641 5.6412639617919921875 4.207691192626953125 5.0295581817626953125 3.6064298152923583984 4.9494843482971191406 4.8035564422607421875 1.7337425947189331055 
3.0462701320648193359 4.2626752853393554688 7.2772459983825683594 4.7788677215576171875 5.3482480049133300781 3.9100666046142578125 3.7879252433776855469 4.4765830039978027344 4.3068861961364746094 4.7433061599731445312 5.2589020729064941406 4.9049787521362304688 3.4318201541900634766 4.2616372108459472656 4.0816969871520996094 4.0265536308288574219 2.3174774646759033203 1.9224765300750732422 1.4557279348373413086 
4.5593023300170898438 3.7280032634735107422 3.3418707847595214844 4.1752676963806152344 4.2785887718200683594 3.364322662353515625 2.2571816444396972656 2.6184866428375244141 4.9356293678283691406 5.4352402687072753906 5.0778698921203613281 4.8287596702575683594 1.411373138427734375 4.3636016845703125 5.0566096305847167969 5.4757647514343261719 3.3421933650970458984 3.1210155487060546875 4.8932213783264160156 
3.55255126953125 2.5426011085510253906 2.0927736759185791016 2.6025288105010986328 4.1817564964294433594 1.5035477876663208008 0.66336762905120849609 4.4617991447448730469 4.5974950790405273438 3.8377895355224609375 5.0891137123107910156 4.7723841667175292969 3.2996137142181396484 5.1677703857421875 4.9825839996337890625 5.6571278572082519531 3.3396608829498291016 3.5467481613159179688 4.4699921607971191406 
4.6400623321533203125 3.5954146385192871094 7.1184229850769042969 2.5106837749481201172 2.8955702781677246094 4.3799638748168945312 2.4133691787719726562 5.5091986656188964844 4.9462842941284179688 5.7643303871154785156 5.5456881523132324219 3.0840723514556884766 5.8664870262145996094 3.6192383766174316406 4.4275331497192382812 3.7616147994995117188 5.5985894203186035156 5.8220891952514648438 6.3871068954467773438 
5.0775523185729980469 2.4099576473236083984 4.6688942909240722656 4.7971582412719726562 3.7551758289337158203 4.8587493896484375 4.9173436164855957031 2.7936277389526367188 4.8525242805480957031 5.2540583610534667969 5.7369914054870605469 6.1807880401611328125 5.3255887031555175781 6.2535424232482910156 4.0160012245178222656 4.622837066650390625 5.2202439308166503906 5.3725428581237792969 6.0658745765686035156 
3.2394587993621826172 3.6208834648132324219 4.2831869125366210938 4.2256536483764648438 4.2049970626831054688 5.2051858901977539062 3.7510607242584228516 2.3802859783172607422 5.2301478385925292969 5.4712114334106445312 4.3405842781066894531 4.7305650711059570312 3.0011818408966064453 5.5870847702026367188 3.4023656845092773438 3.7852330207824707031 4.6847200393676757812 5.0021491050720214844 5.6316027641296386719 
1.2746372222900390625 2.9723329544067382812 5.6101598739624023438 5.9251322746276855469 3.400890350341796875 5.4057154655456542969 3.0527770519256591797 3.1936910152435302734 5.6758098602294921875 4.1743249893188476562 2.1806926727294921875 7.3564095497131347656 5.8609805107116699219 7.412479400634765625 5.7681689262390136719 2.8863983154296875 5.3722705841064453125 5.6369261741638183594 4.3677000999450683594 
