ncols        19
nrows        23
xllcorner    508536.404131802963
yllcorner    5265348.997906560078
cellsize     570.000000000000
NODATA_value -9999
0.0010280000278726220131 0.0010280000278726220131 0.0010280000278726220131 0.0010280000278726220131 0.0010280000278726220131 0.0010280000278726220131 0.0010863712523132562637 0.028607577085494995117 0.0010280000278726220131 0.0010280000278726220131 0.0010280000278726220131 0.0013198560336604714394 0.065983116626739501953 0.049001581966876983643 0.53970044851303100586 1.1254153251647949219 0.96445047855377197266 0.91654407978057861328 0.41501227021217346191 
0.0010280000278726220131 0.0010280000278726220131 0.0010280000278726220131 0.0010280000278726220131 0.0016540582291781902313 0.10862299799919128418 0.17620135843753814697 0.11554654687643051147 0.0010280000278726220131 0.0010863712523132562637 0.081125728785991668701 0.36363691091537475586 0.6424350738525390625 0.63455146551132202148 0.58313840627670288086 1.1693375110626220703 0.89287275075912475586 0.97355705499649047852 0.5757287144660949707 
0.0010280000278726220131 0.0010280000278726220131 0.0010280000278726220131 0.0017935679061338305473 0.3057040870189666748 0.47089976072311401367 0.22831133008003234863 0.0012717783683910965919 0.001503019360825419426 0.19024810194969177246 0.84425842761993408203 0.75017797946929931641 0.71267580986022949219 0.86362785100936889648 0.69591689109802246094 0.77531725168228149414 0.65578860044479370117 0.39458605647087097168 0.6452134251594543457 
0.0010280000278726220131 0.0010280000278726220131 0.0010280000278726220131 0.070012398064136505127 0.39063912630081176758 0.33455044031143188477 0.19684660434722900391 0.072798065841197967529 0.29168251156806945801 0.43929815292358398438 0.53838443756103515625 0.43663311004638671875 0.55296474695205688477 1.0162851810455322266 0.53611677885055541992 0.68446564674377441406 0.67525410652160644531 0.40558966994285583496 0.69917756319046020508 
0.0010280000278726220131 0.0010280000278726220131 0.0094246482476592063904 0.30838984251022338867 0.48998439311981201172 0.4715086519718170166 0.38830038905143737793 0.44712790846824645996 0.33438700437545776367 0.16763731837272644043 0.44237035512924194336 0.38563904166221618652 0.87419408559799194336 0.69819736480712890625 0.68414902687072753906 0.2746912837028503418 0.58257132768630981445 0.3198146820068359375 0.23112873733043670654 
0.23753140866756439209 0.46619164943695068359 0.21553717553615570068 0.44365748763084411621 0.33630982041358947754 0.55364507436752319336 0.76735967397689819336 0.60811370611190795898 0.35693475604057312012 0.35390636324882507324 0.52966845035552978516 0.64463645219802856445 1.0551028251647949219 0.30022031068801879883 0.30644014477729797363 0.3710854947566986084 0.51215195655822753906 0.30752390623092651367 0.22950755059719085693 
0.48373338580131530762 0.66375321149826049805 0.29147660732269287109 0.17386636137962341309 0.42974808812141418457 0.71707403659820556641 0.56213277578353881836 0.47706592082977294922 0.4977258145809173584 0.47142437100410461426 0.3327744901180267334 0.56074273586273193359 1.1476163864135742188 0.44221130013465881348 0.41507729887962341309 0.4639790654182434082 0.40513280034065246582 0.30756071209907531738 0.2648391425609588623 
0.67860639095306396484 0.59818255901336669922 0.54940932989120483398 0.35136127471923828125 0.48339194059371948242 0.56204140186309814453 0.50110405683517456055 0.81605315208435058594 0.71811014413833618164 0.71712583303451538086 0.47888115048408508301 0.76401948928833007812 1.378226161003112793 0.47295120358467102051 0.45138162374496459961 0.38089519739151000977 0.2593479156494140625 0.29105478525161743164 0.340686798095703125 
0.8397064208984375 0.82856357097625732422 0.52048826217651367188 0.29321047663688659668 0.62555050849914550781 0.66662895679473876953 0.64550030231475830078 0.41516500711441040039 0.58581042289733886719 0.54230570793151855469 0.26422631740570068359 0.67999494075775146484 0.8451659083366394043 0.4962094724178314209 0.52452820539474487305 0.44223287701606750488 0.29048940539360046387 0.3552405238151550293 0.50171744823455810547 
0.59630030393600463867 0.71685719490051269531 0.70946753025054931641 0.52960449457168579102 0.66234022378921508789 0.37422046065330505371 0.59288644790649414062 0.40990397334098815918 0.38936409354209899902 0.52390784025192260742 0.10248146951198577881 0.35352814197540283203 1.0812013149261474609 0.61996638774871826172 0.63000857830047607422 0.42438817024230957031 0.30848574638366699219 0.36125749349594116211 0.26932668685913085938 
0.23212078213691711426 0.83462476730346679688 0.64282834529876708984 0.51713097095489501953 0.45579195022583007812 0.34008026123046875 0.50409817695617675781 0.34153029322624206543 0.36947369575500488281 0.47647058963775634766 0.53562384843826293945 0.85900187492370605469 0.51367306709289550781 0.47890713810920715332 0.41426694393157958984 0.30279126763343811035 0.24951791763305664062 0.48457702994346618652 0.37323746085166931152 
0.47438141703605651855 0.71235191822052001953 0.34462630748748779297 0.6036281585693359375 0.56805467605590820312 0.26111051440238952637 0.12399475276470184326 0.20807442069053649902 0.33214363455772399902 0.68624556064605712891 0.60687452554702758789 0.64276659488677978516 0.71754163503646850586 0.62175953388214111328 0.53367072343826293945 0.034168791025876998901 0.23417295515537261963 0.37137171626091003418 0.38132059574127197266 
0.84813082218170166016 0.4153029024600982666 0.46614244580268859863 0.41887393593788146973 0.38082167506217956543 0.14059741795063018799 0.11897557973861694336 0.13211178779602050781 0.22581967711448669434 0.58397674560546875 0.5801874995231628418 0.49111226201057434082 0.75971508026123046875 0.68437731266021728516 0.5315735936164855957 0.57147818803787231445 0.29533275961875915527 0.41686490178108215332 0.5077540278434753418 
0.76304638385772705078 0.55974924564361572266 0.59667956829071044922 0.44046810269355773926 0.53568744659423828125 0.47940045595169067383 0.44453695416450500488 0.31405147910118103027 0.4464842379093170166 0.25076881051063537598 0.1892080456018447876 0.25915053486824035645 0.71155220270156860352 0.78972107172012329102 0.571231842041015625 0.40114119648933410645 0.31937733292579650879 0.37693774700164794922 0.27413699030876159668 
0.53090840578079223633 0.57743668556213378906 0.46327534317970275879 0.25013759732246398926 0.82879710197448730469 0.53904998302459716797 0.39694014191627502441 0.19338661432266235352 0.47936797142028808594 0.36844202876091003418 0.19439807534217834473 0.48800557851791381836 0.59814602136611938477 0.81437844038009643555 0.56452864408493041992 0.40192851424217224121 0.28994309902191162109 0.46138989925384521484 0.46974864602088928223 
0.57405292987823486328 0.32889381051063537598 0.14260682463645935059 0.56424152851104736328 0.64905077219009399414 0.515491485595703125 0.14697444438934326172 0.44948145747184753418 0.25224786996841430664 0.53553158044815063477 0.42230209708213806152 0.28073304891586303711 0.75347560644149780273 0.55604755878448486328 0.68519586324691772461 0.54843604564666748047 0.7957465052604675293 0.89702951908111572266 0.37396472692489624023 
0.40625479817390441895 0.51254510879516601562 0.23804543912410736084 0.57781910896301269531 0.76522171497344970703 0.53655183315277099609 0.25543135404586791992 0.45400154590606689453 0.50757205486297607422 0.54300582408905029297 0.51612561941146850586 0.61023950576782226562 0.43594542145729064941 0.55598062276840209961 0.5569508671760559082 0.43474203348159790039 0.3405379951000213623 0.362232208251953125 0.30592700839042663574 
0.48388847708702087402 0.47378647327423095703 0.35356727242469787598 0.26386266946792602539 0.59888678789138793945 0.41292208433151245117 0.19014602899551391602 0.32224044203758239746 0.56061261892318725586 0.56734621524810791016 0.57059276103973388672 0.52232313156127929688 0.1993325352668762207 0.61888331174850463867 0.68170899152755737305 0.57674884796142578125 0.51075887680053710938 0.39078941941261291504 0.55011206865310668945 
0.37002602219581604004 0.27691626548767089844 0.11600848287343978882 0.41636174917221069336 0.61828529834747314453 0.16969811916351318359 0.064725138247013092041 0.57105493545532226562 0.57807332277297973633 0.40852010250091552734 0.48132699728012084961 0.54043412208557128906 0.39196312427520751953 0.61342358589172363281 0.54004836082458496094 0.62027639150619506836 0.53580194711685180664 0.49791476130485534668 0.5750191807746887207 
0.4890810847282409668 0.43553888797760009766 0.2627696692943572998 0.45264032483100891113 0.51993852853775024414 0.54853218793869018555 0.26614812016487121582 0.39678117632865905762 0.5991503596305847168 0.58996659517288208008 0.59820896387100219727 0.35506114363670349121 0.52717697620391845703 0.4097366631031036377 0.51633173227310180664 0.45915991067886352539 0.65951710939407348633 0.53619521856307983398 0.55209559202194213867 
0.53075873851776123047 0.3229579925537109375 0.54170995950698852539 0.49978524446487426758 0.50249016284942626953 0.63582932949066162109 0.62514698505401611328 0.33644554018974304199 0.62461841106414794922 0.66847693920135498047 0.70746856927871704102 0.59039342403411865234 0.63971567153930664062 0.63413220643997192383 0.43096253275871276855 0.51505017280578613281 0.59276741743087768555 0.5647805333137512207 0.5904629826545715332 
0.32122856378555297852 0.55560868978500366211 0.43973246216773986816 0.36761298775672912598 0.37480917572975158691 0.62288612127304077148 0.47910255193710327148 0.3042145073413848877 0.58238333463668823242 0.57786530256271362305 0.4901167452335357666 0.44116860628128051758 0.25891065597534179688 0.49756795167922973633 0.33057034015655517578 0.47381687164306640625 0.62432426214218139648 0.59148824214935302734 0.53404331207275390625 
0.19441170990467071533 0.45449933409690856934 0.28250482678413391113 0.26771444082260131836 0.44729578495025634766 0.6018174290657043457 0.36819684505462646484 0.4296601712703704834 0.56873607635498046875 0.36434784531593322754 0.19960986077785491943 0.59489321708679199219 0.56917339563369750977 0.58962672948837280273 0.59021496772766113281 0.35643535852432250977 0.57043671607971191406 0.53354746103286743164 0.40416926145553588867 
