ncols        19
nrows        23
xllcorner    508536.404131802963
yllcorner    5265348.997906560078
cellsize     570.000000000000
NODATA_value -9999
0.0068160002119839191437 0.0068160002119839191437 0.0068160002119839191437 0.0068160002119839191437 0.0068160002119839191437 0.0068160002119839191437 0.0080237118527293205261 0.16709735989570617676 0.0068160002119839191437 0.0068160002119839191437 0.0068160002119839191437 0.012854559347033500671 0.52172440290451049805 0.6281674504280090332 3.3240220546722412109 4.5869812965393066406 4.3096318244934082031 4.3657784461975097656 2.7082448005676269531 
0.0068160002119839191437 0.0068160002119839191437 0.0068160002119839191437 0.0068160002119839191437 0.018271166831254959106 0.78256916999816894531 1.0896753072738647461 0.88760340213775634766 0.0068160002119839191437 0.0080237118527293205261 0.59228420257568359375 2.4690756797790527344 3.4854357242584228516 4.27325439453125 3.4676647186279296875 5.1561479568481445312 4.2861790657043457031 4.1149020195007324219 2.5013308525085449219 
0.0068160002119839191437 0.0068160002119839191437 0.0068160002119839191437 0.021658143028616905212 2.1072075366973876953 3.1734752655029296875 1.8000861406326293945 0.011970260180532932281 0.015686575323343276978 1.274842381477355957 4.3169994354248046875 4.6872096061706542969 4.2065300941467285156 4.5956716537475585938 4.0034952163696289062 4.01221466064453125 3.1674931049346923828 2.2888760566711425781 3.4598345756530761719 
0.0068160002119839191437 0.0068160002119839191437 0.0068160002119839191437 0.49426046013832092285 2.6430151462554931641 2.1302003860473632812 1.3860186338424682617 0.49762186408042907715 1.8053085803985595703 2.4894592761993408203 3.0399825572967529297 2.5776205062866210938 2.5577173233032226562 4.800426483154296875 3.4037048816680908203 3.4220647811889648438 3.7480781078338623047 2.4393072128295898438 3.7170293331146240234 
0.0068160002119839191437 0.0068160002119839191437 0.13022792339324951172 2.0795698165893554688 3.3073837757110595703 2.7686820030212402344 2.9107444286346435547 2.9182982444763183594 2.1013426780700683594 1.1484214067459106445 2.8593916893005371094 2.5715844631195068359 4.9145579338073730469 4.4792160987854003906 3.9157643318176269531 1.998869776725769043 3.1224572658538818359 2.1780223846435546875 1.634297490119934082 
1.5377455949783325195 2.5686864852905273438 1.9618968963623046875 2.9614086151123046875 2.2949047088623046875 3.2981977462768554688 3.8519196510314941406 3.1383876800537109375 2.1994364261627197266 2.3628480434417724609 3.2641074657440185547 3.9069790840148925781 5.2106661796569824219 2.0505852699279785156 2.1548607349395751953 2.5081572532653808594 3.6293230056762695312 2.1979136466979980469 1.6054537296295166016 
2.8474528789520263672 3.4131453037261962891 2.0782914161682128906 1.2876700162887573242 2.9702105522155761719 4.0953965187072753906 3.3951086997985839844 2.9920806884765625 3.0325243473052978516 2.8449814319610595703 2.1023497581481933594 3.5467839241027832031 5.4668393135070800781 3.0460731983184814453 2.7617280483245849609 2.9943037033081054688 2.6904315948486328125 2.1442012786865234375 2.5783092975616455078 
3.5570600032806396484 4.0363063812255859375 3.6164159774780273438 2.5142364501953125 2.8716881275177001953 3.4030656814575195312 3.0558018684387207031 4.1350965499877929688 3.5493464469909667969 3.5870354175567626953 2.776264190673828125 3.8846342563629150391 5.1776580810546875 3.1392464637756347656 3.0061504840850830078 2.3775694370269775391 1.7975776195526123047 2.6018543243408203125 2.46506500244140625 
4.625263214111328125 4.2451620101928710938 3.4521729946136474609 1.9276990890502929688 3.8328294754028320312 3.7041647434234619141 3.4056737422943115234 2.5286078453063964844 3.5492551326751708984 3.2516107559204101562 1.5845227241516113281 3.4843606948852539062 4.2062821388244628906 3.2453925609588623047 3.3991138935089111328 2.9363672733306884766 2.0074441432952880859 3.1586554050445556641 3.8926248550415039062 
3.8924515247344970703 4.0822148323059082031 4.2460274696350097656 3.5126373767852783203 3.5836935043334960938 2.1940109729766845703 3.1771655082702636719 2.7202327251434326172 2.6488652229309082031 3.4865419864654541016 1.0027291774749755859 2.3525106906890869141 6.0099387168884277344 3.1779274940490722656 3.3262646198272705078 2.8765811920166015625 2.1656301021575927734 2.844696044921875 3.9480853080749511719 
1.5382108688354492188 4.2709503173828125 3.8871550559997558594 3.4153363704681396484 3.0757994651794433594 2.0244212150573730469 2.92436981201171875 2.5238718986511230469 2.3207106590270996094 3.1454129219055175781 3.5535185337066650391 4.1781821250915527344 2.7665266990661621094 2.8385007381439208984 2.983154296875 2.0404353141784667969 1.7743480205535888672 3.4011852741241455078 2.5585443973541259766 
2.8324866294860839844 3.9286479949951171875 2.3315103054046630859 3.7041454315185546875 3.3815867900848388672 1.4621090888977050781 0.79619097709655761719 1.3832122087478637695 1.7334455251693725586 4.0421061515808105469 3.9672489166259765625 2.9616196155548095703 3.2466747760772705078 3.5785753726959228516 3.0135235786437988281 0.26953923702239990234 1.6622943878173828125 2.5179247856140136719 2.6020884513854980469 
4.3497929573059082031 2.8118445873260498047 3.0363337993621826172 2.7495763301849365234 2.5400631427764892578 1.0704352855682373047 0.96222776174545288086 0.98949730396270751953 1.4261931180953979492 3.7820837497711181641 3.8481328487396240234 2.7890443801879882812 3.5298435688018798828 3.8045201301574707031 3.0441915988922119141 3.0095601081848144531 1.8611037731170654297 2.3602087497711181641 3.5202314853668212891 
4.0120797157287597656 3.3665301799774169922 3.3597066402435302734 2.8827118873596191406 3.1676182746887207031 2.4502725601196289062 1.8256396055221557617 1.4892659187316894531 3.0505118370056152344 1.5673565864562988281 1.2277209758758544922 1.7188324928283691406 3.8670113086700439453 3.5628054141998291016 2.9754199981689453125 2.6320517063140869141 2.1353182792663574219 2.5000643730163574219 1.9109151363372802734 
3.4250993728637695312 3.6401765346527099609 3.1127212047576904297 4.1072778701782226562 4.1226992607116699219 2.8523881435394287109 2.4168753623962402344 1.3869466781616210938 3.1949219703674316406 2.1415958404541015625 1.1474586725234985352 2.8186509609222412109 3.6086380481719970703 3.9427542686462402344 3.356258392333984375 2.8361136913299560547 2.124767303466796875 2.5688381195068359375 2.4510121345520019531 
3.3985288143157958984 1.6995009183883666992 1.0944085121154785156 3.6980681419372558594 3.3695955276489257812 3.3451616764068603516 1.5070976018905639648 3.6924800872802734375 1.8109087944030761719 3.4916663169860839844 3.0197265148162841797 2.0185365676879882812 4.045612335205078125 3.5253200531005859375 3.782077789306640625 3.0656664371490478516 3.8049652576446533203 3.6395435333251953125 2.4803462028503417969 
2.6884348392486572266 3.4926762580871582031 4.2101864814758300781 3.6936347484588623047 3.8489098548889160156 3.6492679119110107422 2.6805746555328369141 3.3737504482269287109 3.29213714599609375 3.3983702659606933594 3.6097533702850341797 3.7303261756896972656 2.7395408153533935547 3.6730623245239257812 3.1743886470794677734 2.7915422916412353516 2.0518591403961181641 2.2869198322296142578 2.0290811061859130859 
3.1730020046234130859 3.0831060409545898438 2.072040557861328125 2.7814157009124755859 3.8233394622802734375 2.8732132911682128906 1.5850061178207397461 2.1574199199676513672 3.7124681472778320312 3.8667991161346435547 3.6346087455749511719 3.2556738853454589844 1.3042837381362915039 3.0876684188842773438 3.6990377902984619141 3.7936537265777587891 3.0041038990020751953 2.4571759700775146484 3.6486554145812988281 
2.6607263088226318359 1.7474750280380249023 1.3482656478881835938 2.7748651504516601562 3.7267000675201416016 1.1612555980682373047 0.49590405821800231934 3.4215264320373535156 3.7289142608642578125 2.7448205947875976562 3.122959136962890625 3.4103863239288330078 2.4962706565856933594 3.8667495250701904297 3.5819070339202880859 3.9616770744323730469 2.69356536865234375 3.116847991943359375 3.8138537406921386719 
3.0797724723815917969 2.9298136234283447266 4.2654428482055664062 3.0223889350891113281 3.1060206890106201172 3.0825734138488769531 1.9203989505767822266 3.6920371055603027344 3.88253021240234375 3.9129934310913085938 3.7818188667297363281 2.195934295654296875 3.8186049461364746094 2.6640360355377197266 3.3892817497253417969 3.1330456733703613281 4.0371432304382324219 3.8503334522247314453 3.9699652194976806641 
3.3433816432952880859 1.8631551265716552734 3.7285864353179931641 3.6274943351745605469 2.6079111099243164062 3.8258070945739746094 3.5813508033752441406 2.0742001533508300781 3.9354860782623291016 3.9965436458587646484 4.0432772636413574219 3.8742806911468505859 3.4175121784210205078 4.0041050910949707031 2.8583877086639404297 3.5913441181182861328 3.9315693378448486328 3.7347092628479003906 3.67600250244140625 
2.3732430934906005859 3.4308366775512695312 3.325801849365234375 3.1986896991729736328 3.2151093482971191406 3.8253231048583984375 2.8338274955749511719 2.0730850696563720703 3.8789155483245849609 3.8489484786987304688 3.2526607513427734375 2.9318239688873291016 1.7207204103469848633 3.3031549453735351562 2.1925292015075683594 3.1719164848327636719 3.7249195575714111328 3.8874838352203369141 3.616779327392578125 
1.3087069988250732422 2.9162473678588867188 3.5934922695159912109 3.6442010402679443359 3.2575054168701171875 3.9101138114929199219 2.3467671871185302734 2.7888138294219970703 3.8877382278442382812 2.4165606498718261719 1.3239243030548095703 3.9456706047058105469 3.7750809192657470703 3.910739898681640625 3.9146401882171630859 2.4913315773010253906 3.7834591865539550781 3.5399968624114990234 2.6806786060333251953 
