ncols        87
nrows        107
xllcorner    508536.404131802963
yllcorner    5265618.997906560078
cellsize     120.000000000000
NODATA_value -9999
0.0010280000278726220131 0.0010280000278726220131 0.0010280000278726220131 0.0010280000278726220131 0.0010280000278726220131 0.0010280000278726220131 0.0010280000278726220131 0.0010280000278726220131 0.0010280000278726220131 0.0010280000278726220131 0.0010280000278726220131 0.0010280000278726220131 0.0010280000278726220131 0.0010280000278726220131 0.0010280000278726220131 0.0010280000278726220131 0.0010280000278726220131 0.0010280000278726220131 0.0010280000278726220131 0.0010280000278726220131 0.0010280000278726220131 0.0010280000278726220131 0.0010280000278726220131 0.0010280000278726220131 0.0010280000278726220131 0.0010280000278726220131 0.0010280000278726220131 0.0010280000278726220131 0.0010280000278726220131 0.0010280000278726220131 0.0010280000278726220131 0.0010280000278726220131 0.0010280000278726220131 0.0010280000278726220131 0.0010280000278726220131 0.0010280000278726220131 0.0010280000278726220131 0.0010280000278726220131 0.0010280000278726220131 0.0010280000278726220131 0.0010280000278726220131 0.0010280000278726220131 0.0010280000278726220131 0.0010280000278726220131 0.0010280000278726220131 0.0010280000278726220131 0.0010280000278726220131 0.0010280000278726220131 0.0010280000278726220131 0.0010280000278726220131 0.0010280000278726220131 0.0010280000278726220131 0.0010280000278726220131 0.0010280000278726220131 0.0010280000278726220131 0.0010280000278726220131 0.0010280000278726220131 0.0010280000278726220131 0.0010280000278726220131 0.0010280000278726220131 0.0010280000278726220131 0.0010280000278726220131 0.0010280000278726220131 0.0010280000278726220131 0.0010280000278726220131 0.0010280000278726220131 0.0097333127632737159729 0.088871754705905914307 0.29516738653182983398 0.33644917607307434082 0.38131168484687805176 0.7815373539924621582 0.71619629859924316406 1.3830636739730834961 0.64088553190231323242 0.29349905252456665039 0.90844762325286865234 0.59467917680740356445 0.47182944416999816895 0.97417557239532470703 1.3550140857696533203 0.7743244171142578125 1.2456188201904296875 0.90591156482696533203 0.93203896284103393555 0.88840925693511962891 1.0828082561492919922 
0.0010280000278726220131 0.0010280000278726220131 0.0010280000278726220131 0.0010280000278726220131 0.0010280000278726220131 0.0010280000278726220131 0.0010280000278726220131 0.0010280000278726220131 0.0010280000278726220131 0.0010280000278726220131 0.0010280000278726220131 0.0010280000278726220131 0.0010280000278726220131 0.0010280000278726220131 0.0010280000278726220131 0.0010280000278726220131 0.0010280000278726220131 0.0010280000278726220131 0.0010280000278726220131 0.0010280000278726220131 0.0010280000278726220131 0.0010280000278726220131 0.0010280000278726220131 0.0010280000278726220131 0.0010280000278726220131 0.0010280000278726220131 0.0010280000278726220131 0.0010280000278726220131 0.0010280000278726220131 0.0010280000278726220131 0.0010280000278726220131 0.0010280000278726220131 0.0010280000278726220131 0.0010280000278726220131 0.0010280000278726220131 0.0010280000278726220131 0.0010280000278726220131 0.0010280000278726220131 0.0010280000278726220131 0.0010280000278726220131 0.0010280000278726220131 0.0010280000278726220131 0.0010280000278726220131 0.0010280000278726220131 0.0010280000278726220131 0.0010280000278726220131 0.0010280000278726220131 0.0010280000278726220131 0.0010280000278726220131 0.0010280000278726220131 0.0010280000278726220131 0.0010280000278726220131 0.0010280000278726220131 0.0010280000278726220131 0.0010280000278726220131 0.0010280000278726220131 0.0010280000278726220131 0.0010280000278726220131 0.0010280000278726220131 0.0010280000278726220131 0.0010280000278726220131 0.014651250094175338745 0.014651250094175338745 0.0010280000278726220131 0.0010280000278726220131 0.015655811876058578491 0.29796612262725830078 0.22710062563419342041 0.42859682440757751465 0.35397449135780334473 0.98178684711456298828 1.1376181840896606445 1.2543293237686157227 1.1169167757034301758 1.4834139347076416016 0.64896780252456665039 0.74194663763046264648 1.0541181564331054688 1.3267083168029785156 1.5284463167190551758 0.85214382410049438477 0.58088231086730957031 0.57393163442611694336 0.94969415664672851562 0.48361724615097045898 0.82986718416213989258 0.4036687314510345459 
0.0010280000278726220131 0.0010280000278726220131 0.0010280000278726220131 0.0010280000278726220131 0.0010280000278726220131 0.0010280000278726220131 0.0010280000278726220131 0.0010280000278726220131 0.0010280000278726220131 0.0010280000278726220131 0.0010280000278726220131 0.0010280000278726220131 0.0010280000278726220131 0.0010280000278726220131 0.0010280000278726220131 0.0010280000278726220131 0.0010280000278726220131 0.0010280000278726220131 0.0010280000278726220131 0.0010280000278726220131 0.0010280000278726220131 0.0010280000278726220131 0.0010280000278726220131 0.0010280000278726220131 0.0010280000278726220131 0.0010280000278726220131 0.0010280000278726220131 0.0010280000278726220131 0.0010280000278726220131 0.0010280000278726220131 0.0010280000278726220131 0.0010280000278726220131 0.0010280000278726220131 0.0010280000278726220131 0.0010280000278726220131 0.0010280000278726220131 0.0010280000278726220131 0.0010280000278726220131 0.0010280000278726220131 0.0010280000278726220131 0.0010280000278726220131 0.0010280000278726220131 0.0010280000278726220131 0.0010280000278726220131 0.0010280000278726220131 0.0010280000278726220131 0.0010280000278726220131 0.0010280000278726220131 0.0010280000278726220131 0.0010280000278726220131 0.0010280000278726220131 0.0010280000278726220131 0.0010280000278726220131 0.0010280000278726220131 0.0010280000278726220131 0.0010280000278726220131 0.0010280000278726220131 0.0010280000278726220131 0.0049789999611675739288 0.10920806229114532471 0.1556034386157989502 0.049584940075874328613 0.010246999561786651611 0.0014450000599026679993 0.0091415382921695709229 0.080797217786312103271 0.39782992005348205566 0.37002831697463989258 0.32216224074363708496 0.54688203334808349609 1.1496586799621582031 1.4474579095840454102 1.5563566684722900391 1.5562868118286132812 1.3091690540313720703 0.66617119312286376953 0.45006236433982849121 1.2183175086975097656 0.82104676961898803711 1.4189858436584472656 0.77825492620468139648 0.96853327751159667969 1.2318922281265258789 1.0970461368560791016 1.0766490697860717773 0.36343413591384887695 0.0026960000395774841309 
0.0010280000278726220131 0.0010280000278726220131 0.0010280000278726220131 0.0010280000278726220131 0.0010280000278726220131 0.0010280000278726220131 0.0010280000278726220131 0.0010280000278726220131 0.0010280000278726220131 0.0010280000278726220131 0.0010280000278726220131 0.0010280000278726220131 0.0010280000278726220131 0.0010280000278726220131 0.0010280000278726220131 0.0010280000278726220131 0.0010280000278726220131 0.0010280000278726220131 0.0010280000278726220131 0.0010280000278726220131 0.0010280000278726220131 0.0010280000278726220131 0.0010280000278726220131 0.0010280000278726220131 0.0010280000278726220131 0.0010280000278726220131 0.0010280000278726220131 0.0010280000278726220131 0.0010280000278726220131 0.0010280000278726220131 0.0010280000278726220131 0.0010280000278726220131 0.0010280000278726220131 0.0010280000278726220131 0.0010280000278726220131 0.0023449999280273914337 0.0010280000278726220131 0.0010280000278726220131 0.0010280000278726220131 0.0010280000278726220131 0.0010280000278726220131 0.0010280000278726220131 0.0010280000278726220131 0.0010280000278726220131 0.0010280000278726220131 0.0010280000278726220131 0.0010280000278726220131 0.0010280000278726220131 0.0010280000278726220131 0.0010280000278726220131 0.0010280000278726220131 0.0010280000278726220131 0.0010280000278726220131 0.0010280000278726220131 0.0010280000278726220131 0.0010280000278726220131 0.0010280000278726220131 0.0062959999777376651764 0.019747624173760414124 0.49535155296325683594 0.39863705635070800781 0.011736500076949596405 0.098987065255641937256 0.15476875007152557373 0.066056996583938598633 0.079040750861167907715 0.6223494410514831543 0.44637149572372436523 0.45046567916870117188 0.89998328685760498047 0.76194292306900024414 1.4111397266387939453 1.5199035406112670898 1.4108213186264038086 1.2097001075744628906 0.97243857383728027344 0.83329588174819946289 1.238045811653137207 0.84563678503036499023 1.0414876937866210938 1.1436938047409057617 1.164126276969909668 0.83767282962799072266 1.2923653125762939453 0.85681831836700439453 0.072920434176921844482 0.146816253662109375 
0.0010280000278726220131 0.0010280000278726220131 0.0010280000278726220131 0.0010280000278726220131 0.0010280000278726220131 0.0010280000278726220131 0.0010280000278726220131 0.0010280000278726220131 0.0010280000278726220131 0.0010280000278726220131 0.0010280000278726220131 0.0010280000278726220131 0.0010280000278726220131 0.0010280000278726220131 0.0010280000278726220131 0.0010280000278726220131 0.0010280000278726220131 0.0010280000278726220131 0.0010280000278726220131 0.0010280000278726220131 0.0010280000278726220131 0.0010280000278726220131 0.0010280000278726220131 0.0010280000278726220131 0.0010280000278726220131 0.0010280000278726220131 0.0010280000278726220131 0.0010280000278726220131 0.0010280000278726220131 0.0010280000278726220131 0.0010280000278726220131 0.0010280000278726220131 0.0010280000278726220131 0.047489687800407409668 0.49265649914741516113 0.49254444241523742676 0.010664000175893306732 0.0010280000278726220131 0.0010280000278726220131 0.0010280000278726220131 0.0010280000278726220131 0.0010280000278726220131 0.0010280000278726220131 0.0010280000278726220131 0.0010280000278726220131 0.0010280000278726220131 0.0010280000278726220131 0.0010280000278726220131 0.0010280000278726220131 0.0010280000278726220131 0.0010280000278726220131 0.0010280000278726220131 0.0010280000278726220131 0.0010280000278726220131 0.0010280000278726220131 0.0049789999611675739288 0.011455999687314033508 0.021429186686873435974 0.076638624072074890137 0.23088169097900390625 0.016987500712275505066 0.02809724956750869751 0.047130435705184936523 0.29957154393196105957 0.20669375360012054443 0.20083566009998321533 0.33728075027465820312 0.59887272119522094727 0.58665132522583007812 0.93625998497009277344 0.61840862035751342773 1.0168368816375732422 1.1177055835723876953 0.94445246458053588867 1.2097694873809814453 1.4473303556442260742 1.3171175718307495117 1.1564967632293701172 0.61242753267288208008 0.85100555419921875 0.50244504213333129883 1.4473448991775512695 1.1461838483810424805 1.2462546825408935547 0.41273400187492370605 0.082547813653945922852 0.14645875990390777588 
0.0010280000278726220131 0.0010280000278726220131 0.0010280000278726220131 0.0010280000278726220131 0.0010280000278726220131 0.0010280000278726220131 0.0010280000278726220131 0.0010280000278726220131 0.0010280000278726220131 0.0010280000278726220131 0.0010280000278726220131 0.0010280000278726220131 0.0010280000278726220131 0.0010280000278726220131 0.0010280000278726220131 0.0010280000278726220131 0.0010280000278726220131 0.0010280000278726220131 0.0010280000278726220131 0.0010280000278726220131 0.0010280000278726220131 0.0010280000278726220131 0.0010280000278726220131 0.0010280000278726220131 0.0010280000278726220131 0.0010280000278726220131 0.0010280000278726220131 0.0010280000278726220131 0.0010280000278726220131 0.0010280000278726220131 0.0010280000278726220131 0.0089299995452165603638 0.16064825654029846191 0.40248242020606994629 0.22585467994213104248 0.50123453140258789062 0.014060500077903270721 0.0010280000278726220131 0.0010280000278726220131 0.0010280000278726220131 0.0010280000278726220131 0.0010280000278726220131 0.0010280000278726220131 0.0010280000278726220131 0.0010280000278726220131 0.0010280000278726220131 0.0010280000278726220131 0.0010280000278726220131 0.0010280000278726220131 0.0010280000278726220131 0.0010280000278726220131 0.0010280000278726220131 0.0023449999280273914337 0.038202438503503799438 0.12441456317901611328 0.20119568705558776855 0.34577518701553344727 0.36284175515174865723 0.26155304908752441406 0.37367644906044006348 0.30103743076324462891 0.35321295261383056641 0.19599275290966033936 0.54251056909561157227 0.25105431675910949707 0.21899999678134918213 0.45038583874702453613 0.57237350940704345703 0.36744099855422973633 0.54746448993682861328 0.60612815618515014648 1.3270974159240722656 1.628580927848815918 1.4471802711486816406 1.2657545804977416992 1.4543355703353881836 1.2884621620178222656 0.89447140693664550781 0.50135266780853271484 0.57868933677673339844 1.3962169885635375977 1.6286848783493041992 1.0917936563491821289 0.41641730070114135742 0.080145247280597686768 0.004583499860018491745 0.019899999722838401794 
0.0010280000278726220131 0.0010280000278726220131 0.0010280000278726220131 0.0010280000278726220131 0.0010280000278726220131 0.0010280000278726220131 0.0010280000278726220131 0.0010280000278726220131 0.0010280000278726220131 0.0010280000278726220131 0.0010280000278726220131 0.0010280000278726220131 0.0010280000278726220131 0.0010280000278726220131 0.0010280000278726220131 0.0010280000278726220131 0.0010280000278726220131 0.0010280000278726220131 0.0010280000278726220131 0.0010280000278726220131 0.0010280000278726220131 0.0010280000278726220131 0.0010280000278726220131 0.0010280000278726220131 0.0010280000278726220131 0.0010280000278726220131 0.0010280000278726220131 0.0010280000278726220131 0.0089299995452165603638 0.013232000172138214111 0.013391000218689441681 0.60377663373947143555 0.47678956389427185059 0.26885643601417541504 0.088258311152458190918 0.1337439417839050293 0.037493500858545303345 0.0010280000278726220131 0.0010280000278726220131 0.0010280000278726220131 0.0010280000278726220131 0.0010280000278726220131 0.0010280000278726220131 0.0010280000278726220131 0.0010280000278726220131 0.0010280000278726220131 0.0010280000278726220131 0.0010280000278726220131 0.0010280000278726220131 0.0010280000278726220131 0.0023449999280273914337 0.047265626490116119385 0.14753362536430358887 0.23210375010967254639 0.46051323413848876953 0.48030516505241394043 0.60266220569610595703 0.63106256723403930664 1.0608383417129516602 0.79463684558868408203 0.37468969821929931641 0.45622023940086364746 0.27481919527053833008 0.60122472047805786133 0.41817724704742431641 0.29164588451385498047 0.60038280487060546875 0.59153234958648681641 0.4962736964225769043 0.30794319510459899902 0.40395256876945495605 1.0087720155715942383 1.3746423721313476562 1.3447309732437133789 1.272913813591003418 1.4907932281494140625 1.4111516475677490234 0.59846991300582885742 0.67016202211380004883 1.0543680191040039062 1.5198833942413330078 1.5924832820892333984 1.2466340065002441406 0.74887228012084960938 1.050124049186706543 0.52268958091735839844 0.4172534942626953125 
0.0010280000278726220131 0.0010280000278726220131 0.0010280000278726220131 0.0010280000278726220131 0.0010280000278726220131 0.0010280000278726220131 0.0010280000278726220131 0.0010280000278726220131 0.0010280000278726220131 0.0010280000278726220131 0.0010280000278726220131 0.0010280000278726220131 0.0010280000278726220131 0.0010280000278726220131 0.0010280000278726220131 0.0010280000278726220131 0.0010280000278726220131 0.0010280000278726220131 0.0010280000278726220131 0.0010280000278726220131 0.0010280000278726220131 0.0010280000278726220131 0.0010280000278726220131 0.0010280000278726220131 0.0010280000278726220131 0.0010280000278726220131 0.041873000562191009521 0.11387219280004501343 0.051504001021385192871 0.21360562741756439209 0.34436511993408203125 0.24512781202793121338 0.049414813518524169922 0.24621950089931488037 0.19671781361103057861 0.0062959999777376651764 0.0010280000278726220131 0.0010280000278726220131 0.0010280000278726220131 0.0010280000278726220131 0.0010280000278726220131 0.0010280000278726220131 0.0010280000278726220131 0.0010280000278726220131 0.0010280000278726220131 0.0010280000278726220131 0.0010280000278726220131 0.0010280000278726220131 0.0010280000278726220131 0.0084163127467036247253 0.088215939700603485107 0.26582062244415283203 0.23046550154685974121 0.61385780572891235352 0.35683813691139221191 0.57725274562835693359 0.54124116897583007812 0.54736512899398803711 1.0653684139251708984 1.4565920829772949219 0.38621199131011962891 0.53528577089309692383 0.42236205935478210449 0.65990501642227172852 0.40557533502578735352 0.23447921872138977051 0.60745632648468017578 0.71730864048004150391 0.53585809469223022461 0.25363737344741821289 0.75878256559371948242 1.1177562475204467773 1.3382437229156494141 1.0741524696350097656 0.5988623499870300293 0.93036925792694091797 1.5199143886566162109 0.56655931472778320312 0.70211952924728393555 1.2921550273895263672 1.4178527593612670898 1.453120112419128418 1.1607476472854614258 1.1137392520904541016 1.2979161739349365234 1.4560045003890991211 1.6288267374038696289 
0.0010280000278726220131 0.0010280000278726220131 0.0010280000278726220131 0.0010280000278726220131 0.0010280000278726220131 0.0010280000278726220131 0.0010280000278726220131 0.0010280000278726220131 0.0010280000278726220131 0.0010280000278726220131 0.0010280000278726220131 0.0010280000278726220131 0.0010280000278726220131 0.0010280000278726220131 0.0010280000278726220131 0.0010280000278726220131 0.0010280000278726220131 0.0010280000278726220131 0.0010280000278726220131 0.0010280000278726220131 0.0010280000278726220131 0.0010280000278726220131 0.0010280000278726220131 0.0062959999777376651764 0.010312562808394432068 0.29676330089569091797 0.49538475275039672852 0.34299698472023010254 0.01221249997615814209 0.7865040898323059082 0.11737693846225738525 0.16249132156372070312 0.25812900066375732422 0.19141061604022979736 0.082367748022079467773 0.0010280000278726220131 0.0010280000278726220131 0.0010280000278726220131 0.0010280000278726220131 0.0010280000278726220131 0.0010280000278726220131 0.0010280000278726220131 0.0010280000278726220131 0.0010280000278726220131 0.0010280000278726220131 0.0010280000278726220131 0.0010280000278726220131 0.0023449999280273914337 0.047389000654220581055 0.050633560866117477417 0.013648812659084796906 0.3756783604621887207 0.32790812849998474121 0.33767598867416381836 0.35078963637351989746 0.43400394916534423828 0.5546131134033203125 0.56148189306259155273 0.74605906009674072266 1.5283907651901245117 0.47751754522323608398 0.48755511641502380371 0.92549812793731689453 0.83438229560852050781 0.267803192138671875 0.22941038012504577637 0.60677945613861083984 1.0093133449554443359 0.9348602294921875 0.65128755569458007812 1.1261320114135742188 0.94457948207855224609 1.2050142288208007812 0.78693217039108276367 0.52131974697113037109 0.54685163497924804688 1.2630972862243652344 0.566989898681640625 0.59712833166122436523 0.56198549270629882812 0.77759176492691040039 1.116997838020324707 1.4197138547897338867 0.94814771413803100586 0.44580093026161193848 0.37824925780296325684 0.8210862278938293457 
0.0010280000278726220131 0.0010280000278726220131 0.0010280000278726220131 0.0010280000278726220131 0.0010280000278726220131 0.0010280000278726220131 0.0010280000278726220131 0.0010280000278726220131 0.0010280000278726220131 0.0010280000278726220131 0.0010280000278726220131 0.0010280000278726220131 0.0010280000278726220131 0.0010280000278726220131 0.0010280000278726220131 0.0010280000278726220131 0.0010280000278726220131 0.0010280000278726220131 0.0010280000278726220131 0.0010280000278726220131 0.0010280000278726220131 0.0036619999445974826813 0.12127868831157684326 0.12824149429798126221 0.64219915866851806641 0.23542100191116333008 0.48526024818420410156 0.4340121150016784668 0.26461336016654968262 0.077617123723030090332 0.050546124577522277832 0.33347943425178527832 0.11271912604570388794 0.082383997738361358643 0.0023449999280273914337 0.0010280000278726220131 0.0010280000278726220131 0.0010280000278726220131 0.0010280000278726220131 0.0010280000278726220131 0.0010280000278726220131 0.0010280000278726220131 0.0010280000278726220131 0.0010280000278726220131 0.0010280000278726220131 0.0010280000278726220131 0.0049789999611675739288 0.084717310965061187744 0.44312450289726257324 0.48937442898750305176 0.58668988943099975586 0.67638748884201049805 0.5997708439826965332 0.66886383295059204102 0.72798269987106323242 0.54918271303176879883 0.50545388460159301758 0.65822738409042358398 0.87338709831237792969 1.274628758430480957 0.49420225620269775391 0.41576966643333435059 0.71521383523941040039 1.0411932468414306641 1.147893071174621582 0.26348423957824707031 0.60126733779907226562 0.88251966238021850586 0.67208421230316162109 0.49496388435363769531 0.5700435638427734375 1.1178517341613769531 1.2656946182250976562 0.56484204530715942383 0.36605912446975708008 1.1879434585571289062 0.88982033729553222656 0.34829005599021911621 0.55300992727279663086 0.36806774139404296875 0.59392160177230834961 0.60561603307723999023 0.96854984760284423828 1.1252416372299194336 0.0010280000278726220131 0.20449975132942199707 1.6284527778625488281 
0.0010280000278726220131 0.0010280000278726220131 0.0010280000278726220131 0.0010280000278726220131 0.0010280000278726220131 0.0010280000278726220131 0.0010280000278726220131 0.0010280000278726220131 0.0010280000278726220131 0.0010280000278726220131 0.0010280000278726220131 0.0010280000278726220131 0.0010280000278726220131 0.0010280000278726220131 0.0010280000278726220131 0.0010280000278726220131 0.0010280000278726220131 0.0010280000278726220131 0.0010280000278726220131 0.0036619999445974826813 0.013033124618232250214 0.31071594357490539551 0.45511457324028015137 0.54704636335372924805 0.35057023167610168457 0.53355962038040161133 0.60622495412826538086 0.35117110610008239746 0.35171073675155639648 0.34009411931037902832 0.15429832041263580322 0.48357251286506652832 0.086422376334667205811 0.0076345000416040420532 0.0010280000278726220131 0.0010280000278726220131 0.0010280000278726220131 0.0010280000278726220131 0.0010280000278726220131 0.0010280000278726220131 0.0010280000278726220131 0.0010280000278726220131 0.0010280000278726220131 0.0010280000278726220131 0.0010280000278726220131 0.0036619999445974826813 0.014520437456667423248 0.30759832262992858887 0.5125624537467956543 0.8932831883430480957 0.68499040603637695312 0.68024921417236328125 0.62358880043029785156 1.0907149314880371094 0.79220533370971679688 0.50921428203582763672 0.53829145431518554688 0.80959653854370117188 0.7011744379997253418 1.0267632007598876953 0.47214514017105102539 0.21814638376235961914 1.3381386995315551758 1.2228517532348632812 1.4095091819763183594 0.3396905064582824707 0.57270032167434692383 0.88466620445251464844 0.7733847498893737793 1.0736670494079589844 0.60588169097900390625 1.171628117561340332 1.38332366943359375 0.88966482877731323242 0.58567380905151367188 0.46049070358276367188 0.51081740856170654297 0.23453438282012939453 0.87873291969299316406 0.75723588466644287109 0.81487184762954711914 0.61273193359375 0.27354550361633300781 0.61634230613708496094 0.066458687186241149902 0.25192981958389282227 1.3733322620391845703 
0.0010280000278726220131 0.0010280000278726220131 0.0010280000278726220131 0.0010280000278726220131 0.0010280000278726220131 0.0010280000278726220131 0.0010280000278726220131 0.0010280000278726220131 0.0010280000278726220131 0.0010280000278726220131 0.0010280000278726220131 0.0010280000278726220131 0.0010280000278726220131 0.0010280000278726220131 0.0010280000278726220131 0.0010280000278726220131 0.0010280000278726220131 0.0010280000278726220131 0.0010280000278726220131 0.014990000054240226746 0.12622299790382385254 0.46036669611930847168 0.49691143631935119629 0.4220345616340637207 0.35041406750679016113 0.59070670604705810547 0.57920897006988525391 0.60138273239135742188 0.38689637184143066406 0.22810587286949157715 0.52421724796295166016 0.124953441321849823 0.047042373567819595337 0.0023449999280273914337 0.0010280000278726220131 0.0010280000278726220131 0.0010280000278726220131 0.0010280000278726220131 0.0010280000278726220131 0.0010280000278726220131 0.0010280000278726220131 0.0010280000278726220131 0.0010280000278726220131 0.0010280000278726220131 0.0087925000116229057312 0.014378500171005725861 0.21588480472564697266 0.3594532012939453125 0.55155837535858154297 0.5772495269775390625 0.46710050106048583984 1.0067974328994750977 0.88686007261276245117 0.6544176936149597168 0.69519180059432983398 0.54861342906951904297 0.67981070280075073242 0.52441501617431640625 0.98246812820434570312 0.95230746269226074219 0.40899458527565002441 0.016024999320507049561 0.99498867988586425781 0.71658110618591308594 0.87067818641662597656 0.35719200968742370605 0.72456461191177368164 0.60681146383285522461 0.95089125633239746094 1.1354368925094604492 0.41249313950538635254 0.70897680521011352539 1.0641181468963623047 0.78241211175918579102 0.42792037129402160645 0.38253363966941833496 0.19696600735187530518 0.32970586419105529785 0.43569707870483398438 1.0953859090805053711 0.78698390722274780273 0.59318405389785766602 0.21276275813579559326 0.22551043331623077393 0.1358683854341506958 0.19735337793827056885 0.96635323762893676758 
0.0010280000278726220131 0.0010280000278726220131 0.0010280000278726220131 0.0010280000278726220131 0.0010280000278726220131 0.0010280000278726220131 0.0010280000278726220131 0.0010280000278726220131 0.0010280000278726220131 0.0010280000278726220131 0.0010280000278726220131 0.0010280000278726220131 0.0010280000278726220131 0.0010280000278726220131 0.0010280000278726220131 0.0010280000278726220131 0.0010280000278726220131 0.0010280000278726220131 0.0036619999445974826813 0.017231812700629234314 0.3179327547550201416 0.20191687345504760742 0.39927613735198974609 0.42533925175666809082 0.28889769315719604492 0.56706821918487548828 0.53257858753204345703 0.60755813121795654297 0.17006500065326690674 0.19267767667770385742 0.19957362115383148193 0.16146631538867950439 0.044465374201536178589 0.0010280000278726220131 0.0010280000278726220131 0.0010280000278726220131 0.0010280000278726220131 0.0010280000278726220131 0.0010280000278726220131 0.0010280000278726220131 0.0010280000278726220131 0.0010280000278726220131 0.0010280000278726220131 0.0093470001593232154846 0.01327943708747625351 0.27169457077980041504 0.46886923909187316895 0.58834320306777954102 0.62763124704360961914 1.2319906949996948242 1.1360020637512207031 1.3833000659942626953 0.79788041114807128906 0.8046016693115234375 1.1657040119171142578 0.6642519831657409668 0.78199940919876098633 0.61796748638153076172 0.88706004619598388672 0.84306764602661132812 0.2949205935001373291 0.014475000090897083282 0.55877667665481567383 0.70792490243911743164 0.32744583487510681152 0.55720722675323486328 1.2106610536575317383 0.9319031834602355957 0.95751023292541503906 0.36581552028656005859 0.47965949773788452148 0.41357123851776123047 0.28336137533187866211 0.51940715312957763672 0.61865705251693725586 0.54272508621215820312 0.32503476738929748535 0.91530525684356689453 0.58421427011489868164 0.85934549570083618164 0.64658981561660766602 0.52097868919372558594 0.38663980364799499512 0.42350533604621887207 0.30234169960021972656 0.65141892433166503906 0.27863401174545288086 
0.0010280000278726220131 0.0010280000278726220131 0.0010280000278726220131 0.0010280000278726220131 0.0010280000278726220131 0.0010280000278726220131 0.0010280000278726220131 0.0010280000278726220131 0.0010280000278726220131 0.0010280000278726220131 0.0010280000278726220131 0.0010280000278726220131 0.0010280000278726220131 0.0010280000278726220131 0.0010280000278726220131 0.0010280000278726220131 0.0010280000278726220131 0.0010280000278726220131 0.01222981233149766922 0.27094629406929016113 0.57021385431289672852 0.38298466801643371582 0.56172555685043334961 0.49348336458206176758 0.39397445321083068848 0.52167010307312011719 0.57825773954391479492 0.4986578524112701416 0.3398755490779876709 0.37597179412841796875 0.38764810562133789062 0.31182849407196044922 0.015968250110745429993 0.0010280000278726220131 0.0010280000278726220131 0.0010280000278726220131 0.0010280000278726220131 0.0010280000278726220131 0.0010280000278726220131 0.0010280000278726220131 0.0010280000278726220131 0.0010280000278726220131 0.012508125044405460358 0.089177563786506652832 0.33655062317848205566 0.60368317365646362305 0.60619503259658813477 0.59385383129119873047 1.1159253120422363281 1.0776479244232177734 1.0415947437286376953 1.3748301267623901367 1.1743597984313964844 0.66144812107086181641 0.80188345909118652344 0.69359731674194335938 1.0584292411804199219 0.77994930744171142578 0.67050182819366455078 0.72897130250930786133 0.32893112301826477051 0.018372625112533569336 0.63315093517303466797 0.73031890392303466797 1.0395786762237548828 0.91761189699172973633 0.67144739627838134766 0.75934618711471557617 0.65685379505157470703 0.34447231888771057129 0.46998125314712524414 0.57730108499526977539 0.74679785966873168945 1.0041193962097167969 0.91638284921646118164 1.02617645263671875 0.63136237859725952148 0.50640428066253662109 0.48670786619186401367 1.365443110466003418 0.9271857142448425293 0.44621032476425170898 0.2644557654857635498 0.49848607182502746582 0.10506656020879745483 0.44521081447601318359 0.57900297641754150391 
0.0010280000278726220131 0.0010280000278726220131 0.0010280000278726220131 0.0010280000278726220131 0.0010280000278726220131 0.0010280000278726220131 0.0010280000278726220131 0.0010280000278726220131 0.0010280000278726220131 0.0010280000278726220131 0.0010280000278726220131 0.0010280000278726220131 0.0010280000278726220131 0.0010280000278726220131 0.0010280000278726220131 0.0010280000278726220131 0.0010280000278726220131 0.0010280000278726220131 0.023935811594128608704 0.57197433710098266602 0.60806894302368164062 0.37722456455230712891 0.58795255422592163086 0.54260820150375366211 0.3762206733226776123 0.44095250964164733887 0.51636457443237304688 0.28150260448455810547 0.60943078994750976562 0.44821223616600036621 0.33198988437652587891 0.16617305576801300049 0.0010280000278726220131 0.0010280000278726220131 0.0010280000278726220131 0.0010280000278726220131 0.0010280000278726220131 0.0010280000278726220131 0.0010280000278726220131 0.0010280000278726220131 0.0023449999280273914337 0.029404686763882637024 0.54486882686614990234 0.58287060260772705078 0.76003873348236083984 0.60468983650207519531 0.6073246002197265625 0.69581466913223266602 0.78724873065948486328 0.6791165471076965332 1.1296731233596801758 1.0272911787033081055 0.68830120563507080078 0.62030518054962158203 0.67519581317901611328 0.58534634113311767578 0.9069271087646484375 1.1108399629592895508 1.1885278224945068359 0.85095161199569702148 0.15284758806228637695 0.01839524880051612854 0.2813319861888885498 1.3705942630767822266 1.2831592559814453125 0.60881507396697998047 0.60603284835815429688 0.69597578048706054688 0.56957662105560302734 0.36230012774467468262 0.27346125245094299316 0.64827966690063476562 0.81438684463500976562 1.4559324979782104492 1.5561127662658691406 1.1451827287673950195 0.36875963211059570312 0.37991744279861450195 0.56893748044967651367 1.0792667865753173828 0.72276484966278076172 0.56396597623825073242 0.43822169303894042969 0.42382025718688964844 0.35503900051116943359 0.58836144208908081055 1.1182625293731689453 
0.0010280000278726220131 0.0010280000278726220131 0.0010280000278726220131 0.0010280000278726220131 0.0010280000278726220131 0.0010280000278726220131 0.0010280000278726220131 0.0010280000278726220131 0.0010280000278726220131 0.0010280000278726220131 0.0010280000278726220131 0.0010280000278726220131 0.0010280000278726220131 0.0010280000278726220131 0.0010280000278726220131 0.0010280000278726220131 0.0010280000278726220131 0.0010280000278726220131 0.15414625406265258789 0.60401719808578491211 0.60524129867553710938 0.29348236322402954102 0.27316913008689880371 0.29920485615730285645 0.22380374372005462646 0.25985279679298400879 0.44714868068695068359 0.45484054088592529297 1.0458337068557739258 0.53037822246551513672 0.22115656733512878418 0.0070879999548196792603 0.0010280000278726220131 0.0010280000278726220131 0.0010280000278726220131 0.0010280000278726220131 0.0010280000278726220131 0.0010280000278726220131 0.0018619999755173921585 0.011389999650418758392 0.049228500574827194214 0.39434674382209777832 0.92653810977935791016 0.74474638700485229492 0.47407817840576171875 0.59704774618148803711 0.78606641292572021484 1.4474211931228637695 0.8808396458625793457 0.91323399543762207031 0.54934984445571899414 0.11159955710172653198 0.11260531097650527954 0.038031063973903656006 0.33921405673027038574 0.77159941196441650391 0.74202293157577514648 1.2379043102264404297 0.71388149261474609375 0.24218250811100006104 0.06730350106954574585 0.30558186769485473633 1.0564763545989990234 0.85377526283264160156 1.4471603631973266602 0.71392863988876342773 0.60194146633148193359 1.0336529016494750977 0.32988479733467102051 0.34035688638687133789 0.43654349446296691895 0.19063925743103027344 0.21552656590938568115 1.050858616828918457 1.2894214391708374023 0.66440397500991821289 0.95120096206665039062 0.55934625864028930664 0.3874422609806060791 1.0020631551742553711 0.56560349464416503906 0.34333363175392150879 0.26136356592178344727 0.35530763864517211914 0.47057038545608520508 0.68923538923263549805 1.1176495552062988281 
0.0010280000278726220131 0.0010280000278726220131 0.0010280000278726220131 0.0010280000278726220131 0.0010280000278726220131 0.0010280000278726220131 0.0010280000278726220131 0.0010280000278726220131 0.0010280000278726220131 0.0010280000278726220131 0.0010280000278726220131 0.0010280000278726220131 0.0010280000278726220131 0.0010280000278726220131 0.0010280000278726220131 0.0010280000278726220131 0.0010280000278726220131 0.0062959999777376651764 0.19788311421871185303 0.34688088297843933105 0.38718524575233459473 0.29882323741912841797 0.23648238182067871094 0.017179187387228012085 0.0456256866455078125 0.052719186991453170776 0.18655174970626831055 0.33205118775367736816 0.45598924160003662109 0.28842744231224060059 0.049892373383045196533 0.0010280000278726220131 0.0010280000278726220131 0.0010280000278726220131 0.0010280000278726220131 0.0049789999611675739288 0.0043993126600980758667 0.046228747814893722534 0.1525669395923614502 0.24905562400817871094 0.3079001307487487793 0.2919451296329498291 0.51742643117904663086 0.10794168710708618164 0.33347144722938537598 0.50455456972122192383 0.3548768162727355957 0.71193581819534301758 1.2003189325332641602 0.7159913182258605957 0.58182454109191894531 0.038412127643823623657 0.0010280000278726220131 0.0010280000278726220131 0.14376588165760040283 0.25492617487907409668 0.97300088405609130859 1.4468802213668823242 0.82665222883224487305 0.56417709589004516602 1.2836318016052246094 0.42242074012756347656 1.4681115150451660156 1.1022446155548095703 1.4834882020950317383 0.67851549386978149414 0.91407120227813720703 0.78524100780487060547 0.4221789240837097168 0.39116370677947998047 0.44695636630058288574 0.27372801303863525391 0.40564107894897460938 1.1948930025100708008 1.299746394157409668 0.71547091007232666016 0.36769476532936096191 0.41797649860382080078 1.0368568897247314453 1.0341423749923706055 0.59982991218566894531 0.18941076099872589111 0.03038912452757358551 0.051848251372575759888 0.39878013730049133301 1.0131980180740356445 0.93772202730178833008 
0.0010280000278726220131 0.0010280000278726220131 0.0010280000278726220131 0.0010280000278726220131 0.0010280000278726220131 0.0010280000278726220131 0.0010280000278726220131 0.0010280000278726220131 0.0010280000278726220131 0.0010280000278726220131 0.0010280000278726220131 0.0010280000278726220131 0.0010280000278726220131 0.0010280000278726220131 0.0010280000278726220131 0.0010280000278726220131 0.0010280000278726220131 0.047638997435569763184 0.41345262527465820312 0.46088054776191711426 0.60606551170349121094 0.35990831255912780762 0.10277168452739715576 0.073878750205039978027 0.27378726005554199219 0.16355606913566589355 0.15262599289417266846 0.73146116733551025391 0.28659138083457946777 0.19316686689853668213 0.04874974861741065979 0.0010280000278726220131 0.0010280000278726220131 0.0010280000278726220131 0.0010280000278726220131 0.0073995622806251049042 0.013834812678396701813 0.63840162754058837891 0.7267932891845703125 0.74730634689331054688 0.35918956995010375977 0.010076499544084072113 0.26293936371803283691 0.18647219240665435791 0.99103391170501708984 0.0010280000278726220131 0.0010280000278726220131 0.2610327303409576416 0.64182424545288085938 0.3600451350212097168 0.54073596000671386719 0.0010280000278726220131 0.0010280000278726220131 0.0010280000278726220131 0.25418037176132202148 0.74800920486450195312 1.2172653675079345703 0.76983267068862915039 1.0124850273132324219 0.48961201310157775879 0.60333740711212158203 0.7635822296142578125 1.393099665641784668 1.3867793083190917969 1.5120079517364501953 0.84734666347503662109 0.62936568260192871094 0.62920039892196655273 0.63623058795928955078 0.013780443929135799408 0.41828468441963195801 0.40022650361061096191 0.47988557815551757812 0.60683971643447875977 0.55303275585174560547 0.48508483171463012695 0.43217289447784423828 0.79389566183090209961 0.96301543712615966797 0.73015612363815307617 0.60029149055480957031 0.43586137890815734863 0.14054118096828460693 0.18864862620830535889 0.65824204683303833008 0.84555155038833618164 0.36754274368286132812 
0.0010280000278726220131 0.0010280000278726220131 0.0010280000278726220131 0.0010280000278726220131 0.0010280000278726220131 0.0010280000278726220131 0.0010280000278726220131 0.0010280000278726220131 0.0010280000278726220131 0.0010280000278726220131 0.0010280000278726220131 0.0010280000278726220131 0.0010280000278726220131 0.0010280000278726220131 0.0010280000278726220131 0.0010280000278726220131 0.0018313125474378466606 0.15889881551265716553 0.56506681442260742188 0.57124280929565429688 0.60821551084518432617 0.45657598972320556641 0.22525793313980102539 0.21374662220478057861 0.3263365626335144043 0.30268719792366027832 0.42547807097434997559 0.61168074607849121094 0.69141811132431030273 0.72742116451263427734 0.059471998363733291626 0.0023449999280273914337 0.0023449999280273914337 0.0010280000278726220131 0.01003825012594461441 0.017285125330090522766 0.30827370285987854004 0.57875198125839233398 0.53115785121917724609 0.39715424180030822754 0.68743407726287841797 0.043928563594818115234 0.064198188483715057373 0.21874605119228363037 0.61612010002136230469 0.0010280000278726220131 0.0010280000278726220131 0.0022370000369846820831 0.24133087694644927979 0.30736520886421203613 0.23465462028980255127 0.25488513708114624023 0.15702287852764129639 0.012238812632858753204 0.15202324092388153076 0.61407417058944702148 0.97206723690032958984 0.64212340116500854492 0.41408130526542663574 0.43732610344886779785 1.199788212776184082 1.247082829475402832 1.3191988468170166016 0.88951772451400756836 0.78943836688995361328 0.63571560382843017578 1.1473621129989624023 0.6782245635986328125 0.55670267343521118164 0.15089483559131622314 0.015560000203549861908 0.063309915363788604736 0.48788559436798095703 0.31939706206321716309 0.44571676850318908691 0.4119828343391418457 0.40771514177322387695 0.7113901972770690918 1.1857473850250244141 0.54750031232833862305 0.43901482224464416504 0.25848612189292907715 0.23049181699752807617 0.39817893505096435547 0.98746258020401000977 0.4837156832218170166 0.076940752565860748291 
0.0010280000278726220131 0.0010280000278726220131 0.0010280000278726220131 0.0010280000278726220131 0.0010280000278726220131 0.0010280000278726220131 0.0010280000278726220131 0.0010280000278726220131 0.0010280000278726220131 0.0010280000278726220131 0.0010280000278726220131 0.0010280000278726220131 0.0010280000278726220131 0.0010280000278726220131 0.0010280000278726220131 0.0010280000278726220131 0.0042412499897181987762 0.36874404549598693848 0.49718374013900756836 0.49642381072044372559 0.49690061807632446289 0.2753022313117980957 0.40869536995887756348 0.27545368671417236328 0.12559056282043457031 0.36802786588668823242 0.28046149015426635742 0.30639344453811645508 1.0023115873336791992 0.57207274436950683594 0.106926746666431427 0.029138250276446342468 0.014197999611496925354 0.015269500203430652618 0.27554649114608764648 0.12627668678760528564 0.56748056411743164062 0.60328900814056396484 0.49269542098045349121 0.081672690808773040771 0.34165307879447937012 0.0092845000326633453369 0.0022074999287724494934 0.15010225772857666016 0.1409978717565536499 0.0023449999280273914337 0.21112994849681854248 0.004583499860018491745 0.45133450627326965332 0.54794484376907348633 0.41834467649459838867 0.29222688078880310059 0.36179661750793457031 0.12722800672054290771 0.1180607527494430542 0.43431463837623596191 0.79200285673141479492 0.78764730691909790039 0.8836307525634765625 0.70315945148468017578 0.95356822013854980469 0.74480378627777099609 0.83501452207565307617 0.60616606473922729492 0.60711526870727539062 0.60504001379013061523 1.3798846006393432617 1.298943638801574707 1.3196386098861694336 0.88898855447769165039 0.48652547597885131836 0.11533225327730178833 0.1360651552677154541 0.25821581482887268066 0.38171470165252685547 0.27185544371604919434 0.21465818583965301514 0.73567831516265869141 1.4538582563400268555 0.73127758502960205078 0.19588012993335723877 0.15765674412250518799 0.15437500178813934326 0.42886474728584289551 0.47551593184471130371 0.19175206124782562256 0.11226300150156021118 
0.0010280000278726220131 0.0010280000278726220131 0.0010280000278726220131 0.0010280000278726220131 0.0010280000278726220131 0.0010280000278726220131 0.0010280000278726220131 0.0010280000278726220131 0.0010280000278726220131 0.0010280000278726220131 0.0010280000278726220131 0.0010280000278726220131 0.0010280000278726220131 0.0010280000278726220131 0.0010280000278726220131 0.0010280000278726220131 0.087392561137676239014 0.50039857625961303711 0.51770919561386108398 0.51561105251312255859 0.38755747675895690918 0.46337705850601196289 0.54904866218566894531 0.30169656872749328613 0.20768976211547851562 0.3997160792350769043 0.95584201812744140625 0.72433716058731079102 1.0526461601257324219 0.37034469842910766602 0.21899999678134918213 0.21899999678134918213 0.091720499098300933838 0.21880906820297241211 0.48695302009582519531 0.51446038484573364258 0.51552540063858032227 0.60326826572418212891 0.60415923595428466797 0.077504500746726989746 0.41361823678016662598 0.006537999957799911499 0.0010280000278726220131 0.0045960000716149806976 0.0069254999980330467224 0.0053880000486969947815 0.048634938895702362061 0.063968248665332794189 0.51734751462936401367 0.50903099775314331055 0.38387376070022583008 0.64239281415939331055 0.35406848788261413574 0.26838949322700500488 0.21179249882698059082 0.046138375997543334961 0.4548327326774597168 0.42789500951766967773 0.85044050216674804688 0.95981121063232421875 0.57494062185287475586 0.60945099592208862305 0.60564810037612915039 0.60393321514129638672 0.81317299604415893555 1.3679702281951904297 1.5561780929565429688 1.5561047792434692383 0.77424472570419311523 0.52930724620819091797 0.26318961381912231445 0.20898391306400299072 0.31441649794578552246 0.27626594901084899902 0.13852012157440185547 0.40831518173217773438 0.44533449411392211914 0.79236406087875366211 0.9100882411003112793 0.71736884117126464844 0.039818748831748962402 0.10740575194358825684 0.31047737598419189453 0.51319324970245361328 0.31520518660545349121 0.35100623965263366699 0.25822275876998901367 
0.0010280000278726220131 0.0010280000278726220131 0.0010280000278726220131 0.0010280000278726220131 0.0010280000278726220131 0.0010280000278726220131 0.0010280000278726220131 0.0010280000278726220131 0.0010280000278726220131 0.0010280000278726220131 0.0010280000278726220131 0.0010280000278726220131 0.0010280000278726220131 0.0010280000278726220131 0.0023449999280273914337 0.084307812154293060303 0.51607841253280639648 0.60344934463500976562 0.59070646762847900391 0.59104585647583007812 0.54948711395263671875 0.52023726701736450195 0.42209354043006896973 0.3849219977855682373 0.41841530799865722656 0.53076827526092529297 0.28501367568969726562 1.2555623054504394531 0.37378641963005065918 0.19536074995994567871 0.19411249458789825439 0.55315536260604858398 0.069941438734531402588 0.012099999934434890747 0.45253312587738037109 0.58687150478363037109 0.47116500139236450195 0.59431725740432739258 0.68873435258865356445 0.46783530712127685547 0.48812475800514221191 0.0081049995496869087219 0.0022074999287724494934 0.063822254538536071777 0.0010280000278726220131 0.0036619999445974826813 0.071310810744762420654 0.25877448916435241699 0.47978550195693969727 0.37048637866973876953 0.20864543318748474121 0.56290143728256225586 0.79651457071304321289 0.41161125898361206055 0.2303600013256072998 0.55011594295501708984 0.72465634346008300781 0.88415217399597167969 0.66837280988693237305 1.3021684885025024414 0.84414207935333251953 0.60625410079956054688 0.56549584865570068359 0.59769690036773681641 1.2029905319213867188 0.67015832662582397461 0.88092428445816040039 0.68065339326858520508 0.89721179008483886719 0.55106568336486816406 0.5609760284423828125 0.50445097684860229492 0.16039000451564788818 0.18802638351917266846 0.29996156692504882812 0.42689469456672668457 0.34769868850708007812 0.43511685729026794434 0.3954626917839050293 0.23238100111484527588 0.049418751150369644165 0.010641000233590602875 0.2430680692195892334 0.3419405817985534668 0.28187188506126403809 0.3616441190242767334 0.37089323997497558594 
0.0010280000278726220131 0.0010280000278726220131 0.0010280000278726220131 0.0010280000278726220131 0.0010280000278726220131 0.0010280000278726220131 0.0010280000278726220131 0.0010280000278726220131 0.0010280000278726220131 0.0010280000278726220131 0.0010280000278726220131 0.0010280000278726220131 0.0010280000278726220131 0.032225500792264938354 0.037783123552799224854 0.057362187653779983521 0.4506740570068359375 0.58213537931442260742 0.60382139682769775391 0.60696083307266235352 0.54392349720001220703 0.59192949533462524414 0.38376349210739135742 0.63377088308334350586 0.60652977228164672852 0.17353549599647521973 0.22623081505298614502 0.60040837526321411133 0.88923460245132446289 0.87961357831954956055 0.017462499439716339111 0.50503504276275634766 0.50977826118469238281 0.18999524414539337158 0.60226142406463623047 0.58772611618041992188 0.39825105667114257812 0.52963817119598388672 0.81179410219192504883 0.60026133060455322266 0.48534357547760009766 0.51118838787078857422 0.81251496076583862305 0.35680156946182250977 0.40694138407707214355 0.50703275203704833984 0.21378050744533538818 0.35816150903701782227 0.34308189153671264648 0.48534336686134338379 0.6132399439811706543 0.51309186220169067383 0.38421168923377990723 0.22163969278335571289 0.17124393582344055176 0.50444495677947998047 0.44030362367630004883 0.72542738914489746094 0.601741790771484375 1.2814000844955444336 0.91856658458709716797 0.86199474334716796875 0.42510268092155456543 0.33026367425918579102 1.4624912738800048828 1.0254244804382324219 0.53804892301559448242 0.54064720869064331055 0.54189223051071166992 0.54125809669494628906 0.51510179042816162109 0.014499999582767486572 0.01143076922744512558 0.29931676387786865234 0.3973433375358581543 0.33774411678314208984 0.55377161502838134766 0.92502951622009277344 0.62312293052673339844 0.48266512155532836914 0.52491563558578491211 0.37555283308029174805 0.25269663333892822266 0.52562856674194335938 0.30815595388412475586 0.34190276265144348145 0.015250000171363353729 
0.0010280000278726220131 0.0010280000278726220131 0.0010280000278726220131 0.0010280000278726220131 0.0010280000278726220131 0.0010280000278726220131 0.0010280000278726220131 0.0010280000278726220131 0.0010280000278726220131 0.0010280000278726220131 0.0010280000278726220131 0.0010280000278726220131 0.044531747698783874512 0.1632458120584487915 0.47569507360458374023 0.26306894421577453613 0.23846806585788726807 0.58855360746383666992 0.6034679412841796875 0.60528850555419921875 0.60652297735214233398 0.53277766704559326172 0.42879968881607055664 0.32727792859077453613 0.88498353958129882812 0.38477805256843566895 0.21095012128353118896 0.68663263320922851562 0.64594370126724243164 0.96112513542175292969 0.25009286403656005859 0.81682813167572021484 0.3092543184757232666 0.431652069091796875 0.31987786293029785156 0.36361837387084960938 1.0822498798370361328 0.45840182900428771973 0.21909563243389129639 0.28482538461685180664 0.2704353630542755127 0.31425994634628295898 0.22308468818664550781 0.42564702033996582031 0.524196624755859375 0.43702587485313415527 0.19856363534927368164 0.18032856285572052002 0.48020961880683898926 0.4800936281681060791 0.46943005919456481934 0.50879204273223876953 0.54156827926635742188 0.33014187216758728027 0.52464431524276733398 0.55596894025802612305 0.51060605049133300781 0.62202256917953491211 0.94738024473190307617 1.2658765316009521484 1.1284133195877075195 0.75149124860763549805 0.82615810632705688477 0.3565432131290435791 0.64477699995040893555 0.98400938510894775391 0.59928059577941894531 0.52825284004211425781 0.35834527015686035156 0.41593584418296813965 0.50917959213256835938 0.45666432380676269531 0.37985032796859741211 0.35334041714668273926 0.39355236291885375977 0.36381131410598754883 0.61777889728546142578 0.58575975894927978516 0.59842497110366821289 0.5874570012092590332 0.54020965099334716797 0.51314276456832885742 0.14556293189525604248 0.59364271163940429688 0.37175062298774719238 0.30911037325859069824 0.019899999722838401794 
0.0010280000278726220131 0.0010280000278726220131 0.0010280000278726220131 0.0010280000278726220131 0.0010280000278726220131 0.031995750963687896729 0.24171648919582366943 0.44190648198127746582 0.1358954310417175293 0.0023449999280273914337 0.0010280000278726220131 0.0036619999445974826813 0.15432105958461761475 0.5296643376350402832 0.60469210147857666016 0.55103856325149536133 0.55249619483947753906 0.57820791006088256836 0.60293030738830566406 0.59098047018051147461 0.60689496994018554688 0.34968918561935424805 0.42153760790824890137 0.67598181962966918945 0.64124941825866699219 0.12324593961238861084 0.65163725614547729492 0.38428962230682373047 0.78065288066864013672 1.1534051895141601562 0.65137189626693725586 1.0401360988616943359 0.95072120428085327148 0.92051881551742553711 1.0141233205795288086 1.0072977542877197266 0.99148154258728027344 0.92199027538299560547 0.62929826974868774414 0.49890220165252685547 0.47013995051383972168 0.24721868336200714111 0.37239256501197814941 0.44630944728851318359 0.44842612743377685547 0.20889212191104888916 0.12656906247138977051 0.27336907386779785156 0.47572824358940124512 0.47694677114486694336 0.506862640380859375 0.83187413215637207031 1.0312980413436889648 0.30872836709022521973 0.58472096920013427734 0.59216833114624023438 0.64115464687347412109 0.60342276096343994141 1.192723393440246582 1.4110735654830932617 1.1036005020141601562 0.56748431921005249023 0.35591915249824523926 0.45876431465148925781 0.51452845335006713867 0.3629340827465057373 0.1141470000147819519 0.2790540158748626709 0.064884997904300689697 0.24904084205627441406 0.2093690037727355957 0.29276764392852783203 0.25653085112571716309 0.37217921018600463867 0.46335324645042419434 0.22764581441879272461 0.32228228449821472168 0.51702600717544555664 0.59857845306396484375 0.59423643350601196289 0.52475172281265258789 0.33118218183517456055 0.14775344729423522949 0.5145695805549621582 0.52461063861846923828 0.46556112170219421387 0.019899999722838401794 
0.0010280000278726220131 0.0010280000278726220131 0.0010280000278726220131 0.0031483124475926160812 0.15493425726890563965 0.43216630816459655762 0.35158738493919372559 1.1128445863723754883 0.9292424321174621582 0.081897877156734466553 0.0049789999611675739288 0.062105998396873474121 0.079008057713508605957 0.52815937995910644531 0.60530263185501098633 0.60547363758087158203 0.60445290803909301758 0.60565102100372314453 0.52914017438888549805 0.528408050537109375 0.27547731995582580566 0.40551963448524475098 0.21925856173038482666 0.47879937291145324707 0.36999708414077758789 0.22135469317436218262 0.80245554447174072266 0.72109383344650268555 1.3722149133682250977 1.2743625640869140625 1.2652808427810668945 0.53364348411560058594 0.40036925673484802246 0.39404538273811340332 0.28195792436599731445 0.58831709623336791992 0.87662434577941894531 0.67292809486389160156 0.57304358482360839844 0.69341939687728881836 0.44353312253952026367 0.27033036947250366211 0.50933414697647094727 0.40648156404495239258 0.40858110785484313965 0.073202498257160186768 0.27666181325912475586 0.51367789506912231445 0.46970742940902709961 0.48498657345771789551 0.54584181308746337891 0.70092749595642089844 0.72295778989791870117 0.53923302888870239258 0.57545530796051025391 0.76374292373657226562 1.2976124286651611328 1.0656410455703735352 1.3074921369552612305 1.4110956192016601562 0.8524532318115234375 0.45824131369590759277 0.5996806025505065918 0.18419785797595977783 0.77614617347717285156 0.59103637933731079102 0.41839611530303955078 0.52212607860565185547 0.48859009146690368652 0.50529950857162475586 0.44388613104820251465 0.3837871849536895752 0.6234569549560546875 0.60535061359405517578 0.33902594447135925293 0.31935831904411315918 0.19336012005805969238 0.44185400009155273438 0.60464513301849365234 0.57386130094528198242 0.53461980819702148438 0.25521782040596008301 0.39372393488883972168 0.5552260279655456543 0.50115537643432617188 0.50416177511215209961 0.019899999722838401794 
0.0036619999445974826813 0.045156188309192657471 0.22545805573463439941 0.43518593907356262207 0.51345962285995483398 0.24619750678539276123 0.53954100608825683594 0.70953118801116943359 0.32711255550384521484 0.33028301596641540527 0.09227612614631652832 0.13285624980926513672 0.015422062017023563385 0.54061466455459594727 0.56610202789306640625 0.58117413520812988281 0.5932191014289855957 0.42277631163597106934 0.20110300183296203613 0.30989205837249755859 0.12938855588436126709 0.48792093992233276367 0.12122525274753570557 0.15669906139373779297 0.1585814356803894043 0.16082713007926940918 0.60755789279937744141 0.99560642242431640625 1.3020708560943603516 1.2902320623397827148 0.98705655336380004883 0.56291162967681884766 0.28334844112396240234 0.45238330960273742676 0.48215380311012268066 0.67308866977691650391 0.21480913460254669189 0.71929860115051269531 0.12296844273805618286 0.26584151387214660645 0.087488748133182525635 0.34662386775016784668 0.42565518617630004883 0.42954781651496887207 0.57685118913650512695 0.07453556358814239502 0.36062261462211608887 0.68168455362319946289 0.52206432819366455078 0.51174634695053100586 0.55724245309829711914 0.59537428617477416992 0.57386863231658935547 0.58572953939437866211 0.5969435572624206543 0.53496593236923217773 0.8006064295768737793 0.55610001087188720703 1.0603805780410766602 1.2098828554153442383 0.60539293289184570312 0.59267508983612060547 0.56090891361236572266 0.19779700040817260742 0.21295566856861114502 0.30734801292419433594 0.29241675138473510742 0.36702194809913635254 0.36978968977928161621 0.3540547490119934082 0.28484848141670227051 0.35728970170021057129 0.39167344570159912109 0.33829069137573242188 0.35130807757377624512 0.28032544255256652832 0.21899999678134918213 0.32866674661636352539 0.60063970088958740234 0.5290533900260925293 0.58294183015823364258 0.089369937777519226074 0.4211527705192565918 0.26877114176750183105 0.3219153285026550293 0.33543887734413146973 0.01839524880051612854 
0.48954504728317260742 0.56142663955688476562 0.88358873128890991211 0.80074584484100341797 0.29039111733436584473 0.46034204959869384766 0.31689992547035217285 0.86090832948684692383 0.42655313014984130859 0.93533539772033691406 0.047455374151468276978 0.1820812523365020752 0.2346426844596862793 0.55098754167556762695 0.4580650627613067627 0.35229313373565673828 0.19918394088745117188 0.16414925456047058105 0.30130988359451293945 0.46633175015449523926 0.096834748983383178711 0.26305648684501647949 0.037819437682628631592 0.29226225614547729492 0.25949439406394958496 0.31839868426322937012 0.48702386021614074707 0.94356715679168701172 1.0166170597076416016 0.27759116888046264648 0.56643199920654296875 0.27949893474578857422 0.71146351099014282227 0.56282705068588256836 0.5994618535041809082 0.44294330477714538574 0.47490775585174560547 0.67649132013320922852 0.16117151081562042236 0.21068537235260009766 0.074438065290451049805 0.41836649179458618164 0.45247825980186462402 0.46726313233375549316 0.54576206207275390625 0.44812875986099243164 0.1662750542163848877 0.1833909451961517334 0.54147005081176757812 0.42844918370246887207 0.35695543885231018066 0.456066131591796875 0.52335762977600097656 0.58799594640731811523 1.1604126691818237305 0.68516248464584350586 1.0425593852996826172 0.95167458057403564453 1.318162083625793457 1.0375034809112548828 0.60038971900939941406 0.58510553836822509766 0.34182444214820861816 0.40862548351287841797 0.34602215886116027832 0.5533148646354675293 0.37742125988006591797 0.27005246281623840332 0.4355494379997253418 0.30321383476257324219 0.52799332141876220703 0.36566901206970214844 0.54523956775665283203 0.29282006621360778809 0.25427350401878356934 0.16001090407371520996 0.21899999678134918213 0.58171021938323974609 0.53968846797943115234 0.55218285322189331055 0.55403178930282592773 0.15885582566261291504 0.04552981257438659668 0.0092749996110796928406 0.10298825055360794067 0.2824261784553527832 0.14786700904369354248 
0.59315901994705200195 0.4875926971435546875 0.37512007355690002441 0.54047429561614990234 0.26391530036926269531 0.39685642719268798828 0.37644413113594055176 0.7436568140983581543 0.79551368951797485352 0.73944568634033203125 0.007612999994307756424 0.064226314425468444824 0.27008068561553955078 0.3208954930305480957 0.32422745227813720703 0.087166123092174530029 0.044267375022172927856 0.013880999758839607239 0.20531336963176727295 0.4264380037784576416 0.12996962666511535645 0.78836870193481445312 0.40294587612152099609 0.25411325693130493164 0.21845130622386932373 0.59232527017593383789 0.62086522579193115234 0.64569717645645141602 0.80465710163116455078 0.57465499639511108398 0.52667635679244995117 0.20159356296062469482 0.96347290277481079102 0.60553646087646484375 0.56311678886413574219 0.082899369299411773682 0.019999999552965164185 0.019099999219179153442 0.11742518842220306396 0.37016960978507995605 0.0097139999270439147949 0.59753340482711791992 0.43556106090545654297 0.5020650029182434082 0.52916479110717773438 0.59817975759506225586 0.037892878055572509766 0.56916195154190063477 0.65637099742889404297 0.43167081475257873535 0.41778051853179931641 0.40703025460243225098 0.4855079948902130127 0.96826255321502685547 0.78043067455291748047 0.56729578971862792969 0.80297315120697021484 1.2169198989868164062 1.4054121971130371094 1.4473738670349121094 0.6952216029167175293 0.55853229761123657227 0.45617163181304931641 0.39392545819282531738 0.43095105886459350586 0.51917642354965209961 0.27777025103569030762 0.53514206409454345703 0.59625834226608276367 0.33015239238739013672 0.30010101199150085449 0.35319554805755615234 0.56050956249237060547 0.59430587291717529297 0.30189698934555053711 0.36269575357437133789 0.51758939027786254883 0.53786581754684448242 0.51304197311401367188 0.50646567344665527344 0.47582212090492248535 0.17113800346851348877 0.0067312498576939105988 0.011175000108778476715 0.17462013661861419678 0.17038132250308990479 0.32468175888061523438 
0.50459009408950805664 0.40726479887962341309 0.30124038457870483398 0.38030445575714111328 0.43774101138114929199 0.45269069075584411621 0.59278082847595214844 0.76668918132781982422 1.0171217918395996094 0.57398629188537597656 0.055067747831344604492 0.014857437461614608765 0.21316356956958770752 0.29949238896369934082 0.26630401611328125 0.11686862260103225708 0.10281693935394287109 0.013880999758839607239 0.28482681512832641602 0.42632380127906799316 0.54237896203994750977 0.60283613204956054688 0.45234513282775878906 0.33428689837455749512 0.39767569303512573242 0.37651276588439941406 0.75407123565673828125 0.93478447198867797852 0.66167378425598144531 0.62343126535415649414 0.52271866798400878906 0.41215506196022033691 0.65807932615280151367 0.78936135768890380859 0.33977431058883666992 0.42642512917518615723 0.017762500792741775513 0.014000000432133674622 0.36860629916191101074 0.53919565677642822266 0.24318325519561767578 0.58843123912811279297 0.54024034738540649414 0.4686387479305267334 0.54508548974990844727 0.17786844074726104736 0.16322630643844604492 0.89277940988540649414 0.47739192843437194824 0.35868743062019348145 0.22252038121223449707 0.40627256035804748535 0.46530994772911071777 0.65245908498764038086 0.37249264121055603027 0.59772163629531860352 0.63209283351898193359 1.1928603649139404297 1.3128676414489746094 1.4160778522491455078 0.64322865009307861328 0.26542887091636657715 0.16265855729579925537 0.25574898719787597656 0.45642432570457458496 0.3580004274845123291 0.31086742877960205078 0.46376538276672363281 0.60095083713531494141 0.46618106961250305176 0.0010280000278726220131 0.0010280000278726220131 0.37352219223976135254 0.59509092569351196289 0.36573606729507446289 0.52777469158172607422 0.50568521022796630859 0.4317626953125 0.44373670220375061035 0.49951320886611938477 0.44013944268226623535 0.10848850011825561523 0.0046374998055398464203 0.018774999305605888367 0.019124999642372131348 0.10071594268083572388 0.16093100607395172119 
0.37525457143783569336 0.31039887666702270508 0.37020179629325866699 0.22953675687313079834 0.38558757305145263672 0.41589206457138061523 0.56216692924499511719 1.5630360841751098633 1.0271997451782226562 0.20669375360012054443 0.11360318213701248169 0.44200694561004638672 0.60245394706726074219 0.31326925754547119141 0.24039037525653839111 0.043526310473680496216 0.050643499940633773804 0.064948186278343200684 0.22211219370365142822 0.45738831162452697754 0.60497456789016723633 0.58550554513931274414 0.12018093466758728027 0.23742444813251495361 0.52401494979858398438 0.48632293939590454102 0.98704230785369873047 1.155475616455078125 0.85470610857009887695 0.33857086300849914551 0.24733437597751617432 0.54746234416961669922 0.68388664722442626953 1.0069190263748168945 0.55046445131301879883 0.30580949783325195312 0.082253500819206237793 0.33457100391387939453 0.5831286311149597168 0.3935178220272064209 0.07945712655782699585 0.35470855236053466797 0.48786666989326477051 0.48538979887962341309 0.52571153640747070312 0.29598826169967651367 0.046190250664949417114 0.2827135622501373291 0.32426342368125915527 0.12260250002145767212 0.21442049741744995117 0.25893512368202209473 0.4131368100643157959 0.56456601619720458984 0.44270905852317810059 0.69983208179473876953 0.52325725555419921875 1.224219202995300293 0.98253571987152099609 1.4837331771850585938 1.0955605506896972656 0.60277235507965087891 0.40850019454956054688 0.2719008028507232666 0.35892021656036376953 0.49344119429588317871 0.41686788201332092285 0.55741018056869506836 0.58339238166809082031 0.58588433265686035156 0.10327824950218200684 0.14942131936550140381 0.55969226360321044922 0.54279291629791259766 0.53789240121841430664 0.91344463825225830078 0.32244199514389038086 0.41756489872932434082 0.50657552480697631836 0.46574112772941589355 0.43199631571769714355 0.43119463324546813965 0.37429988384246826172 0.37762811779975891113 0.35934582352638244629 0.47820124030113220215 0.26449325680732727051 
0.55070883035659790039 0.57590198516845703125 0.74320352077484130859 0.50473326444625854492 0.512786865234375 0.43122157454490661621 1.0263196229934692383 1.3849245309829711914 0.41044586896896362305 0.21755337715148925781 0.30957719683647155762 0.38355123996734619141 0.49337610602378845215 0.080086372792720794678 0.33977323770523071289 0.050643499940633773804 0.12742418050765991211 0.15978363156318664551 0.27524369955062866211 0.42329394817352294922 0.42055773735046386719 0.58643716573715209961 0.43329474329948425293 0.1913026273250579834 0.26122707128524780273 0.59416240453720092773 0.77393692731857299805 0.93741655349731445312 1.0422545671463012695 0.41898617148399353027 0.16831307113170623779 0.59632951021194458008 0.51990967988967895508 0.47489586472511291504 0.55812448263168334961 0.60031515359878540039 0.58981019258499145508 0.64243662357330322266 0.64853417873382568359 0.38060274720191955566 0.17641413211822509766 0.49910518527030944824 0.44983887672424316406 0.48203063011169433594 0.68419235944747924805 0.71713334321975708008 0.2652981877326965332 0.15320406854152679443 0.18606962263584136963 0.14856413006782531738 0.3200384974479675293 0.1209313124418258667 0.5109685063362121582 0.50367623567581176758 0.4877268671989440918 0.58621019124984741211 0.73955315351486206055 1.3757638931274414062 1.3479317426681518555 1.2981839179992675781 0.65373647212982177734 0.60260260105133056641 0.58819001913070678711 0.55436050891876220703 0.53341686725616455078 0.55198526382446289062 0.52426540851593017578 0.59789693355560302734 0.59882652759552001953 0.5961825251579284668 0.18620955944061279297 0.27629643678665161133 0.55015450716018676758 0.51555782556533813477 0.56275916099548339844 0.56987464427947998047 0.56862950325012207031 0.45556253194808959961 0.37964901328086853027 0.36224544048309326172 0.35812488198280334473 0.49281907081604003906 0.49333894252777099609 0.48593974113464355469 0.5004717707633972168 0.40674445033073425293 0.52816045284271240234 
0.43381586670875549316 0.3013153076171875 0.69947528839111328125 0.59984576702117919922 1.1371386051177978516 0.586338043212890625 0.41149830818176269531 0.16922499239444732666 0.59672617912292480469 0.30822700262069702148 0.34721800684928894043 0.78964704275131225586 0.22957344353199005127 0.25087681412696838379 0.48796164989471435547 0.013880999758839607239 0.20691150426864624023 0.37551856040954589844 0.22644723951816558838 0.039520874619483947754 0.44253185391426086426 0.51994174718856811523 0.59035038948059082031 0.3410784304141998291 0.73526424169540405273 0.72365665435791015625 1.3426443338394165039 0.8220799565315246582 0.57721823453903198242 0.41428700089454650879 0.34887877106666564941 0.93546444177627563477 0.82769441604614257812 0.64083135128021240234 0.41237631440162658691 0.98756933212280273438 0.65599471330642700195 0.93323886394500732422 1.1700311899185180664 0.62689733505249023438 0.70603591203689575195 0.58190113306045532227 0.55029076337814331055 0.51909488439559936523 0.69061690568923950195 1.0801693201065063477 0.69375044107437133789 0.4545421898365020752 0.39810806512832641602 0.27390637993812561035 0.17940525710582733154 0.25089249014854431152 0.39978939294815063477 0.51013350486755371094 0.53382754325866699219 0.60176736116409301758 0.68769448995590209961 1.4545446634292602539 1.4351457357406616211 0.85493838787078857422 0.63858383893966674805 0.59994333982467651367 0.59635978937149047852 0.47381243109703063965 0.25829875469207763672 0.16603353619575500488 0.38980564475059509277 0.54193961620330810547 0.58193045854568481445 0.59726053476333618164 0.1505645066499710083 0.17246574163436889648 0.37449538707733154297 0.56050240993499755859 0.55550551414489746094 0.26641309261322021484 0.59482520818710327148 0.59782069921493530273 0.078722998499870300293 0.013880999758839607239 0.013880999758839607239 0.39460906386375427246 0.3960247039794921875 0.49540144205093383789 0.46938413381576538086 0.25427606701850891113 0.31055951118469238281 
0.4095967411994934082 0.46290725469589233398 0.33513200283050537109 1.0441122055053710938 0.80770379304885864258 0.45289692282676696777 0.75796222686767578125 0.90654736757278442383 0.74285614490509033203 0.60731703042984008789 0.60563170909881591797 0.67597657442092895508 0.24615931510925292969 0.46731287240982055664 0.34082520008087158203 0.013880999758839607239 0.45756494998931884766 0.31865406036376953125 0.10223012417554855347 0.39436325430870056152 0.54073387384414672852 0.52899664640426635742 0.51514661312103271484 0.52473908662796020508 0.72144842147827148438 0.42285880446434020996 0.71542966365814208984 0.48567181825637817383 0.66097295284271240234 0.22673374414443969727 0.53089720010757446289 0.87741774320602416992 0.7380320429801940918 0.58861613273620605469 0.70886695384979248047 0.69545793533325195312 0.5369815826416015625 0.98086798191070556641 0.65012025833129882812 1.28951263427734375 1.2367312908172607422 0.55480694770812988281 0.49538397789001464844 0.78027302026748657227 0.74480015039443969727 1.4555245637893676758 0.70437294244766235352 0.38664719462394714355 0.31533563137054443359 0.18349206447601318359 0.19520306587219238281 0.30961167812347412109 0.18351568281650543213 0.42053630948066711426 0.91724109649658203125 0.79908865690231323242 0.94240701198577880859 1.1655199527740478516 1.5319434404373168945 1.1244554519653320312 0.63821470737457275391 0.60104972124099731445 0.46999511122703552246 0.3608334660530090332 0.12733699381351470947 0.31834769248962402344 0.4180634915828704834 0.54603719711303710938 0.58545124530792236328 0.58548116683959960938 0.24862100183963775635 0.11053287237882614136 0.47417449951171875 0.52662301063537597656 0.30417639017105102539 0.54321008920669555664 0.4316717684268951416 0.58361059427261352539 0.47413995862007141113 0.013880999758839607239 0.013880999758839607239 0.26491826772689819336 0.16807512938976287842 0.44550549983978271484 0.35177662968635559082 0.22268080711364746094 0.39471375942230224609 
0.427631378173828125 0.25194618105888366699 0.093381062150001525879 0.95683294534683227539 1.1864504814147949219 0.35895124077796936035 0.67510819435119628906 0.57848513126373291016 0.44392463564872741699 0.59452199935913085938 0.60418421030044555664 0.54185938835144042969 0.54736220836639404297 0.47583225369453430176 0.43302774429321289062 0.37982839345932006836 0.55810016393661499023 0.35065692663192749023 0.49158355593681335449 0.35822069644927978516 0.5039526820182800293 0.44006106257438659668 0.97478848695755004883 0.8190256953239440918 0.42952442169189453125 0.40745881199836730957 0.51740992069244384766 0.33868387341499328613 0.59846419095993041992 0.2363840639591217041 0.56146568059921264648 0.69166392087936401367 1.1819574832916259766 0.96078222990036010742 0.7897135615348815918 1.0399196147918701172 1.3017596006393432617 1.1809580326080322266 0.92390894889831542969 0.32022643089294433594 0.35066199302673339844 0.65715509653091430664 0.63760870695114135742 0.66369980573654174805 0.54701173305511474609 1.1837383508682250977 0.4657256007194519043 0.83288174867630004883 0.37453573942184448242 0.14586400985717773438 0.30318376421928405762 0.31844243407249450684 0.61474323272705078125 0.51862925291061401367 0.62651616334915161133 0.66116738319396972656 0.65280854701995849609 1.3384569883346557617 1.4628326892852783203 1.4834830760955810547 0.60128325223922729492 0.60066080093383789062 0.56186330318450927734 0.5180466771125793457 0.56230312585830688477 0.36805856227874755859 0.32572057843208312988 0.54896438121795654297 0.58682245016098022461 0.5764916539192199707 0.59397906064987182617 0.076284810900688171387 0.11386913061141967773 0.11368737369775772095 0.21346014738082885742 0.50341051816940307617 0.21140475571155548096 0.095436789095401763916 0.28308224678039550781 0.089057251811027526855 0.080288812518119812012 0.25638717412948608398 0.40795886516571044922 0.37361663579940795898 0.36487850546836853027 0.20055368542671203613 0.13868725299835205078 
0.49041283130645751953 0.53659069538116455078 0.35838419198989868164 1.4534699916839599609 1.0818998813629150391 0.35894063115119934082 0.89141952991485595703 0.34188511967658996582 0.26816293597221374512 0.59192979335784912109 0.60008805990219116211 0.54356932640075683594 0.52938032150268554688 0.52465236186981201172 0.49714642763137817383 0.52484720945358276367 0.56872236728668212891 0.34097063541412353516 0.38803729414939880371 0.07207600027322769165 0.22645962238311767578 0.79659807682037353516 0.77901726961135864258 0.3959789276123046875 0.40553838014602661133 0.52198356389999389648 0.56414079666137695312 0.56663405895233154297 0.47664824128150939941 0.15924724936485290527 0.26192268729209899902 0.37621900439262390137 0.40815201401710510254 0.84980088472366333008 0.40120205283164978027 0.57962489128112792969 0.92024594545364379883 1.2485398054122924805 0.45160955190658569336 0.59419590234756469727 0.56319385766983032227 0.55217313766479492188 0.36203017830848693848 0.46335673332214355469 0.25754338502883911133 0.54312014579772949219 0.3658339381217956543 0.4582799375057220459 0.66696333885192871094 0.34055632352828979492 0.4539025723934173584 0.34105214476585388184 0.40382987260818481445 0.50769633054733276367 1.2584747076034545898 1.0985258817672729492 1.0137217044830322266 1.1658173799514770508 1.3623331785202026367 1.3384057283401489258 1.0283445119857788086 0.5794575810432434082 0.48394599556922912598 0.54261529445648193359 0.43063649535179138184 0.41918292641639709473 0.55631202459335327148 0.58635556697845458984 0.51468575000762939453 0.30374887585639953613 0.45144256949424743652 0.0010280000278726220131 0.0010280000278726220131 0.23571425676345825195 0.80542385578155517578 0.19430342316627502441 0.14180162549018859863 0.064511246979236602783 0.23888406157493591309 0.28707244992256164551 0.18187694251537322998 0.42607423663139343262 0.51578158140182495117 0.30637788772583007812 0.13857749104499816895 0.047291185706853866577 0.44545951485633850098 
0.31440174579620361328 0.50191479921340942383 0.47194325923919677734 1.2766329050064086914 0.75797706842422485352 0.72695392370223999023 1.0629485845565795898 0.29347869753837585449 0.45619910955429077148 0.60513120889663696289 0.55976492166519165039 0.49187093973159790039 0.58304673433303833008 0.59067463874816894531 0.4740276336669921875 0.50677824020385742188 0.44249606132507324219 0.18617825210094451904 0.18468068540096282959 0.013880999758839607239 0.013880999758839607239 0.76867437362670898438 0.80221641063690185547 0.59524875879287719727 0.60258644819259643555 0.56110244989395141602 0.67108857631683349609 0.6457964777946472168 0.47310867905616760254 0.19528780877590179443 0.45089492201805114746 0.40669843554496765137 0.49483749270439147949 0.98855292797088623047 0.46671631932258605957 0.52186864614486694336 1.0689845085144042969 1.2552344799041748047 0.44447249174118041992 0.96000581979751586914 1.1696573495864868164 0.77484077215194702148 0.84998559951782226562 0.86136394739151000977 1.0008254051208496094 1.0324920415878295898 0.55328929424285888672 0.018400000408291816711 0.76517641544342041016 0.61681437492370605469 0.61859995126724243164 0.43080651760101318359 0.52983075380325317383 0.65325206518173217773 0.57284450531005859375 0.78960120677947998047 1.1460231542587280273 1.5309209823608398438 1.3658593893051147461 1.2279031276702880859 1.2200220823287963867 0.35246598720550537109 0.26086729764938354492 0.52918517589569091797 0.58418840169906616211 0.45609486103057861328 0.56081426143646240234 0.58033955097198486328 0.39580288529396057129 0.19234630465507507324 0.49995368719100952148 0.17099080979824066162 0.29645788669586181641 0.80106806755065917969 0.6250750422477722168 0.59948271512985229492 0.35327345132827758789 0.12173350155353546143 0.31138017773628234863 0.35137981176376342773 0.4071877598762512207 0.44401174783706665039 0.34652695059776306152 0.15220074355602264404 0.15220074355602264404 0.24005843698978424072 0.54264223575592041016 
0.40148368477821350098 0.48738387227058410645 1.3641021251678466797 0.99080747365951538086 0.92374956607818603516 0.97048878669738769531 0.55876207351684570312 0.19801181554794311523 0.49429106712341308594 0.59915053844451904297 0.58103281259536743164 0.55800008773803710938 0.55655241012573242188 0.56683802604675292969 0.4880593717098236084 0.43058124184608459473 0.16783800721168518066 0.11075025051832199097 0.064948186278343200684 0.013880999758839607239 0.19844093918800354004 0.58003902435302734375 0.65749317407608032227 0.59822118282318115234 0.60385721921920776367 0.6951230168342590332 0.96989512443542480469 1.0257115364074707031 0.01701249927282333374 0.32046261429786682129 0.58490073680877685547 0.49375063180923461914 0.38476455211639404297 0.48485743999481201172 0.44341155886650085449 0.83042490482330322266 0.64291137456893920898 0.83137726783752441406 0.94213443994522094727 0.84586805105209350586 0.57935720682144165039 1.0129455327987670898 1.0098874568939208984 0.58773118257522583008 0.56142866611480712891 1.0997688770294189453 0.55384469032287597656 0.017625000327825546265 1.465996861457824707 0.64260792732238769531 0.32420292496681213379 0.18168587982654571533 0.54897785186767578125 0.63175696134567260742 0.81121152639389038086 1.3990923166275024414 1.6275888681411743164 1.5126299858093261719 1.3384898900985717773 1.4595198631286621094 0.92878431081771850586 0.16328212618827819824 0.2642923891544342041 0.19638268649578094482 0.26112276315689086914 0.49160033464431762695 0.57405823469161987305 0.51558381319046020508 0.4768333733081817627 0.053047001361846923828 0.41356986761093139648 0.47997251152992248535 0.64062911272048950195 0.76469391584396362305 0.45462357997894287109 0.44944074749946594238 0.23291288316249847412 0.10436308383941650391 0.38017567992210388184 0.33994007110595703125 0.37694457173347473145 0.37677937746047973633 0.40414661169052124023 0.20537674427032470703 0.086204811930656433105 0.46521055698394775391 0.60870945453643798828 
0.32268980145454406738 1.3327049016952514648 1.2521417140960693359 0.68589806556701660156 0.80965292453765869141 0.95492416620254516602 0.72400748729705810547 0.28164169192314147949 0.48799338936805725098 0.54553753137588500977 0.51105064153671264648 0.46603506803512573242 0.49955499172210693359 0.46506813168525695801 0.46492874622344970703 0.3489278256893157959 0.087314814329147338867 0.013880999758839607239 0.013880999758839607239 0.054811812937259674072 0.40127557516098022461 0.53005212545394897461 0.5982481837272644043 0.60126626491546630859 0.72139412164688110352 1.0902059078216552734 0.76015514135360717773 0.94416373968124389648 0.57961785793304443359 0.41015568375587463379 0.58655744791030883789 0.5557886958122253418 0.84059751033782958984 0.88481640815734863281 0.80293333530426025391 0.68262112140655517578 1.0279471874237060547 0.4492855072021484375 1.1772072315216064453 0.59752094745635986328 0.74456626176834106445 0.7301018834114074707 0.57032197713851928711 0.55546784400939941406 0.56955432891845703125 0.82359683513641357422 0.19974300265312194824 0.70255339145660400391 0.67869585752487182617 0.1530850827693939209 0.27279412746429443359 0.4454898834228515625 0.6870288848876953125 0.94829463958740234375 0.86896783113479614258 1.0799071788787841797 1.6286170482635498047 1.4352017641067504883 0.99510246515274047852 1.2072952985763549805 0.92816746234893798828 0.55522769689559936523 0.40788182616233825684 0.24981907010078430176 0.29294592142105102539 0.40045082569122314453 0.35052314400672912598 0.32706353068351745605 0.29121458530426025391 0.095576748251914978027 0.32308891415596008301 0.34490513801574707031 0.58899265527725219727 0.53187364339828491211 0.96771043539047241211 0.30773615837097167969 0.10760375112295150757 0.19254408776760101318 0.15605244040489196777 0.26206594705581665039 0.35987976193428039551 0.43929031491279602051 0.30078125 0.11001399904489517212 0.12816749513149261475 0.53074526786804199219 0.60870945453643798828 
0.60326969623565673828 1.3470879793167114258 0.92668783664703369141 0.60083872079849243164 1.0412659645080566406 1.0274847745895385742 0.88040977716445922852 0.2668851315975189209 0.52280533313751220703 0.57857674360275268555 0.56720268726348876953 0.51588529348373413086 0.46506813168525695801 0.51020526885986328125 0.39335924386978149414 0.050643499940633773804 0.29410755634307861328 0.087416626513004302979 0.09073899686336517334 0.49384674429893493652 0.58943408727645874023 0.58966583013534545898 0.58957254886627197266 0.81546956300735473633 0.79539942741394042969 0.96965467929840087891 0.39201268553733825684 1.5647617578506469727 0.52122652530670166016 0.50023877620697021484 0.53974366188049316406 0.65420496463775634766 0.78475588560104370117 0.30131039023399353027 0.50145000219345092773 0.63828176259994506836 0.3592675626277923584 0.72805875539779663086 0.72900766134262084961 0.53799217939376831055 0.65217912197113037109 0.57038980722427368164 0.40365931391716003418 0.44129633903503417969 0.68237447738647460938 0.94339960813522338867 0.62233912944793701172 1.0782228708267211914 0.0010280000278726220131 0.0010280000278726220131 0.088753998279571533203 0.32688108086585998535 0.50779831409454345703 0.49081268906593322754 0.52490353584289550781 0.93926298618316650391 1.483576655387878418 1.435358881950378418 0.91551434993743896484 0.76583963632583618164 0.7569446563720703125 0.66070061922073364258 0.55210280418395996094 0.34814399480819702148 0.33747714757919311523 0.52020102739334106445 0.44959849119186401367 0.12098471075296401978 0.52924484014511108398 0.59422117471694946289 0.55143189430236816406 0.65754973888397216797 0.51304644346237182617 0.54655635356903076172 0.43184429407119750977 0.20459450781345367432 0.3989315032958984375 0.46788844466209411621 0.32212355732917785645 0.26950830221176147461 0.36898624897003173828 0.49673393368721008301 0.34550267457962036133 0.20537674427032470703 0.19175349175930023193 0.26682150363922119141 0.60591775178909301758 
0.83999359607696533203 1.3384002447128295898 0.90576863288879394531 0.59611558914184570312 0.75371229648590087891 1.0137099027633666992 1.30402374267578125 0.53241318464279174805 0.45025849342346191406 0.53831732273101806641 0.54686909914016723633 0.53235113620758056641 0.49701887369155883789 0.52254623174667358398 0.3703174889087677002 0.21659524738788604736 0.32091256976127624512 0.13801369071006774902 0.24252887070178985596 0.98789751529693603516 0.59763765335083007812 0.590785980224609375 0.77747756242752075195 0.74889981746673583984 0.59159582853317260742 0.46132868528366088867 0.36484125256538391113 0.69728934764862060547 0.37451592087745666504 0.5307331085205078125 0.45575568079948425293 1.3913881778717041016 1.0426092147827148438 0.23362943530082702637 0.24050980806350708008 0.020782999694347381592 0.28822967410087585449 0.42696100473403930664 0.51730889081954956055 0.36930894851684570312 0.52812904119491577148 0.51603567600250244141 0.29237771034240722656 0.4983743131160736084 0.92836654186248779297 0.64089018106460571289 0.25460991263389587402 0.55008965730667114258 0.16352225840091705322 0.43570119142532348633 0.051848251372575759888 0.10119774937629699707 0.48052364587783813477 0.47593438625335693359 0.52232635021209716797 0.66869080066680908203 1.5804086923599243164 1.6288985013961791992 1.3880808353424072266 0.43593966960906982422 0.41984650492668151855 0.4032026827335357666 0.31581899523735046387 0.54244405031204223633 0.39998123049736022949 0.16329474747180938721 0.30415308475494384766 0.38098886609077453613 0.61400812864303588867 0.57052409648895263672 0.5404236912727355957 0.57281738519668579102 0.46118786931037902832 0.29340282082557678223 0.28490856289863586426 0.45156309008598327637 0.37939226627349853516 0.3743216395378112793 0.36286711692810058594 0.49639743566513061523 0.53597974777221679688 0.37575355172157287598 0.43349400162696838379 0.37674063444137573242 0.059247937053442001343 0.4697596430778503418 0.60870945453643798828 
1.1382164955139160156 0.96065944433212280273 0.62788462638854980469 0.59603404998779296875 0.63901078701019287109 1.0475380420684814453 1.1985262632369995117 1.2548528909683227539 0.60338109731674194336 0.59529632329940795898 0.56768339872360229492 0.56176573038101196289 0.52824580669403076172 0.4182402491569519043 0.41721314191818237305 0.34912729263305664062 0.45602324604988098145 0.21948049962520599365 0.55660063028335571289 1.0093016624450683594 0.58394867181777954102 0.67615562677383422852 0.76757425069808959961 0.86881655454635620117 0.5276234745979309082 0.63831919431686401367 0.49307119846343994141 0.35090675950050354004 0.27454236149787902832 0.37904918193817138672 0.36804193258285522461 1.3913277387619018555 0.83265829086303710938 0.39028248190879821777 0.23443087935447692871 0.022099999710917472839 0.066136687994003295898 0.49831187725067138672 0.5415585637092590332 0.55127048492431640625 0.49904456734657287598 0.49485608935356140137 0.46516251564025878906 0.43810787796974182129 0.53614139556884765625 0.28375220298767089844 0.3772328495979309082 0.24465829133987426758 0.43150219321250915527 0.1122488752007484436 0.077258378267288208008 0.31285870075225830078 0.39888143539428710938 0.3285204470157623291 0.5312106013298034668 0.91301667690277099609 0.90956318378448486328 0.57213556766510009766 0.75420087575912475586 0.40334999561309814453 0.74582207202911376953 0.74539798498153686523 0.65849763154983520508 0.5444634556770324707 0.48695048689842224121 0.60312569141387939453 0.51629841327667236328 0.59106838703155517578 0.583118438720703125 0.56362682580947875977 0.55517935752868652344 0.57829892635345458984 0.26401498913764953613 0.30480620265007019043 0.17162975668907165527 0.21196207404136657715 0.14036257565021514893 0.14085246622562408447 0.089422754943370819092 0.26666525006294250488 0.23027725517749786377 0.59015595912933349609 0.41494712233543395996 0.65354573726654052734 0.23801380395889282227 0.49459517002105712891 0.60302275419235229492 
1.3381698131561279297 0.77985626459121704102 0.58932161331176757812 0.55999886989593505859 0.5793005824089050293 0.57106488943099975586 1.292212367057800293 1.5562111139297485352 1.0632132291793823242 0.60482668876647949219 0.56684130430221557617 0.58765780925750732422 0.56454497575759887695 0.57676446437835693359 0.52305716276168823242 0.56734502315521240234 0.52331012487411499023 0.56936275959014892578 0.52012258768081665039 0.65596336126327514648 0.58695751428604125977 0.41123038530349731445 0.43557775020599365234 0.55927604436874389648 0.53929954767227172852 0.59650421142578125 0.23908987641334533691 0.48154339194297790527 0.33203986287117004395 0.54998534917831420898 0.84956920146942138672 0.83079904317855834961 0.37156406044960021973 0.35909438133239746094 0.30002701282501220703 0.38680118322372436523 0.0010280000278726220131 0.46397957205772399902 0.62396252155303955078 0.47514992952346801758 0.59092235565185546875 0.51299238204956054688 0.22093813121318817139 0.54652643203735351562 0.57469552755355834961 0.45643782615661621094 0.56114846467971801758 0.51922184228897094727 0.13980937004089355469 0.0049789999611675739288 0.40221706032752990723 0.48541206121444702148 0.39354032278060913086 0.17795611917972564697 0.34700694680213928223 0.47380462288856506348 0.56682193279266357422 0.83631742000579833984 0.89932227134704589844 1.235440373420715332 0.78270870447158813477 1.2459715604782104492 1.2518624067306518555 0.70998942852020263672 0.74521374702453613281 0.52802860736846923828 1.2062623500823974609 0.60850769281387329102 0.51666283607482910156 0.55749738216400146484 0.54724001884460449219 0.52124923467636108398 0.23254500329494476318 0.47045952081680297852 0.25363600254058837891 0.2393216937780380249 0.015637500211596488953 0.050040937960147857666 0.0026120000984519720078 0.36804312467575073242 0.48718664050102233887 0.54517757892608642578 0.61227971315383911133 0.36975249648094177246 0.51660323143005371094 0.21899999678134918213 0.21899999678134918213 
1.129437565803527832 0.67651629447937011719 0.41908562183380126953 0.43154817819595336914 0.46651995182037353516 0.56126308441162109375 0.85208153724670410156 1.379962921142578125 1.1191008090972900391 0.60440111160278320312 0.60241031646728515625 0.58485907316207885742 0.58038979768753051758 0.56548768281936645508 0.56755948066711425781 0.57407474517822265625 0.60311305522918701172 0.59670794010162353516 0.55209970474243164062 0.57845520973205566406 0.57326138019561767578 0.39581963419914245605 0.68557882308959960938 0.49161168932914733887 0.61317092180252075195 1.0004055500030517578 0.11966106295585632324 0.34409132599830627441 0.36153256893157958984 0.66874372959136962891 1.3046609163284301758 0.67678129673004150391 0.4142029881477355957 0.16920119524002075195 0.18343618512153625488 0.46990993618965148926 0.32373943924903869629 0.5670859217643737793 0.58505779504776000977 0.37664112448692321777 0.26735123991966247559 0.22702388465404510498 0.40150123834609985352 0.47139286994934082031 0.59547644853591918945 0.56772565841674804688 0.5216897130012512207 0.50651705265045166016 0.020344000309705734253 0.055526375770568847656 0.38196161389350891113 0.28627619147300720215 0.1462262570858001709 0.0098080001771450042725 0.20502606034278869629 0.51542949676513671875 0.64027166366577148438 0.68272358179092407227 1.0469610691070556641 1.3384505510330200195 1.0746119022369384766 0.48061069846153259277 0.93682175874710083008 1.2899882793426513672 0.8862934112548828125 1.0329267978668212891 1.4977761507034301758 0.91658246517181396484 0.52844518423080444336 0.66122913360595703125 0.5117810368537902832 0.53135007619857788086 0.35970008373260498047 0.48894384503364562988 0.27602508664131164551 0.050159811973571777344 0.16879062354564666748 0.44525137543678283691 0.11572800576686859131 0.3365631401538848877 0.27188324928283691406 0.43893873691558837891 0.53052574396133422852 0.44701707363128662109 0.60194021463394165039 0.33931705355644226074 0.21899999678134918213 
1.1741782426834106445 0.61014401912689208984 0.4564915001392364502 0.4331881403923034668 0.48240175843238830566 0.43998557329177856445 0.92280411720275878906 0.84916788339614868164 0.99843543767929077148 1.0643768310546875 0.72218477725982666016 0.59749680757522583008 0.57937264442443847656 0.56172025203704833984 0.5184167027473449707 0.5794875025749206543 0.58526134490966796875 0.59497040510177612305 0.56874966621398925781 0.57174867391586303711 0.58263456821441650391 0.77780127525329589844 1.2461111545562744141 0.46470582485198974609 0.85634350776672363281 0.61052525043487548828 0.39083948731422424316 0.46970194578170776367 0.40548807382583618164 0.95096695423126220703 1.0730762481689453125 0.16674731671810150146 0.88776922225952148438 0.75271743535995483398 0.54049205780029296875 0.56716293096542358398 0.56069469451904296875 0.69357883930206298828 0.55340445041656494141 0.2281468808650970459 0.26714000105857849121 0.30286157131195068359 0.64192092418670654297 0.40190941095352172852 0.59544748067855834961 0.55010294914245605469 0.66127336025238037109 0.43778508901596069336 0.022099999710917472839 0.091586746275424957275 0.59868216514587402344 0.10071900486946105957 0.26461300253868103027 0.013319999910891056061 0.23443375527858734131 0.56445688009262084961 0.5813853144645690918 0.87764072418212890625 1.4835761785507202148 1.2803637981414794922 1.107624053955078125 0.51892209053039550781 0.42369511723518371582 0.78450596332550048828 1.1440902948379516602 0.87200462818145751953 0.6476923823356628418 0.93861728906631469727 1.2558807134628295898 1.2404177188873291016 0.79081201553344726562 0.55814689397811889648 0.4529336094856262207 0.22517150640487670898 0.53502160310745239258 0.1551786959171295166 0.4877605140209197998 0.54379439353942871094 0.41615942120552062988 0.12194794416427612305 0.015661312267184257507 0.39739376306533813477 0.50992912054061889648 0.36291894316673278809 0.48107302188873291016 0.33628013730049133301 0.21899999678134918213 
0.82649540901184082031 0.65743482112884521484 0.47616744041442871094 0.31673529744148254395 0.39055573940277099609 0.37253019213676452637 0.71589231491088867188 0.58671611547470092773 0.60363650321960449219 1.2645577192306518555 1.1365989446640014648 0.65859103202819824219 0.59722912311553955078 0.56176573038101196289 0.48198813199996948242 0.54545301198959350586 0.53538459539413452148 0.56353688240051269531 0.37365561723709106445 0.43399795889854431152 0.55845713615417480469 1.3624804019927978516 1.1141098737716674805 0.50620573759078979492 0.3909282386302947998 0.27290269732475280762 0.48335218429565429688 0.14834137260913848877 0.33044964075088500977 0.55066484212875366211 0.63830214738845825195 0.54198718070983886719 0.15564388036727905273 0.59908789396286010742 0.4154364466667175293 0.42416912317276000977 0.43921518325805664062 0.54631119966506958008 0.29173675179481506348 0.3097375035285949707 0.31881368160247802734 0.37540975213050842285 0.087395749986171722412 0.36638271808624267578 0.57632607221603393555 0.57547384500503540039 0.43626299500465393066 0.0089299995452165603638 0.022099999710917472839 0.29668611288070678711 0.53687173128128051758 0.43066525459289550781 0.54971897602081298828 0.022099999710917472839 0.069899566471576690674 0.36112236976623535156 0.58300614356994628906 0.65838158130645751953 1.1933281421661376953 1.338452458381652832 0.86155658960342407227 0.48453512787818908691 0.4175586402416229248 0.3968760073184967041 0.31734395027160644531 0.53221124410629272461 0.57673585414886474609 0.56319719552993774414 0.53489387035369873047 0.93037229776382446289 0.89365839958190917969 0.5852444767951965332 0.47934505343437194824 0.5141652226448059082 0.4554951786994934082 0.45759111642837524414 0.50500369071960449219 0.56096470355987548828 0.2452465742826461792 0.4086017608642578125 0.012233937159180641174 0.32529538869857788086 0.40541025996208190918 0.39232194423675537109 0.45440006256103515625 0.48271825909614562988 0.36611673235893249512 
0.96663373708724975586 0.72529608011245727539 0.37774017453193664551 0.4331881403923034668 0.48240175843238830566 0.16775618493556976318 0.53183674812316894531 0.56957721710205078125 0.60022634267807006836 1.1920688152313232422 1.0110652446746826172 0.59892475605010986328 0.57476103305816650391 0.53790962696075439453 0.50811350345611572266 0.53129255771636962891 0.53475207090377807617 0.56768918037414550781 0.3335539400577545166 0.2855885624885559082 1.0377837419509887695 0.62663865089416503906 0.58044332265853881836 0.54567807912826538086 0.23795337975025177002 0.043526310473680496216 0.15997581183910369873 0.10040943324565887451 0.33000218868255615234 0.96265971660614013672 0.52665370702743530273 0.76076400279998779297 0.15634649991989135742 0.41420668363571166992 0.26774987578392028809 0.28998869657516479492 0.39049318432807922363 0.047908063977956771851 0.4231033623218536377 0.19156958162784576416 0.55354726314544677734 0.552089691162109375 0.45486852526664733887 0.48585477471351623535 0.45285651087760925293 0.61601281166076660156 0.4908173680305480957 0.085901498794555664062 0.076841995120048522949 0.55021291971206665039 0.34302124381065368652 0.019089713692665100098 0.016831999644637107849 0.27473565936088562012 0.41741874814033508301 0.17813499271869659424 0.32975244522094726562 0.32824251055717468262 1.1532590389251708984 1.1925767660140991211 0.76462858915328979492 0.84906405210494995117 0.66338789463043212891 0.44854906201362609863 0.18851612508296966553 0.45922482013702392578 0.51522564888000488281 0.55975782871246337891 0.41606974601745605469 0.09475307166576385498 0.13055221736431121826 0.58940213918685913086 0.52470594644546508789 0.36945223808288574219 0.236222878098487854 0.32107031345367431641 0.33168977499008178711 0.38199457526206970215 0.36002963781356811523 0.32096964120864868164 0.07706556469202041626 0.06180181354284286499 0.13138738274574279785 0.24769750237464904785 0.18402843177318572998 0.17645250260829925537 0.21899999678134918213 
0.6452147364616394043 0.33498987555503845215 0.45082825422286987305 0.3610693812370300293 0.40925869345664978027 0.42467737197875976562 0.47668600082397460938 0.58317446708679199219 0.58722996711730957031 1.3194727897644042969 1.1186785697937011719 0.74237656593322753906 0.57433038949966430664 0.57742977142333984375 0.54491251707077026367 0.58596479892730712891 0.5196475982666015625 0.57436084747314453125 0.18703387677669525146 0.62917935848236083984 0.84672564268112182617 0.58866751194000244141 0.46532389521598815918 0.57522481679916381836 0.36422744393348693848 0.36165419220924377441 0.28811305761337280273 0.22339862585067749023 0.47606962919235229492 0.53352868556976318359 0.50560760498046875 0.56275123357772827148 0.083471313118934631348 0.11795587837696075439 0.26681268215179443359 0.37393748760223388672 0.4918238222599029541 0.17536687850952148438 0.26284831762313842773 0.3039570152759552002 0.38290363550186157227 0.14645875990390777588 0.28180462121963500977 0.45246401429176330566 0.44455224275588989258 0.56086498498916625977 0.20839068293571472168 0.022099999710917472839 0.32627433538436889648 0.52915602922439575195 0.44254517555236816406 0.24764524400234222412 0.33926630020141601562 0.46388331055641174316 0.51937186717987060547 0.39325919747352600098 0.5580723881721496582 0.5975589752197265625 1.2169322967529296875 1.2864023447036743164 0.84985530376434326172 1.1521739959716796875 0.59246802330017089844 0.25483787059783935547 0.40318462252616882324 0.4229806363582611084 0.37899380922317504883 0.61928927898406982422 0.50771665573120117188 0.047327127307653427124 0.055539935827255249023 0.47327649593353271484 0.58269888162612915039 0.53296244144439697266 0.41739812493324279785 0.52745270729064941406 0.49897608160972595215 0.50899201631546020508 0.39027625322341918945 0.13619455695152282715 0.065549813210964202881 0.32349580526351928711 0.4921595454216003418 0.51600599288940429688 0.31374874711036682129 0.20981006324291229248 0.11944999545812606812 
0.40696486830711364746 0.45289239287376403809 0.2675202488899230957 0.26767563819885253906 0.44318050146102905273 0.4623775184154510498 0.51647537946701049805 0.58611416816711425781 0.89875686168670654297 1.2640881538391113281 1.4820476770401000977 1.0455871820449829102 0.62165570259094238281 0.57757341861724853516 0.56809216737747192383 0.54246568679809570312 0.54400920867919921875 0.56728947162628173828 0.30452367663383483887 0.50519931316375732422 0.49533250927925109863 0.58283436298370361328 0.34619951248168945312 0.47816202044486999512 0.78637790679931640625 0.28831019997596740723 0.1516469419002532959 0.29739430546760559082 1.0156079530715942383 0.46490332484245300293 0.86420917510986328125 0.75807803869247436523 0.17277175188064575195 0.23273044824600219727 0.080645248293876647949 0.092128604650497436523 0.33998674154281616211 0.24570420384407043457 0.46029269695281982422 0.53896349668502807617 0.81432950496673583984 0.15786382555961608887 0.44578567147254943848 0.34501358866691589355 0.50718551874160766602 0.40894368290901184082 0.4084675908088684082 0.17833219468593597412 0.5755551457405090332 0.55182468891143798828 0.50849986076354980469 0.51568418741226196289 0.48984935879707336426 0.483592987060546875 0.71517860889434814453 0.68599182367324829102 0.57468336820602416992 1.0168806314468383789 1.5803896188735961914 1.6288563013076782227 1.1410527229309082031 0.86421912908554077148 0.92162358760833740234 0.66569560766220092773 0.43796262145042419434 0.31546661257743835449 0.65952181816101074219 0.70937973260879516602 0.3369929194450378418 0.40229138731956481934 0.22265787422657012939 0.055789750069379806519 0.47629976272583007812 0.36535149812698364258 0.45071774721145629883 0.31115457415580749512 0.26448255777359008789 0.38152462244033813477 0.17742057144641876221 0.19170913100242614746 0.14737118780612945557 0.54806315898895263672 0.57861673831939697266 0.59393298625946044922 0.50162023305892944336 0.55200177431106567383 0.60198748111724853516 
0.28059551119804382324 0.18591387569904327393 0.087947629392147064209 0.050914313644170761108 0.15082006156444549561 0.48467040061950683594 0.72051823139190673828 1.1557881832122802734 0.99122852087020874023 1.0507718324661254883 0.80141437053680419922 0.58576530218124389648 0.67136007547378540039 0.56700670719146728516 0.58332407474517822266 0.53669118881225585938 0.55085575580596923828 0.5924072265625 0.66734772920608520508 0.52659207582473754883 0.43749129772186279297 0.26238638162612915039 0.40990275144577026367 0.47336143255233764648 0.30773082375526428223 0.006637812592089176178 0.19243693351745605469 0.4291209876537322998 0.57001328468322753906 0.36692661046981811523 0.59578531980514526367 0.53417700529098510742 0.20867106318473815918 0.17949543893337249756 0.36712849140167236328 0.1358080059289932251 0.30803757905960083008 0.38556620478630065918 0.50895380973815917969 0.68908900022506713867 0.77942770719528198242 0.31103125214576721191 0.27172607183456420898 0.2447284311056137085 0.26964831352233886719 0.48960480093955993652 0.53208470344543457031 0.48261025547981262207 0.57685816287994384766 0.57774627208709716797 0.5640163421630859375 0.54718786478042602539 0.50235778093338012695 0.50783205032348632812 0.57834345102310180664 1.1021807193756103516 0.74618506431579589844 0.80842161178588867188 0.53703898191452026367 0.45342987775802612305 0.088137499988079071045 0.18323588371276855469 0.27634000778198242188 0.073753751814365386963 0.13090769946575164795 0.39705163240432739258 0.89363902807235717773 0.32131117582321166992 0.43157869577407836914 0.35712525248527526855 0.36475148797035217285 0.017525000497698783875 0.058058686554431915283 0.31059607863426208496 0.50499945878982543945 0.57619148492813110352 0.44642776250839233398 0.34131118655204772949 0.075876377522945404053 0.046112436801195144653 0.22706894576549530029 0.60371774435043334961 0.74231851100921630859 0.52063107490539550781 0.44718581438064575195 0.56263917684555053711 0.55502498149871826172 
0.23517513275146484375 0.36314713954925537109 0.013880999758839607239 0.087947629392147064209 0.072881497442722320557 0.56427037715911865234 0.97944635152816772461 1.4317939281463623047 1.2555681467056274414 1.2817118167877197266 0.56626421213150024414 0.45192438364028930664 0.56885671615600585938 0.6001313328742980957 0.55983006954193115234 0.17429144680500030518 0.49709498882293701172 0.60060888528823852539 0.55773299932479858398 0.34376186132431030273 0.47127705812454223633 0.33955517411231994629 0.45718306303024291992 0.52336144447326660156 0.49445524811744689941 0.12105643749237060547 0.35947570204734802246 0.24049487709999084473 0.20235663652420043945 0.28705862164497375488 1.0302739143371582031 0.77995640039443969727 0.44780868291854858398 0.2150503695011138916 0.1661815643310546875 0.48905915021896362305 0.5976689457893371582 0.57747209072113037109 1.2747725248336791992 0.55045562982559204102 0.44422921538352966309 0.28919661045074462891 0.27293899655342102051 0.29967126250267028809 0.32844907045364379883 0.69706964492797851562 0.59743767976760864258 0.59746211767196655273 0.55164420604705810547 0.54203885793685913086 0.53057402372360229492 0.50000619888305664062 0.58272176980972290039 0.60201269388198852539 0.28191599249839782715 1.1451936960220336914 0.76489776372909545898 0.73156332969665527344 1.0224978923797607422 1.1586729288101196289 0.33320119976997375488 0.066081501543521881104 0.16391521692276000977 0.094722203910350799561 0.41008219122886657715 0.41030651330947875977 0.56862932443618774414 0.23052506148815155029 0.22835369408130645752 0.26351264119148254395 0.38508176803588867188 0.099739000201225280762 0.15879862010478973389 0.1904976963996887207 0.30755063891410827637 0.25572869181632995605 0.19543136656284332275 0.23792999982833862305 0.10968856513500213623 0.28064525127410888672 0.39219424128532409668 0.55340051651000976562 0.5655949711799621582 0.3440850675106048584 0.46307808160781860352 0.4731801450252532959 0.3123150169849395752 
0.39295551180839538574 0.22240188717842102051 0.087947629392147064209 0.050914313644170761108 0.28334963321685791016 0.57364159822463989258 0.90922248363494873047 1.1783028841018676758 1.1809177398681640625 0.38141104578971862793 0.18894143402576446533 0.35511076450347900391 0.56205838918685913086 0.52680927515029907227 0.49690580368041992188 0.56099015474319458008 0.60044330358505249023 0.58325082063674926758 0.43483042716979980469 0.46499276161193847656 0.50197404623031616211 0.38881137967109680176 0.32794660329818725586 0.48348486423492431641 0.46256518363952636719 0.46476092934608459473 0.12610431015491485596 0.11765368282794952393 0.053866498172283172607 0.13760706782341003418 0.5099213719367980957 1.0142747163772583008 0.56108373403549194336 0.35899236798286437988 0.3881346285343170166 0.38236376643180847168 0.44576632976531982422 0.64325320720672607422 1.0103861093521118164 0.12905743718147277832 0.13235300779342651367 0.4190768897533416748 0.45395892858505249023 0.24175521731376647949 0.45308381319046020508 0.71186900138854980469 0.60770976543426513672 0.59781360626220703125 0.59280925989151000977 0.57546228170394897461 0.52764350175857543945 0.5628350377082824707 0.6041914820671081543 1.1421929597854614258 0.92890983819961547852 0.77006423473358154297 0.5858694911003112793 0.70832782983779907227 1.2247065305709838867 0.77899181842803955078 0.3922061622142791748 0.24748510122299194336 0.25919815897941589355 0.49497142434120178223 0.16364862024784088135 0.52668768167495727539 1.0471793413162231445 0.60128533840179443359 0.20618006587028503418 0.25044274330139160156 0.68016350269317626953 0.42076969146728515625 0.11992093920707702637 0.15633119642734527588 0.087259501218795776367 0.48494818806648254395 0.48430454730987548828 0.25855326652526855469 0.25950324535369873047 0.013681562617421150208 0.080266185104846954346 0.3724371790885925293 0.51545721292495727539 0.2634792029857635498 0.28968268632888793945 0.3970851898193359375 0.11682250350713729858 
0.41697406768798828125 0.14723825454711914062 0.073171623051166534424 0.050552312284708023071 0.39400482177734375 0.5153420567512512207 1.0434200763702392578 1.4109700918197631836 0.68152850866317749023 0.10285069048404693604 0.39796856045722961426 0.16542918980121612549 0.15962325036525726318 0.016211312264204025269 0.18937030434608459473 0.56614863872528076172 0.60302174091339111328 0.54886275529861450195 0.43877467513084411621 0.45598500967025756836 0.46008610725402832031 0.40956917405128479004 0.57142889499664306641 0.55335229635238647461 0.26874700188636779785 0.83273738622665405273 0.30025526881217956543 0.23340237140655517578 0.030793748795986175537 0.43437460064888000488 1.2399818897247314453 1.1508204936981201172 0.37901657819747924805 0.55332559347152709961 0.75180011987686157227 0.33939379453659057617 0.014475000090897083282 0.28708210587501525879 0.90625232458114624023 0.52132815122604370117 0.062294833362102508545 0.24348600208759307861 0.51599115133285522461 0.67240536212921142578 0.6004695892333984375 0.59599733352661132812 0.88137799501419067383 0.59736895561218261719 0.60075044631958007812 0.60578119754791259766 0.60279989242553710938 0.57429671287536621094 0.60764616727828979492 1.2225918769836425781 0.85984766483306884766 0.6271826624870300293 0.38545837998390197754 0.46406015753746032715 0.82986056804656982422 0.69362252950668334961 0.39975434541702270508 0.35213351249694824219 0.24786067008972167969 0.18241524696350097656 0.44127237796783447266 0.78923362493515014648 0.64670705795288085938 1.1269162893295288086 0.52433282136917114258 0.54233372211456298828 0.12506687641143798828 0.040893375873565673828 0.0010280000278726220131 0.0010280000278726220131 0.0087488749995827674866 0.35724869370460510254 0.41957613825798034668 0.37302649021148681641 0.15449406206607818604 0.23376381397247314453 0.52306890487670898438 0.55487173795700073242 0.54443138837814331055 0.33997869491577148438 0.15240424871444702148 0.19664537906646728516 0.31034576892852783203 
0.78092348575592041016 0.31751832365989685059 0.2019840627908706665 0.094367064535617828369 0.5568739771842956543 0.66958844661712646484 1.3830965757369995117 0.95612764358520507812 0.41298544406890869141 0.091553248465061187744 0.25801563262939453125 0.4530741274356842041 0.37634831666946411133 0.4032027125358581543 0.24606524407863616943 0.57239013910293579102 0.59904390573501586914 0.57671445608139038086 0.609165191650390625 0.7153224945068359375 0.45671248435974121094 0.37203487753868103027 0.3599567413330078125 0.23486638069152832031 0.33891087770462036133 0.34146568179130554199 0.11446983367204666138 0.49602714180946350098 0.27509099245071411133 0.48331731557846069336 1.072966456413269043 0.7140954136848449707 0.52657312154769897461 0.50539821386337280273 0.51949876546859741211 0.16405053436756134033 0.014763499610126018524 0.2777544856071472168 0.91621023416519165039 0.14341787993907928467 0.08170544356107711792 0.59821134805679321289 0.69971072673797607422 0.69828689098358154297 0.58733195066452026367 0.59088635444641113281 0.59118050336837768555 0.7066504359245300293 0.59893000125885009766 0.602329254150390625 0.6022663116455078125 1.112376093864440918 1.2624000310897827148 0.55520653724670410156 0.34489548206329345703 0.51266217231750488281 0.34440580010414123535 0.94637072086334228516 1.0163558721542358398 1.12105560302734375 0.30369839072227478027 0.30657675862312316895 0.14023834466934204102 0.50407993793487548828 0.94884449243545532227 0.77304822206497192383 0.69318228960037231445 0.73251336812973022461 0.7220357060432434082 0.15485450625419616699 0.0023449999280273914337 0.0010280000278726220131 0.0010280000278726220131 0.0010280000278726220131 0.0018313125474378466606 0.062254123389720916748 0.051723875105381011963 0.23575200140476226807 0.5458081364631652832 0.36781287193298339844 0.33667695522308349609 0.58573746681213378906 0.53601318597793579102 0.33112919330596923828 0.40505042672157287598 0.43340376019477844238 0.44820550084114074707 
0.48317387700080871582 0.50819152593612670898 0.46505081653594970703 0.52587026357650756836 0.63702994585037231445 0.96171408891677856445 1.1355739831924438477 0.49713599681854248047 0.42009887099266052246 0.31624701619148254395 0.24210037291049957275 0.30702155828475952148 0.37968936562538146973 0.27039724588394165039 0.44722944498062133789 0.95083534717559814453 0.59903818368911743164 1.0216737985610961914 0.54436230659484863281 0.51606214046478271484 0.51171058416366577148 0.40245831012725830078 0.18840962648391723633 0.48539724946022033691 0.43922913074493408203 0.38153725862503051758 0.19274981319904327393 0.20995675027370452881 0.06967499852180480957 0.58174419403076171875 0.29151910543441772461 0.30100911855697631836 0.30364501476287841797 0.50140368938446044922 0.4472071230411529541 0.20353767275810241699 0.19788725674152374268 0.47818812727928161621 0.03837630152702331543 0.014497624710202217102 0.30208030343055725098 0.58664107322692871094 0.57261162996292114258 0.52524125576019287109 0.65207725763320922852 0.58519417047500610352 0.57989394664764404297 0.56425428390502929688 1.3714532852172851562 0.98607963323593139648 0.59209686517715454102 1.1040326356887817383 1.4274691343307495117 1.371476292610168457 1.4098736047744750977 0.48447194695472717285 0.56147223711013793945 1.3665812015533447266 1.0385260581970214844 1.1335432529449462891 0.3736533820629119873 0.34037765860557556152 0.4754555821418762207 0.54192620515823364258 0.58758014440536499023 0.53203481435775756836 0.78443664312362670898 0.69435012340545654297 0.23286268115043640137 0.50427681207656860352 0.038904126733541488647 0.0010280000278726220131 0.0010280000278726220131 0.0010280000278726220131 0.0010280000278726220131 0.013719249516725540161 0.05131756514310836792 0.26732918620109558105 0.3619976341724395752 0.57048714160919189453 0.30201363563537597656 0.5410143733024597168 0.59804630279541015625 0.55194771289825439453 0.55331879854202270508 0.26361706852912902832 0.30510801076889038086 
0.40759000182151794434 0.41908562183380126953 0.38829430937767028809 0.58588969707489013672 1.0681036710739135742 0.99689322710037231445 0.96225202083587646484 0.45200750231742858887 0.48088100552558898926 0.49323394894599914551 0.56196880340576171875 0.31049013137817382812 0.48360055685043334961 0.48923879861831665039 0.8364086151123046875 0.8149617314338684082 0.51882290840148925781 0.63615912199020385742 0.37745454907417297363 0.93521177768707275391 1.2876724004745483398 1.101006627082824707 0.55918580293655395508 0.553546905517578125 0.12795487046241760254 0.012792307883501052856 0.01873750053346157074 0.39049950242042541504 0.19133421778678894043 0.23748874664306640625 0.11519350111484527588 0.013700000010430812836 0.014142856933176517487 0.013700000010430812836 0.11358216404914855957 0.209500923752784729 0.44728779792785644531 0.30453974008560180664 0.22170315682888031006 0.36504450440406799316 0.15807324647903442383 0.15689375996589660645 0.44061720371246337891 0.93208926916122436523 1.2426233291625976562 0.59334003925323486328 0.5879243016242980957 0.59742820262908935547 1.6288263797760009766 0.68481743335723876953 0.3421376645565032959 1.0623590946197509766 0.90689587593078613281 1.1782904863357543945 1.1457514762878417969 0.78338533639907836914 0.29033076763153076172 0.91007012128829956055 0.062777668237686157227 0.45423355698585510254 1.0259430408477783203 0.49880695343017578125 0.56429362297058105469 0.597896575927734375 0.58339583873748779297 0.6090272068977355957 1.2005605697631835938 0.80183649063110351562 0.41362875699996948242 0.11905137449502944946 0.45748880505561828613 0.072018936276435852051 0.0010280000278726220131 0.0014450000599026679993 0.0010280000278726220131 0.069462314248085021973 0.08495737612247467041 0.049363501369953155518 0.070130564272403717041 0.38534525036811828613 0.30675655603408813477 0.36179649829864501953 0.33748513460159301758 0.30010101199150085449 0.48592019081115722656 0.49024167656898498535 0.30287149548530578613 
0.37095436453819274902 0.41894564032554626465 0.50118297338485717773 0.95673489570617675781 1.1795448064804077148 1.2286686897277832031 0.4955412447452545166 0.42796626687049865723 0.33633977174758911133 0.29309532046318054199 0.42318072915077209473 0.15351100265979766846 0.54748624563217163086 0.55599445104598999023 0.50552004575729370117 0.45323112607002258301 0.47657313942909240723 0.62096542119979858398 0.70638608932495117188 0.60641574859619140625 0.84077024459838867188 0.29621288180351257324 0.43998095393180847168 0.48383349180221557617 0.15416288375854492188 0.014340999536216259003 0.32159844040870666504 1.1596196889877319336 0.14795766770839691162 0.35829627513885498047 0.53522342443466186523 0.051213875412940979004 0.01414375007152557373 0.19317734241485595703 0.04946706816554069519 0.12761268019676208496 0.18443593382835388184 0.25852000713348388672 0.20482544600963592529 0.30665707588195800781 0.48736423254013061523 0.0068250000476837158203 0.81866973638534545898 1.421271204948425293 0.68925815820693969727 0.60155737400054931641 0.59047627449035644531 0.5902487635612487793 1.3757493495941162109 0.49898967146873474121 1.1586766242980957031 0.47681325674057006836 0.3654442131519317627 0.24332034587860107422 0.30684837698936462402 0.67965114116668701172 0.15873549878597259521 0.75991082191467285156 0.30925023555755615234 1.3454067707061767578 1.3324905633926391602 0.55733901262283325195 0.56517738103866577148 0.59586668014526367188 0.58785396814346313477 0.56355428695678710938 1.3712329864501953125 0.53485280275344848633 0.54185265302658081055 0.37576749920845031738 1.1334993839263916016 0.6146933436393737793 0.047180626541376113892 0.016766000539064407349 0.010093499906361103058 0.003524499945342540741 0.0018313125474378466606 0.0023449999280273914337 0.0026346249505877494812 0.36344945430755615234 0.18011300265789031982 0.0010280000278726220131 0.0010280000278726220131 0.0010280000278726220131 0.15105307102203369141 0.6018390655517578125 0.595813751220703125 
0.44772863388061523438 0.47742700576782226562 0.68715614080429077148 1.3747606277465820312 1.1636114120483398438 0.97593176364898681641 0.53013098239898681641 0.32929733395576477051 0.26190981268882751465 0.30982455611228942871 0.26801019906997680664 0.27591255307197570801 0.50554841756820678711 0.41314917802810668945 0.33414039015769958496 0.26479437947273254395 0.23351375758647918701 0.26190257072448730469 0.0050424998626112937927 0.1142098158597946167 0.40527132153511047363 0.2508068084716796875 0.55838793516159057617 0.24478466808795928955 0.52476990222930908203 0.45189845561981201172 0.68552607297897338867 1.0920614004135131836 0.013700000010430812836 1.3584027290344238281 0.90974265336990356445 0.30314165353775024414 0.23978674411773681641 0.014388889074325561523 0.066403247416019439697 0.001820000004954636097 0.0010280000278726220131 0.3453502357006072998 0.20129612088203430176 0.4846439063549041748 0.59165287017822265625 0.12684942781925201416 0.63253521919250488281 0.97338461875915527344 0.5618069767951965332 0.59927630424499511719 0.59318792819976806641 0.84774267673492431641 0.92901241779327392578 0.36703732609748840332 0.3272526860237121582 0.13716514408588409424 0.12656092643737792969 0.20566767454147338867 0.77713769674301147461 1.2159903049468994141 0.064750395715236663818 1.4585095643997192383 1.3705984354019165039 1.1335217952728271484 0.44589090347290039062 0.58919614553451538086 1.1677328348159790039 0.57600623369216918945 0.5683301091194152832 0.64244037866592407227 0.74682348966598510742 0.53257739543914794922 0.7464917302131652832 0.47849905490875244141 1.5002646446228027344 0.86287176609039306641 0.54024291038513183594 0.83170676231384277344 0.054173562675714492798 0.012047999538481235504 0.0010280000278726220131 0.0010280000278726220131 0.0018313125474378466606 0.28072345256805419922 0.15503230690956115723 0.0010280000278726220131 0.0010280000278726220131 0.037933751940727233887 0.30954143404960632324 0.60060220956802368164 0.52165299654006958008 
0.36251136660575866699 0.54208832979202270508 0.85070729255676269531 1.3091388940811157227 0.94667965173721313477 0.34589111804962158203 0.37546113133430480957 0.49428820610046386719 0.50228941440582275391 0.45533949136734008789 0.45403075218200683594 0.47959920763969421387 0.23708669841289520264 0.4131590723991394043 0.23619849979877471924 0.64854311943054199219 0.5132763981819152832 0.41612824797630310059 0.47934067249298095703 0.3926098942756652832 0.22099593281745910645 0.2225160747766494751 0.15678225457668304443 0.21024017035961151123 0.25203061103820800781 0.39759939908981323242 0.49240884184837341309 0.39354658126831054688 0.5559139251708984375 0.62790530920028686523 0.46891289949417114258 0.39361631870269775391 0.20875166356563568115 0.16697613894939422607 0.0063106250017881393433 0.0010280000278726220131 0.10123183578252792358 0.1294746100902557373 0.1143169403076171875 0.063262581825256347656 0.059002462774515151978 0.44312086701393127441 0.72047722339630126953 0.5898036956787109375 0.59819275140762329102 0.52937483787536621094 0.48398369550704956055 0.25947690010070800781 0.59828585386276245117 0.599597930908203125 0.44757831096649169922 0.60175776481628417969 0.50600451231002807617 0.55722081661224365234 1.1490212678909301758 1.2926430702209472656 0.52134418487548828125 1.0969946384429931641 1.0341382026672363281 1.3225027322769165039 0.54963183403015136719 0.72230470180511474609 1.3897451162338256836 0.58150196075439453125 0.53936457633972167969 0.6190039515495300293 0.55697381496429443359 0.55822718143463134766 0.54182726144790649414 0.42829805612564086914 0.89018285274505615234 0.99695569276809692383 0.58351421356201171875 0.57522481679916381836 0.19742131233215332031 0.12389006465673446655 0.0010280000278726220131 0.11698856204748153687 0.1132174953818321228 0.44703781604766845703 0.16550518572330474854 0.0010280000278726220131 0.0010280000278726220131 0.34066614508628845215 0.57211917638778686523 0.42081600427627563477 0.26424849033355712891 
0.51160466670989990234 0.64332944154739379883 1.1916533708572387695 1.0670235157012939453 0.46413117647171020508 0.32544893026351928711 0.15860274434089660645 0.36117795109748840332 0.21792006492614746094 0.10126662254333496094 0.75828391313552856445 0.43343573808670043945 0.48722398281097412109 0.59692990779876708984 0.27242782711982727051 0.67828732728958129883 0.76973223686218261719 0.47314950823783874512 0.5248165130615234375 0.48591962456703186035 0.56253790855407714844 0.45491126179695129395 0.35391017794609069824 0.45953533053398132324 0.27243182063102722168 0.39210084080696105957 0.2670243382453918457 0.19199550151824951172 0.092909067869186401367 0.2791289985179901123 0.21350629627704620361 0.034869998693466186523 0.027617666870355606079 0.053266666829586029053 0.028788300231099128723 0.14593084156513214111 0.2686786949634552002 0.1589075624942779541 0.19367963075637817383 0.45837762951850891113 0.15724125504493713379 0.47194901108741760254 0.406215667724609375 0.39900022745132446289 0.22247463464736938477 0.52321213483810424805 0.58895856142044067383 0.48705533146858215332 0.59914624691009521484 0.55096340179443359375 0.46277749538421630859 0.60295349359512329102 0.51907438039779663086 0.49909895658493041992 0.63576745986938476562 0.61739563941955566406 0.63316285610198974609 1.5872498750686645508 1.0795422792434692383 0.5298290252685546875 0.80957949161529541016 0.72227835655212402344 0.91681426763534545898 0.45689994096755981445 0.536712646484375 0.4473425447940826416 0.24285937845706939697 0.3763822019100189209 0.47476801276206970215 0.2226117551326751709 0.56090527772903442383 0.99368041753768920898 0.81453275680541992188 0.41453450918197631836 0.3633143007755279541 0.3936633765697479248 0.25853100419044494629 0.23788675665855407715 0.49850612878799438477 0.36945074796676635742 0.22633525729179382324 0.0010280000278726220131 0.064046941697597503662 0.91369038820266723633 0.58281087875366210938 0.53127443790435791016 0.53275775909423828125 
0.7077071070671081543 1.1271675825119018555 0.87067484855651855469 0.58768427371978759766 0.39172562956809997559 0.34702792763710021973 0.37462332844734191895 0.2435401231050491333 0.37367150187492370605 0.15804012119770050049 0.33391812443733215332 0.41545376181602478027 0.43355673551559448242 0.56047582626342773438 0.38822311162948608398 0.56180977821350097656 0.46248045563697814941 0.51240271329879760742 0.45295411348342895508 0.58399975299835205078 0.43950474262237548828 0.014028533361852169037 0.30395090579986572266 0.54750722646713256836 0.075489670038223266602 0.28634777665138244629 0.014667768962681293488 0.080780252814292907715 0.010522222146391868591 0.010700000450015068054 0.056024000048637390137 0.13241900503635406494 0.015028571709990501404 0.098777748644351959229 0.0079488456249237060547 0.13874869048595428467 0.049631688743829727173 0.11922281235456466675 0.014100000262260437012 0.15869116783142089844 0.20797765254974365234 0.3911609947681427002 0.59001910686492919922 0.59392732381820678711 0.59350287914276123047 0.58638399839401245117 0.60246920585632324219 0.5996723175048828125 0.59432381391525268555 0.58525568246841430664 0.60084825754165649414 0.60411298274993896484 0.52926021814346313477 0.4506282508373260498 0.21076275408267974854 0.11637312918901443481 0.43012940883636474609 0.89613264799118041992 0.86435270309448242188 0.069681413471698760986 0.35177332162857055664 0.9263222813606262207 0.81034630537033081055 0.60063183307647705078 0.59493231773376464844 0.43992519378662109375 0.49953830242156982422 0.43894293904304504395 0.16404968500137329102 0.37540069222450256348 0.59049564599990844727 1.2421660423278808594 0.8836008906364440918 0.54825687408447265625 0.46563825011253356934 0.55833852291107177734 0.23922756314277648926 0.59689146280288696289 0.98037326335906982422 0.32116031646728515625 0.35021826624870300293 0.35996389389038085938 0.53261148929595947266 0.95228970050811767578 1.3122211694717407227 0.56072878837585449219 0.53082376718521118164 
0.97651600837707519531 1.5924825668334960938 1.0119937658309936523 0.99486434459686279297 0.59912657737731933594 0.57235139608383178711 0.66935670375823974609 0.78407138586044311523 0.5939744114875793457 0.65141165256500244141 0.8109576106071472168 0.52425551414489746094 0.85194689035415649414 1.0032498836517333984 0.55775600671768188477 0.26030457019805908203 0.50868177413940429688 0.20759493112564086914 0.33853283524513244629 0.60115587711334228516 0.39936557412147521973 0.015687499195337295532 0.014499999582767486572 0.14297477900981903076 0.17566770315170288086 0.079644776880741119385 0.26632866263389587402 0.15737625956535339355 0.3403422236442565918 0.57187324762344360352 0.21307769417762756348 0.059438385069370269775 0.013349999673664569855 0.27512365579605102539 0.14099422097206115723 0.19271193444728851318 0.015637500211596488953 0.013720000162720680237 0.38015040755271911621 0.52539533376693725586 0.3757871091365814209 0.65370714664459228516 0.5946229100227355957 0.5837383270263671875 0.59700977802276611328 0.54167717695236206055 0.64937692880630493164 0.75894719362258911133 0.54047298431396484375 0.44122931361198425293 0.5052897334098815918 0.5973021388053894043 0.35798487067222595215 0.27636486291885375977 0.29679906368255615234 0.17158137261867523193 0.2902965545654296875 0.4139951169490814209 0.35110768675804138184 0.18033777177333831787 0.58388620615005493164 0.66999948024749755859 1.2818698883056640625 0.64329051971435546875 0.66277515888214111328 0.44175550341606140137 0.36788144707679748535 0.25368967652320861816 0.31711882352828979492 0.46136137843132019043 0.90413993597030639648 1.0488904714584350586 0.57332557439804077148 0.56006443500518798828 0.57722359895706176758 0.47695520520210266113 0.32713755965232849121 0.52780938148498535156 0.57014834880828857422 0.22739274799823760986 0.3659680485725402832 0.56842184066772460938 0.65587568283081054688 0.44063293933868408203 0.61958521604537963867 0.51245319843292236328 0.8010387420654296875 
1.2019860744476318359 1.4643032550811767578 0.64450776576995849609 0.51934731006622314453 0.5983416438102722168 0.60189455747604370117 0.46762749552726745605 0.15714462101459503174 0.78762584924697875977 1.0120912790298461914 0.99543863534927368164 0.51112157106399536133 0.50791722536087036133 0.93885743618011474609 0.71720254421234130859 0.18842719495296478271 0.44373244047164916992 0.53212022781372070312 0.60352587699890136719 0.60063278675079345703 0.26389876008033752441 0.26779732108116149902 0.81799423694610595703 0.30946567654609680176 0.20847167074680328369 0.20569811761379241943 0.43801102042198181152 0.58716678619384765625 1.2048614025115966797 1.0788500308990478516 1.3846544027328491211 0.24693058431148529053 0.087602563202381134033 0.014653845690190792084 0.014993333257734775543 0.061311502009630203247 0.16161274909973144531 0.11495633423328399658 0.13961923122406005859 0.40088126063346862793 0.6667620539665222168 0.97641414403915405273 0.63151186704635620117 0.65697193145751953125 0.41636699438095092773 0.54772931337356567383 0.63925433158874511719 0.67292511463165283203 0.2089532315731048584 0.15507212281227111816 0.0010280000278726220131 0.073864877223968505859 0.0010280000278726220131 0.0010280000278726220131 0.45573115348815917969 0.555980682373046875 0.53995221853256225586 0.58932721614837646484 0.57566446065902709961 0.77444320917129516602 0.81642246246337890625 1.2337214946746826172 1.6286833286285400391 1.3718308210372924805 0.55582571029663085938 0.48087951540946960449 0.38556706905364990234 0.13694581389427185059 0.54117560386657714844 0.77777844667434692383 1.3355798721313476562 0.31040331721305847168 0.22857706248760223389 0.88176286220550537109 0.55372637510299682617 0.30707013607025146484 0.34219026565551757812 0.52662795782089233398 0.4907462000846862793 0.30336773395538330078 0.27676662802696228027 0.16508169472217559814 0.16595131158828735352 0.40537112951278686523 0.4665928184986114502 0.43190261721611022949 0.31329500675201416016 
1.3632935285568237305 1.0355825424194335938 0.53737181425094604492 0.48926031589508056641 0.57313448190689086914 0.66293776035308837891 0.77235132455825805664 0.45193123817443847656 0.52090084552764892578 0.7731831669807434082 0.52073770761489868164 0.17987999320030212402 0.30699819326400756836 0.42990794777870178223 0.3526560664176940918 0.212827339768409729 0.39003443717956542969 0.57941675186157226562 1.000072479248046875 0.13324759900569915771 0.47399908304214477539 0.34361913800239562988 0.49031993746757507324 0.46826356649398803711 0.013738099485635757446 0.17043021321296691895 0.51780360937118530273 0.79910778999328613281 0.23780088126659393311 0.49344834685325622559 0.36001190543174743652 0.072539895772933959961 0.014216667041182518005 0.32202830910682678223 0.013120000250637531281 0.30741578340530395508 0.74078017473220825195 0.42050522565841674805 0.40417119860649108887 0.15285283327102661133 0.54593038558959960938 0.96165776252746582031 0.22932532429695129395 0.22209081053733825684 0.11795487254858016968 0.18069012463092803955 0.066283628344535827637 0.40162557363510131836 0.51255142688751220703 0.17043855786323547363 0.0010280000278726220131 0.0010280000278726220131 0.0010280000278726220131 0.0010280000278726220131 0.58867341279983520508 0.49564978480339050293 0.47837629914283752441 0.56211650371551513672 0.58054047822952270508 0.58683162927627563477 0.89848786592483520508 1.4367744922637939453 1.6287146806716918945 0.72367191314697265625 0.53851079940795898438 0.19432169198989868164 0.11719837784767150879 0.1305793076753616333 0.52406901121139526367 0.84705519676208496094 0.75248229503631591797 0.15138849616050720215 0.21092875301837921143 0.46835887432098388672 0.41820275783538818359 0.47555863857269287109 0.31071031093597412109 0.53580194711685180664 0.4449691474437713623 0.12405618280172348022 0.16232062876224517822 0.22072069346904754639 0.21580462157726287842 0.53907668590545654297 0.52529883384704589844 0.42855057120323181152 0.20430900156497955322 
1.2266772985458374023 0.72643095254898071289 0.41999593377113342285 0.48854875564575195312 0.55661356449127197266 0.59803080558776855469 0.62022835016250610352 0.4168866276741027832 0.27335956692695617676 0.40391069650650024414 0.70054769515991210938 0.55917137861251831055 0.40757605433464050293 0.44225081801414489746 0.23678860068321228027 0.014475000090897083282 0.27561551332473754883 0.22556900978088378906 0.091390997171401977539 0.77930903434753417969 1.0640178918838500977 0.014475000090897083282 0.60618841648101806641 0.13980312645435333252 0.2592792809009552002 0.2310787588357925415 0.15704999864101409912 0.52723175287246704102 0.68489050865173339844 0.57950979471206665039 0.52312493324279785156 0.33969900012016296387 0.22604274749755859375 0.28231799602508544922 0.84393030405044555664 0.14873537421226501465 1.2083717584609985352 0.37038362026214599609 0.30774608254432678223 0.0033869999460875988007 0.1490402519702911377 0.52187240123748779297 0.26397788524627685547 0.23339028656482696533 0.080559626221656799316 0.14928363263607025146 0.013880999758839607239 0.30852881073951721191 0.47013607621192932129 0.10266850143671035767 0.0010280000278726220131 0.0010280000278726220131 0.0010280000278726220131 0.0010280000278726220131 0.56497722864151000977 0.56720346212387084961 0.46321156620979309082 0.50613301992416381836 0.57097351551055908203 0.5948130488395690918 0.57024019956588745117 1.4966208934783935547 1.6287528276443481445 0.48959305882453918457 0.54928261041641235352 0.30315375328063964844 0.30969268083572387695 0.26500949263572692871 0.46412283182144165039 1.0137232542037963867 0.11396418511867523193 0.10181599855422973633 0.33852970600128173828 0.44743689894676208496 0.49293413758277893066 0.28582537174224853516 0.38495162129402160645 0.44648405909538269043 0.041152749210596084595 0.078051686286926269531 0.15873406827449798584 0.49343037605285644531 0.18807293474674224854 0.48522350192070007324 0.56021279096603393555 0.36408692598342895508 0.0010280000278726220131 
1.1771527528762817383 0.50739127397537231445 0.47772920131683349609 0.52674347162246704102 0.74712640047073364258 0.59879297018051147461 0.59880149364471435547 0.57343059778213500977 0.49335768818855285645 0.61413288116455078125 0.5949051976203918457 0.74353826045989990234 0.56785219907760620117 0.52850377559661865234 0.43420279026031494141 0.44147568941116333008 0.15572760999202728271 0.34917300939559936523 0.46710985898971557617 0.25515890121459960938 0.44767645001411437988 0.077909335494041442871 0.18967142701148986816 0.20655624568462371826 0.21899999678134918213 1.3155349493026733398 0.53809219598770141602 0.60796219110488891602 0.82566952705383300781 0.681957244873046875 0.60137522220611572266 0.23143191635608673096 0.99571818113327026367 1.2207001447677612305 0.49150902032852172852 0.42129957675933837891 0.56745117902755737305 0.022099999710917472839 0.065806381404399871826 0.093376815319061279297 0.2357326894998550415 0.59268766641616821289 0.59692817926406860352 0.58782655000686645508 0.10914181172847747803 0.013880999758839607239 0.013880999758839607239 0.22818100452423095703 0.36751985549926757812 0.39761832356452941895 0.0010280000278726220131 0.0010280000278726220131 0.0010280000278726220131 0.36436823010444641113 0.39982134103775024414 0.38356408476829528809 0.56675136089324951172 0.51548618078231811523 0.55247610807418823242 0.56882441043853759766 0.5224145054817199707 0.71287518739700317383 1.1625812053680419922 0.71300655603408813477 0.82594227790832519531 0.51628607511520385742 0.49305227398872375488 0.65320551395416259766 1.2318170070648193359 0.42475393414497375488 0.19859163463115692139 0.29905524849891662598 0.31051018834114074707 0.34395587444305419922 0.26765576004981994629 0.42572394013404846191 0.55634200572967529297 0.43683388829231262207 0.11201281100511550903 0.08634100109338760376 0.4323774874210357666 0.52234482765197753906 0.30589306354522705078 0.34066525101661682129 0.4641011357307434082 0.43662562966346740723 0.10588175058364868164 
0.60184198617935180664 0.46650326251983642578 0.52838301658630371094 0.57964062690734863281 0.98250621557235717773 0.75559794902801513672 0.94796609878540039062 0.99695003032684326172 0.01998299919068813324 0.13956074416637420654 0.44853857159614562988 0.49901634454727172852 0.55924844741821289062 0.48034155368804931641 0.22879762947559356689 0.27893024682998657227 0.1067573055624961853 0.30220711231231689453 0.26230043172836303711 0.2499402463436126709 0.21899999678134918213 0.21899999678134918213 0.21899999678134918213 0.21899999678134918213 0.60047698020935058594 1.1997699737548828125 0.80997639894485473633 0.63968008756637573242 0.99864423274993896484 1.1270968914031982422 1.1476991176605224609 0.68769890069961547852 0.50444626808166503906 0.72679489850997924805 0.19994500279426574707 0.50928473472595214844 0.98086363077163696289 0.022099999710917472839 0.022099999710917472839 0.022099999710917472839 0.47681063413619995117 0.59864658117294311523 0.60260558128356933594 0.50673115253448486328 0.12596724927425384521 0.20450156927108764648 0.044703748077154159546 0.0092906430363655090332 0.0010280000278726220131 0.0010280000278726220131 0.0010280000278726220131 0.0010280000278726220131 0.0010280000278726220131 0.0010280000278726220131 0.51885616779327392578 0.57604640722274780273 0.55546653270721435547 0.5403988957405090332 0.59786802530288696289 0.57567942142486572266 0.53979992866516113281 0.38817557692527770996 0.60631513595581054688 0.55311590433120727539 0.71958637237548828125 0.58460849523544311523 0.56729888916015625 1.4883559942245483398 0.92056804895401000977 0.24463194608688354492 0.58874797821044921875 0.53523433208465576172 0.52942949533462524414 0.53672081232070922852 0.44656193256378173828 0.47419768571853637695 0.45072138309478759766 0.27624630928039550781 0.036881186068058013916 0.4900379478931427002 0.4643243253231048584 0.32798099517822265625 0.21518312394618988037 0.18325762450695037842 0.34946763515472412109 0.035302873700857162476 0.27442026138305664062 
0.59575277566909790039 0.52901363372802734375 0.58088606595993041992 0.5865268707275390625 0.58548283576965332031 0.70725971460342407227 0.87065064907073974609 0.50626635551452636719 0.50730407238006591797 0.51236420869827270508 0.52167922258377075195 0.46071365475654602051 0.5275529026985168457 0.40768861770629882812 0.42771866917610168457 0.1579618304967880249 0.12995624542236328125 0.21899999678134918213 0.21899999678134918213 0.21899999678134918213 0.21899999678134918213 0.21899999678134918213 0.44906574487686157227 0.66586410999298095703 1.6288166046142578125 0.89055722951889038086 0.34844848513603210449 1.0536895990371704102 1.628758549690246582 0.54887342453002929688 0.24733865261077880859 0.30054351687431335449 0.52103579044342041016 0.50231802463531494141 0.69068199396133422852 1.0814161300659179688 1.1637790203094482422 0.18190969526767730713 0.022099999710917472839 0.11546000093221664429 0.58203333616256713867 0.58618021011352539062 0.53537833690643310547 0.30797299742698669434 0.19984863698482513428 0.047785874456167221069 0.013880999758839607239 0.045866627246141433716 0.0010280000278726220131 0.0010280000278726220131 0.0010280000278726220131 0.0010280000278726220131 0.0010280000278726220131 0.0010280000278726220131 0.43638044595718383789 0.58869194984436035156 0.51703661680221557617 0.51298505067825317383 0.51652878522872924805 0.52833372354507446289 0.68855434656143188477 0.6134503483772277832 0.61650007963180541992 0.79230606555938720703 0.94240081310272216797 0.79525208473205566406 1.0949324369430541992 1.0745865106582641602 0.6202545166015625 0.14652675390243530273 0.59560847282409667969 0.52240639925003051758 0.38003700971603393555 0.53856438398361206055 0.52392840385437011719 0.55136442184448242188 0.22306193411350250244 0.22787225246429443359 0.22786407172679901123 0.3548946380615234375 0.52508616447448730469 0.35048368573188781738 0.080288812518119812012 0.1495882570743560791 0.16085669398307800293 0.093487247824668884277 0.36010774970054626465 
0.55716711282730102539 0.70320588350296020508 0.58347612619400024414 0.54499351978302001953 0.55040174722671508789 0.52075439691543579102 0.75595623254776000977 0.56272739171981811523 0.58034491539001464844 0.48563745617866516113 0.54097318649291992188 0.54210668802261352539 0.56500327587127685547 0.49563300609588623047 0.32562425732612609863 0.19109807908535003662 0.21899999678134918213 0.21899999678134918213 0.21899999678134918213 1.0021660327911376953 0.9071699976921081543 1.1766905784606933594 0.48986899852752685547 0.56311517953872680664 0.30713513493537902832 0.09884306788444519043 0.22340944409370422363 0.67469173669815063477 1.1198377609252929688 0.35642954707145690918 0.11464174836874008179 0.086621940135955810547 0.37098613381385803223 0.60013031959533691406 0.54895502328872680664 0.52042376995086669922 0.23138530552387237549 0.060336217284202575684 0.33122423291206359863 0.55457973480224609375 0.58354616165161132812 0.57771879434585571289 0.52866375446319580078 0.38546338677406311035 0.4253959357738494873 0.35597836971282958984 0.2140734940767288208 0.19438537955284118652 0.0010280000278726220131 0.16084331274032592773 0.21705281734466552734 0.0010280000278726220131 0.18764825165271759033 0.2648722529411315918 0.59220463037490844727 0.54229509830474853516 0.58807045221328735352 0.4396324455738067627 0.55492031574249267578 0.56953138113021850586 0.47728312015533447266 1.0123126506805419922 1.5921406745910644531 1.592154383659362793 1.2297857999801635742 0.92797303199768066406 0.78601735830307006836 0.43904912471771240234 0.35644748806953430176 0.26124387979507446289 0.58466237783432006836 0.53091293573379516602 0.53152936697006225586 0.56644940376281738281 0.56543684005737304688 0.25684624910354614258 0.0010280000278726220131 0.21370112895965576172 0.40883556008338928223 0.32904163002967834473 0.38676819205284118652 0.19852980971336364746 0.18927544355392456055 0.22018863260746002197 0.27959561347961425781 0.053684499114751815796 0.12296799570322036743 
0.54571479558944702148 0.42321932315826416016 0.81879031658172607422 0.5331668853759765625 0.52057301998138427734 0.38519889116287231445 0.54623681306838989258 0.53181946277618408203 0.5476131439208984375 0.21936580538749694824 0.52554476261138916016 0.47522300481796264648 0.26708701252937316895 0.30108001828193664551 0.20735333859920501709 0.20655624568462371826 0.21899999678134918213 0.30014818906784057617 0.84070199728012084961 1.5458709001541137695 1.1835144758224487305 0.23214335739612579346 0.10880808532238006592 0.42884936928749084473 0.23381187021732330322 0.43488788604736328125 0.47710362076759338379 0.32896906137466430664 0.39818468689918518066 0.14224900305271148682 0.076972998678684234619 0.074740245938301086426 0.44391706585884094238 0.58086818456649780273 0.37262049317359924316 0.59853643178939819336 0.2143942415714263916 0.11745183169841766357 0.49899193644523620605 0.54442751407623291016 0.54346984624862670898 0.49647420644760131836 0.41403970122337341309 0.49057418107986450195 0.4617614448070526123 0.79142427444458007812 0.56763356924057006836 0.012880999594926834106 0.056107688695192337036 0.22098655998706817627 0.46790269017219543457 0.32983443140983581543 0.43984994292259216309 0.52442800998687744141 0.60321485996246337891 0.70559293031692504883 0.84633153676986694336 0.51259243488311767578 0.57860863208770751953 0.52602255344390869141 0.819408416748046875 1.0778409242630004883 1.0717757940292358398 0.80808651447296142578 0.48941662907600402832 0.55742943286895751953 0.56133890151977539062 0.60671478509902954102 0.61282557249069213867 0.39492574334144592285 0.5873559117317199707 0.51785117387771606445 0.43136918544769287109 0.24432912468910217285 0.1944370567798614502 0.35382136702537536621 0.41050788760185241699 0.49198749661445617676 0.27161762118339538574 0.26354455947875976562 0.26090374588966369629 0.347751617431640625 0.3984585106372833252 0.48595204949378967285 0.43929061293601989746 0.3604519963264465332 0.70996797084808349609 
0.41837570071220397949 0.086806125938892364502 0.3786131739616394043 0.53166532516479492188 0.45240724086761474609 0.51791113615036010742 0.5631796717643737793 0.51818448305130004883 0.54862630367279052734 0.21332000195980072021 0.28061884641647338867 0.37047889828681945801 0.23839269578456878662 0.16550837457180023193 0.45396599173545837402 0.21899999678134918213 0.21899999678134918213 0.21899999678134918213 0.85646712779998779297 1.2763433456420898438 1.519915461540222168 0.62470990419387817383 0.72919452190399169922 0.38636288046836853027 0.52720725536346435547 0.5312296748161315918 0.45237714052200317383 0.54969769716262817383 0.57347732782363891602 0.51753640174865722656 0.26582044363021850586 0.52717167139053344727 0.59974300861358642578 0.60220307111740112305 0.59440630674362182617 0.4755592644214630127 0.062111429870128631592 0.40596586465835571289 0.54478830099105834961 0.41641950607299804688 0.47192481160163879395 0.39466613531112670898 0.23092669248580932617 0.79428249597549438477 1.0196583271026611328 0.35003310441970825195 0.095398306846618652344 0.012880999594926834106 0.22287425398826599121 0.87050318717956542969 0.54139941930770874023 0.3676535487174987793 0.37551438808441162109 0.84675061702728271484 0.88982635736465454102 0.55697047710418701172 0.25879719853401184082 0.3671766817569732666 0.48512256145477294922 0.51372396945953369141 0.72256648540496826172 0.66470152139663696289 0.84037405252456665039 0.53832352161407470703 0.51323497295379638672 0.54106652736663818359 0.39350670576095581055 0.52934831380844116211 0.45521613955497741699 0.46754026412963867188 0.56194955110549926758 0.51553732156753540039 0.46270030736923217773 0.2998695075511932373 0.057902500033378601074 0.043526310473680496216 0.13171869516372680664 0.26688855886459350586 0.26169213652610778809 0.25024968385696411133 0.19191350042819976807 0.50520426034927368164 0.87681251764297485352 1.0890725851058959961 1.2628039121627807617 1.2222716808319091797 1.1028264760971069336 
0.94974595308303833008 0.53526777029037475586 0.45761430263519287109 0.47993639111518859863 0.41179698705673217773 0.54124462604522705078 0.67818546295166015625 0.19917349517345428467 1.000293731689453125 0.35533419251441955566 0.019073812291026115417 0.047067936509847640991 0.070313252508640289307 0.06660000234842300415 0.065541662275791168213 0.21899999678134918213 0.21899999678134918213 1.2763226032257080078 1.628870844841003418 0.83986222743988037109 0.53869307041168212891 0.39811965823173522949 1.2398450374603271484 0.87178540229797363281 0.54196226596832275391 0.49295157194137573242 0.48381793498992919922 0.38298630714416503906 0.19644783437252044678 0.36008292436599731445 0.47206109762191772461 0.20428949594497680664 0.36891135573387145996 0.44807365536689758301 0.57118749618530273438 0.48931974172592163086 0.27246874570846557617 0.54798299074172973633 0.53184682130813598633 0.46353837847709655762 0.52880167961120605469 0.54187512397766113281 0.57297474145889282227 0.79103779792785644531 0.60546249151229858398 0.38052979111671447754 0.057611435651779174805 0.16125749051570892334 0.457366943359375 0.372173309326171875 0.24942818284034729004 0.52977919578552246094 0.49641242623329162598 0.56962311267852783203 0.46096506714820861816 0.43605723977088928223 0.28682857751846313477 0.44874304533004760742 0.7294165492057800293 1.1718113422393798828 0.66272515058517456055 0.72626250982284545898 0.65514957904815673828 0.55577307939529418945 0.52980172634124755859 0.57403433322906494141 0.56609112024307250977 0.58305156230926513672 0.54563003778457641602 0.69502568244934082031 0.59109574556350708008 0.53138929605484008789 0.44366472959518432617 0.47844493389129638672 0.31291413307189941406 0.50396740436553955078 0.71470201015472412109 1.0034556388854980469 1.0331504344940185547 0.5476067662239074707 0.67148262262344360352 0.80205142498016357422 1.5923556089401245117 1.6287111043930053711 1.5922172069549560547 0.94317352771759033203 0.62423622608184814453 
0.50257897377014160156 0.52708864212036132812 0.52326506376266479492 0.65425145626068115234 0.47357299923896789551 0.59238314628601074219 0.42062726616859436035 0.47464680671691894531 0.8666229248046875 0.28281474113464355469 0.12791074812412261963 0.18581892549991607666 0.016766000539064407349 0.018128572031855583191 0.40727284550666809082 0.21899999678134918213 0.81466174125671386719 1.5005421638488769531 0.69432222843170166016 0.5915209650993347168 0.34770545363426208496 0.30886855721473693848 0.81436383724212646484 1.2332105636596679688 0.61538851261138916016 0.532138824462890625 0.49952912330627441406 0.41816636919975280762 0.1394882500171661377 0.38541212677955627441 0.32146862149238586426 0.13940826058387756348 0.52622359991073608398 0.54851710796356201172 0.5849329829216003418 0.41897639632225036621 0.30048438906669616699 0.49991899728775024414 0.56967175006866455078 0.47599399089813232422 0.45623528957366943359 0.34162116050720214844 0.22809010744094848633 0.53005433082580566406 0.6047413945198059082 0.60750675201416015625 0.24048979580402374268 0.27423816919326782227 0.11203106492757797241 0.3851915895938873291 0.52242070436477661133 0.093122869729995727539 0.022099999710917472839 0.022099999710917472839 0.05566050112247467041 0.082810312509536743164 0.59950077533721923828 0.59211689233779907227 0.64454472064971923828 0.90112024545669555664 0.5949833989143371582 0.51020985841751098633 0.51449304819107055664 0.54697817564010620117 0.52391070127487182617 0.5321642756462097168 0.54194784164428710938 0.54676467180252075195 0.69871127605438232422 0.77796655893325805664 0.87857258319854736328 0.65864109992980957031 0.80850541591644287109 0.86367124319076538086 0.65211659669876098633 0.49694663286209106445 0.26855251193046569824 0.59218776226043701172 1.2594521045684814453 1.1766506433486938477 1.5284121036529541016 1.389870762825012207 1.556147456169128418 1.4335330724716186523 1.6272509098052978516 0.72652298212051391602 0.44404074549674987793 
0.48148006200790405273 0.513484954833984375 0.50709384679794311523 0.93268424272537231445 0.89028036594390869141 1.0085550546646118164 0.71173262596130371094 0.43479436635971069336 0.16515150666236877441 0.22790662944316864014 0.59799736738204956055 0.12538518011569976807 0.016047624871134757996 0.20240832865238189697 0.25631719827651977539 0.41008323431015014648 0.55392801761627197266 0.47631976008415222168 0.36647874116897583008 0.34281209111213684082 0.38054886460304260254 0.36650478839874267578 0.81704062223434448242 1.2242587804794311523 0.54217678308486938477 0.53008615970611572266 0.55313646793365478516 0.44866195321083068848 0.41856870055198669434 0.022099999710917472839 0.29248422384262084961 0.15009124577045440674 0.51666426658630371094 0.55065655708312988281 0.45956006646156311035 0.39337143301963806152 0.46760830283164978027 0.58777880668640136719 0.43348479270935058594 0.37835991382598876953 0.0010280000278726220131 0.0010280000278726220131 0.15233592689037322998 0.56966304779052734375 0.60706233978271484375 0.60768771171569824219 0.60764586925506591797 0.59991335868835449219 0.5366039276123046875 0.26540857553482055664 0.60511738061904907227 0.058626685291528701782 0.022099999710917472839 0.022099999710917472839 0.022099999710917472839 0.46220099925994873047 0.60882991552352905273 0.60448133945465087891 0.92374968528747558594 1.2634886503219604492 0.5951061248779296875 0.47996488213539123535 0.58724582195281982422 0.45671874284744262695 0.55309575796127319336 0.52138000726699829102 0.52432405948638916016 0.53015553951263427734 0.65904265642166137695 0.73871451616287231445 1.2359141111373901367 1.1724309921264648438 0.89541077613830566406 0.31815961003303527832 0.33391705155372619629 0.27920857071876525879 0.3497626185417175293 0.56821042299270629883 0.85738402605056762695 1.2423986196517944336 1.1707024574279785156 0.5856062769889831543 0.66849386692047119141 0.96518999338150024414 1.1598827838897705078 0.4097938239574432373 0.40641099214553833008 
0.48553100228309631348 0.52175045013427734375 0.46308481693267822266 0.84380549192428588867 0.40378168225288391113 0.62822628021240234375 0.17854125797748565674 0.014750000089406967163 0.089642249047756195068 0.4725723564624786377 0.013724999502301216125 0.014265599660575389862 0.014750000089406967163 0.037958331406116485596 0.15614375472068786621 0.28694868087768554688 0.29473912715911865234 0.16476812958717346191 0.82078349590301513672 0.54165548086166381836 0.37727686762809753418 0.43096908926963806152 0.95566743612289428711 0.72329366207122802734 0.50357967615127563477 0.5446605682373046875 0.50137960910797119141 0.54023164510726928711 0.11282591521739959717 0.022099999710917472839 0.39485076069831848145 0.7684040069580078125 0.30628129839897155762 0.47541725635528564453 0.21899999678134918213 0.50223439931869506836 0.54422104358673095703 0.47124451398849487305 0.3745416104793548584 0.0010280000278726220131 0.0010280000278726220131 0.0010280000278726220131 0.30105623602867126465 0.60525184869766235352 0.56576162576675415039 0.60558271408081054688 0.41555804014205932617 0.59840565919876098633 0.6034138798713684082 0.60486829280853271484 0.60726177692413330078 0.27805542945861816406 0.022099999710917472839 0.022099999710917472839 0.058626685291528701782 0.6079044342041015625 0.6078211665153503418 0.60316145420074462891 0.71212744712829589844 1.2070763111114501953 0.58470129966735839844 0.52604925632476806641 0.62619596719741821289 0.21111556887626647949 0.4756673276424407959 0.81197184324264526367 0.57334560155868530273 0.55972588062286376953 0.57045835256576538086 0.53829681873321533203 0.72265923023223876953 0.68679404258728027344 0.63352465629577636719 0.24150350689888000488 0.3606064915657043457 0.27001744508743286133 0.57361459732055664062 0.74926537275314331055 0.80458730459213256836 0.82662588357925415039 0.71065312623977661133 1.3412270545959472656 0.67791008949279785156 0.45859673619270324707 0.20377719402313232422 0.10884912312030792236 0.52030599117279052734 
0.48302325606346130371 0.47746092081069946289 0.46224263310432434082 0.56491398811340332031 0.52975714206695556641 0.34585499763488769531 0.012242768891155719757 0.16053721308708190918 0.31149730086326599121 0.59577137231826782227 0.2213303297758102417 0.09975232928991317749 0.1341750025749206543 0.16274285316467285156 0.21899999678134918213 0.41449788212776184082 0.49110174179077148438 0.5766112208366394043 0.35083916783332824707 0.71040302515029907227 0.502197265625 0.79444718360900878906 0.55119293928146362305 0.57771837711334228516 0.53955292701721191406 0.56918138265609741211 0.51619678735733032227 0.52063393592834472656 0.20183992385864257812 0.058626685291528701782 0.48242604732513427734 0.22178050875663757324 0.11478575319051742554 0.28789573907852172852 0.24237981438636779785 0.50229233503341674805 0.59327346086502075195 0.33571073412895202637 0.0010280000278726220131 0.0010280000278726220131 0.0010280000278726220131 0.039114627987146377563 0.4935099184513092041 0.60489326715469360352 0.59942102432250976562 0.56953644752502441406 0.65455019474029541016 0.79220843315124511719 0.60186827182769775391 0.60730224847793579102 0.60536664724349975586 0.60566675662994384766 0.12868262827396392822 0.022099999710917472839 0.3514277338981628418 0.60069280862808227539 0.60316455364227294922 0.60351425409317016602 1.1438665390014648438 1.0809228420257568359 0.55261129140853881836 0.84884595870971679688 0.57861387729644775391 0.48613125085830688477 0.54941999912261962891 0.83489781618118286133 0.59642237424850463867 0.94625610113143920898 0.85692363977432250977 0.72457063198089599609 0.43423798680305480957 0.54280799627304077148 0.59814941883087158203 0.44505062699317932129 0.54210400581359863281 0.55858629941940307617 0.59674412012100219727 0.48269331455230712891 0.64816784858703613281 0.52695453166961669922 0.54908376932144165039 0.63587021827697753906 0.43821963667869567871 0.417781829833984375 0.035302873700857162476 0.23854069411754608154 0.49671474099159240723 
0.46224269270896911621 0.21639230847358703613 0.37535437941551208496 0.24791844189167022705 0.15549036860466003418 0.17426006495952606201 0.096736840903759002686 0.16586036980152130127 0.58711552619934082031 0.38515895605087280273 0.3300278782844543457 0.16883750259876251221 0.21899999678134918213 0.21899999678134918213 0.21899999678134918213 0.18032281100749969482 0.28514686226844787598 0.48297876119613647461 0.16693700850009918213 0.4899641573429107666 0.78113263845443725586 0.87054526805877685547 0.30677312612533569336 0.41433879733085632324 0.57187753915786743164 0.52231645584106445312 0.52697187662124633789 0.40572014451026916504 0.054824311286211013794 0.39919999241828918457 0.48847916722297668457 0.013319999910891056061 0.056711062788963317871 0.381618499755859375 0.3132813870906829834 0.54835695028305053711 0.59622937440872192383 0.064426250755786895752 0.0010280000278726220131 0.11068506538867950439 0.51619833707809448242 0.60547488927841186523 0.60246616601943969727 0.5557651519775390625 0.60533642768859863281 0.60029298067092895508 0.52601224184036254883 0.19008125364780426025 0.41220992803573608398 0.60570663213729858398 0.60782235860824584961 0.60362696647644042969 0.56003719568252563477 0.49686449766159057617 0.60372447967529296875 0.85586285591125488281 0.60478234291076660156 0.55709207057952880859 0.74787533283233642578 0.61124968528747558594 0.68341869115829467773 0.57363736629486083984 0.55850273370742797852 0.53373408317565917969 0.5352452397346496582 0.57596451044082641602 0.53347414731979370117 0.56087815761566162109 0.44891080260276794434 0.51976042985916137695 0.34924900531768798828 0.3087723851203918457 0.15139643847942352295 0.25066870450973510742 0.5612093806266784668 0.59140908718109130859 0.47901779413223266602 0.23145855963230133057 0.12039431184530258179 0.1507091820240020752 0.45722275972366333008 0.43225774168968200684 0.41433957219123840332 0.42505151033401489258 0.27532202005386352539 0.35572224855422973633 0.43629276752471923828 
0.52112740278244018555 0.48257106542587280273 0.37845849990844726562 0.18944306671619415283 0.45932149887084960938 0.3893851935863494873 0.54929429292678833008 0.53167289495468139648 0.5397618412971496582 0.45436990261077880859 0.18115243315696716309 0.20655624568462371826 0.21899999678134918213 0.21899999678134918213 0.21899999678134918213 0.25964787602424621582 0.46234086155891418457 0.35370957851409912109 0.2907079160213470459 0.148983001708984375 0.72085106372833251953 0.80890524387359619141 0.48790851235389709473 0.76475095748901367188 0.65594577789306640625 0.55543828010559082031 0.54743748903274536133 0.29437139630317687988 0.18433669209480285645 0.58717614412307739258 0.30654007196426391602 0.012743500061333179474 0.22648169100284576416 0.3481013178825378418 0.24150018393993377686 0.57894682884216308594 0.59601628780364990234 0.14950142800807952881 0.0010280000278726220131 0.4467818140983581543 0.59884870052337646484 0.78947162628173828125 0.72894465923309326172 0.597362518310546875 0.60451686382293701172 0.60247206687927246094 0.18856775760650634766 0.48963525891304016113 0.22419387102127075195 0.60339373350143432617 0.5834738612174987793 0.58162105083465576172 0.6059462428092956543 0.60595881938934326172 0.6023260951042175293 0.98509162664413452148 0.59228050708770751953 0.36952701210975646973 0.1776803135871887207 0.16855238378047943115 0.39467263221740722656 0.54921168088912963867 0.53551250696182250977 0.59919524192810058594 0.52092194557189941406 0.53551346063613891602 0.58261960744857788086 0.60205137729644775391 0.24639068543910980225 0.48141267895698547363 0.70952910184860229492 0.37096416950225830078 0.38626694679260253906 0.31366461515426635742 0.57184487581253051758 0.58843553066253662109 0.52498477697372436523 0.20739161968231201172 0.1797472536563873291 0.13020788133144378662 0.41291692852973937988 0.46406656503677368164 0.42520669102668762207 0.42780226469039916992 0.29727369546890258789 0.43815574049949645996 0.51274502277374267578 
0.5022538304328918457 0.27048867940902709961 0.17738912999629974365 0.4173558652400970459 0.50265687704086303711 1.225561976432800293 0.65700191259384155273 0.78608238697052001953 0.5544249415397644043 0.26355317234992980957 0.21899999678134918213 0.21899999678134918213 0.31209832429885864258 0.21899999678134918213 0.21899999678134918213 0.44459313154220581055 0.98123109340667724609 0.54532015323638916016 0.63865721225738525391 0.46907791495323181152 0.36017319560050964355 0.58926755189895629883 0.55127865076065063477 1.1776233911514282227 0.57577532529830932617 0.56751465797424316406 0.57838290929794311523 0.57213306427001953125 0.49965199828147888184 0.34357756376266479492 0.33151459693908691406 0.21327881515026092529 0.16844999790191650391 0.28081923723220825195 0.60878419876098632812 0.72042238712310791016 0.59462898969650268555 0.3700415492057800293 0.22226831316947937012 0.59414660930633544922 0.60715091228485107422 0.60405200719833374023 0.60454541444778442383 0.59607684612274169922 0.6044438481330871582 0.40828630328178405762 0.4503154456615447998 0.25785675644874572754 0.45179924368858337402 0.58312761783599853516 0.41380292177200317383 0.53400063514709472656 0.60358691215515136719 0.5919144749641418457 0.58924084901809692383 0.59140408039093017578 0.48629662394523620605 0.28074300289154052734 0.25510168075561523438 0.270519256591796875 0.18758738040924072266 0.5415121912956237793 0.59802353382110595703 0.56000000238418579102 0.50098001956939697266 0.56539165973663330078 0.58751732110977172852 0.70160716772079467773 0.66480237245559692383 0.53328973054885864258 0.43470177054405212402 0.18743400275707244873 0.20277325809001922607 0.47857326269149780273 0.60193723440170288086 0.59045809507369995117 0.58428341150283813477 0.3509013056755065918 0.29032474756240844727 0.13020788133144378662 0.50689518451690673828 0.41823425889015197754 0.41871026158332824707 0.47858005762100219727 0.5536358952522277832 0.38193607330322265625 0.21871700882911682129 
0.49180924892425537109 0.98287969827651977539 0.3349196314811706543 0.32603725790977478027 0.44294768571853637695 0.77009159326553344727 0.5676701664924621582 0.36778038740158081055 0.38244917988777160645 0.20240832865238189697 0.21899999678134918213 0.24669656157493591309 0.50910097360610961914 0.24241337180137634277 0.21899999678134918213 0.12363725155591964722 1.2002904415130615234 0.68138670921325683594 0.88184839487075805664 0.83046388626098632812 0.57240915298461914062 0.65226513147354125977 1.3566328287124633789 1.0115436315536499023 0.57270169258117675781 0.45329067111015319824 0.46654269099235534668 0.5290558934211730957 0.42581921815872192383 0.3987712860107421875 0.092995621263980865479 0.21899999678134918213 0.21899999678134918213 0.37211710214614868164 0.60526192188262939453 0.55793547630310058594 0.59721165895462036133 0.57284563779830932617 0.52006435394287109375 0.60043936967849731445 0.60008990764617919922 0.59654438495635986328 0.60905319452285766602 0.97800266742706298828 0.59975087642669677734 0.33496868610382080078 0.2941487431526184082 0.56443685293197631836 0.33568555116653442383 0.28422781825065612793 0.59861254692077636719 0.60075014829635620117 0.60546970367431640625 0.60097944736480712891 0.71153837442398071289 0.53988122940063476562 0.24885649979114532471 0.54985457658767700195 0.45613813400268554688 0.27417093515396118164 0.38092663884162902832 0.58089888095855712891 0.58320403099060058594 0.51530635356903076172 0.56017225980758666992 0.56107872724533081055 0.78086769580841064453 1.3273921012878417969 0.95755988359451293945 0.39410695433616638184 0.18059119582176208496 0.1064949333667755127 0.4380798041820526123 0.38145300745964050293 0.60694319009780883789 0.60612189769744873047 0.62020933628082275391 0.40606674551963806152 0.096814125776290893555 0.12733319401741027832 0.68427819013595581055 0.21999618411064147949 0.16048362851142883301 0.28465700149536132812 0.45313280820846557617 0.04969849810004234314 0.23205499351024627686 
0.52553009986877441406 0.58871686458587646484 0.2325820624828338623 0.45907482504844665527 0.5609137415885925293 0.58328014612197875977 0.5774402618408203125 0.39588987827301025391 0.34967836737632751465 0.20189166069030761719 0.21899999678134918213 0.24756023287773132324 0.38859450817108154297 0.24322043359279632568 0.21899999678134918213 0.57145702838897705078 0.52752363681793212891 0.59725713729858398438 0.76197075843811035156 1.0288498401641845703 1.1862627267837524414 1.0374734401702880859 0.84856909513473510742 0.58653038740158081055 0.5897642970085144043 0.49137157201766967773 0.51935774087905883789 0.49558407068252563477 0.37364590167999267578 0.3911330103874206543 0.065180249512195587158 0.11001399904489517212 0.3125140070915222168 0.33998417854309082031 0.51497375965118408203 0.22056250274181365967 0.29926562309265136719 0.4856713712215423584 0.60344040393829345703 0.59592396020889282227 0.59802395105361938477 0.60084158182144165039 0.74045157432556152344 0.88370335102081298828 0.59540259838104248047 0.59160059690475463867 0.59551906585693359375 0.60707187652587890625 0.60577028989791870117 0.60632473230361938477 0.6675173640251159668 0.60192543268203735352 0.60382926464080810547 0.60312700271606445312 0.93179237842559814453 0.38454401493072509766 0.52898013591766357422 0.5227343440055847168 0.44821944832801818848 0.44369894266128540039 0.47914680838584899902 0.61836630105972290039 0.62071537971496582031 0.5509344935417175293 0.5009791254997253418 0.53065776824951171875 0.83374327421188354492 1.1598761081695556641 0.53269040584564208984 0.20232445001602172852 0.22985725104808807373 0.062373373657464981079 0.56195503473281860352 0.59954869747161865234 0.60421586036682128906 0.59987300634384155273 0.57770007848739624023 0.4985281825065612793 0.027920749038457870483 0.52885603904724121094 0.77829450368881225586 0.25044736266136169434 0.35702344775199890137 0.273967742919921875 0.31187000870704650879 0.15171405673027038574 0.22907501459121704102 
1.0348206758499145508 0.58107614517211914062 0.33088600635528564453 0.22471544146537780762 0.23686930537223815918 0.39856192469596862793 0.58693659305572509766 0.46241673827171325684 0.13365525007247924805 0.098741665482521057129 0.19438749551773071289 1.0611922740936279297 1.2240467071533203125 0.19326443970203399658 0.45395550131797790527 0.3132769167423248291 0.0026006666012108325958 0.58625704050064086914 0.48295900225639343262 0.53848886489868164062 0.59315228462219238281 0.840183258056640625 0.99321550130844116211 0.46938583254814147949 0.53375965356826782227 0.53968107700347900391 0.42468267679214477539 0.45356026291847229004 0.25108534097671508789 0.19024999439716339111 0.06914424896240234375 0.11301387101411819458 0.34540000557899475098 0.5628655552864074707 0.33896249532699584961 0.0089299995452165603638 0.0049789999611675739288 0.007612999994307756424 0.38234379887580871582 0.60058933496475219727 0.59741103649139404297 0.6020386815071105957 0.60496282577514648438 0.60657811164855957031 0.60362112522125244141 0.58767569065093994141 0.60578489303588867188 0.59735250473022460938 0.60609483718872070312 0.59672981500625610352 0.88384795188903808594 0.60171818733215332031 0.60607129335403442383 0.60531991720199584961 0.43672582507133483887 0.075563251972198486328 0.27367487549781799316 0.45242550969123840332 0.41908636689186096191 0.40137919783592224121 0.061315625905990600586 0.61075407266616821289 0.61753219366073608398 0.41199326515197753906 0.48980274796485900879 1.3542562723159790039 1.5561201572418212891 1.3174874782562255859 0.54217243194580078125 0.29673057794570922852 0.51434493064880371094 0.18436706066131591797 0.58063018321990966797 0.60001176595687866211 0.60310137271881103516 0.59991395473480224609 0.56473463773727416992 0.6061064600944519043 0.044400062412023544312 0.18217524886131286621 1.2243721485137939453 0.57242542505264282227 0.49994930624961853027 0.5251820683479309082 0.55052405595779418945 0.53385370969772338867 0.40027350187301635742 
0.77105575799942016602 0.60224306583404541016 0.45306348800659179688 0.36163017153739929199 0.15421450138092041016 0.25406587123870849609 0.50721436738967895508 0.30858325958251953125 0.20433570444583892822 0.20189166069030761719 0.18430691957473754883 0.83195990324020385742 0.30795171856880187988 0.45777681469917297363 0.38363373279571533203 0.16124486923217773438 0.067380249500274658203 0.58517098426818847656 0.46665823459625244141 0.54764461517333984375 0.58745032548904418945 0.64566332101821899414 0.64711761474609375 0.5730075836181640625 0.54920363426208496094 0.49120160937309265137 0.38799276947975158691 0.57591760158538818359 0.14797854423522949219 0.028274498879909515381 0.12038525193929672241 0.26718950271606445312 0.30010700225830078125 0.57951998710632324219 0.55462419986724853516 0.25583356618881225586 0.015514999628067016602 0.020782999694347381592 0.26706880331039428711 0.61187660694122314453 0.60424375534057617188 0.60281854867935180664 0.60737937688827514648 0.60622715950012207031 0.60507279634475708008 0.57760465145111083984 0.59844219684600830078 0.58999520540237426758 0.58860075473785400391 0.5582211613655090332 0.59180539846420288086 0.60480535030364990234 0.60675293207168579102 0.59714603424072265625 0.44482749700546264648 0.29190054535865783691 0.20102743804454803467 0.063436627388000488281 0.11020493507385253906 0.043318875133991241455 0.0010280000278726220131 0.0010280000278726220131 0.0010280000278726220131 0.0010280000278726220131 0.10276143252849578857 0.92845743894577026367 1.1680778264999389648 1.1048394441604614258 0.49672168493270874023 0.64744389057159423828 0.54174762964248657227 0.48671048879623413086 0.60343182086944580078 0.60472655296325683594 0.6073958277702331543 0.57530194520950317383 0.51898545026779174805 0.54639285802841186523 0.38872119784355163574 0.67590850591659545898 0.80959916114807128906 0.23770213127136230469 0.063565373420715332031 0.53922069072723388672 0.58998399972915649414 0.59451246261596679688 0.59963124990463256836 
0.75190895795822143555 0.7441241145133972168 0.38121485710144042969 0.23266337811946868896 0.5681584477424621582 0.37443900108337402344 0.46613115072250366211 0.22789037227630615234 0.065115496516227722168 1.3938959836959838867 1.0419710874557495117 0.60239392518997192383 1.0634480714797973633 0.38770633935928344727 0.21899999678134918213 0.2695954442024230957 0.49188700318336486816 0.56512826681137084961 0.54593265056610107422 0.58469843864440917969 0.59076738357543945312 0.5912711024284362793 0.52220714092254638672 0.54862284660339355469 0.56102162599563598633 0.55361407995223999023 0.57261055707931518555 0.56542187929153442383 0.11899362504482269287 0.042701061815023422241 0.11001399904489517212 0.28080436587333679199 0.55160617828369140625 0.58342695236206054688 0.58542674779891967773 0.48720076680183410645 0.015514999628067016602 0.014197999611496925354 0.43549686670303344727 0.58338409662246704102 0.5979416966438293457 0.60170346498489379883 0.60569661855697631836 0.60676479339599609375 0.57584035396575927734 0.43186831474304199219 0.59420621395111083984 0.58020877838134765625 0.59410059452056884766 0.59722971916198730469 0.58446812629699707031 0.60269433259963989258 0.58537900447845458984 0.60215473175048828125 0.557098388671875 0.38604056835174560547 0.35515600442886352539 0.3973674476146697998 0.18839187920093536377 0.10812062770128250122 0.22287513315677642822 0.21785981953144073486 0.32467257976531982422 0.37333750724792480469 0.66765999794006347656 0.77942132949829101562 1.0366433858871459961 0.78676164150238037109 0.5916302800178527832 0.80699580907821655273 0.59634500741958618164 0.59730374813079833984 0.60552483797073364258 0.60254120826721191406 0.59401851892471313477 0.54859316349029541016 0.52627509832382202148 0.55030167102813720703 0.49017730355262756348 0.42312395572662353516 0.48417437076568603516 0.16829949617385864258 0.15138831734657287598 0.33307370543479919434 0.59817534685134887695 0.60488086938858032227 0.59486627578735351562 
0.47906157374382019043 0.21178512275218963623 0.50413554906845092773 0.42705780267715454102 0.45032751560211181641 0.52949106693267822266 0.29451900720596313477 0.013688624836504459381 0.062868252396583557129 1.1314855813980102539 1.4254200458526611328 0.39974182844161987305 0.01231012493371963501 0.011472624726593494415 0.21899999678134918213 0.36810767650604248047 0.26592576503753662109 0.46880987286567687988 0.53730738162994384766 0.57155197858810424805 0.58894038200378417969 0.57751286029815673828 0.48517131805419921875 0.52099311351776123047 0.52112209796905517578 0.5415350794792175293 0.22106428444385528564 0.0091439997777342796326 0.0029994999058544635773 0.0010280000278726220131 0.0010280000278726220131 0.23300956189632415771 0.37915894389152526855 0.58127796649932861328 0.58938306570053100586 0.59793704748153686523 0.045700497925281524658 0.33406189084053039551 0.56716322898864746094 0.52456760406494140625 0.54765754938125610352 0.58599674701690673828 0.60192608833312988281 0.59527456760406494141 0.59793221950531005859 0.33616748452186584473 0.49347090721130371094 0.60660904645919799805 0.41273510456085205078 0.67960989475250244141 0.65609699487686157227 0.59175091981887817383 0.52828323841094970703 1.2409608364105224609 0.60604864358901977539 0.59858530759811401367 0.60278326272964477539 0.28428336977958679199 0.0010280000278726220131 0.32605451345443725586 0.186106070876121521 0.0010280000278726220131 0.43779987096786499023 0.72874838113784790039 0.93288469314575195312 0.51458036899566650391 0.69045376777648925781 0.59141999483108520508 0.59701424837112426758 0.60052251815795898438 0.60279393196105957031 0.5848420262336730957 0.60710006952285766602 0.60420739650726318359 0.56346803903579711914 0.53999656438827514648 0.59184831380844116211 0.51361507177352905273 0.40320545434951782227 0.40916970372200012207 0.36082470417022705078 0.47420418262481689453 0.0010280000278726220131 0.038730252534151077271 0.59081196784973144531 0.58978402614593505859 0.58947575092315673828 
0.7974605560302734375 0.29964980483055114746 0.46259868144989013672 0.26259779930114746094 0.40841817855834960938 0.31984281539916992188 1.2936570644378662109 0.32038283348083496094 0.30100762844085693359 0.26304444670677185059 0.44737163186073303223 0.135700225830078125 0.011099999770522117615 0.32180410623550415039 0.25067982077598571777 0.27494224905967712402 0.0010280000278726220131 0.54013872146606445312 0.54283255338668823242 0.3336741328239440918 0.45640024542808532715 0.59479993581771850586 0.46507090330123901367 0.54038417339324951172 0.58720862865447998047 0.056879617273807525635 0.012587499804794788361 0.012962499633431434631 0.042914438992738723755 0.0010280000278726220131 0.0010280000278726220131 0.082829006016254425049 0.26699101924896240234 0.56466907262802124023 0.55140089988708496094 0.59380686283111572266 0.40335899591445922852 0.7484200596809387207 0.49195250868797302246 0.51982283592224121094 0.58326137065887451172 0.5966446995735168457 0.592067718505859375 0.59533107280731201172 0.6038970947265625 0.49873811006546020508 0.37782195210456848145 0.19026169180870056152 0.076581753790378570557 0.015514999628067016602 0.30819237232208251953 0.59215044975280761719 0.55025780200958251953 0.79466640949249267578 0.66091543436050415039 0.59523177146911621094 0.58234894275665283203 0.25088667869567871094 0.0010280000278726220131 0.037243314087390899658 0.0010280000278726220131 0.28919881582260131836 0.85560077428817749023 1.1784027814865112305 0.87146490812301635742 0.65226757526397705078 0.59701895713806152344 0.59826833009719848633 0.59251111745834350586 0.60518151521682739258 0.60420274734497070312 0.59761750698089599609 0.59975361824035644531 0.58979767560958862305 0.65932351350784301758 1.138943791389465332 0.85523957014083862305 0.48180842399597167969 0.46100243926048278809 0.29318356513977050781 0.36456894874572753906 0.34539705514907836914 0.23009774088859558105 0.17692956328392028809 0.38108712434768676758 0.5986416935920715332 0.59502798318862915039 
0.15503486990928649902 0.43574848771095275879 0.40291357040405273438 0.35641932487487792969 0.37552130222320556641 0.26946815848350524902 1.0632044076919555664 0.3004391789436340332 0.36380460858345031738 0.22044162452220916748 0.35233026742935180664 0.23295010626316070557 0.099632248282432556152 0.063524998724460601807 0.24455006420612335205 0.28884640336036682129 0.0010280000278726220131 0.53520798683166503906 0.55697607994079589844 0.55808883905410766602 0.55851233005523681641 0.58202058076858520508 0.50053083896636962891 0.58496147394180297852 0.82665324211120605469 0.20683118700981140137 0.04997981339693069458 0.085223063826560974121 0.0010280000278726220131 0.0010280000278726220131 0.0010280000278726220131 0.079066872596740722656 0.11840731650590896606 0.52375531196594238281 0.73052436113357543945 0.49099054932594299316 0.58274859189987182617 0.53558039665222167969 0.52587187290191650391 0.47376149892807006836 0.56903612613677978516 0.48567280173301696777 0.59688580036163330078 0.56282716989517211914 0.26450955867767333984 0.15023861825466156006 0.37980112433433532715 0.011563999578356742859 0.1666225045919418335 0.24256968498229980469 0.015514999628067016602 0.55938756465911865234 0.59943193197250366211 0.59731823205947875977 0.85787022113800048828 0.66831630468368530273 0.48345723748207092285 0.0010280000278726220131 0.11070637404918670654 0.37022900581359863281 0.22721299529075622559 0.51752340793609619141 0.59339642524719238281 0.66887998580932617188 0.60336208343505859375 0.59946560859680175781 0.59948396682739257812 0.59606099128723144531 0.59822165966033935547 0.60794311761856079102 0.6045093536376953125 0.60036009550094604492 0.59662973880767822266 0.5807787775993347168 0.6004155278205871582 0.78453850746154785156 0.5413983464241027832 0.30000850558280944824 0.3315881192684173584 0.096245311200618743896 0.27203088998794555664 0.45433512330055236816 0.36060482263565063477 0.37271150946617126465 0.48834133148193359375 0.54774314165115356445 0.50303947925567626953 
0.28195667266845703125 0.53049939870834350586 0.36959451436996459961 0.47322723269462585449 0.30866593122482299805 0.56820148229598999023 0.58668500185012817383 0.16917534172534942627 0.50282728672027587891 0.2271731942892074585 0.50946325063705444336 0.33121374249458312988 0.58777356147766113281 0.16086849570274353027 0.21899999678134918213 0.14208036661148071289 0.30719193816184997559 0.42740541696548461914 0.47575408220291137695 0.57512366771697998047 0.54106104373931884766 0.78945159912109375 0.67199265956878662109 0.52778166532516479492 0.25927048921585083008 0.049264062196016311646 0.016037499532103538513 0.0061504999175667762756 0.0010280000278726220131 0.0010280000278726220131 0.0010280000278726220131 0.0010280000278726220131 0.071153253316879272461 0.19776518642902374268 0.68529999256134033203 0.59771376848220825195 0.55707252025604248047 0.49461707472801208496 0.57716745138168334961 0.47561606764793395996 0.59878236055374145508 0.60431963205337524414 0.60429692268371582031 0.45499223470687866211 0.011563999578356742859 0.015514999628067016602 0.010246999561786651611 0.16327656805515289307 0.57237046957015991211 0.59419870376586914062 0.56643235683441162109 0.59926092624664306641 0.55810129642486572266 0.59464377164840698242 0.59583950042724609375 0.59580302238464355469 0.5253556370735168457 0.037596564739942550659 0.22117036581039428711 0.57127326726913452148 0.38156625628471374512 0.4091618657112121582 0.59777355194091796875 0.65817773342132568359 0.60170149803161621094 0.59919250011444091797 0.52370661497116088867 0.48284837603569030762 0.59497267007827758789 0.57711380720138549805 0.58609378337860107422 0.59905719757080078125 0.59817928075790405273 0.60143005847930908203 0.60399860143661499023 0.59074091911315917969 0.59680390357971191406 1.1706633567810058594 0.22415131330490112305 0.072625748813152313232 0.34706088900566101074 0.72028875350952148438 0.16727462410926818848 0.47724711894989013672 0.56094098091125488281 0.56986165046691894531 0.501857757568359375 
0.26275205612182617188 0.23491819202899932861 0.24052131175994873047 0.11535112559795379639 0.08110056072473526001 0.52724444866180419922 0.30138471722602844238 0.014416666701436042786 0.16001875698566436768 0.21527770161628723145 0.3411261141300201416 0.24836267530918121338 0.28914362192153930664 0.38310575485229492188 0.29532274603843688965 0.38172826170921325684 0.50347083806991577148 0.41111832857131958008 0.52652508020401000977 0.52269190549850463867 0.52619290351867675781 0.67905330657958984375 0.80861985683441162109 0.62895429134368896484 0.2034123539924621582 0.012545499950647354126 0.048019126057624816895 0.004219812341034412384 0.003791500115767121315 0.04365806281566619873 0.040931936353445053101 0.0010280000278726220131 0.0039516249671578407288 0.17501875758171081543 0.52546542882919311523 0.94119167327880859375 0.76759612560272216797 0.49968132376670837402 0.89839571714401245117 0.54682368040084838867 0.55845105648040771484 0.59996724128723144531 0.60465133190155029297 0.60037982463836669922 0.49019676446914672852 0.41064557433128356934 0.37649631500244140625 0.60371541976928710938 0.6103382110595703125 0.50628972053527832031 0.56771934032440185547 0.44421982765197753906 0.58721023797988891602 0.47588050365447998047 0.40839836001396179199 0.55716478824615478516 0.59917926788330078125 0.60081142187118530273 0.59361565113067626953 0.59722155332565307617 0.40906348824501037598 0.21503432095050811768 0.55326080322265625 0.59257495403289794922 0.33032831549644470215 0.504436492919921875 0.57903170585632324219 0.56118905544281005859 0.48087355494499206543 0.59178102016448974609 0.58778059482574462891 0.58384221792221069336 0.58604931831359863281 0.59950947761535644531 0.59972977638244628906 0.58778750896453857422 0.72640234231948852539 1.2066740989685058594 0.45068430900573730469 0.25305417180061340332 0.53244006633758544922 1.0948390960693359375 0.29309579730033874512 0.50399291515350341797 0.59424519538879394531 0.55817407369613647461 0.5944805145263671875 
0.41224157810211181641 0.76076132059097290039 0.60964554548263549805 0.32649454474449157715 0.18170024454593658447 0.52669161558151245117 0.019988888874650001526 0.015274999663233757019 0.4535357058048248291 0.16340216994285583496 0.38731181621551513672 0.059322223067283630371 0.20616874098777770996 0.087021425366401672363 0.11198666691780090332 0.32531261444091796875 0.3862342536449432373 0.29888987541198730469 0.39676594734191894531 0.51987177133560180664 0.45013412833213806152 0.98278939723968505859 0.82976019382476806641 0.99316477775573730469 0.40300333499908447266 0.18579168617725372314 0.11175387352705001831 0.090177752077579498291 0.2659747004508972168 0.23711475729942321777 0.086067877709865570068 0.0026233124081045389175 0.0010280000278726220131 0.14303225278854370117 1.0044035911560058594 0.74013930559158325195 0.70070481300354003906 0.48673862218856811523 0.661975860595703125 0.66159677505493164062 0.4129841923713684082 0.60328650474548339844 0.60085749626159667969 0.60229867696762084961 0.59739935398101806641 0.59585136175155639648 0.59914952516555786133 0.61152309179306030273 0.58401089906692504883 0.56843167543411254883 0.85339814424514770508 0.60065102577209472656 0.59735977649688720703 0.44836431741714477539 0.15140213072299957275 0.11167943477630615234 0.78153979778289794922 0.98341035842895507812 0.59640616178512573242 0.60347229242324829102 0.26426672935485839844 0.58557611703872680664 0.58011043071746826172 0.59816139936447143555 0.59276217222213745117 0.60453343391418457031 0.52598440647125244141 0.37777274847030639648 0.17614631354808807373 0.59454518556594848633 0.60103636980056762695 0.60253828763961791992 0.59944021701812744141 0.57003355026245117188 0.58608251810073852539 0.55881392955780029297 0.84208732843399047852 1.3721053600311279297 0.72416853904724121094 0.40360781550407409668 0.1088866889476776123 0.24954612553119659424 0.49496048688888549805 0.59696590900421142578 0.59306377172470092773 0.59526431560516357422 0.59854972362518310547 
0.42155233025550842285 0.39967593550682067871 1.3950562477111816406 0.26960337162017822266 0.60403615236282348633 0.17890538275241851807 0.020833333954215049744 0.18628543615341186523 0.25761768221855163574 0.35219115018844604492 0.63402038812637329102 0.078903168439865112305 0.21899999678134918213 0.17793999612331390381 0.13663868606090545654 0.40041267871856689453 0.27619367837905883789 0.42382064461708068848 0.31069087982177734375 0.50819075107574462891 0.63263624906539916992 0.8566907048225402832 0.41356614232063293457 0.53808915615081787109 0.54216545820236206055 0.62377345561981201172 0.41739436984062194824 0.26400649547576904297 0.14765413105487823486 0.010498000308871269226 0.048006623983383178711 0.12212918698787689209 0.0010280000278726220131 0.22264468669891357422 0.50496667623519897461 0.45648705959320068359 0.56399822235107421875 0.5906798243522644043 0.68781107664108276367 0.53613543510437011719 0.56264412403106689453 0.59730017185211181641 0.60330820083618164062 0.59924244880676269531 0.60603988170623779297 0.59757775068283081055 0.59986358880996704102 0.60329270362854003906 0.57278996706008911133 0.5302753448486328125 1.0535396337509155273 0.72276395559310913086 0.57057660818099975586 0.37302529811859130859 0.34001204371452331543 0.42877361178398132324 1.0976221561431884766 1.1181010007858276367 0.52851945161819458008 0.60195362567901611328 0.28287276625633239746 0.59421002864837646484 0.59989243745803833008 0.55949747562408447266 0.5559151768684387207 0.51271879673004150391 0.54927176237106323242 0.28334113955497741699 0.41893494129180908203 0.59994375705718994141 0.59995788335800170898 0.59058809280395507812 0.66221666336059570312 0.58687794208526611328 0.56826251745223999023 0.54873377084732055664 0.56842499971389770508 0.7264842987060546875 0.59252846240997314453 0.54722541570663452148 0.44837075471878051758 0.41344437003135681152 0.52279841899871826172 0.88767158985137939453 0.60050725936889648438 0.59485650062561035156 0.59753000736236572266 
0.26521933078765869141 0.3584715723991394043 0.76398235559463500977 0.30404561758041381836 0.65722173452377319336 0.46062681078910827637 0.24143692851066589355 0.33365449309349060059 0.623291015625 0.65550732612609863281 0.50375217199325561523 0.23027449846267700195 0.21899999678134918213 0.2668851315975189209 0.28050649166107177734 0.24450007081031799316 0.41356378793716430664 0.48271632194519042969 0.48959231376647949219 0.52237147092819213867 0.49091345071792602539 0.37054306268692016602 0.45288282632827758789 0.5162156224250793457 1.019547581672668457 0.8582973480224609375 0.52130019664764404297 0.51740920543670654297 0.28568544983863830566 0.43804243206977844238 0.0034040000755339860916 0.146162375807762146 0.0026346249505877494812 0.056324310600757598877 0.53822863101959228516 0.34460988640785217285 0.41516774892807006836 0.5894107818603515625 0.62710785865783691406 0.5871219635009765625 0.58284056186676025391 0.57182925939559936523 0.59533607959747314453 0.56129550933837890625 0.59776592254638671875 0.59465306997299194336 0.59302407503128051758 0.60438144207000732422 0.60352498292922973633 0.52151560783386230469 0.67451500892639160156 0.5274333953857421875 0.43133550882339477539 0.077344126999378204346 0.26429611444473266602 0.66196602582931518555 0.62340462207794189453 0.92065227031707763672 0.99121892452239990234 0.41571193933486938477 0.0388716869056224823 0.026438124477863311768 0.038873814046382904053 0.35952562093734741211 0.3682619929313659668 0.30948188900947570801 0.33463725447654724121 0.19656424224376678467 0.54515779018402099609 0.56951689720153808594 0.59569847583770751953 0.53751337528228759766 0.22858731448650360107 0.52372914552688598633 0.56010645627975463867 0.57122063636779785156 0.59771174192428588867 0.7171522974967956543 0.91443610191345214844 0.77778738737106323242 0.94114476442337036133 0.57745248079299926758 0.31518599390983581543 0.19092543423175811768 0.4720605015754699707 0.2532412409782409668 0.51019948720932006836 
0.2283522486686706543 0.65508055686950683594 0.88991504907608032227 0.44773912429809570312 0.49101331830024719238 0.58003574609756469727 0.06444333493709564209 0.45261651277542114258 0.64079469442367553711 0.63913977146148681641 1.0007170438766479492 0.18994911015033721924 0.21899999678134918213 0.40823036432266235352 0.49980717897415161133 0.22498011589050292969 0.52582657337188720703 0.44722118973731994629 0.48629719018936157227 0.47863900661468505859 0.96844339370727539062 0.39719036221504211426 0.4807586967945098877 0.51118135452270507812 1.182732701301574707 0.71714520454406738281 0.22548505663871765137 0.5399563908576965332 0.32765781879425048828 0.42867055535316467285 0.004583499860018491745 0.085825130343437194824 0.056324310600757598877 0.21899999678134918213 0.30710437893867492676 0.24376818537712097168 0.38457325100898742676 0.58755445480346679688 0.58640110492706298828 0.57073992490768432617 0.59063035249710083008 0.57379269599914550781 0.58208107948303222656 0.59581005573272705078 0.59495657682418823242 0.59902846813201904297 0.60689079761505126953 0.59897172451019287109 0.59636348485946655273 0.59814220666885375977 0.52814751863479614258 0.56628960371017456055 0.2258068770170211792 0.0062959999777376651764 0.010246999561786651611 0.26168218255043029785 0.59772694110870361328 0.49261838197708129883 0.41353580355644226074 0.37116757035255432129 0.45186901092529296875 0.45914432406425476074 0.18702180683612823486 0.22392049431800842285 0.35397100448608398438 0.17558112740516662598 0.093967564404010772705 0.19499193131923675537 0.66448652744293212891 0.59034377336502075195 0.60002845525741577148 0.38406586647033691406 0.23870804905891418457 0.39528307318687438965 0.48783823847770690918 0.56425291299819946289 0.59709489345550537109 0.58665442466735839844 0.63949298858642578125 0.59856659173965454102 0.60446476936340332031 0.52862155437469482422 0.39537307620048522949 0.55743545293807983398 0.63641065359115600586 0.45224717259407043457 0.6034457087516784668 
0.18193775415420532227 0.22452586889266967773 0.75021320581436157227 1.180014491081237793 0.39972388744354248047 0.60671675205230712891 0.70526748895645141602 0.23527637124061584473 0.53612434864044189453 0.79553383588790893555 0.48496043682098388672 0.59738641977310180664 0.47332262992858886719 0.21899999678134918213 0.16323266923427581787 0.093787498772144317627 0.38310471177101135254 0.51062017679214477539 0.48898193240165710449 0.4968160092830657959 1.1378096342086791992 0.50364637374877929688 0.51340544223785400391 0.49887770414352416992 0.79817795753479003906 0.37160119414329528809 0.42844229936599731445 0.4399433135986328125 0.70685356855392456055 0.29017117619514465332 0.3384577631950378418 0.36128312349319458008 0.24647282063961029053 0.15600624680519104004 0.21899999678134918213 0.21899999678134918213 0.36850088834762573242 0.58518970012664794922 0.65487009286880493164 0.66171252727508544922 0.5512135624885559082 0.59404969215393066406 0.59649133682250976562 0.59462279081344604492 0.59726858139038085938 0.57770329713821411133 0.59232109785079956055 0.59484887123107910156 0.59250146150588989258 0.59223836660385131836 0.62482064962387084961 0.51997393369674682617 0.077287003397941589355 0.007612999994307756424 0.042596749961376190186 0.41740104556083679199 0.81262159347534179688 0.2665169835090637207 0.42969337105751037598 0.65444779396057128906 0.75246661901473999023 0.84674459695816040039 0.60476803779602050781 0.10385587811470031738 0.40621143579483032227 0.50394141674041748047 0.6404374241828918457 0.43237701058387756348 0.71487444639205932617 0.60325199365615844727 0.60083746910095214844 0.38041231036186218262 0.3390776216983795166 0.022099999710917472839 0.24621525406837463379 0.55982261896133422852 0.74321860074996948242 0.94516301155090332031 0.59908628463745117188 0.60495656728744506836 0.60282951593399047852 0.60439896583557128906 0.60305285453796386719 0.60616803169250488281 0.60566133260726928711 0.6065114140510559082 0.60557901859283447266 
0.32612687349319458008 0.1558685004711151123 0.22757788002490997314 0.29476407170295715332 0.50887066125869750977 0.45118555426597595215 0.16649332642555236816 0.53310990333557128906 0.53723424673080444336 0.63872158527374267578 0.92898201942443847656 0.86161690950393676758 0.23566100001335144043 0.26541036367416381836 0.37593024969100952148 0.35819900035858154297 0.2560062408447265625 0.48701274394989013672 0.52130740880966186523 0.32945808768272399902 0.85889315605163574219 0.33310413360595703125 0.2009652554988861084 0.63410180807113647461 0.65822243690490722656 0.47146943211555480957 0.32013848423957824707 0.20011562108993530273 0.43208593130111694336 0.40259250998497009277 0.59626340866088867188 0.5882841944694519043 0.5761458277702331543 0.6069087982177734375 0.28919750452041625977 0.29986819624900817871 0.37068700790405273438 0.51992446184158325195 0.71756303310394287109 0.56779819726943969727 0.59660762548446655273 0.55161201953887939453 0.59634250402450561523 0.59050250053405761719 0.57326483726501464844 0.57605928182601928711 0.55088102817535400391 0.57953941822052001953 0.57176947593688964844 0.57702696323394775391 0.73405599594116210938 0.6553980708122253418 0.07530924677848815918 0.0010280000278726220131 0.4354235529899597168 0.84446531534194946289 0.3223247528076171875 0.21899999678134918213 0.62282454967498779297 0.60760295391082763672 0.67035430669784545898 0.53183698654174804688 0.76910567283630371094 0.18880118429660797119 0.73828613758087158203 0.67384952306747436523 0.54549324512481689453 0.34097599983215332031 0.6069844365119934082 0.59831649065017700195 0.59833431243896484375 0.60122841596603393555 0.76584410667419433594 0.56560295820236206055 0.34159561991691589355 0.53599417209625244141 0.50465071201324462891 0.60197931528091430664 0.60809993743896484375 0.6075661778450012207 0.60430812835693359375 0.60722827911376953125 0.60797280073165893555 0.60641485452651977539 0.60457891225814819336 0.60500901937484741211 0.60432100296020507812 
0.45288676023483276367 0.27958157658576965332 0.61038672924041748047 0.3991387486457824707 0.23099499940872192383 0.032225500792264938354 0.37196266651153564453 0.56779199838638305664 0.90297114849090576172 1.483571171760559082 0.9546788334846496582 0.93700498342514038086 0.24250392615795135498 0.48633137345314025879 0.51337105035781860352 0.21598657965660095215 0.33566990494728088379 0.21610060334205627441 0.13469675183296203613 0.37200498580932617188 0.55339998006820678711 0.038412127643823623657 0.15090575814247131348 0.46504124999046325684 1.0098204612731933594 0.62040895223617553711 0.45237624645233154297 0.598499298095703125 0.37798145413398742676 0.49772405624389648438 0.57504111528396606445 0.57664823532104492188 0.59764975309371948242 0.68995016813278198242 0.30170086026191711426 0.20993143320083618164 0.34689360857009887695 0.44405955076217651367 0.74334186315536499023 0.58747524023056030273 0.56649577617645263672 0.58795696496963500977 0.58393895626068115234 0.5888258814811706543 0.58757174015045166016 0.59673410654067993164 0.58183753490447998047 0.59372442960739135742 0.5963833928108215332 0.5948556065559387207 0.65911340713500976562 0.84266299009323120117 0.11200699955224990845 0.31374606490135192871 0.33656942844390869141 0.21899999678134918213 0.30711436271667480469 0.57145750522613525391 0.92228960990905761719 0.72178900241851806641 0.67087060213088989258 0.29726430773735046387 0.82171839475631713867 1.1412720680236816406 0.58206290006637573242 0.57148134708404541016 0.60319513082504272461 0.60584223270416259766 0.60345375537872314453 0.60070300102233886719 0.45386973023414611816 0.52753472328186035156 0.4788665473461151123 0.65633374452590942383 0.44873142242431640625 0.58912515640258789062 0.60455614328384399414 0.60365903377532958984 0.6072095036506652832 0.60612201690673828125 0.60590761899948120117 0.60563588142395019531 0.60346281528472900391 0.59949117898941040039 0.603076934814453125 0.59273105859756469727 0.60374224185943603516 
0.40817081928253173828 0.48430219292640686035 0.58583557605743408203 0.30641949176788330078 0.34148412942886352539 0.0010280000278726220131 0.26314619183540344238 0.29965269565582275391 0.16079510748386383057 1.3989229202270507812 1.1752997636795043945 1.5804618597030639648 0.48106411099433898926 0.43453142046928405762 0.53266340494155883789 0.21899999678134918213 0.44431275129318237305 0.35479259490966796875 0.28237920999526977539 0.16227100789546966553 1.1627831459045410156 0.0010280000278726220131 0.22708074748516082764 0.68165063858032226562 0.74569690227508544922 0.55626797676086425781 0.51639163494110107422 0.74695217609405517578 0.58616662025451660156 0.57863485813140869141 0.4870993196964263916 0.40032050013542175293 0.8931687474250793457 0.87539941072463989258 0.18836174905300140381 0.074526749551296234131 0.43805643916130065918 0.8662109375 0.7188460230827331543 0.58611643314361572266 0.57905566692352294922 0.59223639965057373047 0.59694665670394897461 0.88083136081695556641 0.97822493314743041992 0.84258574247360229492 0.79093843698501586914 1.0143989324569702148 0.79252392053604125977 1.1311477422714233398 0.58285570144653320312 0.36929461359977722168 0.44031363725662231445 0.29403012990951538086 0.35479387640953063965 0.93659031391143798828 1.3627356290817260742 1.1677507162094116211 1.3049682378768920898 1.3700194358825683594 1.0217850208282470703 0.63133490085601806641 0.59980249404907226562 0.60569012165069580078 0.60658663511276245117 0.60719496011734008789 0.60544490814208984375 0.60088503360748291016 0.59722906351089477539 0.34185948967933654785 0.038804877549409866333 0.519702911376953125 0.40584793686866760254 0.58229935169219970703 0.46429619193077087402 0.59873789548873901367 0.59861779212951660156 0.60656505823135375977 0.60659694671630859375 0.60463607311248779297 0.60281658172607421875 0.60399454832077026367 0.60042238235473632812 0.58768290281295776367 0.59528249502182006836 0.51705950498580932617 0.16692174971103668213 
0.11794912815093994141 0.2875035703182220459 0.3616943657398223877 0.4021898806095123291 0.18669074773788452148 0.18654036521911621094 0.076986372470855712891 0.12678736448287963867 0.0010280000278726220131 0.66975176334381103516 0.88970559835433959961 1.6287610530853271484 0.54897385835647583008 0.47234910726547241211 0.58442401885986328125 0.5460376739501953125 0.3978531956672668457 0.43918943405151367188 0.32042461633682250977 1.0882234573364257812 1.5247364044189453125 0.38447898626327514648 0.33742693066596984863 1.3243186473846435547 0.82058686017990112305 0.72592777013778686523 0.56010591983795166016 0.61401849985122680664 0.53804701566696166992 0.59344816207885742188 0.24907794594764709473 0.68781244754791259766 0.78062421083450317383 1.1406210660934448242 0.07442499697208404541 0.0010280000278726220131 0.45068100094795227051 0.3663183748722076416 0.62766945362091064453 0.97831112146377563477 0.66010242700576782227 0.59342437982559204102 0.60249495506286621094 0.60372906923294067383 0.94756299257278442383 0.73099887371063232422 0.59839445352554321289 0.65897935628890991211 0.66517937183380126953 0.91959857940673828125 0.85254132747650146484 1.2708010673522949219 1.3715757131576538086 0.98443913459777832031 0.66432088613510131836 0.92271208763122558594 0.73194706439971923828 0.37831598520278930664 0.66812753677368164062 1.0132999420166015625 0.60510605573654174805 0.60743862390518188477 0.60587412118911743164 0.60594940185546875 0.60329866409301757812 0.60645306110382080078 0.60605931282043457031 0.60623842477798461914 0.41792649030685424805 0.10845606774091720581 0.47541025280952453613 0.59586685895919799805 0.49457451701164245605 0.58508092164993286133 0.37396499514579772949 0.574031829833984375 0.59567332267761230469 0.59794473648071289062 0.59714984893798828125 0.57082539796829223633 0.57906651496887207031 0.5812778472900390625 0.59578573703765869141 0.59798634052276611328 0.59943544864654541016 0.25506249070167541504 0.30732098221778869629 
0.17532706260681152344 0.56095778942108154297 1.1324735879898071289 0.73162370920181274414 1.1083465814590454102 0.21740373969078063965 0.039660215377807617188 0.65987116098403930664 0.52963608503341674805 0.44323486089706420898 0.97282785177230834961 0.59163916110992431641 0.58381551504135131836 0.1680189967155456543 0.5471477508544921875 0.50092375278472900391 0.47736373543739318848 0.15949763357639312744 0.53113013505935668945 1.1826914548873901367 0.46352061629295349121 0.69268900156021118164 0.5881710052490234375 0.60069072246551513672 0.58398365974426269531 0.59441226720809936523 0.5992196202278137207 0.59070646762847900391 0.56925195455551147461 0.36326268315315246582 0.29920980334281921387 0.85320001840591430664 1.2023442983627319336 0.61189073324203491211 0.089543059468269348145 0.0010280000278726220131 0.17385119199752807617 0.42290350794792175293 0.59602141380310058594 0.6643307805061340332 0.6024983525276184082 0.60134559869766235352 0.60417520999908447266 0.6060161590576171875 0.59981656074523925781 0.60496664047241210938 0.59379947185516357422 0.59354400634765625 0.57916718721389770508 0.55595785379409790039 0.59650236368179321289 0.6024271845817565918 0.60893589258193969727 0.60724377632141113281 0.60873240232467651367 0.60576778650283813477 0.60592997074127197266 0.038804877549409866333 0.49453073740005493164 0.41699713468551635742 0.49148607254028320312 0.61069279909133911133 0.61062759160995483398 0.61144906282424926758 0.60865068435668945312 0.60666996240615844727 0.60304605960845947266 0.60263359546661376953 0.30239498615264892578 0.26495969295501708984 0.2494262009859085083 0.22768925130367279053 0.53949594497680664062 0.56696599721908569336 0.54040008783340454102 0.59256201982498168945 0.59115135669708251953 0.59213429689407348633 0.58856534957885742188 0.57527464628219604492 0.57883840799331665039 0.58585935831069946289 0.58903855085372924805 0.45264443755149841309 0.44635275006294250488 0.43689838051795959473 0.70779299736022949219 
0.3208516240119934082 0.80171996355056762695 0.93711858987808227539 0.91205805540084838867 0.96146506071090698242 0.99444776773452758789 0.30208346247673034668 0.54309535026550292969 0.88489234447479248047 0.57751840353012084961 0.47075068950653076172 0.58284759521484375 0.49238085746765136719 0.13726049661636352539 0.29751116037368774414 0.1993058323860168457 0.2918764948844909668 0.20917950570583343506 0.4486821591854095459 0.18566520512104034424 0.33489820361137390137 0.35426962375640869141 0.48780557513236999512 0.52570694684982299805 0.63997137546539306641 0.64147090911865234375 0.56832283735275268555 0.57428938150405883789 0.88430637121200561523 0.96474015712738037109 0.59157514572143554688 0.36611157655715942383 0.71577668190002441406 0.073511496186256408691 0.007612999994307756424 0.0010280000278726220131 0.24298188090324401855 0.61327087879180908203 0.59179937839508056641 0.59437572956085205078 0.6046733856201171875 0.60367023944854736328 0.37922132015228271484 0.60637819766998291016 0.60293066501617431641 0.59787726402282714844 0.58164739608764648438 0.59556871652603149414 0.58764111995697021484 0.58882403373718261719 0.59795343875885009766 0.60393911600112915039 0.60649633407592773438 0.60822099447250366211 0.61003226041793823242 0.2650273740291595459 0.03896218910813331604 0.039409939199686050415 0.4602679908275604248 0.0010280000278726220131 0.26714745163917541504 0.61177808046340942383 0.60984021425247192383 0.6097774505615234375 0.61335271596908569336 0.60982972383499145508 0.60482424497604370117 0.56403869390487670898 0.337917327880859375 0.14565011858940124512 0.072984874248504638672 0.038804877549409866333 0.57005590200424194336 0.57639431953430175781 0.59924584627151489258 0.59278225898742675781 0.58324068784713745117 0.58420723676681518555 0.55078053474426269531 0.58174574375152587891 0.58287769556045532227 0.58767962455749511719 0.59310680627822875977 0.47551274299621582031 0.52002424001693725586 0.92818593978881835938 1.0792567729949951172 
0.3357963860034942627 0.56951099634170532227 0.542835235595703125 0.065102934837341308594 0.42532810568809509277 0.55115491151809692383 0.41073131561279296875 0.65190863609313964844 0.73772001266479492188 0.63722360134124755859 0.41622412204742431641 0.44657614827156066895 0.25547230243682861328 0.82814484834671020508 0.32426401972770690918 0.2276694178581237793 0.38107642531394958496 0.29764443635940551758 0.50721132755279541016 0.51937150955200195312 0.48734745383262634277 0.48930832743644714355 0.34830701351165771484 0.4115410149097442627 0.38605812191963195801 0.7078094482421875 0.78202521800994873047 0.72580999135971069336 0.68266034126281738281 0.80237871408462524414 0.66250699758529663086 0.71676623821258544922 0.4437771141529083252 0.0062959999777376651764 0.0023449999280273914337 0.0010280000278726220131 0.043760936707258224487 0.63306766748428344727 0.5823834538459777832 0.6028594970703125 0.59776347875595092773 0.60559165477752685547 0.56982463598251342773 0.60738885402679443359 0.59937113523483276367 0.58403956890106201172 0.58517682552337646484 0.52555197477340698242 0.59512287378311157227 0.55974692106246948242 0.55974966287612915039 0.60472500324249267578 0.60477101802825927734 0.61158037185668945312 0.57234215736389160156 0.007612999994307756424 0.0023449999280273914337 0.081742875277996063232 0.30350220203399658203 0.0010280000278726220131 0.077344126999378204346 0.60914504528045654297 0.60682970285415649414 0.60339111089706420898 0.59708535671234130859 0.60825186967849731445 0.60674244165420532227 0.15221019089221954346 0.0010280000278726220131 0.44660720229148864746 0.33166068792343139648 0.39826500415802001953 0.59227907657623291016 0.60039377212524414062 0.60057818889617919922 0.59582501649856567383 0.59160000085830688477 0.59128361940383911133 0.65278679132461547852 0.59010612964630126953 0.65272492170333862305 0.59353905916213989258 0.596729278564453125 0.59761559963226318359 0.58941185474395751953 0.79000616073608398438 0.60258823633193969727 
0.4586823880672454834 0.49700361490249633789 0.40585130453109741211 0.065850935876369476318 0.33511850237846374512 0.46704995632171630859 0.29582101106643676758 0.66228151321411132812 0.46028557419776916504 0.40690261125564575195 0.20190674066543579102 0.096204087138175964355 0.38843718171119689941 0.36803740262985229492 0.38248080015182495117 0.44585281610488891602 0.47202152013778686523 0.28670918941497802734 0.28718587756156921387 0.17865993082523345947 0.36760532855987548828 0.21899999678134918213 0.27754649519920349121 0.40770438313484191895 0.5123087763786315918 0.47703024744987487793 0.45829787850379943848 0.83630073070526123047 0.7531788945198059082 0.99334537982940673828 0.7463238835334777832 0.45309162139892578125 0.46090856194496154785 0.072551503777503967285 0.3475576937198638916 0.39737287163734436035 0.31530451774597167969 0.56924736499786376953 0.5712146759033203125 0.58583998680114746094 0.60335040092468261719 0.60389244556427001953 0.55514508485794067383 0.60626637935638427734 0.59720003604888916016 0.59226661920547485352 0.58463788032531738281 0.56257009506225585938 0.37108981609344482422 0.59956526756286621094 0.59832537174224853516 0.56151539087295532227 0.45234200358390808105 0.53516805171966552734 0.42108619213104248047 0.07520650327205657959 0.0010280000278726220131 0.039309188723564147949 0.039409939199686050415 0.0010280000278726220131 0.0010280000278726220131 0.61010789871215820312 0.6054719090461730957 0.60737699270248413086 0.5594488978385925293 0.60365366935729980469 0.3805249333381652832 0.0010280000278726220131 0.18886199593544006348 0.41748306155204772949 0.60182982683181762695 0.59633576869964599609 0.59978461265563964844 0.58498442173004150391 0.48477917909622192383 0.3442821800708770752 0.59866148233413696289 0.78729671239852905273 1.269663691520690918 1.047011256217956543 0.72269165515899658203 0.59944182634353637695 0.60166847705841064453 0.60076636075973510742 0.59911054372787475586 0.60762268304824829102 0.60787069797515869141 
0.53711420297622680664 0.1402521282434463501 0.32128688693046569824 0.1838454902172088623 0.44567793607711791992 0.50416296720504760742 0.73712974786758422852 0.57814645767211914062 0.58068621158599853516 0.3249842226505279541 0.49617561697959899902 0.40440362691879272461 0.099314376711845397949 0.19175349175930023193 0.12363725155591964722 0.24232324957847595215 0.43276813626289367676 0.35862439870834350586 0.56764465570449829102 0.39063575863838195801 0.36237806081771850586 0.3818562626838684082 0.28939768671989440918 0.31552988290786743164 0.53144526481628417969 0.59619218111038208008 0.41265669465065002441 0.92194789648056030273 0.80566650629043579102 0.66422152519226074219 0.45842382311820983887 0.013880999758839607239 0.19933712482452392578 0.16354063153266906738 0.50996059179306030273 0.45149555802345275879 0.44853767752647399902 0.56969445943832397461 0.53277212381362915039 0.59709346294403076172 0.60483562946319580078 0.60581791400909423828 0.5473067164421081543 0.60272169113159179688 0.60426622629165649414 0.60280776023864746094 0.59856963157653808594 0.59972172975540161133 0.59992444515228271484 0.572040557861328125 0.29868587851524353027 0.52116566896438598633 0.59723067283630371094 0.60327011346817016602 0.60594308376312255859 0.55513179302215576172 0.38047492504119873047 0.61050230264663696289 0.11524750292301177979 0.075923621654510498047 0.37971642613410949707 0.5290177464485168457 0.56538987159729003906 0.5504792332649230957 0.51940363645553588867 0.4044183194637298584 0.26650294661521911621 0.0010280000278726220131 0.11460124701261520386 0.60404580831527709961 0.59184294939041137695 0.58531033992767333984 0.59446030855178833008 0.5946216583251953125 0.33212843537330627441 0.0063922498375177383423 0.014669249765574932098 0.59875386953353881836 0.60115617513656616211 0.59735214710235595703 0.58853620290756225586 0.60225838422775268555 0.59344756603240966797 0.59770661592483520508 0.60768914222717285156 0.60582470893859863281 0.60990822315216064453 
0.28901720046997070312 0.0010280000278726220131 0.0010280000278726220131 0.48763614892959594727 0.68116587400436401367 0.54682058095932006836 0.56783735752105712891 0.63513040542602539062 0.49837338924407958984 0.34918549656867980957 0.50369036197662353516 0.27637067437171936035 0.10121062397956848145 0.27371737360954284668 0.32917350530624389648 0.21899999678134918213 0.36627119779586791992 0.31104433536529541016 0.58872580528259277344 0.38580444455146789551 0.42572706937789916992 0.54533571004867553711 0.34277793765068054199 0.17632536590099334717 0.58318382501602172852 0.49088332056999206543 0.53040474653244018555 0.89095765352249145508 0.5925877690315246582 0.51743173599243164062 0.4074929356575012207 0.076662123203277587891 0.013880999758839607239 0.092816561460494995117 0.19802525639533996582 0.25315105915069580078 0.45448032021522521973 0.50976830720901489258 0.5795764923095703125 0.54594004154205322266 0.56381744146347045898 0.59543645381927490234 0.59612053632736206055 0.59302186965942382812 0.48784309625625610352 0.56155949831008911133 0.56441044807434082031 0.60252642631530761719 0.54148137569427490234 0.28966876864433288574 0.11381631344556808472 0.59974408149719238281 0.48811793327331542969 0.60363793373107910156 0.60243713855743408203 0.60349869728088378906 0.45419743657112121582 0.41631439328193664551 0.076859064400196075439 0.22453500330448150635 0.18780550360679626465 0.60569977760314941406 0.60744887590408325195 0.6045773625373840332 0.29308119416236877441 0.0010280000278726220131 0.0010280000278726220131 0.19034199416637420654 0.19031673669815063477 0.60194402933120727539 0.59786528348922729492 0.58187067508697509766 0.59105855226516723633 0.59491759538650512695 0.3731949925422668457 0.0014450000599026679993 0.33480307459831237793 0.59833085536956787109 0.60311418771743774414 0.60559165477752685547 0.59862703084945678711 0.59990060329437255859 0.60129624605178833008 0.59908640384674072266 0.60152387619018554688 0.53123694658279418945 0.45461773872375488281 
0.27054283022880554199 0.0010280000278726220131 0.0010280000278726220131 0.31126013398170471191 0.5757319331169128418 0.51965832710266113281 0.60961842536926269531 0.4455318152904510498 0.35529699921607971191 0.31784942746162414551 0.33514881134033203125 0.23078687489032745361 0.20618006587028503418 0.35207039117813110352 0.3494650721549987793 0.23054061830043792725 0.27218869328498840332 0.26280075311660766602 0.38569200038909912109 0.58682620525360107422 0.42074388265609741211 0.43255144357681274414 0.30761092901229858398 0.48985138535499572754 0.93476533889770507812 0.29676476120948791504 0.51052194833755493164 0.73950999975204467773 1.0606873035430908203 0.53638243675231933594 0.46288394927978515625 0.16931231319904327393 0.036172062158584594727 0.21269999444484710693 0.060442436486482620239 0.48802798986434936523 0.52771067619323730469 0.49279838800430297852 0.53952372074127197266 0.59761500358581542969 0.60530298948287963867 0.59849625825881958008 0.6032072901725769043 0.60092294216156005859 0.56766134500503540039 0.561237335205078125 0.34082254767417907715 0.37440448999404907227 0.0010280000278726220131 0.26568001508712768555 0.076195001602172851562 0.60720247030258178711 0.59498989582061767578 0.60418051481246948242 0.53208452463150024414 0.52918237447738647461 0.57035052776336669922 0.25418445467948913574 0.45491668581962585449 0.59857690334320068359 0.59915000200271606445 0.60080581903457641602 0.60361284017562866211 0.60261237621307373047 0.34139543771743774414 0.30470055341720581055 0.22858962416648864746 0.60579854249954223633 0.5217863917350769043 0.59537917375564575195 0.57214337587356567383 0.58714282512664794922 0.5906887054443359375 0.59101182222366333008 0.16990575194358825684 0.039764937013387680054 0.51690024137496948242 0.59916257858276367188 0.60594731569290161133 0.60526585578918457031 0.60493081808090209961 0.6034991145133972168 0.60545963048934936523 0.60175222158432006836 0.3786595761775970459 0.038899313658475875854 0.152135506272315979 
0.25216299295425415039 0.0010280000278726220131 0.0010280000278726220131 0.29857674241065979004 0.54596310853958129883 0.50687873363494873047 0.69309276342391967773 0.40275657176971435547 0.47758474946022033691 0.092557623982429504395 0.22800068557262420654 0.21899999678134918213 0.24237981438636779785 0.44192525744438171387 0.3508612513542175293 0.21899999678134918213 0.26708194613456726074 0.38207143545150756836 0.22159481048583984375 0.41998794674873352051 0.41925707459449768066 0.39199975132942199707 0.50066077709197998047 0.58617824316024780273 0.81000792980194091797 0.43002092838287353516 0.54171776771545410156 0.53773927688598632812 0.79642564058303833008 0.34942063689231872559 0.56018853187561035156 0.15526725351810455322 0.1271864473819732666 0.067551754415035247803 0.36635124683380126953 0.75442427396774291992 0.50121045112609863281 0.5300922393798828125 0.56311857700347900391 0.57251584529876708984 0.59893357753753662109 0.58151280879974365234 0.52094340324401855469 0.58859789371490478516 0.49128076434135437012 0.33993300795555114746 0.075897686183452606201 0.0010280000278726220131 0.0010280000278726220131 0.038461562246084213257 0.11507906019687652588 0.60454559326171875 0.60231417417526245117 0.60366362333297729492 0.60108214616775512695 0.60091340541839599609 0.60283130407333374023 0.60355132818222045898 0.58855551481246948242 0.59641814231872558594 0.6019656062126159668 0.59311687946319580078 0.59780859947204589844 0.60392558574676513672 0.60698282718658447266 0.60490727424621582031 0.59809184074401855469 0.6030057072639465332 0.59153258800506591797 0.59751129150390625 0.59299182891845703125 0.59170222282409667969 0.58819586038589477539 0.40560081601142883301 0.014651250094175338745 0.29730951786041259766 0.59215140342712402344 0.58764481544494628906 0.60515832901000976562 0.6031882166862487793 0.60587632656097412109 0.56981658935546875 0.60205060243606567383 0.60463201999664306641 0.60449779033660888672 0.60486942529678344727 0.30450150370597839355 
0.0010280000278726220131 0.0010280000278726220131 0.0010280000278726220131 0.37328451871871948242 0.523326873779296875 0.53674525022506713867 0.58629059791564941406 0.52240675687789916992 0.20701400935649871826 0.055521000176668167114 0.25802624225616455078 0.21899999678134918213 0.17303875088691711426 0.4847456514835357666 0.31414523720741271973 0.21899999678134918213 0.28847762942314147949 0.44708302617073059082 0.46218988299369812012 0.29392787814140319824 0.41280114650726318359 0.43042662739753723145 0.47688311338424682617 0.50227785110473632812 0.59999388456344604492 0.44312500953674316406 0.54658424854278564453 0.57623666524887084961 0.59109002351760864258 0.64918249845504760742 0.59329551458358764648 0.18565087020397186279 0.11868625134229660034 0.13572913408279418945 0.50033348798751831055 0.29892212152481079102 0.44728323817253112793 0.59554815292358398438 0.53417003154754638672 0.55085510015487670898 0.60502564907073974609 0.59683388471603393555 0.50383985042572021484 0.60643237829208374023 0.48277273774147033691 0.0010280000278726220131 0.0010280000278726220131 0.0010280000278726220131 0.0010280000278726220131 0.0010280000278726220131 0.075895123183727264404 0.60397386550903320312 0.60293936729431152344 0.60184687376022338867 0.59404897689819335938 0.60116463899612426758 0.60248237848281860352 0.59742373228073120117 0.52457201480865478516 0.59116899967193603516 0.59116899967193603516 0.58894175291061401367 0.59482914209365844727 0.59116899967193603516 0.60486447811126708984 0.59853225946426391602 0.58802825212478637695 0.6037508845329284668 0.59078890085220336914 0.59576928615570068359 0.58355212211608886719 0.57399088144302368164 0.52622675895690917969 0.058155000209808349609 0.0036619999445974826813 0.44788360595703125 0.56820648908615112305 0.60339075326919555664 0.59744501113891601562 0.30082312226295471191 0.30355513095855712891 0.22963736951351165771 0.38139012455940246582 0.60322785377502441406 0.60466414690017700195 0.60556352138519287109 0.0010280000278726220131 
