ncols        19
nrows        23
xllcorner    508536.404131802963
yllcorner    5265348.997906560078
cellsize     570.000000000000
NODATA_value -9999
0.11699999868869781494 0.11699999868869781494 0.11699999868869781494 0.11699999868869781494 0.11699999868869781494 0.11699999868869781494 0.11684210598468780518 0.29271391034126281738 0.11699999868869781494 0.11699999868869781494 0.11699999868869781494 0.11621052771806716919 0.56770414113998413086 0.44289320707321166992 2.687343597412109375 6.4531917572021484375 5.3677563667297363281 4.9195370674133300781 2.057491302490234375 
0.11699999868869781494 0.11699999868869781494 0.11699999868869781494 0.11699999868869781494 0.15340824425220489502 0.72354179620742797852 1.0450369119644165039 0.6054013371467590332 0.11699999868869781494 0.11684210598468780518 0.78762429952621459961 1.9753763675689697266 3.2893974781036376953 3.3397142887115478516 2.8201994895935058594 6.4678759574890136719 4.9792003631591796875 5.0907101631164550781 2.7919900417327880859 
0.11699999868869781494 0.11699999868869781494 0.11699999868869781494 0.14036172628402709961 1.7123924493789672852 2.3385298252105712891 1.1257176399230957031 0.11570082604885101318 0.14079940319061279297 1.0866464376449584961 4.5759530067443847656 3.5091545581817626953 3.5959963798522949219 4.0146594047546386719 3.6184055805206298828 4.2962956428527832031 3.5667328834533691406 2.60939788818359375 3.1436264514923095703 
0.11699999868869781494 0.11699999868869781494 0.11699999868869781494 0.6992359161376953125 2.603633880615234375 1.9346942901611328125 1.0541224479675292969 0.64674651622772216797 1.6084772348403930664 2.3863379955291748047 3.0727794170379638672 2.4650833606719970703 3.1571862697601318359 5.0243711471557617188 2.7643363475799560547 3.9468784332275390625 3.7385232448577880859 2.3795416355133056641 3.7258012294769287109 
0.11699999868869781494 0.11699999868869781494 0.18367847800254821777 1.9571998119354248047 2.3333439826965332031 2.3787167072296142578 1.9810998439788818359 2.3338222503662109375 2.1466975212097167969 1.2714895009994506836 2.5606539249420166016 2.2444765567779541016 4.0202002525329589844 2.9891355037689208984 3.4860026836395263672 1.9926625490188598633 3.4010281562805175781 1.8799022436141967773 1.7523773908615112305 
1.3153614997863769531 2.4398210048675537109 1.8220136165618896484 2.6902258396148681641 1.8221504688262939453 2.9670701026916503906 4.1276535987854003906 3.3685956001281738281 2.5349359512329101562 2.0311186313629150391 3.0981457233428955078 3.0836169719696044922 5.0428948402404785156 1.5052934885025024414 1.6195608377456665039 2.7054040431976318359 2.8047120571136474609 1.92790985107421875 2.5010447502136230469 
2.5155248641967773438 3.6995849609375 2.0683150291442871094 3.7765059471130371094 2.5510957241058349609 3.5424590110778808594 2.8975107669830322266 2.4721543788909912109 2.6391396522521972656 2.5349872112274169922 3.6161198616027832031 2.9854378700256347656 5.6973986625671386719 2.2144215106964111328 2.0644898414611816406 2.5546543598175048828 3.0279238224029541016 1.9172250032424926758 2.8313868045806884766 
3.4301340579986572266 3.0931293964385986328 2.7567183971405029297 3.2288146018981933594 3.6305918693542480469 2.8824169635772705078 2.8981072902679443359 4.8332581520080566406 4.06372833251953125 3.8618729114532470703 3.2001168727874755859 3.9078919887542724609 8.0880870819091796875 2.5315613746643066406 2.7548644542694091797 1.9724940061569213867 2.5365633964538574219 2.3639998435974121094 3.3217785358428955078 
4.0049648284912109375 4.0676474571228027344 2.7557935714721679688 3.6328458786010742188 3.2814888954162597656 3.5417387485504150391 3.3703064918518066406 2.4410989284515380859 3.09607696533203125 2.8536915779113769531 1.6427193880081176758 3.7552080154418945312 4.7846307754516601562 2.6122570037841796875 2.8026409149169921875 2.7343285083770751953 1.5793746709823608398 2.3685038089752197266 2.4736120700836181641 
3.0842037200927734375 3.6993033885955810547 3.5072717666625976562 2.8461966514587402344 3.9533777236938476562 2.7525889873504638672 3.4710788726806640625 2.3219399452209472656 2.0511262416839599609 2.6543524265289306641 1.0867761373519897461 1.9436087608337402344 4.9340872764587402344 3.8895833492279052734 3.5584809780120849609 2.6190133094787597656 2.1042735576629638672 2.3586270809173583984 1.9942585229873657227 
3.8508670330047607422 4.3233213424682617188 3.5814418792724609375 2.7120537757873535156 2.9311640262603759766 2.3022115230560302734 2.7212879657745361328 2.2272150516510009766 2.2595837116241455078 2.4140925407409667969 2.7135999202728271484 3.9264011383056640625 2.6433346271514892578 2.8215947151184082031 2.3693945407867431641 1.8221892118453979492 1.6457703113555908203 2.7570033073425292969 1.8730260133743286133 
3.4484648704528808594 3.8953773975372314453 2.2094166278839111328 3.0419106483459472656 3.2110347747802734375 1.4995138645172119141 0.73844879865646362305 1.3290523290634155273 1.9349752664566040039 3.1406524181365966797 2.8141047954559326172 3.5378482341766357422 3.7598719596862792969 3.3818271160125732422 3.155254364013671875 0.55638223886489868164 1.437328338623046875 2.1540446281433105469 1.831151127815246582 
4.1852250099182128906 2.1494221687316894531 2.4275333881378173828 2.1984994411468505859 2.0304229259490966797 1.2272697687149047852 0.66817289590835571289 0.65468859672546386719 1.179678797721862793 2.8470108509063720703 2.7722139358520507812 3.2346425056457519531 4.041233062744140625 3.6178770065307617188 2.8338255882263183594 2.8261225223541259766 1.6616250276565551758 2.2908685207366943359 2.9153962135314941406 
3.910923004150390625 2.9470562934875488281 3.2825984954833984375 2.3581874370574951172 2.8717257976531982422 2.9042479991912841797 2.7891387939453125 1.8320804834365844727 2.387630462646484375 3.9244720935821533203 1.1811758279800415039 1.6303654909133911133 3.55335235595703125 4.3804306983947753906 3.5198662281036376953 2.2269647121429443359 3.0803117752075195312 2.5437877178192138672 2.2720267772674560547 
3.0398180484771728516 2.9869470596313476562 2.3913426399230957031 1.7149097919464111328 5.4241180419921875 3.6119050979614257812 2.5777623653411865234 1.4498040676116943359 2.7325723171234130859 2.9158906936645507812 1.6878988742828369141 3.0204608440399169922 3.0909147262573242188 4.2291011810302734375 2.8463075160980224609 2.9572923183441162109 2.6832323074340820312 4.0185551643371582031 4.4696245193481445312 
3.1709272861480712891 2.0868420600891113281 0.91001802682876586914 3.4057137966156005859 3.1555643081665039062 2.8808331489562988281 1.3369141817092895508 2.4743967056274414062 1.42461395263671875 2.5960445404052734375 2.6338562965393066406 1.8212202787399291992 3.6258800029754638672 2.9729444980621337891 3.3936245441436767578 3.4892055988311767578 4.1234383583068847656 5.2570576667785644531 3.1038711071014404297 
2.5314321517944335938 2.5926072597503662109 1.6261566877365112305 2.8037550449371337891 4.0033245086669921875 2.6994433403015136719 1.5193898677825927734 2.3202118873596191406 2.4324288368225097656 2.6035308837890625 2.5949530601501464844 3.0391178131103515625 3.1599330902099609375 2.7608437538146972656 3.5929577350616455078 3.1756250858306884766 3.7124676704406738281 3.3004956245422363281 3.3812539577484130859 
2.4535400867462158203 2.4477877616882324219 2.2066273689270019531 1.9374749660491943359 2.9133000373840332031 2.0765817165374755859 1.1583460569381713867 1.7556109428405761719 2.6919531822204589844 2.7981011867523193359 2.7103338241577148438 3.1984758377075195312 1.7944265604019165039 2.9951198101043701172 3.5542519092559814453 2.8724343776702880859 3.2965667247772216797 2.3261637687683105469 2.8539981842041015625 
2.1128358840942382812 1.6422926187515258789 0.61138051748275756836 2.5177800655364990234 3.2600729465484619141 0.93338227272033691406 0.53674960136413574219 2.8843348026275634766 2.91436004638671875 2.0623068809509277344 2.3887467384338378906 2.5553948879241943359 1.9773895740509033203 2.8596749305725097656 2.5790319442749023438 2.9088513851165771484 3.5845346450805664062 2.9544177055358886719 2.7905926704406738281 
2.6183841228485107422 2.3056316375732421875 1.7831952571868896484 2.5507259368896484375 3.0106687545776367188 2.9260632991790771484 1.5579688549041748047 2.1297557353973388672 2.881862640380859375 2.8041479587554931641 2.9646942615509033203 1.8374577760696411133 2.6197023391723632812 2.0488717555999755859 2.6435503959655761719 2.4001481533050537109 3.1570100784301757812 2.7795236110687255859 2.7018556594848632812 
2.7753453254699707031 1.9818630218505859375 2.8292779922485351562 2.6134119033813476562 2.8893845081329345703 3.058319091796875 3.1591305732727050781 1.7537245750427246094 2.9664494991302490234 3.1304514408111572266 3.4953632354736328125 2.93114471435546875 3.1277964115142822266 2.9570038318634033203 2.1069829463958740234 2.5436036586761474609 2.8051195144653320312 2.6920335292816162109 2.5783669948577880859 
1.7951654195785522461 3.0778737068176269531 2.8905882835388183594 2.1777107715606689453 2.2704737186431884766 3.1332733631134033203 3.5939474105834960938 2.2395124435424804688 2.7811503410339355469 2.7244019508361816406 2.3694834709167480469 2.1350238323211669922 1.3915040493011474609 2.3487911224365234375 1.6945525407791137695 2.3901484012603759766 3.00359344482421875 2.8166501522064208984 2.4522099494934082031 
1.3498120307922363281 2.7059416770935058594 1.7709387540817260742 1.8838754892349243164 2.5447547435760498047 3.1745517253875732422 3.7088570594787597656 2.7008566856384277344 2.7369914054870605469 1.8419528007507324219 1.1464806795120239258 2.7641255855560302734 2.7340068817138671875 2.7622816562652587891 2.78833770751953125 1.9704993963241577148 2.69348907470703125 2.5003993511199951172 1.972714543342590332 
