ncols        19
nrows        23
xllcorner    508536.404131802963
yllcorner    5265348.997906560078
cellsize     570.000000000000
NODATA_value -9999
0.1230000033974647522 0.1230000033974647522 0.1230000033974647522 0.1230000033974647522 0.1230000033974647522 0.1230000033974647522 0.12390027940273284912 0.43447095155715942383 0.1230000033974647522 0.1230000033974647522 0.1230000033974647522 0.12750138342380523682 1.286233067512512207 1.2350624799728393555 3.4909584522247314453 6.321537017822265625 5.5027093887329101562 4.9872264862060546875 2.4291749000549316406 
0.1230000033974647522 0.1230000033974647522 0.1230000033974647522 0.1230000033974647522 0.24108175933361053467 1.4014159440994262695 1.6717593669891357422 0.95638728141784667969 0.1230000033974647522 0.12390027940273284912 1.7013036012649536133 3.4997377395629882812 4.4826030731201171875 4.9178442955017089844 3.8826794624328613281 6.0594758987426757812 5.9661612510681152344 5.397350311279296875 3.4026112556457519531 
0.1230000033974647522 0.1230000033974647522 0.1230000033974647522 0.20722626149654388428 3.5960597991943359375 4.7856850624084472656 2.2551696300506591797 0.12744045257568359375 0.20253928005695343018 1.9869514703750610352 5.5806665420532226562 4.4145917892456054688 4.7293992042541503906 5.5442953109741210938 4.4765462875366210938 4.5644979476928710938 4.142650604248046875 4.392578125 3.8628797531127929688 
0.1230000033974647522 0.1230000033974647522 0.1230000033974647522 1.4978653192520141602 5.6035923957824707031 3.5104815959930419922 1.6625233888626098633 1.3414837121963500977 2.4905533790588378906 3.3743252754211425781 3.8643803596496582031 3.1503756046295166016 4.6588749885559082031 5.4831762313842773438 4.3358559608459472656 4.5328001976013183594 4.6651754379272460938 4.3244624137878417969 4.76996612548828125 
0.1230000033974647522 0.1230000033974647522 0.35872820019721984863 3.9001929759979248047 3.9079930782318115234 3.3969881534576416016 3.5470271110534667969 4.0887804031372070312 3.6676278114318847656 2.9198560714721679688 4.9918947219848632812 3.6208560466766357422 5.2265543937683105469 4.7679696083068847656 4.9399313926696777344 4.5023441314697265625 4.7980465888977050781 3.7823436260223388672 4.220401763916015625 
1.9842534065246582031 3.4271991252899169922 4.6119208335876464844 5.5988945960998535156 3.4616413116455078125 3.5392928123474121094 4.6214423179626464844 3.9297463893890380859 4.9705915451049804688 3.9758884906768798828 5.8745961189270019531 4.5314469337463378906 5.4278497695922851562 2.6175119876861572266 3.1159653663635253906 5.7035999298095703125 5.4963173866271972656 4.1541109085083007812 6.1360111236572265625 
3.9292514324188232422 5.5715017318725585938 4.7597775459289550781 10.06781768798828125 5.0663723945617675781 4.1057033538818359375 3.9377787113189697266 3.3273725509643554688 3.6455152034759521484 3.9309360980987548828 8.6471223831176757812 5.5167646408081054688 5.4610834121704101562 3.8756237030029296875 3.3014166355133056641 4.4714417457580566406 7.0324902534484863281 4.6015610694885253906 7.7694988250732421875 
4.6707372665405273438 4.7414121627807617188 4.7867550849914550781 7.7242341041564941406 6.7577028274536132812 3.9559462070465087891 4.8926739692687988281 5.6879820823669433594 4.45484161376953125 4.2974953651428222656 6.1615467071533203125 5.1859841346740722656 7.4875288009643554688 4.6060762405395507812 5.1510372161865234375 3.1562433242797851562 6.1247167587280273438 6.5368165969848632812 8.1213130950927734375 
4.6900172233581542969 5.0318059921264648438 5.07219696044921875 9.04827880859375 5.0132951736450195312 4.8235325813293457031 4.2994642257690429688 4.04212188720703125 4.8935756683349609375 4.184276580810546875 2.9708619117736816406 5.3571677207946777344 5.8822102546691894531 4.3522410392761230469 4.9459772109985351562 5.5600843429565429688 3.1319782733917236328 5.9464473724365234375 5.2719163894653320312 
5.4571537971496582031 5.421573638916015625 4.7661762237548828125 5.0269136428833007812 5.8569426536560058594 5.1655125617980957031 5.2992496490478515625 4.206050872802734375 3.4834842681884765625 4.2239880561828613281 3.462505340576171875 3.4938874244689941406 4.6165914535522460938 6.7993988990783691406 5.26123809814453125 5.3025722503662109375 4.3892264366149902344 5.3986811637878417969 6.9144864082336425781 
9.9580602645874023438 5.8155269622802734375 5.3168807029724121094 4.6954565048217773438 6.160358428955078125 4.1226892471313476562 4.1129746437072753906 4.5700311660766601562 3.6898722648620605469 4.3018021583557128906 4.1919770240783691406 4.6649332046508789062 3.8570988178253173828 5.1177492141723632812 4.3543210029602050781 3.7611811161041259766 3.6168351173400878906 5.479778289794921875 3.6279323101043701172 
7.1428580284118652344 5.6379842758178710938 4.5633053779602050781 4.5072646141052246094 4.6243996620178222656 1.9723341464996337891 1.3521127700805664062 2.3763864040374755859 2.6052923202514648438 4.4279036521911621094 4.5167040824890136719 3.9741919040679931641 4.0158820152282714844 4.6733903884887695312 4.3034229278564453125 1.3225408792495727539 3.1844654083251953125 4.0480046272277832031 2.7626409530639648438 
5.299694061279296875 3.7324662208557128906 4.151645660400390625 3.7274787425994873047 3.8191807270050048828 2.9531307220458984375 1.5219596624374389648 1.2508889436721801758 2.0191807746887207031 4.1515040397644042969 4.3602795600891113281 6.3747873306274414062 5.14543914794921875 5.11480712890625 4.545497894287109375 3.7544693946838378906 2.9586501121520996094 3.68658447265625 5.4697446823120117188 
5.4852175712585449219 4.190006256103515625 4.5287508964538574219 4.5501432418823242188 4.1344790458679199219 4.015216827392578125 3.3566787242889404297 2.3581202030181884766 4.1246118545532226562 9.7739887237548828125 2.2806537151336669922 3.4780149459838867188 5.2668538093566894531 6.3831572532653808594 5.4218187332153320312 3.9644844532012939453 7.3095088005065917969 5.7049570083618164062 5.6275968551635742188 
5.4997014999389648438 4.456027984619140625 4.2703442573547363281 6.3639979362487792969 6.4305410385131835938 6.8433523178100585938 4.6167268753051757812 3.5239474773406982422 5.6248235702514648438 6.1484375 3.6242082118988037109 4.9618296623229980469 5.2163338661193847656 5.7925882339477539062 4.1387524604797363281 6.6059370040893554688 6.4917435646057128906 8.4228572845458984375 9.1293554306030273438 
5.8477215766906738281 2.8040795326232910156 2.2852406501770019531 5.6967148780822753906 4.8454799652099609375 5.3020458221435546875 4.1439085006713867188 5.0349440574645996094 2.6618719100952148438 4.1530146598815917969 5.3303256034851074219 4.5247793197631835938 5.2068438529968261719 5.8111615180969238281 4.6734671592712402344 6.8405408859252929688 5.9058122634887695312 7.1934685707092285156 7.5303106307983398438 
5.1812434196472167969 4.8062286376953125 6.3880410194396972656 4.0057482719421386719 5.2104086875915527344 4.6015043258666992188 3.8990530967712402344 4.1588420867919921875 3.7900567054748535156 4.2138395309448242188 4.9016747474670410156 5.0385789871215820312 6.8271384239196777344 4.7542014122009277344 6.873722076416015625 6.8372321128845214844 8.8652772903442382812 8.0835771560668945312 8.6649408340454101562 
4.3702082633972167969 4.5190329551696777344 3.3198723793029785156 4.9570016860961914062 4.3488631248474121094 3.7935094833374023438 2.5404913425445556641 3.0068411827087402344 4.5855040550231933594 4.9563117027282714844 4.5643186569213867188 6.7555265426635742188 4.0796661376953125 3.9215891361236572266 5.5113534927368164062 5.4157633781433105469 6.8257246017456054688 4.3379116058349609375 5.4658398628234863281 
4.0128083229064941406 2.3992712497711181641 1.7907897233963012695 4.9211955070495605469 4.8230986595153808594 1.5353749990463256836 1.1606340408325195312 4.5922536849975585938 4.797840118408203125 3.7479555606842041016 5.0923027992248535156 4.1755251884460449219 3.1617484092712402344 4.5441417694091796875 4.5110888481140136719 4.8645110130310058594 7.0461750030517578125 5.3708124160766601562 4.4345083236694335938 
3.997898101806640625 4.2520642280578613281 6.4548439979553222656 5.0462017059326171875 5.6093392372131347656 3.7986834049224853516 2.9926431179046630859 4.6047387123107910156 4.5961589813232421875 4.8548030853271484375 5.2427468299865722656 3.0020127296447753906 4.70784759521484375 3.5743861198425292969 4.6420931816101074219 4.0861744880676269531 4.7510976791381835938 5.5038123130798339844 5.6877298355102539062 
4.4148106575012207031 3.1617667675018310547 4.7660403251647949219 4.9384164810180664062 4.494937896728515625 4.4264726638793945312 4.702667236328125 2.8326046466827392578 4.2606959342956542969 4.5505876541137695312 4.9016194343566894531 5.3251466751098632812 4.62102508544921875 5.240116119384765625 3.6855397224426269531 4.3082785606384277344 4.5714359283447265625 4.7210383415222167969 4.3288588523864746094 
3.5583727359771728516 5.5541720390319824219 5.6319088935852050781 5.0244441032409667969 5.6873393058776855469 5.2693085670471191406 7.2589631080627441406 4.8390598297119140625 4.7275977134704589844 4.7072429656982421875 3.9661371707916259766 4.2658901214599609375 3.0543854236602783203 4.9002242088317871094 3.2970900535583496094 3.7002809047698974609 4.3980236053466796875 4.2788128852844238281 4.3023009300231933594 
2.6609160900115966797 5.1780652999877929688 5.3664236068725585938 6.1176466941833496094 5.5661416053771972656 5.2857222557067871094 8.5992870330810546875 5.2798151969909667969 5.3498668670654296875 3.8904955387115478516 2.3674564361572265625 6.0109381675720214844 5.039707183837890625 6.0042796134948730469 4.9548177719116210938 3.22772979736328125 4.6442060470581054688 4.8244199752807617188 3.9668684005737304688 
