ncols        19
nrows        23
xllcorner    508536.404131802963
yllcorner    5265348.997906560078
cellsize     570.000000000000
NODATA_value -9999
0.0049999998882412910461 0.0049999998882412910461 0.0049999998882412910461 0.0049999998882412910461 0.0049999998882412910461 0.0049999998882412910461 0.0050554014742374420166 0.026430856436491012573 0.0049999998882412910461 0.0049999998882412910461 0.0049999998882412910461 0.0052770082838833332062 0.092721246182918548584 0.10618445277214050293 0.2446279376745223999 0.43776234984397888184 0.3705990910530090332 0.31689807772636413574 0.18547636270523071289 
0.0049999998882412910461 0.0049999998882412910461 0.0049999998882412910461 0.0049999998882412910461 0.01470006164163351059 0.090012677013874053955 0.1124548688530921936 0.074297167360782623291 0.0049999998882412910461 0.0050554014742374420166 0.13110466301441192627 0.24913033843040466309 0.28971004486083984375 0.32734447717666625977 0.21700906753540039062 0.39674535393714904785 0.38068130612373352051 0.36602330207824707031 0.25033044815063476562 
0.0049999998882412910461 0.0049999998882412910461 0.0049999998882412910461 0.011814814992249011993 0.20020891726016998291 0.2514476478099822998 0.14170062541961669922 0.0053047090768814086914 0.011510105803608894348 0.1237597540020942688 0.37252008914947509766 0.32329127192497253418 0.27673351764678955078 0.35653442144393920898 0.28460633754730224609 0.28852158784866333008 0.25817033648490905762 0.33972862362861633301 0.2903677523136138916 
0.0049999998882412910461 0.0049999998882412910461 0.0049999998882412910461 0.10757731646299362183 0.34944328665733337402 0.26298031210899353027 0.12646597623825073242 0.087038956582546234131 0.16308327019214630127 0.22667810320854187012 0.2805099785327911377 0.22723506391048431396 0.33401897549629211426 0.33823439478874206543 0.27457189559936523438 0.27742174267768859863 0.2849114835262298584 0.35980379581451416016 0.32139408588409423828 
0.0049999998882412910461 0.0049999998882412910461 0.025775507092475891113 0.25516939163208007812 0.24416859447956085205 0.2411044389009475708 0.30070546269416809082 0.2662264704704284668 0.25800940394401550293 0.24907569587230682373 0.39213097095489501953 0.26540529727935791016 0.35960519313812255859 0.22545225918292999268 0.28978109359741210938 0.34144166111946105957 0.33370327949523925781 0.30464372038841247559 0.36296752095222473145 
0.136590614914894104 0.27896550297737121582 0.37330046296119689941 0.34509146213531494141 0.22695854306221008301 0.24381521344184875488 0.30223646759986877441 0.27387693524360656738 0.37996187806129455566 0.34710958600044250488 0.50907194614410400391 0.30893707275390625 0.35564634203910827637 0.17227034270763397217 0.21686683595180511475 0.46122914552688598633 0.38664388656616210938 0.3554344475269317627 0.47825950384140014648 
0.30986103415489196777 0.45273104310035705566 0.34732148051261901855 0.82574647665023803711 0.36639460921287536621 0.29227605462074279785 0.24905818700790405273 0.2236118018627166748 0.28252470493316650391 0.32843860983848571777 0.72300362586975097656 0.43174380064010620117 0.34584176540374755859 0.26796621084213256836 0.21065749228000640869 0.31443101167678833008 0.59070354700088500977 0.42410516738891601562 0.67655360698699951172 
0.37254735827445983887 0.35529738664627075195 0.3588390648365020752 0.65432971715927124023 0.52204245328903198242 0.24017149209976196289 0.3367608487606048584 0.39050966501235961914 0.28826972842216491699 0.29930335283279418945 0.49722930788993835449 0.37302747368812561035 0.47988200187683105469 0.35857558250427246094 0.38756698369979858398 0.2397797703742980957 0.47543710470199584961 0.59861832857131958008 0.65004611015319824219 
0.30876129865646362305 0.3554121553897857666 0.45139521360397338867 0.77736485004425048828 0.36277398467063903809 0.32668638229370117188 0.32799780368804931641 0.36367580294609069824 0.28836846351623535156 0.31167906522750854492 0.24751621484756469727 0.42840635776519775391 0.38094955682754516602 0.32358214259147644043 0.36789980530738830566 0.47443574666976928711 0.19706530869007110596 0.48432990908622741699 0.31427666544914245605 
0.51568526029586791992 0.41162815690040588379 0.30528947710990905762 0.4082762300968170166 0.42452007532119750977 0.39570596814155578613 0.39713498950004577637 0.35895261168479919434 0.25350832939147949219 0.3340638577938079834 0.32377579808235168457 0.31067949533462524414 0.3112697303295135498 0.54708647727966308594 0.37808457016944885254 0.40672475099563598633 0.33360901474952697754 0.42806869745254516602 0.60354942083358764648 
0.83694881200790405273 0.42990702390670776367 0.38983455300331115723 0.36123830080032348633 0.54643303155899047852 0.33573108911514282227 0.32261180877685546875 0.34799134731292724609 0.26993185281753540039 0.32228791713714599609 0.37187343835830688477 0.31891870498657226562 0.28045350313186645508 0.38653516769409179688 0.32919198274612426758 0.24252133071422576904 0.26849815249443054199 0.41443911194801330566 0.25575152039527893066 
0.61782222986221313477 0.44680449366569519043 0.3240375816822052002 0.32329270243644714355 0.35359027981758117676 0.14265649020671844482 0.096354015171527862549 0.17477023601531982422 0.15815080702304840088 0.31883990764617919922 0.24678552150726318359 0.24011082947254180908 0.26671576499938964844 0.34835091233253479004 0.29249364137649536133 0.10132282227277755737 0.19948816299438476562 0.29166084527969360352 0.18376465141773223877 
0.41019654273986816406 0.27365100383758544922 0.27262645959854125977 0.2597878873348236084 0.2566140294075012207 0.22488859295845031738 0.11888626962900161743 0.084761433303356170654 0.13696917891502380371 0.2756112515926361084 0.2781867682933807373 0.53244137763977050781 0.36714318394660949707 0.36076933145523071289 0.34699091315269470215 0.23504096269607543945 0.21876837313175201416 0.27283358573913574219 0.45537832379341125488 
0.42786568403244018555 0.26554438471794128418 0.31433153152465820312 0.32173624634742736816 0.24534523487091064453 0.28902527689933776855 0.21846944093704223633 0.16490285098552703857 0.28883376717567443848 0.78377020359039306641 0.15629123151302337646 0.25911319255828857422 0.3528346717357635498 0.48233336210250854492 0.39716762304306030273 0.31720471382141113281 0.57664573192596435547 0.4774170219898223877 0.48196017742156982422 
0.47666651010513305664 0.37938988208770751953 0.33848094940185546875 0.61596214771270751953 0.46893718838691711426 0.57098656892776489258 0.37278005480766296387 0.31182974576950073242 0.44087058305740356445 0.51450175046920776367 0.28789573907852172852 0.35577800869941711426 0.39658775925636291504 0.4130337834358215332 0.31096446514129638672 0.56980544328689575195 0.53538250923156738281 0.70757067203521728516 0.76216334104537963867 
0.53743565082550048828 0.18441532552242279053 0.17552478611469268799 0.4187285304069519043 0.34163254499435424805 0.48932054638862609863 0.37873047590255737305 0.41924327611923217773 0.19301296770572662354 0.23122259974479675293 0.37455093860626220703 0.31838393211364746094 0.31594124436378479004 0.43670225143432617188 0.33732673525810241699 0.55256849527359008789 0.46334218978881835938 0.56220406293869018555 0.71087586879730224609 
0.41934669017791748047 0.36727806925773620605 0.61230754852294921875 0.29391428828239440918 0.3650182187557220459 0.38847720623016357422 0.35796308517456054688 0.30759987235069274902 0.21237929165363311768 0.2220462411642074585 0.26130330562591552734 0.3085874021053314209 0.52166384458541870117 0.3363946080207824707 0.53407204151153564453 0.45710840821266174316 0.73357051610946655273 0.7332032322883605957 0.78622108697891235352 
0.28151187300682067871 0.33575803041458129883 0.2547397315502166748 0.44540196657180786133 0.33798721432685852051 0.28008544445037841797 0.18646234273910522461 0.22495071589946746826 0.2629553675651550293 0.26232391595840454102 0.24166224896907806396 0.4238383173942565918 0.33336520195007324219 0.27253314852714538574 0.36745777726173400879 0.28346574306488037109 0.56986385583877563477 0.31702303886413574219 0.34232303500175476074 
0.31751847267150878906 0.16934126615524291992 0.14641751348972320557 0.43609982728958129883 0.38621488213539123535 0.10397979617118835449 0.081648580729961395264 0.30844834446907043457 0.31597879528999328613 0.19819347560405731201 0.26108601689338684082 0.21985207498073577881 0.19163382053375244141 0.25806310772895812988 0.23223607242107391357 0.25959792733192443848 0.55557990074157714844 0.41896301507949829102 0.30529475212097167969 
0.29795423150062561035 0.32221010327339172363 0.62328577041625976562 0.48278987407684326172 0.51502889394760131836 0.28663757443428039551 0.21468809247016906738 0.3959134519100189209 0.29538795351982116699 0.24380263686180114746 0.28638005256652832031 0.21561837196350097656 0.34364780783653259277 0.25234532356262207031 0.29792517423629760742 0.31004008650779724121 0.26773464679718017578 0.32212734222412109375 0.27757284045219421387 
0.33778089284896850586 0.24682840704917907715 0.36722061038017272949 0.33334535360336303711 0.30534350872039794922 0.29013773798942565918 0.32544219493865966797 0.20619609951972961426 0.27086731791496276855 0.26020783185958862305 0.29294824600219726562 0.33040663599967956543 0.25688195228576660156 0.21894143521785736084 0.17912811040878295898 0.28049328923225402832 0.25813186168670654297 0.24698407948017120361 0.23905505239963531494 
0.27794024348258972168 0.46890854835510253906 0.47234925627708435059 0.42478665709495544434 0.47996637225151062012 0.39803618192672729492 0.57933980226516723633 0.38645735383033752441 0.25468522310256958008 0.22470118105411529541 0.22210943698883056641 0.17817057669162750244 0.1350005418062210083 0.18878984451293945312 0.15745781362056732178 0.25147232413291931152 0.28433716297149658203 0.23628790676593780518 0.18042112886905670166 
0.22964105010032653809 0.4351978302001953125 0.49980741739273071289 0.55476194620132446289 0.49878934025764465332 0.3891423344612121582 0.68974459171295166016 0.4046643674373626709 0.2910232841968536377 0.17426082491874694824 0.11395755410194396973 0.20390577614307403564 0.20808465778827667236 0.20228874683380126953 0.26770988106727600098 0.24819697439670562744 0.22254003584384918213 0.18800851702690124512 0.15357103943824768066 
