ncols        19
nrows        23
xllcorner    508536.404131802963
yllcorner    5265348.997906560078
cellsize     570.000000000000
NODATA_value -9999
0.0053280000574886798859 0.0053280000574886798859 0.0053280000574886798859 0.0053280000574886798859 0.0053280000574886798859 0.0053280000574886798859 0.0055586704984307289124 0.13011880218982696533 0.0053280000574886798859 0.0053280000574886798859 0.0053280000574886798859 0.0064813517965376377106 0.33465483784675598145 0.22723190486431121826 1.8903751373291015625 3.5102956295013427734 3.187519073486328125 3.0990855693817138672 1.4681123495101928711 
0.0053280000574886798859 0.0053280000574886798859 0.0053280000574886798859 0.0053280000574886798859 0.0079331081360578536987 0.50293517112731933594 0.66980636119842529297 0.48208472132682800293 0.0053280000574886798859 0.0055586704984307289124 0.39698907732963562012 1.7595802545547485352 2.6385405063629150391 2.6014816761016845703 2.3895902633666992188 3.7465276718139648438 3.3993988037109375 3.2874016761779785156 2.0718250274658203125 
0.0053280000574886798859 0.0053280000574886798859 0.0053280000574886798859 0.0084405429661273956299 1.5777492523193359375 2.4288640022277832031 1.052074432373046875 0.0062823048792779445648 0.0072896066121757030487 0.91189062595367431641 3.1403844356536865234 3.07738494873046875 2.8886313438415527344 3.2566134929656982422 2.6598558425903320312 2.842975616455078125 2.4922184944152832031 1.6937432289123535156 2.4950792789459228516 
0.0053280000574886798859 0.0053280000574886798859 0.0053280000574886798859 0.36030560731887817383 1.9938716888427734375 1.5445059537887573242 0.74585038423538208008 0.3136361539363861084 1.2538232803344726562 1.9405723810195922852 2.2867372035980224609 1.6860136985778808594 2.0291707515716552734 3.6501405239105224609 2.3837301731109619141 2.7608385086059570312 2.8084495067596435547 1.8749163150787353516 2.8520627021789550781 
0.0053280000574886798859 0.0053280000574886798859 0.04286834225058555603 1.5956548452377319336 2.4701523780822753906 1.8684012889862060547 1.2834677696228027344 2.1124505996704101562 1.5054647922515869141 0.85798525810241699219 2.2236585617065429688 1.6205250024795532227 3.2425620555877685547 3.1635065078735351562 2.9604189395904541016 1.3946886062622070312 2.3749468326568603516 1.6450991630554199219 1.1892503499984741211 
1.0803103446960449219 1.9214344024658203125 1.0156501531600952148 2.2982282638549804688 1.6870517730712890625 2.1236982345581054688 2.7115864753723144531 2.3007516860961914062 1.661366581916809082 1.7817904949188232422 2.5850775241851806641 2.9725661277770996094 3.6643571853637695312 1.4624558687210083008 1.5777860879898071289 1.8872458934783935547 2.6231501102447509766 1.5802288055419921875 1.1824240684509277344 
2.1382060050964355469 2.466793060302734375 1.3519665002822875977 0.80670076608657836914 2.1087386608123779297 2.7636969089508056641 2.1973333358764648438 2.1087894439697265625 2.1271607875823974609 2.1397321224212646484 1.5475084781646728516 2.7271509170532226562 3.7826621532440185547 2.2824029922485351562 2.1509592533111572266 2.3491902351379394531 2.0499711036682128906 1.5851886272430419922 1.3001241683959960938 
2.5308299064636230469 2.2102687358856201172 2.8327710628509521484 1.7973369359970092773 2.0775973796844482422 2.5429847240447998047 2.2335557937622070312 3.0070133209228515625 2.8435487747192382812 2.7464039325714111328 2.1144387722015380859 3.1846280097961425781 4.4742422103881835938 2.4264039993286132812 2.338840484619140625 1.7750021219253540039 1.2768232822418212891 1.4493432044982910156 1.7478965520858764648 
3.2752275466918945312 3.1507868766784667969 2.6981661319732666016 1.483372807502746582 2.8556737899780273438 2.6919481754302978516 2.7021372318267822266 1.7724666595458984375 2.8083550930023193359 2.4695048332214355469 1.2739634513854980469 2.9307036399841308594 3.1477310657501220703 2.3324003219604492188 2.6767578125 2.1190533638000488281 1.4987808465957641602 1.6458376646041870117 2.5508236885070800781 
2.5385775566101074219 3.0094273090362548828 3.176395416259765625 2.7454237937927246094 2.8239912986755371094 1.5997692346572875977 2.4769053459167480469 2.0202460289001464844 2.0125977993011474609 2.6522929668426513672 0.50283288955688476562 1.820574641227722168 3.3819589614868164062 2.6625187397003173828 2.714691162109375 2.1945338249206542969 1.541834712028503418 1.8229192495346069336 1.2047086954116821289 
1.1620514392852783203 3.2184214591979980469 2.7170422077178955078 2.6719572544097900391 2.1907494068145751953 1.4538550376892089844 1.9791717529296875 1.632886052131652832 1.4980131387710571289 2.3901910781860351562 2.77654266357421875 3.0806834697723388672 2.0566110610961914062 2.0268824100494384766 1.5778677463531494141 1.5097342729568481445 1.2728788852691650391 2.4517710208892822266 1.9275259971618652344 
2.1837885379791259766 2.7326138019561767578 1.7609639167785644531 2.8429744243621826172 2.5430810451507568359 0.94388729333877563477 0.53559935092926025391 0.85847139358520507812 1.2737966775894165039 3.1873753070831298828 3.1182777881622314453 2.3241326808929443359 2.5415520668029785156 2.8758032321929931641 1.8614612817764282227 0.1554600447416305542 1.2043267488479614258 1.9203122854232788086 1.9703271389007568359 
3.3039295673370361328 2.0381102561950683594 2.2360751628875732422 2.0329811573028564453 1.9193328619003295898 0.71672517061233520508 0.50718468427658081055 0.6353092193603515625 0.96376645565032958984 2.9524755477905273438 3.0076415538787841797 2.2578833103179931641 2.9600887298583984375 3.05855560302734375 2.4276957511901855469 2.2955014705657958984 1.4018971920013427734 1.8538477420806884766 2.5195779800415039062 
3.222339630126953125 2.5268406867980957031 2.5584928989410400391 2.1721110343933105469 2.3887670040130615234 1.9087849855422973633 1.598891139030456543 1.0706763267517089844 2.2082095146179199219 1.2030938863754272461 0.94809228181838989258 1.3434134721755981445 3.2390816211700439453 3.2518932819366455078 2.4408538341522216797 1.9824039936065673828 1.6463035345077514648 1.9540122747421264648 1.3489398956298828125 
2.5919747352600097656 2.7477834224700927734 2.3980593681335449219 1.003293156623840332 2.6905407905578613281 2.3444850444793701172 1.8488003015518188477 0.95054841041564941406 2.4836449623107910156 1.7128267288208007812 0.85904270410537719727 2.2359850406646728516 2.8386375904083251953 3.3911662101745605469 2.5279397964477539062 2.0684800148010253906 1.4663426876068115234 1.9578379392623901367 1.7988082170486450195 
2.5743057727813720703 1.3393019437789916992 0.72622215747833251953 2.2685365676879882812 2.6893868446350097656 2.6369063854217529297 0.68172705173492431641 2.2670834064483642578 1.2954211235046386719 2.7310326099395751953 2.1309113502502441406 1.4337464570999145508 3.3388724327087402344 2.7232961654663085938 2.9019517898559570312 2.4788906574249267578 3.2191562652587890625 3.3534941673278808594 1.9386012554168701172 
2.0046024322509765625 2.4830751419067382812 1.0009627342224121094 2.5937488079071044922 3.1109414100646972656 2.6914429664611816406 1.2368180751800537109 2.2507219314575195312 2.5772154331207275391 2.6938087940216064453 2.6590318679809570312 3.0097813606262207031 2.1370229721069335938 2.8733484745025634766 2.4376211166381835938 2.1959481239318847656 1.6162760257720947266 1.7608755826950073242 1.5858992338180541992 
2.2439851760864257812 2.3226463794708251953 1.1833521127700805664 1.1927936077117919922 2.9389607906341552734 2.1286790370941162109 0.95704030990600585938 1.6149817705154418945 2.8809459209442138672 2.9217789173126220703 2.8646633625030517578 2.5971713066101074219 1.0248017311096191406 2.5002925395965576172 3.0297679901123046875 2.9646055698394775391 2.3838603496551513672 1.8910737037658691406 2.8517329692840576172 
1.7030062675476074219 1.0655461549758911133 0.50474584102630615234 2.1572115421295166016 2.8959429264068603516 0.77531701326370239258 0.31409716606140136719 2.6895222663879394531 2.9040615558624267578 2.1146397590637207031 2.4150261878967285156 2.7081899642944335938 1.9501900672912597656 3.0531809329986572266 2.7995634078979492188 3.1224365234375 2.335697174072265625 2.4598314762115478516 2.9808495044708251953 
1.9215638637542724609 2.1299433708190917969 1.1387555599212646484 2.3446700572967529297 2.4336252212524414062 2.0958855152130126953 1.3659714460372924805 1.7649313211441040039 3.0111174583435058594 3.0583353042602539062 2.9417409896850585938 1.5723140239715576172 2.2573785781860351562 1.9291170835494995117 2.6035516262054443359 2.2725579738616943359 3.1696004867553710938 2.6452243328094482422 2.8347225189208984375 
2.0445308685302734375 1.3991416692733764648 2.6559705734252929688 2.5631616115570068359 2.1037638187408447266 3.0235676765441894531 2.7354865074157714844 1.5192821025848388672 3.1094260215759277344 3.2359747886657714844 3.1542367935180664062 2.5876789093017578125 2.7277886867523193359 3.1605315208435058594 2.2340719699859619141 2.6342604160308837891 3.0728542804718017578 2.9186778068542480469 2.4797191619873046875 
1.5238498449325561523 2.6914734840393066406 2.0953621864318847656 1.8383427858352661133 1.8784027099609375 2.6740863323211669922 2.007747650146484375 1.5519431829452514648 3.0175881385803222656 2.9941661357879638672 2.5405533313751220703 2.2864756584167480469 1.3418645858764648438 2.5790843963623046875 1.7136473655700683594 2.4536371231079101562 3.0231342315673828125 3.0491833686828613281 2.6132175922393798828 
1.0061069726943969727 2.2742903232574462891 1.3121707439422607422 1.2223284244537353516 2.2929906845092773438 2.652069091796875 1.6250559091567993164 2.1623580455780029297 2.9380435943603515625 1.8887466192245483398 1.0347592830657958984 3.0838751792907714844 2.9505448341369628906 3.0565736293792724609 3.0596225261688232422 1.8364701271057128906 2.9570934772491455078 2.7657568454742431641 2.0951774120330810547 
