ncols        87
nrows        107
xllcorner    508536.404131802963
yllcorner    5265618.997906560078
cellsize     120.000000000000
NODATA_value -9999
0.0068160002119839191437 0.0068160002119839191437 0.0068160002119839191437 0.0068160002119839191437 0.0068160002119839191437 0.0068160002119839191437 0.0068160002119839191437 0.0068160002119839191437 0.0068160002119839191437 0.0068160002119839191437 0.0068160002119839191437 0.0068160002119839191437 0.0068160002119839191437 0.0068160002119839191437 0.0068160002119839191437 0.0068160002119839191437 0.0068160002119839191437 0.0068160002119839191437 0.0068160002119839191437 0.0068160002119839191437 0.0068160002119839191437 0.0068160002119839191437 0.0068160002119839191437 0.0068160002119839191437 0.0068160002119839191437 0.0068160002119839191437 0.0068160002119839191437 0.0068160002119839191437 0.0068160002119839191437 0.0068160002119839191437 0.0068160002119839191437 0.0068160002119839191437 0.0068160002119839191437 0.0068160002119839191437 0.0068160002119839191437 0.0068160002119839191437 0.0068160002119839191437 0.0068160002119839191437 0.0068160002119839191437 0.0068160002119839191437 0.0068160002119839191437 0.0068160002119839191437 0.0068160002119839191437 0.0068160002119839191437 0.0068160002119839191437 0.0068160002119839191437 0.0068160002119839191437 0.0068160002119839191437 0.0068160002119839191437 0.0068160002119839191437 0.0068160002119839191437 0.0068160002119839191437 0.0068160002119839191437 0.0068160002119839191437 0.0068160002119839191437 0.0068160002119839191437 0.0068160002119839191437 0.0068160002119839191437 0.0068160002119839191437 0.0068160002119839191437 0.0068160002119839191437 0.0068160002119839191437 0.0068160002119839191437 0.0068160002119839191437 0.0068160002119839191437 0.0068160002119839191437 0.17563830316066741943 0.71405071020126342773 2.0691368579864501953 2.3325815200805664062 2.4466192722320556641 4.6630530357360839844 3.6150429248809814453 5.1266798973083496094 3.5991418361663818359 1.6349797248840332031 5.0336132049560546875 3.486248016357421875 2.4208657741546630859 3.2953960895538330078 4.3784470558166503906 3.9347684383392333984 6.0709891319274902344 4.5825128555297851562 5.3006663322448730469 5.7101697921752929688 6.2849297523498535156 
0.0068160002119839191437 0.0068160002119839191437 0.0068160002119839191437 0.0068160002119839191437 0.0068160002119839191437 0.0068160002119839191437 0.0068160002119839191437 0.0068160002119839191437 0.0068160002119839191437 0.0068160002119839191437 0.0068160002119839191437 0.0068160002119839191437 0.0068160002119839191437 0.0068160002119839191437 0.0068160002119839191437 0.0068160002119839191437 0.0068160002119839191437 0.0068160002119839191437 0.0068160002119839191437 0.0068160002119839191437 0.0068160002119839191437 0.0068160002119839191437 0.0068160002119839191437 0.0068160002119839191437 0.0068160002119839191437 0.0068160002119839191437 0.0068160002119839191437 0.0068160002119839191437 0.0068160002119839191437 0.0068160002119839191437 0.0068160002119839191437 0.0068160002119839191437 0.0068160002119839191437 0.0068160002119839191437 0.0068160002119839191437 0.0068160002119839191437 0.0068160002119839191437 0.0068160002119839191437 0.0068160002119839191437 0.0068160002119839191437 0.0068160002119839191437 0.0068160002119839191437 0.0068160002119839191437 0.0068160002119839191437 0.0068160002119839191437 0.0068160002119839191437 0.0068160002119839191437 0.0068160002119839191437 0.0068160002119839191437 0.0068160002119839191437 0.0068160002119839191437 0.0068160002119839191437 0.0068160002119839191437 0.0068160002119839191437 0.0068160002119839191437 0.0068160002119839191437 0.0068160002119839191437 0.0068160002119839191437 0.0068160002119839191437 0.0068160002119839191437 0.0068160002119839191437 0.28014001250267028809 0.28014001250267028809 0.0068160002119839191437 0.0068160002119839191437 0.29859581589698791504 2.1838467121124267578 1.7312114238739013672 2.7091796398162841797 2.2482800483703613281 4.76935577392578125 6.3471097946166992188 4.12801361083984375 4.1156225204467773438 5.3737249374389648438 2.9454622268676757812 3.7367777824401855469 4.8476161956787109375 4.5587720870971679688 4.6037135124206542969 3.1346235275268554688 4.1249933242797851562 3.5823757648468017578 4.3794112205505371094 3.0887465476989746094 4.7428007125854492188 2.6773602962493896484 
0.0068160002119839191437 0.0068160002119839191437 0.0068160002119839191437 0.0068160002119839191437 0.0068160002119839191437 0.0068160002119839191437 0.0068160002119839191437 0.0068160002119839191437 0.0068160002119839191437 0.0068160002119839191437 0.0068160002119839191437 0.0068160002119839191437 0.0068160002119839191437 0.0068160002119839191437 0.0068160002119839191437 0.0068160002119839191437 0.0068160002119839191437 0.0068160002119839191437 0.0068160002119839191437 0.0068160002119839191437 0.0068160002119839191437 0.0068160002119839191437 0.0068160002119839191437 0.0068160002119839191437 0.0068160002119839191437 0.0068160002119839191437 0.0068160002119839191437 0.0068160002119839191437 0.0068160002119839191437 0.0068160002119839191437 0.0068160002119839191437 0.0068160002119839191437 0.0068160002119839191437 0.0068160002119839191437 0.0068160002119839191437 0.0068160002119839191437 0.0068160002119839191437 0.0068160002119839191437 0.0068160002119839191437 0.0068160002119839191437 0.0068160002119839191437 0.0068160002119839191437 0.0068160002119839191437 0.0068160002119839191437 0.0068160002119839191437 0.0068160002119839191437 0.0068160002119839191437 0.0068160002119839191437 0.0068160002119839191437 0.0068160002119839191437 0.0068160002119839191437 0.0068160002119839191437 0.0068160002119839191437 0.0068160002119839191437 0.0068160002119839191437 0.0068160002119839191437 0.0068160002119839191437 0.0068160002119839191437 0.088562995195388793945 0.76599496603012084961 1.1222211122512817383 0.46755054593086242676 0.19755899906158447266 0.016077499836683273315 0.1780446171760559082 0.73727267980575561523 2.7067520618438720703 2.5439920425415039062 2.4654548168182373047 4.3677682876586914062 4.2208700180053710938 5.6254940032958984375 4.876483917236328125 4.8762912750244140625 5.6009969711303710938 4.2911906242370605469 1.3895419836044311523 4.8370060920715332031 4.1937375068664550781 4.8692903518676757812 3.609180450439453125 5.1721143722534179688 4.7329778671264648438 5.2213044166564941406 4.2826085090637207031 2.2864384651184082031 0.043862000107765197754 
0.0068160002119839191437 0.0068160002119839191437 0.0068160002119839191437 0.0068160002119839191437 0.0068160002119839191437 0.0068160002119839191437 0.0068160002119839191437 0.0068160002119839191437 0.0068160002119839191437 0.0068160002119839191437 0.0068160002119839191437 0.0068160002119839191437 0.0068160002119839191437 0.0068160002119839191437 0.0068160002119839191437 0.0068160002119839191437 0.0068160002119839191437 0.0068160002119839191437 0.0068160002119839191437 0.0068160002119839191437 0.0068160002119839191437 0.0068160002119839191437 0.0068160002119839191437 0.0068160002119839191437 0.0068160002119839191437 0.0068160002119839191437 0.0068160002119839191437 0.0068160002119839191437 0.0068160002119839191437 0.0068160002119839191437 0.0068160002119839191437 0.0068160002119839191437 0.0068160002119839191437 0.0068160002119839191437 0.0068160002119839191437 0.034065000712871551514 0.0068160002119839191437 0.0068160002119839191437 0.0068160002119839191437 0.0068160002119839191437 0.0068160002119839191437 0.0068160002119839191437 0.0068160002119839191437 0.0068160002119839191437 0.0068160002119839191437 0.0068160002119839191437 0.0068160002119839191437 0.0068160002119839191437 0.0068160002119839191437 0.0068160002119839191437 0.0068160002119839191437 0.0068160002119839191437 0.0068160002119839191437 0.0068160002119839191437 0.0068160002119839191437 0.0068160002119839191437 0.0068160002119839191437 0.11581199616193771362 0.37238362431526184082 3.3084077835083007812 2.6963913440704345703 0.23262175917625427246 1.1528426408767700195 3.0956625938415527344 1.3181040287017822266 1.5000661611557006836 3.7690782546997070312 3.0272171497344970703 3.5543432235717773438 5.6292734146118164062 5.6068511009216308594 5.8750872611999511719 5.1255068778991699219 5.8735938072204589844 5.3763852119445800781 5.1289730072021484375 4.2362604141235351562 6.5998716354370117188 4.0908055305480957031 6.0273799896240234375 4.84535980224609375 5.2644515037536621094 5.6864900588989257812 5.3119106292724609375 3.8689260482788085938 0.66307717561721801758 1.01967620849609375 
0.0068160002119839191437 0.0068160002119839191437 0.0068160002119839191437 0.0068160002119839191437 0.0068160002119839191437 0.0068160002119839191437 0.0068160002119839191437 0.0068160002119839191437 0.0068160002119839191437 0.0068160002119839191437 0.0068160002119839191437 0.0068160002119839191437 0.0068160002119839191437 0.0068160002119839191437 0.0068160002119839191437 0.0068160002119839191437 0.0068160002119839191437 0.0068160002119839191437 0.0068160002119839191437 0.0068160002119839191437 0.0068160002119839191437 0.0068160002119839191437 0.0068160002119839191437 0.0068160002119839191437 0.0068160002119839191437 0.0068160002119839191437 0.0068160002119839191437 0.0068160002119839191437 0.0068160002119839191437 0.0068160002119839191437 0.0068160002119839191437 0.0068160002119839191437 0.0068160002119839191437 0.40754660964012145996 2.2567965984344482422 2.9820053577423095703 0.20682048797607421875 0.0068160002119839191437 0.0068160002119839191437 0.0068160002119839191437 0.0068160002119839191437 0.0068160002119839191437 0.0068160002119839191437 0.0068160002119839191437 0.0068160002119839191437 0.0068160002119839191437 0.0068160002119839191437 0.0068160002119839191437 0.0068160002119839191437 0.0068160002119839191437 0.0068160002119839191437 0.0068160002119839191437 0.0068160002119839191437 0.0068160002119839191437 0.0068160002119839191437 0.088562995195388793945 0.22355075180530548096 0.38713344931602478027 1.003828883171081543 1.6661025285720825195 0.34038749337196350098 0.56074577569961547852 0.52360785007476806641 3.1538794040679931641 4.1339249610900878906 4.0155682563781738281 2.3369791507720947266 3.9720652103424072266 4.0120596885681152344 5.3795599937438964844 3.8804304599761962891 3.8750553131103515625 4.1311478614807128906 4.3812952041625976562 5.3767375946044921875 5.6247925758361816406 5.5646214485168457031 5.7932033538818359375 4.1505765914916992188 4.8828382492065429688 2.1976499557495117188 5.6251735687255859375 4.4775381088256835938 5.1298556327819824219 1.7013303041458129883 0.64597851037979125977 1.0632132291793823242 
0.0068160002119839191437 0.0068160002119839191437 0.0068160002119839191437 0.0068160002119839191437 0.0068160002119839191437 0.0068160002119839191437 0.0068160002119839191437 0.0068160002119839191437 0.0068160002119839191437 0.0068160002119839191437 0.0068160002119839191437 0.0068160002119839191437 0.0068160002119839191437 0.0068160002119839191437 0.0068160002119839191437 0.0068160002119839191437 0.0068160002119839191437 0.0068160002119839191437 0.0068160002119839191437 0.0068160002119839191437 0.0068160002119839191437 0.0068160002119839191437 0.0068160002119839191437 0.0068160002119839191437 0.0068160002119839191437 0.0068160002119839191437 0.0068160002119839191437 0.0068160002119839191437 0.0068160002119839191437 0.0068160002119839191437 0.0068160002119839191437 0.17030999064445495605 1.1976909637451171875 2.8477773666381835938 1.7543866634368896484 4.0453500747680664062 0.27653723955154418945 0.0068160002119839191437 0.0068160002119839191437 0.0068160002119839191437 0.0068160002119839191437 0.0068160002119839191437 0.0068160002119839191437 0.0068160002119839191437 0.0068160002119839191437 0.0068160002119839191437 0.0068160002119839191437 0.0068160002119839191437 0.0068160002119839191437 0.0068160002119839191437 0.0068160002119839191437 0.0068160002119839191437 0.034065000712871551514 0.33705437183380126953 0.9646384119987487793 1.4621717929840087891 2.409976959228515625 2.6861407756805419922 1.796216130256652832 2.5243427753448486328 2.1812570095062255859 2.9825596809387207031 1.4143286943435668945 3.6248898506164550781 4.0437026023864746094 4.3800001144409179688 3.0469365119934082031 3.7963061332702636719 2.4370772838592529297 2.7830202579498291016 3.9305720329284667969 3.6307125091552734375 4.3761320114135742188 5.6243915557861328125 6.8725924491882324219 5.0922040939331054688 5.2858943939208984375 5.661693572998046875 3.3252551555633544922 3.9269113540649414062 4.5294861793518066406 4.3764123916625976562 5.7654027938842773438 3.1538221836090087891 0.57821625471115112305 0.081486999988555908203 0.39849999547004699707 
0.0068160002119839191437 0.0068160002119839191437 0.0068160002119839191437 0.0068160002119839191437 0.0068160002119839191437 0.0068160002119839191437 0.0068160002119839191437 0.0068160002119839191437 0.0068160002119839191437 0.0068160002119839191437 0.0068160002119839191437 0.0068160002119839191437 0.0068160002119839191437 0.0068160002119839191437 0.0068160002119839191437 0.0068160002119839191437 0.0068160002119839191437 0.0068160002119839191437 0.0068160002119839191437 0.0068160002119839191437 0.0068160002119839191437 0.0068160002119839191437 0.0068160002119839191437 0.0068160002119839191437 0.0068160002119839191437 0.0068160002119839191437 0.0068160002119839191437 0.0068160002119839191437 0.17030999064445495605 0.26185399293899536133 0.26680824160575866699 3.8407688140869140625 3.4178838729858398438 1.9027819633483886719 0.76883363723754882812 1.3935314416885375977 0.74420702457427978516 0.0068160002119839191437 0.0068160002119839191437 0.0068160002119839191437 0.0068160002119839191437 0.0068160002119839191437 0.0068160002119839191437 0.0068160002119839191437 0.0068160002119839191437 0.0068160002119839191437 0.0068160002119839191437 0.0068160002119839191437 0.0068160002119839191437 0.0068160002119839191437 0.034065000712871551514 0.36903354525566101074 1.1096243858337402344 1.6956545114517211914 3.0876996517181396484 3.2023143768310546875 3.9971997737884521484 3.4990680217742919922 4.9924015998840332031 3.7525191307067871094 2.5632603168487548828 3.0603430271148681641 1.9404735565185546875 3.9876646995544433594 4.24910736083984375 3.3980958461761474609 3.9820797443389892578 3.9233794212341308594 3.3415398597717285156 2.1601703166961669922 2.7469880580902099609 4.8797640800476074219 6.1236224174499511719 5.8370070457458496094 5.8504190444946289062 4.3532605171203613281 5.875034332275390625 4.1468081474304199219 3.7302660942077636719 4.2703347206115722656 5.125518798828125 4.6263432502746582031 6.0781044960021972656 4.83141326904296875 4.9986233711242675781 2.3786406517028808594 3.1885259151458740234 
0.0068160002119839191437 0.0068160002119839191437 0.0068160002119839191437 0.0068160002119839191437 0.0068160002119839191437 0.0068160002119839191437 0.0068160002119839191437 0.0068160002119839191437 0.0068160002119839191437 0.0068160002119839191437 0.0068160002119839191437 0.0068160002119839191437 0.0068160002119839191437 0.0068160002119839191437 0.0068160002119839191437 0.0068160002119839191437 0.0068160002119839191437 0.0068160002119839191437 0.0068160002119839191437 0.0068160002119839191437 0.0068160002119839191437 0.0068160002119839191437 0.0068160002119839191437 0.0068160002119839191437 0.0068160002119839191437 0.0068160002119839191437 0.35177913308143615723 0.82692104578018188477 0.52901762723922729492 0.7496464848518371582 1.7925821542739868164 1.5665489435195922852 0.47104951739311218262 1.7778005599975585938 1.5009688138961791992 0.11581199616193771362 0.0068160002119839191437 0.0068160002119839191437 0.0068160002119839191437 0.0068160002119839191437 0.0068160002119839191437 0.0068160002119839191437 0.0068160002119839191437 0.0068160002119839191437 0.0068160002119839191437 0.0068160002119839191437 0.0068160002119839191437 0.0068160002119839191437 0.0068160002119839191437 0.14838930964469909668 0.6961688995361328125 1.8769255876541137695 1.6344715356826782227 3.5561451911926269531 2.3667538166046142578 3.8286674022674560547 3.5898199081420898438 3.6470935344696044922 4.92230224609375 5.1071796417236328125 2.6295216083526611328 3.5686831474304199219 2.8833491802215576172 4.4474844932556152344 4.7122592926025390625 2.9063127040863037109 4.0289964675903320312 4.0434899330139160156 3.8340098857879638672 2.0014722347259521484 3.1641216278076171875 4.1312546730041503906 6.3726301193237304688 4.40155029296875 4.3268451690673828125 4.4286007881164550781 5.1254930496215820312 3.7577433586120605469 4.030918121337890625 5.3100981712341308594 5.3406949043273925781 5.084918975830078125 5.2422919273376464844 4.1736736297607421875 4.7694997787475585938 5.1033444404602050781 4.37679290771484375 
0.0068160002119839191437 0.0068160002119839191437 0.0068160002119839191437 0.0068160002119839191437 0.0068160002119839191437 0.0068160002119839191437 0.0068160002119839191437 0.0068160002119839191437 0.0068160002119839191437 0.0068160002119839191437 0.0068160002119839191437 0.0068160002119839191437 0.0068160002119839191437 0.0068160002119839191437 0.0068160002119839191437 0.0068160002119839191437 0.0068160002119839191437 0.0068160002119839191437 0.0068160002119839191437 0.0068160002119839191437 0.0068160002119839191437 0.0068160002119839191437 0.0068160002119839191437 0.11581199616193771362 0.14245356619358062744 2.0423576831817626953 3.3023309707641601562 2.3608670234680175781 0.24490626156330108643 2.6062762737274169922 1.0523437261581420898 1.2350623607635498047 1.7874162197113037109 1.4141265153884887695 0.67590510845184326172 0.0068160002119839191437 0.0068160002119839191437 0.0068160002119839191437 0.0068160002119839191437 0.0068160002119839191437 0.0068160002119839191437 0.0068160002119839191437 0.0068160002119839191437 0.0068160002119839191437 0.0068160002119839191437 0.0068160002119839191437 0.0068160002119839191437 0.034065000712871551514 0.4368699491024017334 0.49540576338768005371 0.2620105743408203125 2.5583410263061523438 2.2529778480529785156 2.3357369899749755859 2.5862915515899658203 2.924468994140625 3.678508758544921875 3.7305614948272705078 4.2336378097534179688 4.60259246826171875 2.6538059711456298828 3.2618775367736816406 4.7682414054870605469 5.6647334098815917969 4.337757110595703125 4.0945911407470703125 4.0245065689086914062 5.5607886314392089844 5.4390859603881835938 3.5805368423461914062 5.5027461051940917969 4.3817815780639648438 6.2924404144287109375 4.3034625053405761719 3.3167650699615478516 3.3307287693023681641 4.5550260543823242188 3.767093658447265625 4.0658698081970214844 3.7274074554443359375 4.0411014556884765625 5.5313777923583984375 5.35324859619140625 4.3692541122436523438 2.821319580078125 2.5087614059448242188 4.1941637992858886719 
0.0068160002119839191437 0.0068160002119839191437 0.0068160002119839191437 0.0068160002119839191437 0.0068160002119839191437 0.0068160002119839191437 0.0068160002119839191437 0.0068160002119839191437 0.0068160002119839191437 0.0068160002119839191437 0.0068160002119839191437 0.0068160002119839191437 0.0068160002119839191437 0.0068160002119839191437 0.0068160002119839191437 0.0068160002119839191437 0.0068160002119839191437 0.0068160002119839191437 0.0068160002119839191437 0.0068160002119839191437 0.0068160002119839191437 0.061313997954130172729 0.87658679485321044922 0.94904661178588867188 4.9850773811340332031 1.7228361368179321289 3.2684943675994873047 2.9348845481872558594 1.8405867815017700195 0.75423806905746459961 0.50282251834869384766 2.2642300128936767578 0.88055962324142456055 0.6806876063346862793 0.034065000712871551514 0.0068160002119839191437 0.0068160002119839191437 0.0068160002119839191437 0.0068160002119839191437 0.0068160002119839191437 0.0068160002119839191437 0.0068160002119839191437 0.0068160002119839191437 0.0068160002119839191437 0.0068160002119839191437 0.0068160002119839191437 0.088562995195388793945 0.65186548233032226562 3.0056805610656738281 3.3107292652130126953 2.9783310890197753906 4.448451995849609375 3.9780209064483642578 4.0346117019653320312 5.2719759941101074219 3.6424915790557861328 3.3524563312530517578 4.5431771278381347656 4.8539109230041503906 6.352146148681640625 3.3278024196624755859 2.8075928688049316406 5.0985698699951171875 6.0777740478515625 5.6529259681701660156 3.2853655815124511719 3.9879477024078369141 4.5828642845153808594 4.0929594039916992188 2.7775938510894775391 3.7975113391876220703 4.6059508323669433594 6.8721137046813964844 3.7391557693481445312 2.7064290046691894531 3.5829336643218994141 4.3150124549865722656 2.4266560077667236328 3.8952877521514892578 2.4745488166809082031 2.8395788669586181641 2.6947324275970458984 3.7196865081787109375 5.4967656135559082031 0.0068160002119839191437 0.5530548095703125 4.3757834434509277344 
0.0068160002119839191437 0.0068160002119839191437 0.0068160002119839191437 0.0068160002119839191437 0.0068160002119839191437 0.0068160002119839191437 0.0068160002119839191437 0.0068160002119839191437 0.0068160002119839191437 0.0068160002119839191437 0.0068160002119839191437 0.0068160002119839191437 0.0068160002119839191437 0.0068160002119839191437 0.0068160002119839191437 0.0068160002119839191437 0.0068160002119839191437 0.0068160002119839191437 0.0068160002119839191437 0.061313997954130172729 0.23269586265087127686 2.1663572788238525391 3.0518937110900878906 3.6449804306030273438 2.4417812824249267578 3.5721859931945800781 4.0208306312561035156 2.4587635993957519531 2.427898406982421875 2.8670065402984619141 1.2820365428924560547 3.2521188259124755859 0.7442417144775390625 0.1452465057373046875 0.0068160002119839191437 0.0068160002119839191437 0.0068160002119839191437 0.0068160002119839191437 0.0068160002119839191437 0.0068160002119839191437 0.0068160002119839191437 0.0068160002119839191437 0.0068160002119839191437 0.0068160002119839191437 0.0068160002119839191437 0.061313997954130172729 0.25349718332290649414 1.7949988842010498047 3.4693078994750976562 4.2312140464782714844 4.7731575965881347656 4.4611749649047851562 4.2247171401977539062 5.758167266845703125 4.049297332763671875 3.3773987293243408203 3.5702540874481201172 5.5003437995910644531 4.3376250267028808594 5.7356963157653808594 3.1636881828308105469 1.830807805061340332 6.37155914306640625 5.2518324851989746094 4.6470975875854492188 2.9812903404235839844 4.0424304008483886719 5.7928051948547363281 3.8131005764007568359 6.329563140869140625 3.00220489501953125 4.7354826927185058594 5.60240936279296875 4.7825255393981933594 3.0365703105926513672 2.7694921493530273438 3.5266931056976318359 1.7119742631912231445 4.4156603813171386719 3.8341302871704101562 2.1916534900665283203 2.1445729732513427734 1.6252371072769165039 3.6394340991973876953 0.52948677539825439453 1.6709396839141845703 4.2884860038757324219 
0.0068160002119839191437 0.0068160002119839191437 0.0068160002119839191437 0.0068160002119839191437 0.0068160002119839191437 0.0068160002119839191437 0.0068160002119839191437 0.0068160002119839191437 0.0068160002119839191437 0.0068160002119839191437 0.0068160002119839191437 0.0068160002119839191437 0.0068160002119839191437 0.0068160002119839191437 0.0068160002119839191437 0.0068160002119839191437 0.0068160002119839191437 0.0068160002119839191437 0.0068160002119839191437 0.29603624343872070312 0.94493663311004638672 3.1200432777404785156 3.3457729816436767578 2.8772792816162109375 2.4355649948120117188 3.9179048538208007812 3.8416440486907958984 3.9887130260467529297 2.6420159339904785156 1.7589837312698364258 3.3204674720764160156 0.98832434415817260742 0.4559020698070526123 0.034065000712871551514 0.0068160002119839191437 0.0068160002119839191437 0.0068160002119839191437 0.0068160002119839191437 0.0068160002119839191437 0.0068160002119839191437 0.0068160002119839191437 0.0068160002119839191437 0.0068160002119839191437 0.0068160002119839191437 0.16754125058650970459 0.28644573688507080078 1.2627867460250854492 2.4736802577972412109 3.6582486629486083984 3.4278268814086914062 3.2768979072570800781 5.1128697395324707031 6.1902217864990234375 4.5179119110107421875 3.8076202869415283203 3.6387155055999755859 4.3734836578369140625 3.4782176017761230469 4.6853618621826171875 5.7490911483764648438 2.6826300621032714844 0.32100000977516174316 4.9303922653198242188 5.1076626777648925781 5.9354543685913085938 5.04523468017578125 4.5814728736877441406 4.0247201919555664062 5.7789392471313476562 5.8371295928955078125 3.11862945556640625 4.0043306350708007812 6.7399954795837402344 4.2027325630187988281 2.2682728767395019531 2.6319415569305419922 1.468897700309753418 2.0404334068298339844 2.6934554576873779297 3.2988677024841308594 3.3889007568359375 2.7292809486389160156 1.4111629724502563477 1.4957131147384643555 1.1341290473937988281 1.5750954151153564453 3.1959142684936523438 
0.0068160002119839191437 0.0068160002119839191437 0.0068160002119839191437 0.0068160002119839191437 0.0068160002119839191437 0.0068160002119839191437 0.0068160002119839191437 0.0068160002119839191437 0.0068160002119839191437 0.0068160002119839191437 0.0068160002119839191437 0.0068160002119839191437 0.0068160002119839191437 0.0068160002119839191437 0.0068160002119839191437 0.0068160002119839191437 0.0068160002119839191437 0.0068160002119839191437 0.061313997954130172729 0.33273032307624816895 2.2419664859771728516 1.5224541425704956055 2.7315113544464111328 2.904376983642578125 2.0493898391723632812 3.7611210346221923828 3.5323624610900878906 4.0296702384948730469 1.4527225494384765625 2.3260378837585449219 1.4391967058181762695 1.2293814420700073242 0.39896431565284729004 0.0068160002119839191437 0.0068160002119839191437 0.0068160002119839191437 0.0068160002119839191437 0.0068160002119839191437 0.0068160002119839191437 0.0068160002119839191437 0.0068160002119839191437 0.0068160002119839191437 0.0068160002119839191437 0.179571494460105896 0.23050768673419952393 1.8961032629013061523 3.1264629364013671875 3.9022257328033447266 4.2515277862548828125 4.1547079086303710938 3.9195148944854736328 5.6016774177551269531 5.9130420684814453125 5.3784160614013671875 7.1009082794189453125 4.0927343368530273438 4.5608515739440917969 4.1874346733093261719 4.365573883056640625 4.6695246696472167969 2.1943380832672119141 0.29000002145767211914 3.8362956047058105469 4.7262072563171386719 4.3797469139099121094 4.6177353858947753906 6.3294935226440429688 4.8108263015747070312 4.6974120140075683594 2.1822056770324707031 3.2313451766967773438 2.7839655876159667969 1.9815897941589355469 3.8675379753112792969 3.2205121517181396484 3.7216627597808837891 1.9612636566162109375 3.4150974750518798828 4.4852542877197265625 4.4811162948608398438 3.0836656093597412109 3.4554262161254882812 2.5644137859344482422 2.8089289665222167969 2.0053021907806396484 4.8713059425354003906 2.4251179695129394531 
0.0068160002119839191437 0.0068160002119839191437 0.0068160002119839191437 0.0068160002119839191437 0.0068160002119839191437 0.0068160002119839191437 0.0068160002119839191437 0.0068160002119839191437 0.0068160002119839191437 0.0068160002119839191437 0.0068160002119839191437 0.0068160002119839191437 0.0068160002119839191437 0.0068160002119839191437 0.0068160002119839191437 0.0068160002119839191437 0.0068160002119839191437 0.0068160002119839191437 0.22736755013465881348 1.8553942441940307617 3.7986407279968261719 2.6401143074035644531 3.7256832122802734375 3.3063755035400390625 2.6796896457672119141 3.4766705036163330078 3.83533477783203125 3.3573546409606933594 2.8697752952575683594 4.1403594017028808594 2.6606845855712890625 2.3335852622985839844 0.30738902091979980469 0.0068160002119839191437 0.0068160002119839191437 0.0068160002119839191437 0.0068160002119839191437 0.0068160002119839191437 0.0068160002119839191437 0.0068160002119839191437 0.0068160002119839191437 0.0068160002119839191437 0.22217711806297302246 0.76198744773864746094 2.4155368804931640625 4.0039706230163574219 4.0206308364868164062 3.9387774467468261719 4.1880006790161132812 4.424564361572265625 4.6759519577026367188 6.1246175765991210938 6.57935333251953125 4.1632599830627441406 5.3604030609130859375 4.3761429786682128906 5.4553890228271484375 4.5471367835998535156 4.0454697608947753906 4.417667388916015625 1.9770964384078979492 0.34469613432884216309 3.7977683544158935547 5.7097010612487792969 5.081821441650390625 4.6569819450378417969 4.051769256591796875 4.7374348640441894531 4.5340747833251953125 2.3691387176513671875 3.133838653564453125 3.4554712772369384766 4.3438816070556640625 4.917827606201171875 4.0698366165161132812 4.779232025146484375 2.7810666561126708984 3.1239995956420898438 3.2092103958129882812 4.8159050941467285156 3.4267489910125732422 2.9595186710357666016 1.7540215253829956055 3.3062448501586914062 0.69686073064804077148 2.9528915882110595703 3.8402729034423828125 
0.0068160002119839191437 0.0068160002119839191437 0.0068160002119839191437 0.0068160002119839191437 0.0068160002119839191437 0.0068160002119839191437 0.0068160002119839191437 0.0068160002119839191437 0.0068160002119839191437 0.0068160002119839191437 0.0068160002119839191437 0.0068160002119839191437 0.0068160002119839191437 0.0068160002119839191437 0.0068160002119839191437 0.0068160002119839191437 0.0068160002119839191437 0.0068160002119839191437 0.41577756404876708984 3.7936596870422363281 4.0330605506896972656 2.5917489528656005859 3.89963531494140625 3.610363006591796875 2.5785939693450927734 2.9246463775634765625 3.4581379890441894531 1.97962188720703125 3.1036376953125 3.1240792274475097656 2.3030049800872802734 1.3771482706069946289 0.0068160002119839191437 0.0068160002119839191437 0.0068160002119839191437 0.0068160002119839191437 0.0068160002119839191437 0.0068160002119839191437 0.0068160002119839191437 0.0068160002119839191437 0.034065000712871551514 0.30337798595428466797 2.2072396278381347656 3.5826134681701660156 4.5037856101989746094 4.0106477737426757812 4.0281238555908203125 4.3021044731140136719 4.0165281295776367188 4.1913900375366210938 4.9471721649169921875 5.7392454147338867188 4.9200119972229003906 4.3803234100341796875 4.7442884445190429688 3.8823487758636474609 5.1650724411010742188 6.5594329833984375 5.5148539543151855469 5.0109500885009765625 1.1436297893524169922 0.32189226150512695312 1.9109668731689453125 6.1513814926147460938 5.8300151824951171875 4.0380067825317382812 4.0195546150207519531 4.3031411170959472656 3.7944130897521972656 2.5029215812683105469 1.875199437141418457 3.6196429729461669922 4.864231109619140625 5.1032996177673339844 4.8755517005920410156 4.8708148002624511719 2.2775590419769287109 2.5776102542877197266 3.3898112773895263672 4.4357352256774902344 3.9904584884643554688 3.3390102386474609375 2.9065339565277099609 2.8110163211822509766 2.3918476104736328125 3.902347564697265625 4.2034883499145507812 
0.0068160002119839191437 0.0068160002119839191437 0.0068160002119839191437 0.0068160002119839191437 0.0068160002119839191437 0.0068160002119839191437 0.0068160002119839191437 0.0068160002119839191437 0.0068160002119839191437 0.0068160002119839191437 0.0068160002119839191437 0.0068160002119839191437 0.0068160002119839191437 0.0068160002119839191437 0.0068160002119839191437 0.0068160002119839191437 0.0068160002119839191437 0.0068160002119839191437 1.0556993484497070312 4.0061855316162109375 4.0143060684204101562 2.0298278331756591797 1.8514250516891479492 2.1122357845306396484 1.5810128450393676758 1.834910273551940918 3.0636730194091796875 3.0833888053894042969 4.7047624588012695312 3.4615049362182617188 1.6375100612640380859 0.13254225254058837891 0.0068160002119839191437 0.0068160002119839191437 0.0068160002119839191437 0.0068160002119839191437 0.0068160002119839191437 0.0068160002119839191437 0.025338999927043914795 0.22408623993396759033 0.4791514277458190918 2.9871606826782226562 4.9101595878601074219 3.4224863052368164062 3.1443555355072021484 3.9599611759185791016 4.0086879730224609375 5.6253256797790527344 4.3242921829223632812 5.8747243881225585938 3.6435987949371337891 0.7401898503303527832 0.74686026573181152344 0.25224149227142333984 2.2850306034088134766 3.1744217872619628906 4.2068343162536621094 6.1252455711364746094 4.6159968376159667969 2.1203353404998779297 0.75421261787414550781 2.0856926441192626953 3.7941298484802246094 3.2215404510498046875 5.6242237091064453125 5.0900540351867675781 3.9924209117889404297 4.2586903572082519531 2.4938690662384033203 2.3253848552703857422 2.9068810939788818359 1.3298224210739135742 1.4576272964477539062 4.15836334228515625 4.345050811767578125 4.4934926033020019531 4.3162827491760253906 3.7099022865295410156 2.636363983154296875 4.9041752815246582031 3.7514054775238037109 2.2771823406219482422 1.7335096597671508789 2.3566012382507324219 3.3872275352478027344 4.2584676742553710938 4.1996808052062988281 
0.0068160002119839191437 0.0068160002119839191437 0.0068160002119839191437 0.0068160002119839191437 0.0068160002119839191437 0.0068160002119839191437 0.0068160002119839191437 0.0068160002119839191437 0.0068160002119839191437 0.0068160002119839191437 0.0068160002119839191437 0.0068160002119839191437 0.0068160002119839191437 0.0068160002119839191437 0.0068160002119839191437 0.0068160002119839191437 0.0068160002119839191437 0.11581199616193771362 1.4153900146484375 2.4173111915588378906 2.6679759025573730469 2.0319380760192871094 1.7562549114227294922 0.26278018951416015625 0.44700011610984802246 0.58915853500366210938 1.4691411256790161133 2.2523214817047119141 4.0255117416381835938 2.2157874107360839844 0.51291453838348388672 0.0068160002119839191437 0.0068160002119839191437 0.0068160002119839191437 0.0068160002119839191437 0.088562995195388793945 0.067177809774875640869 0.41349023580551147461 1.1985023021697998047 1.8516683578491210938 2.1239874362945556641 2.0029733180999755859 3.4433429241180419922 0.80053031444549560547 2.2232489585876464844 3.3464913368225097656 2.4424633979797363281 3.292755126953125 4.4350152015686035156 4.52459716796875 3.858989715576171875 0.25476917624473571777 0.0068160002119839191437 0.0068160002119839191437 1.0090770721435546875 1.4928172826766967773 5.1383614540100097656 5.6235780715942382812 4.3665561676025390625 3.7077891826629638672 5.0027513504028320312 2.3423850536346435547 4.7382969856262207031 4.759349822998046875 5.37473297119140625 4.7368450164794921875 4.633453369140625 4.5822863578796386719 3.1556158065795898438 2.6173737049102783203 2.9926028251647949219 1.8285094499588012695 2.6969380378723144531 4.5045080184936523438 4.7818021774291992188 4.5212321281433105469 1.7777017354965209961 2.8388860225677490234 5.2235379219055175781 5.2055273056030273438 3.97841644287109375 1.2562788724899291992 0.25709742307662963867 0.34388488531112670898 2.6449370384216308594 4.39963531494140625 7.2840819358825683594 
0.0068160002119839191437 0.0068160002119839191437 0.0068160002119839191437 0.0068160002119839191437 0.0068160002119839191437 0.0068160002119839191437 0.0068160002119839191437 0.0068160002119839191437 0.0068160002119839191437 0.0068160002119839191437 0.0068160002119839191437 0.0068160002119839191437 0.0068160002119839191437 0.0068160002119839191437 0.0068160002119839191437 0.0068160002119839191437 0.0068160002119839191437 0.44185119867324829102 2.7755672931671142578 3.1234502792358398438 4.0197734832763671875 2.3871178627014160156 0.72754949331283569336 0.5692291259765625 1.9439889192581176758 1.2524840831756591797 0.78189504146575927734 3.5989372730255126953 3.3710358142852783203 1.4492703676223754883 0.96924453973770141602 0.0068160002119839191437 0.0068160002119839191437 0.0068160002119839191437 0.0068160002119839191437 0.13338956236839294434 0.1717710644006729126 3.7711973190307617188 4.5962915420532226562 4.0176548957824707031 2.3823480606079101562 0.19490799307823181152 1.8220676183700561523 1.243283390998840332 3.9390654563903808594 0.0068160002119839191437 0.0068160002119839191437 1.7313157320022583008 3.855289459228515625 2.3880228996276855469 3.5864670276641845703 0.0068160002119839191437 0.0068160002119839191437 0.0068160002119839191437 1.6858661174774169922 4.9143972396850585938 5.7941517829895019531 4.6138796806335449219 5.8750853538513183594 2.1270737648010253906 2.35048675537109375 4.76552581787109375 4.241695404052734375 6.0408525466918945312 4.3167176246643066406 4.7855577468872070312 4.263031005859375 4.261898040771484375 4.4066948890686035156 0.19341956079006195068 2.8524081707000732422 2.7119164466857910156 3.2224857807159423828 3.7370285987854003906 3.7632517814636230469 3.267330169677734375 2.7650513648986816406 4.3599410057067871094 4.7670035362243652344 4.0395350456237792969 3.9814770221710205078 2.8908820152282714844 0.9321473240852355957 1.251223444938659668 3.160877227783203125 4.5806345939636230469 2.1808390617370605469 
0.0068160002119839191437 0.0068160002119839191437 0.0068160002119839191437 0.0068160002119839191437 0.0068160002119839191437 0.0068160002119839191437 0.0068160002119839191437 0.0068160002119839191437 0.0068160002119839191437 0.0068160002119839191437 0.0068160002119839191437 0.0068160002119839191437 0.0068160002119839191437 0.0068160002119839191437 0.0068160002119839191437 0.0068160002119839191437 0.012144312262535095215 1.1223919391632080078 3.7645020484924316406 3.8054642677307128906 4.0340332984924316406 3.0282721519470214844 1.5284703969955444336 1.5480118989944458008 2.2810482978820800781 2.1097702980041503906 2.6551229953765869141 3.28704833984375 3.2410798072814941406 4.3035311698913574219 1.1818590164184570312 0.034065000712871551514 0.034065000712871551514 0.0068160002119839191437 0.19792275130748748779 0.32312113046646118164 2.1061422824859619141 3.8691921234130859375 3.5229394435882568359 2.358245849609375 3.5318748950958251953 0.37464275956153869629 0.42579680681228637695 1.450846552848815918 3.2831556797027587891 0.0068160002119839191437 0.0068160002119839191437 0.032807752490043640137 1.6787478923797607422 2.0950863361358642578 1.672961115837097168 1.7571710348129272461 1.1528835296630859375 0.22927181422710418701 1.1104803085327148438 4.1929211616516113281 5.1217904090881347656 3.6271967887878417969 3.4431598186492919922 2.6720731258392333984 4.2087817192077636719 4.2547521591186523438 5.5783128738403320312 6.207775115966796875 4.6101756095886230469 4.3110547065734863281 5.4650859832763671875 4.7645235061645507812 3.8040475845336914062 1.1523585319519042969 0.31170001626014709473 0.5729357600212097168 3.2837114334106445312 2.2008185386657714844 3.0010378360748291016 2.7939517498016357422 2.7489902973175048828 3.5300550460815429688 5.0226931571960449219 3.3850641250610351562 2.9579029083251953125 1.7852002382278442383 1.5966961383819580078 2.3394553661346435547 4.5288496017456054688 2.4095511436462402344 0.41184601187705993652 
0.0068160002119839191437 0.0068160002119839191437 0.0068160002119839191437 0.0068160002119839191437 0.0068160002119839191437 0.0068160002119839191437 0.0068160002119839191437 0.0068160002119839191437 0.0068160002119839191437 0.0068160002119839191437 0.0068160002119839191437 0.0068160002119839191437 0.0068160002119839191437 0.0068160002119839191437 0.0068160002119839191437 0.0068160002119839191437 0.028129249811172485352 2.4790346622467041016 3.3475770950317382812 3.3425364494323730469 3.3456988334655761719 1.9762644767761230469 2.7939848899841308594 1.9716986417770385742 0.97091215848922729492 2.4983549118041992188 1.5880284309387207031 2.1624979972839355469 3.128116607666015625 2.8193752765655517578 2.1380760669708251953 0.57987898588180541992 0.27930599451065063477 0.3025290071964263916 2.3673434257507324219 0.94305199384689331055 3.7638518810272216797 4.0013532638549804688 3.2678365707397460938 0.61521261930465698242 2.0602042675018310547 0.17817774415016174316 0.031296249479055404663 1.0122191905975341797 0.93517565727233886719 0.034065000712871551514 1.4188458919525146484 0.081486999988555908203 2.9935066699981689453 3.6342799663543701172 2.8098702430725097656 1.9663472175598144531 2.5664598941802978516 0.97788590192794799805 0.94555366039276123047 2.7816231250762939453 4.1018710136413574219 4.0452971458435058594 6.9830231666564941406 4.2780704498291015625 5.8377695083618164062 5.1094732284545898438 5.6689076423645019531 4.0204381942749023438 4.0267329216003417969 4.0129694938659667969 6.0883221626281738281 5.6610021591186523438 5.5812296867370605469 4.378353118896484375 2.9250967502593994141 0.94560331106185913086 1.0362119674682617188 1.8199901580810546875 2.6391184329986572266 2.9675278663635253906 2.772247314453125 3.4740085601806640625 5.0886735916137695312 3.4836151599884033203 1.4125472307205200195 1.1161473989486694336 1.1354043483734130859 2.8674292564392089844 3.2885210514068603516 1.3751028776168823242 0.79050123691558837891 
0.0068160002119839191437 0.0068160002119839191437 0.0068160002119839191437 0.0068160002119839191437 0.0068160002119839191437 0.0068160002119839191437 0.0068160002119839191437 0.0068160002119839191437 0.0068160002119839191437 0.0068160002119839191437 0.0068160002119839191437 0.0068160002119839191437 0.0068160002119839191437 0.0068160002119839191437 0.0068160002119839191437 0.0068160002119839191437 0.67107641696929931641 3.3304045200347900391 3.4670557975769042969 3.4531404972076416016 2.6537866592407226562 3.1129915714263916016 3.6582605838775634766 2.1239192485809326172 1.4873059988021850586 2.6626214981079101562 4.2253465652465820312 4.989818572998046875 3.6172859668731689453 3.8819217681884765625 4.3800001144409179688 4.3800001144409179688 1.8338698148727416992 2.0244438648223876953 3.3614752292633056641 3.4288508892059326172 3.4192574024200439453 4.0012192726135253906 4.0071282386779785156 0.55108028650283813477 2.7918548583984375 0.1214672476053237915 0.0068160002119839191437 0.081768251955509185791 0.12921725213527679443 0.09849850088357925415 0.45382237434387207031 0.45523586869239807129 3.4313421249389648438 3.3946962356567382812 2.6386370658874511719 4.0479617118835449219 1.7602338790893554688 1.8415594100952148438 2.1991603374481201172 0.89194262027740478516 3.1164891719818115234 2.9179952144622802734 4.0340209007263183594 4.3237504959106445312 5.1058316230773925781 4.3139057159423828125 4.0170025825500488281 4.0056281089782714844 4.4406514167785644531 4.5843381881713867188 4.8759746551513671875 4.8755950927734375 4.9803667068481445312 3.5476932525634765625 1.8663263320922851562 1.4697862863540649414 2.1746525764465332031 1.9293488264083862305 1.4226142168045043945 3.1392734050750732422 3.0986967086791992188 4.0504913330078125 4.1334166526794433594 3.9754848480224609375 0.38503724336624145508 0.77777081727981567383 2.1447806358337402344 3.4037888050079345703 2.1020972728729248047 2.3950908184051513672 1.7793077230453491211 
0.0068160002119839191437 0.0068160002119839191437 0.0068160002119839191437 0.0068160002119839191437 0.0068160002119839191437 0.0068160002119839191437 0.0068160002119839191437 0.0068160002119839191437 0.0068160002119839191437 0.0068160002119839191437 0.0068160002119839191437 0.0068160002119839191437 0.0068160002119839191437 0.0068160002119839191437 0.034065000712871551514 0.59620529413223266602 3.4229269027709960938 4.0024204254150390625 3.9179029464721679688 3.9201531410217285156 3.6445112228393554688 3.4505085945129394531 2.8828501701354980469 2.5978116989135742188 2.7981209754943847656 3.5203573703765869141 1.1610860824584960938 5.0844864845275878906 3.0582408905029296875 3.1207108497619628906 3.8823125362396240234 5.3732590675354003906 1.1173677444458007812 0.24271874129772186279 3.0423846244812011719 3.8924653530120849609 3.1250326633453369141 3.9418511390686035156 4.2551183700561523438 3.1196064949035644531 3.2375209331512451172 0.15369750559329986572 0.031296249479055404663 0.4233036339282989502 0.0068160002119839191437 0.061313997954130172729 0.54926848411560058594 1.7163385152816772461 3.1822085380554199219 2.5498440265655517578 1.5134503841400146484 3.7501401901245117188 3.535491943359375 2.8029642105102539062 2.8086445331573486328 3.9993016719818115234 4.51318359375 4.2758913040161132812 3.3619279861450195312 6.6234798431396484375 4.718502044677734375 4.0210208892822265625 3.7629315853118896484 3.9642655849456787109 6.1624398231506347656 4.0164136886596679688 4.0066256523132324219 4.0201067924499511719 4.9494156837463378906 3.6549799442291259766 3.7207119464874267578 3.3687593936920166016 1.1665587425231933594 1.3346731662750244141 2.0968735218048095703 2.88471221923828125 2.3612248897552490234 2.1631531715393066406 2.3840265274047851562 1.6715931892395019531 0.45704987645149230957 0.21172700822353363037 1.6725791692733764648 2.3090701103210449219 1.9563698768615722656 2.4560141563415527344 2.5058832168579101562 
0.0068160002119839191437 0.0068160002119839191437 0.0068160002119839191437 0.0068160002119839191437 0.0068160002119839191437 0.0068160002119839191437 0.0068160002119839191437 0.0068160002119839191437 0.0068160002119839191437 0.0068160002119839191437 0.0068160002119839191437 0.0068160002119839191437 0.0068160002119839191437 0.63521099090576171875 0.72761464118957519531 0.60045266151428222656 3.0076410770416259766 3.8610529899597167969 4.0048885345458984375 4.0257110595703125 3.6076107025146484375 3.926013946533203125 2.6452801227569580078 4.5917191505432128906 3.6211969852447509766 1.2615147829055786133 1.7132251262664794922 3.8926968574523925781 3.8644611835479736328 3.8703541755676269531 0.34978750348091125488 3.6194937229156494141 3.0211997032165527344 1.3706983327865600586 3.8920693397521972656 3.8981337547302246094 2.356353759765625 2.8814761638641357422 3.8663525581359863281 3.9812748432159423828 3.2357304096221923828 3.4486649036407470703 3.7348568439483642578 2.3665099143981933594 2.6990654468536376953 3.4516386985778808594 1.4971370697021484375 2.3921875953674316406 2.2755155563354492188 3.2190718650817871094 3.2657160758972167969 3.0129766464233398438 2.6378917694091796875 1.5570737123489379883 1.2455763816833496094 2.6372022628784179688 2.9703152179718017578 5.4606328010559082031 3.9910941123962402344 5.8180074691772460938 4.6632351875305175781 4.1106138229370117188 3.1866509914398193359 1.6540410518646240234 4.5674786567687988281 5.7268342971801757812 3.5801234245300292969 3.6025366783142089844 3.6237492561340332031 3.6103355884552001953 3.4497621059417724609 0.29056251049041748047 0.22921539843082427979 2.01342010498046875 2.9606812000274658203 2.2401115894317626953 2.7412397861480712891 3.2615680694580078125 4.3102517127990722656 3.2127864360809326172 3.4815382957458496094 2.5103664398193359375 1.7234506607055664062 3.4862687587738037109 2.112728118896484375 2.3073053359985351562 0.3055000007152557373 
0.0068160002119839191437 0.0068160002119839191437 0.0068160002119839191437 0.0068160002119839191437 0.0068160002119839191437 0.0068160002119839191437 0.0068160002119839191437 0.0068160002119839191437 0.0068160002119839191437 0.0068160002119839191437 0.0068160002119839191437 0.0068160002119839191437 0.88128602504730224609 1.7862451076507568359 3.1550793647766113281 1.7448205947875976562 1.5816540718078613281 3.9036219120025634766 4.0025439262390136719 4.0146193504333496094 4.0228071212768554688 3.5669999122619628906 2.7530598640441894531 2.4602630138397216797 4.741497039794921875 3.0308995246887207031 1.8628739118576049805 4.2507486343383789062 4.0933437347412109375 5.1228823661804199219 1.666306614875793457 4.3365411758422851562 2.1488864421844482422 3.0244963169097900391 2.3050923347473144531 2.6837034225463867188 4.5437903404235839844 2.7168684005737304688 1.532387852668762207 2.0171999931335449219 1.8936237096786499023 1.7885024547576904297 1.567938685417175293 2.8231317996978759766 3.4767680168151855469 2.9421257972717285156 1.4352916479110717773 1.2191929817199707031 3.1850230693817138672 3.1842529773712158203 3.113525390625 3.3860752582550048828 3.2351262569427490234 2.2396588325500488281 3.4815976619720458984 3.6875011920928955078 3.3866286277770996094 4.2143297195434570312 4.1414103507995605469 6.8731174468994140625 5.5179152488708496094 5.7170305252075195312 4.0512890815734863281 2.6400053501129150391 3.3288788795471191406 3.5001306533813476562 3.9747703075408935547 3.5258822441101074219 2.4808893203735351562 2.7826855182647705078 3.3993773460388183594 3.0935308933258056641 2.5697543621063232422 2.4185786247253417969 2.6102628707885742188 2.0119841098785400391 2.2578918933868408203 4.2981891632080078125 3.9690935611724853516 3.8963489532470703125 3.5829777717590332031 3.7693891525268554688 1.053806304931640625 3.9373772144317626953 2.5230464935302734375 2.1525709629058837891 0.39849999547004699707 
0.0068160002119839191437 0.0068160002119839191437 0.0068160002119839191437 0.0068160002119839191437 0.0068160002119839191437 0.26775404810905456543 1.6402275562286376953 2.7954623699188232422 1.0085510015487670898 0.034065000712871551514 0.0068160002119839191437 0.061313997954130172729 3.0732064247131347656 3.5130364894866943359 4.010662078857421875 3.6547999382019042969 3.6644687652587890625 3.8350050449371337891 3.9989778995513916016 3.9197201728820800781 4.0252747535705566406 2.4359374046325683594 2.8791623115539550781 4.9262766838073730469 4.4305672645568847656 0.96034276485443115234 3.8471500873565673828 1.6117303371429443359 3.6214604377746582031 5.7722630500793457031 3.5986754894256591797 5.2696995735168457031 3.8229017257690429688 4.4719166755676269531 3.8213903903961181641 3.1556212902069091797 3.9418847560882568359 4.1069517135620117188 3.8775634765625 2.7183775901794433594 2.3149085044860839844 1.6396960020065307617 2.4699189662933349609 2.9601774215698242188 2.9742155075073242188 1.4845545291900634766 1.0523589849472045898 1.8871929645538330078 3.1552989482879638672 3.1633810997009277344 3.3618011474609375 3.9109544754028320312 4.1338486671447753906 2.1552169322967529297 3.8782024383544921875 3.9275975227355957031 4.370792388916015625 4.0022439956665039062 4.5596003532409667969 5.8747100830078125 5.0330815315246582031 4.5335869789123535156 2.4276051521301269531 3.6047937870025634766 3.4459605216979980469 2.4783022403717041016 0.92243933677673339844 1.9702869653701782227 0.59746021032333374023 1.7643171548843383789 1.5399105548858642578 2.0691370964050292969 1.83620452880859375 2.5529057979583740234 3.0846986770629882812 1.5098758935928344727 2.5557687282562255859 4.0147027969360351562 3.9701130390167236328 3.9413149356842041016 3.4804515838623046875 3.683277130126953125 1.0782984495162963867 3.4129171371459960938 3.47951507568359375 3.1211800575256347656 0.39849999547004699707 
0.0068160002119839191437 0.0068160002119839191437 0.0068160002119839191437 0.039393313229084014893 1.0646394491195678711 2.8830292224884033203 2.4332308769226074219 5.414516448974609375 4.9281506538391113281 0.76296073198318481445 0.088562995195388793945 1.2363569736480712891 1.4758888483047485352 3.5030548572540283203 4.014713287353515625 4.0158452987670898438 4.0090765953063964844 4.0170226097106933594 3.5325136184692382812 3.5328378677368164062 1.9600305557250976562 2.7414636611938476562 1.5730807781219482422 3.1033337116241455078 2.5269558429718017578 1.593479156494140625 3.80443572998046875 3.9884295463562011719 6.1161961555480957031 4.5241694450378417969 5.2285761833190917969 3.135372161865234375 3.8840477466583251953 2.6544585227966308594 1.9290052652359008789 4.0794820785522460938 4.2970795631408691406 3.2447619438171386719 2.6425364017486572266 3.1386153697967529297 3.0763525962829589844 1.8211190700531005859 3.3781924247741699219 2.6960163116455078125 2.7469687461853027344 0.53553801774978637695 1.9412173032760620117 3.4070034027099609375 3.1153650283813476562 3.2167060375213623047 3.6203336715698242188 3.4440615177154541016 3.9917745590209960938 3.5879757404327392578 3.8167476654052734375 4.9107198715209960938 3.7883520126342773438 5.5917639732360839844 5.0999536514282226562 5.8748373985290527344 4.819427490234375 3.0841093063354492188 3.9774222373962402344 1.4120702743530273438 5.1010303497314453125 3.9200911521911621094 2.8094720840454101562 3.4630377292633056641 3.2596437931060791016 3.6441793441772460938 2.9705653190612792969 2.5914027690887451172 4.4009957313537597656 4.7706866264343261719 2.3174741268157958984 2.1181652545928955078 3.8440086841583251953 3.4185380935668945312 4.0103526115417480469 3.8061745166778564453 3.5459029674530029297 2.1275463104248046875 2.6228790283203125 3.6825735569000244141 3.3406045436859130859 3.3605427742004394531 0.39849999547004699707 
0.061313997954130172729 0.37355545163154602051 1.5694208145141601562 2.9049127101898193359 3.4388692378997802734 1.7724746465682983398 2.8328051567077636719 3.9027235507965087891 2.2861950397491455078 2.3326230049133300781 1.8209106922149658203 2.6574749946594238281 0.15783105790615081787 3.5856637954711914062 3.7547116279602050781 3.8546788692474365234 3.9345681667327880859 2.8892354965209960938 1.4648798704147338867 2.1423788070678710938 1.0332927703857421875 3.2426640987396240234 0.89106792211532592773 1.135195612907409668 1.1634486913681030273 1.2149804830551147461 3.5268976688385009766 4.4762368202209472656 6.6236429214477539062 5.2971806526184082031 4.3141999244689941406 2.7061305046081542969 2.6145582199096679688 3.0567314624786376953 3.237529754638671875 3.8499197959899902344 0.77083122730255126953 3.4762873649597167969 0.95332252979278564453 1.8487318754196166992 0.73505371809005737305 2.2990078926086425781 2.8231866359710693359 2.8490042686462402344 3.8260023593902587891 0.49436023831367492676 2.6640458106994628906 3.4051177501678466797 3.4626264572143554688 3.3941912651062011719 3.6959488391876220703 3.9488623142242431641 3.80622100830078125 3.8848919868469238281 3.9592709541320800781 3.5481989383697509766 4.6966280937194824219 3.1950535774230957031 4.0669012069702148438 6.3243298530578613281 4.015308380126953125 3.9309592247009277344 3.7369244098663330078 1.602454066276550293 1.5693988800048828125 2.1717636585235595703 2.065822601318359375 2.5409040451049804688 2.5487844944000244141 2.459339141845703125 1.9854063987731933594 2.4497025012969970703 2.0046050548553466797 1.9327559471130371094 2.364505767822265625 1.859276890754699707 4.3800001144409179688 3.1557281017303466797 3.9837880134582519531 4.0578851699829101562 3.8664019107818603516 0.89049077033996582031 2.8099832534790039062 1.8842910528182983398 2.220844268798828125 2.2248210906982421875 0.32189226150512695312 
3.24694061279296875 3.7403562068939208984 4.7265429496765136719 4.9845185279846191406 2.0270981788635253906 3.0532503128051757812 2.1644258499145507812 3.0086491107940673828 2.0181477069854736328 5.7081346511840820312 0.91919165849685668945 3.6417751312255859375 1.5747991800308227539 3.6544625759124755859 3.0381476879119873047 2.3366091251373291016 1.3721904754638671875 1.1553605794906616211 1.998457789421081543 3.0929770469665527344 0.74707061052322387695 1.7613960504531860352 0.33025962114334106445 2.0448863506317138672 1.8295875787734985352 2.2626793384552001953 3.6246740818023681641 4.3386125564575195312 6.2475838661193847656 2.0651926994323730469 2.7435450553894042969 1.7469737529754638672 3.3034524917602539062 3.7496471405029296875 3.9759721755981445312 2.4877390861511230469 2.8266274929046630859 3.3320684432983398438 1.2118865251541137695 1.4777239561080932617 0.69872057437896728516 2.3731946945190429688 3.0010919570922851562 3.0991520881652832031 3.6198012828826904297 2.9787392616271972656 1.36356353759765625 1.3579059839248657227 3.5913362503051757812 2.841716766357421875 2.36753082275390625 3.0248899459838867188 3.4712042808532714844 3.8999266624450683594 5.2397308349609375 3.7410809993743896484 4.630603790283203125 5.0602855682373046875 5.6459221839904785156 7.0537962913513183594 3.9821257591247558594 3.8807525634765625 2.3738093376159667969 2.7653272151947021484 2.4159650802612304688 3.6921093463897705078 2.5852031707763671875 1.9069839715957641602 2.9184243679046630859 2.1098093986511230469 3.5019507408142089844 2.460712432861328125 3.6304659843444824219 2.0161919593811035156 1.7323946952819824219 1.0612844228744506836 4.3800001144409179688 4.0533986091613769531 3.9454569816589355469 3.8453571796417236328 3.6746535301208496094 1.1240001916885375977 0.41578274965286254883 0.18625625967979431152 0.81827241182327270508 1.8732123374938964844 1.1007025241851806641 
3.9341671466827392578 3.2506477832794189453 2.5505740642547607422 3.7966046333312988281 1.8526123762130737305 2.6436541080474853516 2.5197463035583496094 3.4672579765319824219 2.5897076129913330078 3.7784817218780517578 0.1430609971284866333 1.2689343690872192383 1.7913296222686767578 2.2283027172088623047 2.2182047367095947266 0.6240444183349609375 0.33839905261993408203 0.092069000005722045898 1.4065450429916381836 2.8450350761413574219 0.8964627385139465332 4.2013669013977050781 2.7121765613555908203 1.8042567968368530273 1.5677264928817749023 4.1060857772827148438 3.7277276515960693359 4.5654377937316894531 5.3789234161376953125 4.0942311286926269531 3.4250168800354003906 1.4631180763244628906 4.0408067703247070312 4.0162639617919921875 3.7463886737823486328 0.68829959630966186523 0.40072500705718994141 0.3827374875545501709 0.93506932258605957031 2.4781281948089599609 0.1877142488956451416 3.750438690185546875 2.8888869285583496094 3.3299784660339355469 3.5211977958679199219 3.9674696922302246094 0.25132480263710021973 2.9414470195770263672 3.7274265289306640625 2.8630845546722412109 2.77095794677734375 2.6996552944183349609 3.2201635837554931641 5.4671368598937988281 3.9712646007537841797 3.7626280784606933594 4.2988333702087402344 5.98513031005859375 5.912837982177734375 5.6250963211059570312 4.8950099945068359375 3.7045037746429443359 3.0652003288269042969 2.7015748023986816406 2.900775909423828125 3.4656817913055419922 1.9242608547210693359 3.5671329498291015625 3.9547266960144042969 2.2382626533508300781 1.990441441535949707 2.3425924777984619141 3.7176179885864257812 3.9417746067047119141 2.0635623931884765625 2.4056050777435302734 3.4329469203948974609 3.5674335956573486328 3.5857532024383544922 3.5421357154846191406 3.1559221744537353516 1.213470458984375 0.13534374535083770752 0.22416250407695770264 1.2920598983764648438 1.1818938255310058594 2.1534714698791503906 
3.3800427913665771484 2.7293443679809570312 2.1042361259460449219 2.6067974567413330078 2.9533176422119140625 3.0210149288177490234 3.6417038440704345703 2.6661527156829833984 3.6382477283477783203 2.8549237251281738281 1.0992779731750488281 0.16888593137264251709 1.5085834264755249023 2.0478513240814208984 1.8610413074493408203 0.77514064311981201172 0.68194174766540527344 0.092069000005722045898 1.8891348838806152344 3.9254219532012939453 3.5973653793334960938 3.9983522891998291016 2.9618744850158691406 2.3130588531494140625 2.7105355262756347656 2.5920076370239257812 4.1133570671081542969 4.0007724761962890625 4.5660409927368164062 3.8571949005126953125 3.0528619289398193359 2.591259002685546875 2.9056630134582519531 5.4777998924255371094 2.3390955924987792969 2.8882746696472167969 0.35588124394416809082 0.28060001134872436523 2.5240292549133300781 3.8908207416534423828 1.5266480445861816406 4.1856145858764648438 3.5831797122955322266 3.1082777976989746094 3.6153149604797363281 1.2633985280990600586 1.1658930778503417969 4.2074017524719238281 3.1663329601287841797 2.3790187835693359375 1.4758820533752441406 2.6946294307708740234 3.0861990451812744141 3.6130020618438720703 2.5592486858367919922 3.9644284248352050781 4.293792724609375 6.8079481124877929688 5.3139553070068359375 5.2708640098571777344 4.3845572471618652344 1.7719513177871704102 1.3869414329528808594 1.9917752742767333984 3.0938937664031982422 2.4855096340179443359 2.1951072216033935547 3.1374585628509521484 3.98584747314453125 3.0919771194458007812 0.0068160002119839191437 0.0068160002119839191437 2.4774105548858642578 3.9469823837280273438 2.4680216312408447266 3.5005011558532714844 3.3539915084838867188 2.8636946678161621094 2.9431133270263671875 3.3130552768707275391 2.9192535877227783203 0.8064937591552734375 0.093281254172325134277 0.37608748674392700195 0.38299998641014099121 0.76794683933258056641 1.0673875808715820312 
2.5003788471221923828 2.1442608833312988281 2.6336920261383056641 1.6223610639572143555 2.6174168586730957031 2.7998998165130615234 3.0690085887908935547 4.3472456932067871094 4.8763308525085449219 4.1339249610900878906 1.1749569177627563477 2.9649550914764404297 3.7270486354827880859 2.1110918521881103516 1.6725090742111206055 0.28869324922561645508 0.33589863777160644531 0.43077486753463745117 2.0220758914947509766 3.5825600624084472656 4.0125370025634765625 3.8834073543548583984 0.97260046005249023438 1.6706128120422363281 3.4940781593322753906 3.2792556285858154297 5.0100622177124023438 5.2069597244262695312 6.467365264892578125 2.4612977504730224609 1.6126415729522705078 3.3462691307067871094 3.3016872406005859375 4.8416571617126464844 3.6624703407287597656 2.1101565361022949219 0.64386349916458129883 2.2879281044006347656 3.8676402568817138672 2.3200275897979736328 0.67122560739517211914 2.4100131988525390625 3.2358081340789794922 3.219379425048828125 3.4868171215057373047 1.9931517839431762695 0.42295768857002258301 1.5354937314987182617 2.1506981849670410156 0.81317061185836791992 1.4221590757369995117 1.7174048423767089844 2.7401568889617919922 3.7445216178894042969 2.9362978935241699219 3.8383240699768066406 3.470539093017578125 6.6355495452880859375 4.2300977706909179688 5.3756780624389648438 5.5972509384155273438 3.9979302883148193359 2.7553122043609619141 1.8993264436721801758 2.6290173530578613281 4.1510229110717773438 2.8481905460357666016 3.7137179374694824219 3.8693897724151611328 3.8859190940856933594 0.68499827384948730469 0.99104571342468261719 3.7121958732604980469 3.6001105308532714844 3.5676081180572509766 4.6291961669921875 2.1386172771453857422 2.7695260047912597656 4.091766357421875 3.0890588760375976562 2.8652439117431640625 2.8664221763610839844 2.5135319232940673828 2.5698046684265136719 2.4370694160461425781 3.7206017971038818359 3.2180042266845703125 
3.6526131629943847656 4.208965301513671875 3.8825688362121582031 3.5545313358306884766 3.0252399444580078125 2.5114209651947021484 3.59806060791015625 4.562389373779296875 4.8778657913208007812 3.8215055465698242188 2.1095607280731201172 2.6438720226287841797 3.2982869148254394531 0.67296588420867919922 2.3046567440032958984 0.33589863777160644531 0.78092283010482788086 1.059777379035949707 1.9138855934143066406 3.1617093086242675781 2.7893793582916259766 3.8895862102508544922 2.9108846187591552734 1.451369166374206543 1.8622020483016967773 3.9408221244812011719 4.5073289871215820312 4.8769025802612304688 5.9269704818725585938 2.7572257518768310547 1.2083631753921508789 4.0439167022705078125 3.4816510677337646484 2.5517385005950927734 3.3500905036926269531 3.9816327095031738281 3.9119570255279541016 3.8593366146087646484 3.4981138706207275391 2.4984118938446044922 1.4603348970413208008 2.9970030784606933594 2.9835860729217529297 3.1971004009246826172 3.7348887920379638672 4.0418114662170410156 1.8262351751327514648 1.0276120901107788086 1.2341203689575195312 1.5342626571655273438 2.1226761341094970703 0.8020865321159362793 3.3890316486358642578 3.340663909912109375 3.2348809242248535156 3.888080596923828125 3.4755773544311523438 4.8077006340026855469 5.0108499526977539062 5.6561217308044433594 4.4936785697937011719 3.9968051910400390625 3.9012126922607421875 3.6953487396240234375 3.5379247665405273438 3.6610822677612304688 3.5038785934448242188 3.965595245361328125 3.9717617034912109375 3.9542248249053955078 1.2350465059280395508 1.8325536251068115234 3.6489362716674804688 3.41947174072265625 3.7325396537780761719 2.4789018630981445312 2.5664346218109130859 3.9223101139068603516 3.0059587955474853516 2.4026172161102294922 2.3752877712249755859 3.2686555385589599609 3.2721028327941894531 3.2230265140533447266 3.3194112777709960938 3.7955603599548339844 3.5030603408813476562 
2.9335813522338867188 1.7312549352645874023 3.3986566066741943359 2.7471957206726074219 3.1418430805206298828 2.8578350543975830078 3.1315681934356689453 3.3846251964569091797 2.84478759765625 2.1442778110504150391 2.4040074348449707031 3.6473166942596435547 1.3324427604675292969 1.7609537839889526367 3.2530965805053710938 0.092069000005722045898 1.6372956037521362305 2.7154490947723388672 2.4167616367340087891 0.62806040048599243164 2.9351232051849365234 3.4652059078216552734 3.915538787841796875 2.3829274177551269531 3.9047780036926269531 5.2431807518005371094 5.8277387619018554688 4.7429742813110351562 3.6020762920379638672 2.1961286067962646484 2.3598711490631103516 4.4789218902587890625 5.0412878990173339844 4.4277606010437011719 2.8183979988098144531 5.0187549591064453125 4.5283513069152832031 5.4283223152160644531 4.7244124412536621094 4.6015043258666992188 3.4312674999237060547 3.8594987392425537109 3.6613185405731201172 3.4762456417083740234 3.4987540245056152344 5.3093166351318359375 2.6942238807678222656 3.0447714328765869141 2.9054181575775146484 2.0823452472686767578 1.1899187564849853516 1.6640616655349731445 2.6516294479370117188 3.3834934234619140625 3.5406472682952880859 3.9912655353546142578 4.4063029289245605469 5.5748386383056640625 5.7078027725219726562 5.7220692634582519531 4.3446378707885742188 3.9791681766510009766 3.9553983211517333984 3.2018194198608398438 1.868649601936340332 1.2652353048324584961 2.6827180385589599609 3.6149523258209228516 3.8596944808959960938 3.9613740444183349609 0.99862873554229736328 1.1438887119293212891 2.4838674068450927734 3.7175698280334472656 3.684429168701171875 1.8653194904327392578 3.9452204704284667969 3.9650881290435791016 0.52213698625564575195 0.092069000005722045898 0.092069000005722045898 2.6172707080841064453 2.626659393310546875 3.2857830524444580078 3.1132204532623291016 3.3332030773162841797 2.0598056316375732422 
2.7614696025848388672 3.1150555610656738281 1.1391713619232177734 4.6262106895446777344 4.3826260566711425781 4.1474938392639160156 6.1256608963012695312 5.8536019325256347656 4.3543443679809570312 4.0280737876892089844 4.0168943405151367188 3.8651385307312011719 1.7348446846008300781 3.1276178359985351562 2.2938599586486816406 0.092069000005722045898 3.3000557422637939453 3.5772290229797363281 1.409916996955871582 3.1645424365997314453 3.5864558219909667969 3.5086064338684082031 3.4232385158538818359 2.4651851654052734375 3.5444586277008056641 2.7136685848236083984 3.1363031864166259766 2.8172922134399414062 4.5613989830017089844 1.6285802125930786133 3.5545248985290527344 4.30162811279296875 5.33864593505859375 3.9040348529815673828 3.8983395099639892578 3.0727260112762451172 2.9416711330413818359 4.1322216987609863281 3.581272125244140625 4.3452544212341308594 6.1008138656616210938 3.6797950267791748047 2.9251384735107421875 4.2692556381225585938 3.7464373111724853516 4.627010345458984375 4.5880589485168457031 2.8523058891296386719 2.0914843082427978516 1.2170243263244628906 1.2946989536285400391 2.1422405242919921875 1.270863652229309082 2.3875937461853027344 4.0761694908142089844 4.184597015380859375 5.3910379409790039062 6.2978191375732421875 5.0420751571655273438 6.1357622146606445312 4.3421883583068847656 3.9865057468414306641 3.176502227783203125 2.9256358146667480469 1.8796193599700927734 2.228061676025390625 2.8527879714965820312 3.6357533931732177734 3.8830461502075195312 3.8832464218139648438 1.648995518684387207 0.73311531543731689453 3.1449940204620361328 3.4928634166717529297 2.0507853031158447266 3.6324994564056396484 2.8860480785369873047 3.8708398342132568359 3.674983978271484375 0.092069000005722045898 0.092069000005722045898 1.7570875883102416992 1.114767909049987793 2.9548442363739013672 2.3331809043884277344 2.5747463703155517578 2.6179659366607666016 
2.8362934589385986328 1.7628667354583740234 0.73990255594253540039 4.0463056564331054688 6.3519735336303710938 4.6293520927429199219 4.8781075477600097656 3.6163251399993896484 3.0109889507293701172 3.9432096481323242188 4.007293701171875 3.5939178466796875 3.6304147243499755859 3.1559879779815673828 2.8720853328704833984 2.519237518310546875 3.7016384601593017578 3.423557281494140625 3.8093621730804443359 2.3759233951568603516 3.3425014019012451172 2.5452554225921630859 4.4989867210388183594 4.2202138900756835938 2.8868491649627685547 2.5510210990905761719 3.0967259407043457031 2.2463436126708984375 3.9693555831909179688 1.6981443166732788086 3.7406160831451416016 3.7841601371765136719 6.050411224365234375 5.226100921630859375 4.0328502655029296875 4.6644506454467773438 6.6203818321228027344 5.5717148780822753906 3.9294846057891845703 1.6091771125793457031 2.6312758922576904297 2.4617254734039306641 3.4538121223449707031 3.4396572113037109375 3.6146140098571777344 4.0240464210510253906 2.8707742691040039062 4.0232911109924316406 2.4841332435607910156 0.96745377779006958008 2.0108876228332519531 2.1861460208892822266 3.9609487056732177734 3.4398431777954101562 3.7537534236907958984 3.9835491180419921875 4.5072379112243652344 6.3741312026977539062 5.5178098678588867188 5.3746685981750488281 3.9880528450012207031 3.9839246273040771484 3.7432541847229003906 3.4692933559417724609 3.7461707592010498047 2.5411145687103271484 2.2283079624176025391 3.6525204181671142578 3.8921411037445068359 3.8236184120178222656 3.9396066665649414062 0.50596272945404052734 0.75524276494979858398 0.7540378570556640625 1.4157875776290893555 3.3618609905242919922 1.5450751781463623047 0.76171314716339111328 1.9899610280990600586 0.59068065881729125977 0.5325228571891784668 1.7005054950714111328 2.7058141231536865234 2.6610028743743896484 3.3349139690399169922 2.9768872261047363281 1.6517202854156494141 
3.2526946067810058594 3.2808458805084228516 2.5553047657012939453 4.6199402809143066406 5.6845078468322753906 4.6293020248413085938 5.0795507431030273438 2.4195952415466308594 1.9118645191192626953 3.9260163307189941406 3.9801247119903564453 3.6052598953247070312 3.5111510753631591797 3.4797914028167724609 3.2973563671112060547 3.4810845851898193359 3.7720894813537597656 2.9933791160583496094 2.5736842155456542969 0.47805082798004150391 1.5020097494125366211 3.7658393383026123047 4.1045856475830078125 2.9151210784912109375 2.7628850936889648438 3.4954066276550292969 3.7583606243133544922 3.7748978137969970703 4.1816143989562988281 1.1304589509963989258 1.7372188568115234375 2.4952974319458007812 1.9037512540817260742 3.8054399490356445312 2.6610004901885986328 4.0397806167602539062 4.977962493896484375 4.765209197998046875 1.9005225896835327148 3.4918198585510253906 3.7354211807250976562 3.678981781005859375 2.5961365699768066406 2.4616456031799316406 1.7914578914642333984 3.3457593917846679688 2.5263605117797851562 2.5929024219512939453 3.7274003028869628906 2.2587616443634033203 3.0470249652862548828 2.3183186054229736328 2.7154557704925537109 3.022052764892578125 4.41960906982421875 4.7350258827209472656 4.8180952072143554688 6.3001008033752441406 4.215911865234375 6.3735752105712890625 5.7462296485900878906 3.8432924747467041016 3.2098042964935302734 3.6255841255187988281 2.9010174274444580078 2.7802581787109375 3.6897788047790527344 3.8890459537506103516 3.4136884212493896484 2.0146360397338867188 2.9942228794097900391 0.0068160002119839191437 0.0068160002119839191437 1.6521036624908447266 4.7439208030700683594 1.4165700674057006836 1.0893867015838623047 0.60967087745666503906 1.7073104381561279297 1.9873125553131103516 1.336819767951965332 2.8374421596527099609 3.4209537506103515625 3.1298725605010986328 2.7673051357269287109 0.49662926793098449707 2.9545397758483886719 
2.1497120857238769531 2.9606001377105712891 2.5529015064239501953 4.0921726226806640625 6.1258192062377929688 5.1277151107788085938 4.7762179374694824219 2.041278839111328125 3.0757431983947753906 4.01357269287109375 3.7126777172088623047 3.26236724853515625 3.8670971393585205078 3.9176881313323974609 3.1440193653106689453 3.3612396717071533203 2.9348847866058349609 1.2348420619964599609 1.2249082326889038086 0.092069000005722045898 0.092069000005722045898 3.5853736400604248047 5.3626694679260253906 3.9480288028717041016 3.9966979026794433594 3.7330281734466552734 4.0493969917297363281 4.0646123886108398438 3.9998688697814941406 1.3463473320007324219 2.9905920028686523438 2.6974551677703857422 2.0822651386260986328 4.8873138427734375 3.3849422931671142578 3.4613296985626220703 4.5525946617126464844 4.8028726577758789062 2.5002148151397705078 3.0422520637512207031 4.7228875160217285156 4.6134519577026367188 4.0310106277465820312 4.4096808433532714844 3.4613478183746337891 4.7210874557495117188 3.8774886131286621094 0.36861249804496765137 3.0590052604675292969 4.2851386070251464844 4.3417935371398925781 2.8840031623840332031 3.5141384601593017578 4.0197386741638183594 3.7994303703308105469 4.5695476531982421875 4.5662016868591308594 5.0392880439758300781 4.2393965721130371094 5.2857675552368164062 4.6794505119323730469 2.4431319236755371094 1.3951493501663208008 3.0578732490539550781 3.8746707439422607422 3.0250787734985351562 3.719638824462890625 3.8491442203521728516 2.6251876354217529297 1.2757506370544433594 3.3159761428833007812 1.134106755256652832 1.9662768840789794922 4.7759332656860351562 3.3346602916717529297 3.9761118888854980469 2.3993780612945556641 0.88774514198303222656 2.1692962646484375 2.3836932182312011719 2.7236540317535400391 2.9449372291564941406 2.8472638130187988281 3.0406291484832763672 3.0406291484832763672 1.7936841249465942383 3.5991125106811523438 
2.6928570270538330078 2.9839527606964111328 4.3813614845275878906 5.9876575469970703125 5.2409992218017578125 5.8755717277526855469 2.6011989116668701172 1.4488174915313720703 3.3232097625732421875 3.9739065170288085938 3.8537392616271972656 3.7009720802307128906 3.691371917724609375 3.75959014892578125 3.2370855808258056641 2.8558580875396728516 1.1131981611251831055 0.73456025123596191406 0.43077486753463745117 0.092069000005722045898 1.3161745071411132812 3.8471486568450927734 4.5383052825927734375 3.9677433967590332031 4.0051259994506835938 4.2974915504455566406 4.233642578125 4.7813458442687988281 0.34094375371932983398 2.2047126293182373047 3.8793959617614746094 3.2748355865478515625 2.5519769191741943359 3.529998779296875 3.2949414253234863281 3.9015996456146240234 3.8624734878540039062 2.8042330741882324219 3.8554859161376953125 4.5826449394226074219 3.8426277637481689453 4.3971166610717773438 3.9031500816345214844 3.5131328105926513672 3.9242947101593017578 5.0193414688110351562 3.3459188938140869141 0.35311248898506164551 4.4000563621520996094 3.1906149387359619141 2.2115092277526855469 1.3405338525772094727 3.6411345005035400391 3.3868308067321777344 3.3728861808776855469 4.5485510826110839844 4.3734645843505859375 4.0645599365234375 6.374019622802734375 4.3245792388916015625 4.7902560234069824219 1.2081110477447509766 1.9863865375518798828 1.4394918680191040039 1.8923326730728149414 3.2605736255645751953 3.8074789047241210938 3.4196448326110839844 3.1996564865112304688 0.4821618497371673584 2.743030548095703125 3.1834504604339599609 3.8481988906860351562 4.0443334579467773438 3.0267972946166992188 3.0268561840057373047 1.7225217819213867188 0.79931509494781494141 2.5515301227569580078 2.2776288986206054688 2.5230643749237060547 2.4990136623382568359 3.0464632511138916016 4.1066761016845703125 1.7065863609313964844 3.0855400562286376953 4.0373086929321289062 
2.2119188308715820312 4.5131378173828125 5.5354866981506347656 4.8154239654541015625 4.2537455558776855469 5.3764281272888183594 4.0373864173889160156 1.9938906431198120117 3.2866199016571044922 3.6183130741119384766 3.3895764350891113281 3.0910081863403320312 3.3133311271667480469 3.0845944881439208984 3.0836699008941650391 2.3142881393432617188 0.57912367582321166992 0.092069000005722045898 0.092069000005722045898 0.36354494094848632812 2.6614851951599121094 3.5156056880950927734 3.9679236412048339844 3.9879405498504638672 4.560459136962890625 5.754825592041015625 5.2057576179504394531 5.8003435134887695312 3.1571412086486816406 2.7984890937805175781 3.8903827667236328125 3.6863064765930175781 3.6756346225738525391 4.05706024169921875 3.9203901290893554688 5.0115675926208496094 4.1148428916931152344 3.0444979667663574219 4.1929521560668945312 3.963100433349609375 4.8028569221496582031 4.0390992164611816406 3.7826995849609375 3.6841776371002197266 3.7776074409484863281 4.8951005935668945312 1.0780277252197265625 3.0709087848663330078 3.3760173320770263672 1.3196452856063842773 1.9481798410415649414 3.0047118663787841797 4.24382781982421875 4.3701114654541015625 4.0498795509338378906 4.1229100227355957031 4.3762273788452148438 5.7082381248474121094 5.264862060546875 5.6244058609008789062 5.1302309036254882812 4.0197930335998535156 2.7519524097442626953 2.1639482975006103516 2.0742843151092529297 2.7448551654815673828 2.4272494316101074219 2.25127410888671875 2.0672323703765869141 0.80768322944641113281 2.2401423454284667969 2.3771893978118896484 3.9065339565277099609 3.7050244808197021484 4.5160646438598632812 2.1200077533721923828 0.85343307256698608398 1.4169431924819946289 1.154979705810546875 1.845526576042175293 2.4035830497741699219 2.9250991344451904297 3.0927526950836181641 2.1934080123901367188 2.5152943134307861328 3.7031707763671875 4.0373086929321289062 
3.7215704917907714844 5.8520407676696777344 5.9639792442321777344 3.9851026535034179688 4.67369842529296875 4.8770284652709960938 4.6933503150939941406 1.8852669000625610352 3.5008547306060791016 3.8374493122100830078 3.7620105743408203125 3.4216444492340087891 3.0845944881439208984 3.3839695453643798828 2.6089816093444824219 0.33589863777160644531 1.9506891965866088867 0.57979881763458251953 0.60183429718017578125 3.4584393501281738281 3.9094636440277099609 3.9109988212585449219 3.9103801250457763672 4.8714709281921386719 4.0705657005310058594 5.3684110641479492188 2.2498524188995361328 4.3532767295837402344 3.0898211002349853516 3.3408207893371582031 3.5798850059509277344 2.4473197460174560547 4.0363717079162597656 2.0984032154083251953 3.7177371978759765625 3.5193629264831542969 1.9811745882034301758 3.7501549720764160156 3.6635766029357910156 3.5797460079193115234 4.0293078422546386719 3.7998065948486328125 2.7272684574127197266 2.9602415561676025391 3.7392761707305908203 2.9919118881225585938 1.8879175186157226562 4.3162078857421875 0.0068160002119839191437 0.0068160002119839191437 0.58866482973098754883 2.1680593490600585938 3.3680052757263183594 3.2553477287292480469 3.4814572334289550781 4.4437985420227050781 5.3752799034118652344 5.7085270881652832031 4.6428813934326171875 4.0083932876586914062 4.3059186935424804688 4.6186995506286621094 3.6618590354919433594 3.0524325370788574219 2.2954494953155517578 3.4769208431243896484 3.0042021274566650391 0.88578295707702636719 3.5102531909942626953 3.9412119388580322266 3.6574091911315917969 3.9449629783630371094 3.88544464111328125 3.7137811183929443359 2.86423492431640625 1.440407872200012207 2.6868669986724853516 3.1480927467346191406 2.2053685188293457031 1.832322239875793457 2.4767749309539794922 3.2946209907531738281 3.0234365463256835938 4.1066761016845703125 3.8333520889282226562 2.867511749267578125 4.0187907218933105469 
4.5437374114990234375 6.3734445571899414062 5.1573991775512695312 3.9537770748138427734 4.2844762802124023438 5.0930590629577636719 5.081668853759765625 3.5645802021026611328 3.0145044326782226562 3.5704259872436523438 3.6271467208862304688 3.5308537483215332031 3.2965104579925537109 3.4658219814300537109 2.4561553001403808594 1.4365842342376708984 2.1284737586975097656 0.91538649797439575195 1.8445016145706176758 4.2310886383056640625 3.9638736248016357422 3.9184277057647705078 5.109867095947265625 4.8316125869750976562 3.9237980842590332031 3.0994038581848144531 1.9740996360778808594 4.1349406242370605469 1.7524023056030273438 3.5315988063812255859 3.0728001594543457031 4.1290569305419921875 5.3514189720153808594 1.6841342449188232422 1.742375493049621582 0.41555097699165344238 2.0227856636047363281 2.9059014320373535156 3.442562103271484375 2.5390479564666748047 3.5309875011444091797 3.4392993450164794922 2.0058424472808837891 3.0591471195220947266 4.2378258705139160156 3.717510223388671875 1.2394219636917114258 2.6079771518707275391 1.0845712423324584961 2.8898179531097412109 0.34388488531112670898 0.67119908332824707031 3.1871042251586914062 3.1566660404205322266 3.4643640518188476562 3.5184769630432128906 4.7095966339111328125 4.3769826889038085938 4.9204344749450683594 2.3558652400970458984 2.78466033935546875 2.7364666461944580078 2.9632635116577148438 3.9637300968170166016 2.7238004207611083984 1.1978352069854736328 2.0617339611053466797 2.5384113788604736328 4.072452545166015625 3.7840406894683837891 3.5843954086303710938 3.7992501258850097656 3.0588586330413818359 1.9919223785400390625 1.9126300811767578125 2.9950230121612548828 2.5622534751892089844 2.5338022708892822266 2.4859633445739746094 3.3268229961395263672 3.5549221038818359375 3.2240774631500244141 3.4240789413452148438 3.2676517963409423828 1.143345952033996582 3.1157121658325195312 4.0373086929321289062 
4.6908822059631347656 6.0537619590759277344 4.25321197509765625 3.9532363414764404297 3.8366174697875976562 4.9870562553405761719 6.1246657371520996094 5.079616546630859375 4.0019655227661132812 3.9483437538146972656 3.7651970386505126953 3.7259490489959716797 3.5036261081695556641 2.7740056514739990234 2.7671933174133300781 2.3156101703643798828 3.0246038436889648438 1.4557199478149414062 3.0713219642639160156 4.37302398681640625 3.8730790615081787109 4.1717219352722167969 5.0442996025085449219 4.9124426841735839844 3.4994978904724121094 2.6730124950408935547 2.1780841350555419922 2.3877384662628173828 1.5392228364944458008 2.5806970596313476562 2.5243477821350097656 5.0759668350219726562 4.4951205253601074219 2.5950696468353271484 1.6918478012084960938 0.44279998540878295898 0.53122335672378540039 3.3050856590270996094 3.6085796356201171875 3.0250685214996337891 3.3099465370178222656 3.3384404182434082031 3.1302363872528076172 2.9505703449249267578 3.5726501941680908203 1.5868750810623168945 2.5701391696929931641 1.6786403656005859375 2.8619661331176757812 0.74449610710144042969 0.51241928339004516602 2.0750553607940673828 2.6456074714660644531 2.1789331436157226562 3.5232906341552734375 4.0258464813232421875 3.2786984443664550781 4.290740966796875 5.4754638671875 2.6752450466156005859 3.2585339546203613281 4.4431958198547363281 3.9658639430999755859 3.6278469562530517578 2.4456706047058105469 3.8679697513580322266 3.1681473255157470703 3.9203009605407714844 3.8675725460052490234 3.7382946014404296875 3.6822659969329833984 3.8356080055236816406 1.9762883186340332031 2.0842123031616210938 1.2814874649047851562 1.5154291391372680664 1.0752482414245605469 1.0634520053863525391 0.76820451021194458008 1.8875092267990112305 1.6078672409057617188 3.5594506263732910156 2.8055920600891113281 3.8037824630737304688 2.8594100475311279297 3.8293371200561523438 3.9995932579040527344 
6.3716206550598144531 5.1256504058837890625 3.9087169170379638672 3.7142302989959716797 3.8422493934631347656 3.7876269817352294922 5.3104281425476074219 4.8760476112365722656 5.4871768951416015625 4.0115561485290527344 3.7596135139465332031 3.8976807594299316406 3.7443830966949462891 3.8254287242889404297 3.4692120552062988281 3.7629549503326416016 3.4708907604217529297 3.7763364315032958984 3.4497466087341308594 3.9490778446197509766 3.8930354118347167969 2.7275137901306152344 2.5363037586212158203 3.6315321922302246094 3.7776508331298828125 4.0450682640075683594 1.820345759391784668 3.2168250083923339844 2.2596623897552490234 3.6478135585784912109 4.1170868873596191406 3.9050190448760986328 2.5332853794097900391 2.4276256561279296875 2.0743508338928222656 2.5654828548431396484 0.0068160002119839191437 3.0773742198944091797 3.7534618377685546875 2.8331043720245361328 3.9193346500396728516 3.4357702732086181641 1.5549695491790771484 3.6470837593078613281 3.8117082118988037109 3.0273542404174804688 3.7218565940856933594 3.4437732696533203125 0.96432107686996459961 0.088562995195388793945 3.0336651802062988281 3.5854609012603759766 2.6101810932159423828 1.2173323631286621094 2.3200592994689941406 3.1425402164459228516 3.7594835758209228516 4.6080651283264160156 4.4764223098754882812 4.5638308525085449219 3.3599665164947509766 4.918056488037109375 5.5338397026062011719 4.2934122085571289062 4.3167309761047363281 3.1005716323852539062 4.4742646217346191406 3.6343488693237304688 3.4268004894256591797 3.6976392269134521484 3.6296055316925048828 3.8231546878814697266 2.5404036045074462891 3.1203532218933105469 1.7863975763320922852 1.7213536500930786133 0.31325000524520874023 0.47145283222198486328 0.040276501327753067017 2.5038342475891113281 3.2511274814605712891 3.7631685733795166016 3.7480573654174804688 4.5781202316284179688 3.9753057956695556641 4.3800001144409179688 4.3800001144409179688 
7.3506360054016113281 4.7531862258911132812 2.7796125411987304688 2.8622715473175048828 3.0942244529724121094 3.7226145267486572266 4.6239695549011230469 4.8764472007751464844 5.6033720970153808594 4.0087299346923828125 3.9955291748046875 3.8791174888610839844 3.8494756221771240234 3.7506356239318847656 3.7643768787384033203 3.8075916767120361328 4.0001912117004394531 3.9577078819274902344 3.6618363857269287109 3.8366425037384033203 3.8021945953369140625 2.6252992153167724609 2.8150653839111328125 3.6798048019409179688 2.5268545150756835938 4.3139891624450683594 0.90647739171981811523 1.4910906553268432617 2.5556552410125732422 4.7902431488037109375 4.1477880477905273438 4.3699674606323242188 2.0350267887115478516 1.2525494098663330078 1.3512243032455444336 3.1167078018188476562 2.1472222805023193359 3.7612349987030029297 3.8804361820220947266 2.5762026309967041016 1.8551924228668212891 1.6871747970581054688 2.7473900318145751953 3.1798467636108398438 3.9495382308959960938 3.7654805183410644531 3.47161865234375 3.5369286537170410156 0.40646797418594360352 0.62747502326965332031 3.4797194004058837891 1.8987449407577514648 0.96985357999801635742 0.18847599625587463379 1.4339029788970947266 3.4186201095581054688 3.8449990749359130859 3.8378024101257324219 6.1162099838256835938 6.3740186691284179688 6.6936097145080566406 1.6967594623565673828 4.07135009765625 5.1623663902282714844 5.2801914215087890625 5.0241703987121582031 4.3107385635375976562 4.2109880447387695312 3.5049471855163574219 3.8912715911865234375 3.3944227695465087891 3.5242142677307128906 2.3857364654541015625 3.2651612758636474609 1.9571042060852050781 0.40673196315765380859 1.2842700481414794922 2.9004077911376953125 0.8773625493049621582 2.2682237625122070312 1.9143539667129516602 3.4787058830261230469 3.5187475681304931641 4.0626726150512695312 3.9924118518829345703 4.2631783485412597656 4.3800001144409179688 
6.577945709228515625 4.2242646217346191406 3.0277082920074462891 2.8731465339660644531 3.1995587348937988281 2.9182326793670654297 5.3591361045837402344 4.6045565605163574219 5.4590778350830078125 5.4948859214782714844 4.5657253265380859375 3.9629395008087158203 3.8427281379699707031 3.7256464958190917969 3.4384331703186035156 3.8434901237487792969 3.8817853927612304688 3.9461815357208251953 3.7722690105438232422 3.7921614646911621094 3.8643641471862792969 3.9538965225219726562 4.88558197021484375 2.6163191795349121094 3.2391960620880126953 4.1380672454833984375 2.6755545139312744141 2.3977670669555664062 2.7123813629150390625 4.5649127960205078125 3.4706981182098388672 1.1304514408111572266 4.2348575592041015625 5.6132750511169433594 3.5848481655120849609 3.7617440223693847656 3.7188427448272705078 3.7969663143157958984 3.6769886016845703125 1.6218719482421875 1.8688219785690307617 2.1212859153747558594 3.2309293746948242188 2.7185060977935791016 3.9493463039398193359 3.6485934257507324219 3.5834782123565673828 2.9036374092102050781 0.44279998540878295898 0.86664813756942749023 3.9708015918731689453 0.66802448034286499023 1.8291184902191162109 0.26113998889923095703 1.6659790277481079102 3.7437984943389892578 3.8560764789581298828 4.8197050094604492188 5.3751282691955566406 6.77318572998046875 7.3397893905639648438 3.6190867424011230469 2.8101856708526611328 3.1954278945922851562 3.9091050624847412109 3.7753958702087402344 3.8941638469696044922 4.4394435882568359375 4.1985998153686523438 4.2105960845947265625 3.9598743915557861328 3.7019476890563964844 3.0041117668151855469 1.6267209053039550781 3.5669317245483398438 1.0866179466247558594 2.6109197139739990234 3.6954805850982666016 2.8061132431030273438 0.87139475345611572266 0.30212932825088500977 2.6357407569885253906 3.5651059150695800781 4.2367525100708007812 4.1055860519409179688 4.2430353164672851562 4.3800001144409179688 
6.1915211677551269531 3.5571498870849609375 3.1582093238830566406 2.1007668972015380859 2.5903851985931396484 2.4708302021026611328 4.7014164924621582031 3.8914339542388916016 4.0036606788635253906 5.0383133888244628906 4.9930214881896972656 4.5455813407897949219 3.9611649513244628906 3.7259490489959716797 3.1968181133270263672 3.6177549362182617188 3.5509736537933349609 3.7376947402954101562 2.4782955646514892578 2.8785207271575927734 2.9973573684692382812 4.7961072921752929688 4.1761293411254882812 3.3907577991485595703 2.6709630489349365234 1.8933311700820922852 3.7644281387329101562 0.72116947174072265625 2.2287576198577880859 3.6523220539093017578 3.832763671875 2.8800189495086669922 1.0782257318496704102 4.1753754615783691406 2.8090949058532714844 2.8873839378356933594 2.5484802722930908203 3.2332580089569091797 2.0423204898834228516 2.1542956829071044922 2.2259724140167236328 2.5795123577117919922 0.76105713844299316406 2.5200879573822021484 3.8225219249725341797 3.8168690204620361328 3.1652283668518066406 0.17030999064445495605 0.44279998540878295898 2.4633212089538574219 4.0487518310546875 3.2593786716461181641 3.8900058269500732422 0.44279998540878295898 0.5376669764518737793 2.3951668739318847656 3.8668270111083984375 4.6506609916687011719 7.3727688789367675781 6.3737416267395019531 6.5421986579895019531 3.1494841575622558594 2.7694857120513916016 2.7209069728851318359 2.0405776500701904297 3.5299248695373535156 3.8252382278442382812 3.7469208240509033203 3.5297200679779052734 3.5577483177185058594 4.1414427757263183594 3.8816740512847900391 3.1792874336242675781 3.4102351665496826172 3.0211033821105957031 3.6172194480895996094 3.3661274909973144531 3.7206380367279052734 1.7058364152908325195 2.7215557098388671875 0.21041919291019439697 2.2266042232513427734 2.6889090538024902344 2.6021051406860351562 3.1968092918395996094 3.7505640983581542969 3.2267894744873046875 
6.9853882789611816406 4.18558502197265625 2.5053849220275878906 2.8731465339660644531 3.1995587348937988281 1.1126550436019897461 3.5274431705474853516 3.7777581214904785156 3.9810423851013183594 5.5386104583740234375 6.7898883819580078125 3.9724097251892089844 3.8121428489685058594 3.5677218437194824219 3.3700959682464599609 3.5238327980041503906 3.5467777252197265625 3.7652349472045898438 2.2123193740844726562 1.6132810115814208984 4.2760014533996582031 4.2449517250061035156 3.8498322963714599609 3.6359031200408935547 1.6948409080505371094 0.28869324922561645508 1.1539984941482543945 0.70040482282638549805 2.2437620162963867188 4.0831041336059570312 3.5882813930511474609 3.0374791622161865234 1.1558115482330322266 2.7753884792327880859 1.8728791475296020508 2.0714783668518066406 2.6194224357604980469 0.45201125741004943848 2.8521692752838134766 1.3693218231201171875 3.6880967617034912109 3.6732511520385742188 3.0835764408111572266 3.2520768642425537109 3.0317347049713134766 3.6841883659362792969 3.8042788505554199219 0.71785712242126464844 0.67422586679458618164 3.6493268013000488281 2.3491661548614501953 0.38051655888557434082 0.33380398154258728027 1.8419500589370727539 2.7685573101043701172 1.1814906597137451172 2.1871035099029541016 2.1770889759063720703 4.5539469718933105469 6.80583953857421875 4.7724924087524414062 4.6924633979797363281 3.6854097843170166016 2.9750316143035888672 1.2503472566604614258 3.0458402633666992188 3.4172689914703369141 3.7126314640045166016 2.8151514530181884766 0.88371425867080688477 0.98902410268783569336 3.9092488288879394531 3.4801478385925292969 2.4837315082550048828 1.650051116943359375 2.2409396171569824219 2.306194305419921875 2.6335492134094238281 2.4660255908966064453 3.0666410923004150391 0.91150897741317749023 0.51339739561080932617 1.6940014362335205078 2.6243319511413574219 1.2205814123153686523 2.0851681232452392578 4.3800001144409179688 
3.5815358161926269531 2.2218427658081054688 2.9901463985443115234 2.3948154449462890625 2.7144331932067871094 2.8166997432708740234 3.1616508960723876953 3.8679435253143310547 3.8948404788970947266 5.5802025794982910156 6.0324106216430664062 5.367473602294921875 3.8092856407165527344 3.8298425674438476562 3.6141684055328369141 3.8864514827728271484 3.4465973377227783203 3.8094859123229980469 1.2405149936676025391 3.0495355129241943359 3.6012539863586425781 3.9043760299682617188 3.262920379638671875 4.0255460739135742188 2.4990470409393310547 2.3986949920654296875 1.9797906875610351562 1.4817070960998535156 3.1575629711151123047 3.5386648178100585938 3.3649535179138183594 3.7324850559234619141 0.65062510967254638672 0.83861756324768066406 1.8450121879577636719 2.5842125415802001953 3.4579966068267822266 1.2079221010208129883 1.8628025054931640625 2.1337313652038574219 2.5396351814270019531 1.0632132291793823242 1.8857916593551635742 3.0509679317474365234 2.9599986076354980469 3.7199735641479492188 1.5487881898880004883 0.44279998540878295898 2.1887209415435791016 3.5096628665924072266 2.9722363948822021484 1.7536054849624633789 2.2687194347381591797 3.0767369270324707031 3.4447686672210693359 2.6083176136016845703 3.7014529705047607422 3.9633502960205078125 5.9851436614990234375 4.2476930618286132812 4.6091165542602539062 5.7644143104553222656 3.8826067447662353516 1.714730381965637207 2.6741483211517333984 2.8054473400115966797 2.8920042514801025391 4.3736515045166015625 2.5027391910552978516 0.43220448493957519531 0.59922635555267333984 3.1723520755767822266 3.8647913932800292969 3.5349087715148925781 2.7850797176361083984 3.5316803455352783203 3.3428065776824951172 3.3990769386291503906 2.6499810218811035156 1.3651330471038818359 0.74692457914352416992 2.2313256263732910156 3.9961488246917724609 3.4339239597320556641 2.1653614044189453125 2.2078490257263183594 2.3892500400543212891 
2.6992218494415283203 3.0038383007049560547 1.7743467092514038086 1.7753776311874389648 2.9394230842590332031 3.0667488574981689453 3.4255578517913818359 3.8874433040618896484 4.1356840133666992188 5.1337103843688964844 5.370349884033203125 6.5288257598876953125 4.2118887901306152344 3.8307952880859375 3.7679095268249511719 3.5979394912719726562 3.6081752777099609375 3.7625856399536132812 2.0197730064392089844 3.1508541107177734375 3.4740192890167236328 3.8656880855560302734 2.64984130859375 3.1714408397674560547 3.7869725227355957031 1.807865142822265625 1.074671626091003418 0.97670739889144897461 5.1879239082336425781 2.4491682052612304688 4.9228181838989257812 4.4029064178466796875 1.2314397096633911133 2.1654255390167236328 0.61522364616394042969 0.75957149267196655273 2.3660664558410644531 1.7481371164321899414 3.0862362384796142578 3.3180394172668457031 4.8281545639038085938 1.1082527637481689453 3.0011231899261474609 2.377162933349609375 3.0019373893737792969 2.7467768192291259766 2.7388093471527099609 1.2420434951782226562 3.8174076080322265625 3.6600134372711181641 3.3726587295532226562 3.4203085899353027344 3.2489573955535888672 3.207462310791015625 4.2427344322204589844 4.0143513679504394531 3.8116250038146972656 4.6173715591430664062 4.7095947265625 4.3768696784973144531 4.3845677375793457031 3.9013636112213134766 4.6898694038391113281 3.4946382045745849609 3.0509560108184814453 2.0923535823822021484 3.4666223526000976562 4.1168246269226074219 2.2351269721984863281 1.9540932178497314453 1.8675016164779663086 0.58515787124633789062 3.2127747535705566406 2.5076215267181396484 3.0456843376159667969 2.1970098018646240234 2.020450592041015625 2.6304297447204589844 1.2521117925643920898 1.3422427177429199219 1.1142560243606567383 3.6465420722961425781 3.8377161026000976562 3.9393010139465332031 3.5099978446960449219 3.6611909866333007812 3.9927263259887695312 
1.8610682487487792969 1.2330873012542724609 0.58332014083862304688 0.33769455552101135254 1.0003257989883422852 3.2146086692810058594 4.6433019638061523438 5.7880144119262695312 5.1267657279968261719 4.9191541671752929688 4.3769125938415527344 3.6608588695526123047 4.1399264335632324219 3.7607097625732421875 3.8689374923706054688 3.5596396923065185547 3.6535875797271728516 3.9291813373565673828 4.0245800018310546875 3.4926576614379882812 2.9016902446746826172 1.7402960062026977539 2.7187068462371826172 3.1396009922027587891 2.1630737781524658203 0.11459981650114059448 1.0074907541275024414 1.2501908540725708008 3.0950095653533935547 2.4336655139923095703 3.5499227046966552734 2.4452779293060302734 1.4634439945220947266 3.0712714195251464844 2.4535171985626220703 1.0277068614959716797 2.1911902427673339844 2.5943202972412109375 2.7331299781799316406 2.9256541728973388672 3.0776350498199462891 2.1743555068969726562 1.9354966878890991211 1.7082504034042358398 1.8625031709671020508 3.2473354339599609375 3.5290875434875488281 3.2379741668701171875 3.8260498046875 3.8319394588470458984 3.7408747673034667969 3.6292588710784912109 3.3319199085235595703 3.3682284355163574219 3.8359007835388183594 4.7588224411010742188 4.3977880477905273438 3.4487135410308837891 2.0780870914459228516 3.0740325450897216797 0.69934976100921630859 1.3715338706970214844 2.3975911140441894531 0.65284782648086547852 0.91537451744079589844 2.6353280544281005859 4.4327454566955566406 2.0423073768615722656 3.096530914306640625 2.8178753852844238281 2.6932766437530517578 0.35118123888969421387 0.64241427183151245117 2.1507487297058105469 3.3775770664215087891 4.004596710205078125 3.8924536705017089844 2.3263347148895263672 0.52176719903945922852 0.43284279108047485352 1.6248834133148193359 3.6025464534759521484 4.7879734039306640625 3.81905364990234375 3.8808236122131347656 3.73174285888671875 3.6812417507171630859 
1.6484521627426147461 2.4085965156555175781 0.092069000005722045898 0.58332014083862304688 0.48339340090751647949 3.7425596714019775391 4.6655869483947753906 5.1257987022399902344 5.1262159347534179688 5.2420554161071777344 4.1103386878967285156 2.9974191188812255859 3.7729825973510742188 3.9804131984710693359 3.7131128311157226562 1.1559979915618896484 3.3136723041534423828 3.9835791587829589844 3.6992015838623046875 2.2800235748291015625 3.1257762908935546875 2.2521219253540039062 3.0322959423065185547 3.4712297916412353516 3.2909841537475585938 0.90274107456207275391 2.6400954723358154297 1.9736908674240112305 1.4587427377700805664 2.1208653450012207031 4.2158522605895996094 2.4687414169311523438 3.029605865478515625 2.7570748329162597656 2.2370395660400390625 3.2992613315582275391 3.9640798568725585938 3.8301222324371337891 4.8885979652404785156 4.3222270011901855469 2.9567005634307861328 2.2517671585083007812 1.8665524721145629883 2.0209031105041503906 2.2576830387115478516 4.3991503715515136719 3.9625477790832519531 3.9627103805541992188 3.6588144302368164062 3.5951070785522460938 3.5190653800964355469 3.3163232803344726562 3.864940643310546875 3.9928896427154541016 0.93837600946426391602 3.9349293708801269531 4.0509591102600097656 4.0489530563354492188 4.8761773109436035156 3.8558785915374755859 2.559139251708984375 0.59450060129165649414 1.2289081811904907227 0.80830931663513183594 2.7646877765655517578 2.7672936916351318359 3.1183247566223144531 1.7605533599853515625 3.05680084228515625 1.8923475742340087891 3.0168404579162597656 0.77585721015930175781 1.1381247043609619141 1.3633151054382324219 2.1201903820037841797 1.8034951686859130859 1.432819366455078125 1.720812678337097168 0.94264459609985351562 1.9304587841033935547 2.65234375 3.6704671382904052734 3.7513453960418701172 3.3799684047698974609 3.0880537033081054688 3.1665329933166503906 2.2047073841094970703 
2.8722860813140869141 1.4750956296920776367 0.58332014083862304688 0.33769455552101135254 1.8793361186981201172 3.8047153949737548828 4.0223078727722167969 6.0263833999633789062 6.1320734024047851562 2.8843131065368652344 1.3418804407119750977 2.3552951812744140625 3.7278914451599121094 3.5170531272888183594 3.3238956928253173828 3.7208034992218017578 3.9824821949005126953 3.8684518337249755859 2.8840413093566894531 3.0840942859649658203 3.329376220703125 2.6017711162567138672 3.6555180549621582031 3.7556469440460205078 3.0794720649719238281 3.0940363407135009766 0.98874187469482421875 0.57955187559127807617 0.57604891061782836914 1.574124455451965332 3.7047581672668457031 4.7888894081115722656 3.9185252189636230469 2.3435692787170410156 3.7785933017730712891 2.5360553264617919922 3.00136566162109375 3.6237761974334716797 4.1705617904663085938 2.0611393451690673828 1.007403254508972168 2.7979185581207275391 3.0109119415283203125 1.7341495752334594727 3.1826810836791992188 4.3363895416259765625 4.0306758880615234375 3.9650390148162841797 3.93184661865234375 3.8167898654937744141 3.4996280670166015625 3.7330379486083984375 4.0073428153991699219 5.2528715133666992188 4.5525255203247070312 3.2943499088287353516 3.8858191967010498047 4.0000567436218261719 4.8807625770568847656 3.8356840610504150391 2.6763579845428466797 1.7930809259414672852 1.8316866159439086914 3.3135368824005126953 1.232378840446472168 2.4719951152801513672 4.0373430252075195312 4.8575153350830078125 4.1120042800903320312 3.6502261161804199219 4.1998953819274902344 2.7907845973968505859 0.88427376747131347656 1.123875737190246582 0.77960497140884399414 1.6554139852523803711 2.8681550025939941406 1.8170489072799682617 1.8405946493148803711 0.21612156927585601807 0.55532675981521606445 2.4702165126800537109 3.4188032150268554688 3.2112779617309570312 1.9546543359756469727 2.7169790267944335938 0.97471672296524047852 
2.5406310558319091797 0.97656863927841186523 0.48531749844551086426 0.3352940678596496582 2.6132626533508300781 3.4180393218994140625 4.6882181167602539062 5.305118560791015625 3.5925204753875732422 0.68216538429260253906 1.782452702522277832 1.1272102594375610352 1.2273784875869750977 0.31320431828498840332 1.3944761753082275391 3.7550182342529296875 3.9995846748352050781 3.6403706073760986328 2.9102008342742919922 3.0243487358093261719 3.05155181884765625 2.7164940834045410156 3.9730072021484375 3.6886603832244873047 1.9416787624359130859 4.1053500175476074219 2.1790285110473632812 1.7146269083023071289 0.61634373664855957031 4.3795752525329589844 4.6269702911376953125 4.2842054367065429688 2.6797747611999511719 3.7466111183166503906 3.1029071807861328125 2.3510842323303222656 0.29000002145767211914 2.0097212791442871094 3.8348422050476074219 2.3273386955261230469 0.56822168827056884766 1.7245141267776489258 3.4223451614379882812 4.6963572502136230469 3.9826571941375732422 3.9529924392700195312 4.1109666824340820312 3.9620897769927978516 3.9845175743103027344 4.0178866386413574219 3.9981110095977783203 3.8090615272521972656 4.030254364013671875 4.8668298721313476562 4.4522008895874023438 3.7491402626037597656 2.6461615562438964844 3.1266632080078125 3.8119881153106689453 3.3085806369781494141 2.7402348518371582031 2.4438488483428955078 1.7510722875595092773 1.3155114650726318359 2.2524077892303466797 3.5924923419952392578 3.3769629001617431641 5.2983980178833007812 4.7398214340209960938 5.3630275726318359375 0.94283825159072875977 0.28270354866981506348 0.0068160002119839191437 0.0068160002119839191437 0.099495373666286468506 2.5763771533966064453 2.8443152904510498047 2.5688850879669189453 1.1831372976303100586 1.6348556280136108398 3.4924423694610595703 3.6802248954772949219 3.6109776496887207031 3.1697649955749511719 1.0874708890914916992 1.3949640989303588867 2.1709256172180175781 
3.9449110031127929688 2.1059620380401611328 1.3396741151809692383 0.62589734792709350586 3.6935031414031982422 4.1281657218933105469 5.60115814208984375 5.2666602134704589844 2.4273130893707275391 0.60723459720611572266 1.7113059759140014648 3.0420720577239990234 2.5857379436492919922 3.0881659984588623047 1.7342212200164794922 3.7964153289794921875 3.9732003211975097656 3.8250987529754638672 3.6390409469604492188 4.6976175308227539062 3.2121417522430419922 3.0497603416442871094 2.4770185947418212891 1.7247277498245239258 2.3387472629547119141 2.3425812721252441406 0.90237146615982055664 3.3220875263214111328 3.6875407695770263672 4.379329681396484375 4.3945703506469726562 4.5917558670043945312 4.1141099929809570312 4.4853043556213378906 3.4597368240356445312 1.2174276113510131836 0.26476150751113891602 1.7290035486221313477 3.6261706352233886719 1.2947356700897216797 0.72356444597244262695 3.9676766395568847656 3.9982335567474365234 3.8281023502349853516 3.8955171108245849609 3.9190917015075683594 3.9210453033447265625 4.3292775154113769531 3.9724438190460205078 3.9949896335601806641 3.9945724010467529297 4.1648120880126953125 5.0243473052978515625 3.8144135475158691406 2.4917280673980712891 3.4285190105438232422 2.3826115131378173828 4.3573679924011230469 4.84378814697265625 3.8235645294189453125 2.1392681598663330078 2.1666460037231445312 1.0729663372039794922 3.027435302734375 4.3738245964050292969 3.6427419185638427734 3.5391697883605957031 5.303722381591796875 5.7770519256591796875 2.2317111492156982422 0.034065000712871551514 0.0068160002119839191437 0.0068160002119839191437 0.0068160002119839191437 0.012144312262535095215 0.4947592616081237793 0.48616626858711242676 1.6980147361755371094 3.6315865516662597656 2.5293238162994384766 2.3392724990844726562 3.8849439620971679688 3.5551435947418212891 2.1962397098541259766 3.0524594783782958984 2.9256682395935058594 3.0186622142791748047 
3.2046809196472167969 3.3706133365631103516 3.0844795703887939453 3.4878683090209960938 3.8234753608703613281 5.1268887519836425781 4.986083984375 3.3139455318450927734 2.7863330841064453125 2.1141867637634277344 1.645359039306640625 2.1476099491119384766 2.6182579994201660156 1.8944870233535766602 3.1227412223815917969 4.386852264404296875 3.9731628894805908203 4.5438666343688964844 3.6992242336273193359 3.4228150844573974609 3.3939540386199951172 2.3309910297393798828 1.3150348663330078125 3.2360885143280029297 2.9798443317413330078 2.6055943965911865234 1.4409331083297729492 1.5384024381637573242 1.3938750028610229492 3.7940106391906738281 1.319807887077331543 2.1048550605773925781 2.1161224842071533203 3.9110877513885498047 3.0224001407623291016 1.441794276237487793 1.4428114891052246094 3.5716097354888916016 0.31703841686248779297 0.26719611883163452148 2.1119601726531982422 3.8909349441528320312 3.7978842258453369141 3.4836969375610351562 3.9233465194702148438 3.8813405036926269531 3.8461856842041015625 3.7424540519714355469 4.2762169837951660156 4.1304335594177246094 3.9271228313446044922 4.2094721794128417969 4.8256292343139648438 4.2769422531127929688 4.6495428085327148438 3.2632632255554199219 2.8602840900421142578 4.5750579833984375 4.6585664749145507812 4.5269589424133300781 2.5471441745758056641 2.2968435287475585938 3.1534900665283203125 3.5943620204925537109 3.8971650600433349609 3.5287544727325439453 3.9979534149169921875 2.7858781814575195312 1.5444792509078979492 3.4496212005615234375 0.25803199410438537598 0.0068160002119839191437 0.0068160002119839191437 0.0068160002119839191437 0.0068160002119839191437 0.22575774788856506348 0.48327293992042541504 1.8587970733642578125 2.6581819057464599609 3.8004519939422607422 2.1145443916320800781 3.5883147716522216797 3.9665851593017578125 3.6608324050903320312 3.6699264049530029297 1.766971588134765625 2.1361861228942871094 
2.7033669948577880859 2.7796125411987304688 2.5753877162933349609 3.8859522342681884766 3.9598343372344970703 5.8038496971130371094 5.7095646858215332031 2.9979691505432128906 3.2227900028228759766 3.2714056968688964844 3.7458097934722900391 2.1685602664947509766 3.2408277988433837891 3.2793414592742919922 4.620243072509765625 3.8153526782989501953 3.4577867984771728516 4.0006690025329589844 4.1501922607421875 4.752712249755859375 5.2805385589599609375 4.1894364356994628906 3.7203154563903808594 3.6714375019073486328 1.0444909334182739258 0.25646156072616577148 0.37525001168251037598 4.2311658859252929688 2.0104093551635742188 1.3066263198852539062 0.54196935892105102539 0.27450001239776611328 0.28335714340209960938 0.27450001239776611328 0.93399602174758911133 2.2117228507995605469 4.1376538276672363281 2.1324174404144287109 1.5834664106369018555 2.5253226757049560547 1.2206890583038330078 1.1435621976852416992 2.9224231243133544922 4.1980023384094238281 4.2253856658935546875 3.9353673458099365234 3.8994464874267578125 3.9624822139739990234 4.3767895698547363281 3.20951080322265625 2.3284771442413330078 4.3233294486999511719 4.0067105293273925781 4.3407330513000488281 5.4545736312866210938 3.8786747455596923828 1.2807469367980957031 4.7048840522766113281 0.56967008113861083984 2.4172260761260986328 4.5144963264465332031 3.3083696365356445312 3.7427151203155517578 3.9655928611755371094 3.8694121837615966797 3.6377937793731689453 4.4366674423217773438 4.3794970512390136719 2.6912672519683837891 1.0896952152252197266 2.9983656406402587891 0.64672905206680297852 0.0068160002119839191437 0.016077499836683273315 0.0068160002119839191437 0.8683121800422668457 0.69828468561172485352 0.50954514741897583008 0.85921281576156616211 2.6006209850311279297 2.1511828899383544922 2.3996405601501464844 2.2383947372436523438 1.990441441535949707 3.222900390625 3.3000681400299072266 2.1006331443786621094 
2.4603793621063232422 2.9616513252258300781 3.3241286277770996094 4.51480865478515625 5.5441765785217285156 7.1156034469604492188 3.3754286766052246094 2.8781251907348632812 2.3203768730163574219 2.0616908073425292969 2.8900601863861083984 1.1858595609664916992 3.6427166461944580078 3.7043273448944091797 3.3593916893005371094 3.0623555183410644531 3.1890377998352050781 4.2072839736938476562 3.0787007808685302734 3.5848028659820556641 4.1657214164733886719 2.1133484840393066406 3.0517168045043945312 3.2320132255554199219 1.1631659269332885742 0.2856082618236541748 1.1449849605560302734 4.3801980018615722656 1.161000370979309082 3.2043516635894775391 4.2405514717102050781 0.52293562889099121094 0.28336250782012939453 0.73036175966262817383 0.55473715066909790039 1.0293650627136230469 1.6414922475814819336 0.91140204668045043945 1.4312783479690551758 2.1326472759246826172 2.9393444061279296875 0.13728334009647369385 3.2649450302124023438 4.2858533859252929688 4.2586722373962402344 3.9898703098297119141 3.9163725376129150391 3.9148638248443603516 4.8075838088989257812 3.6433494091033935547 4.6138477325439453125 2.2108736038208007812 2.4872126579284667969 1.8540120124816894531 1.8090822696685791016 3.8630213737487792969 1.2527076005935668945 3.3712568283081054688 1.2483304738998413086 3.8187415599822998047 5.2105088233947753906 3.6965878009796142578 3.7485773563385009766 3.9521284103393554688 3.8989806175231933594 3.737812042236328125 4.2751135826110839844 2.9235444068908691406 2.6884660720825195312 2.2021358013153076172 4.4998960494995117188 3.0132732391357421875 0.43694162368774414062 0.33403950929641723633 0.19613824784755706787 0.058545250445604324341 0.012144312262535095215 0.034065000712871551514 0.017472624778747558594 2.4733669757843017578 1.2945528030395507812 0.0068160002119839191437 0.0068160002119839191437 0.0068160002119839191437 1.0018690824508666992 3.9917416572570800781 3.9517762660980224609 
3.1525554656982421875 3.3495321273803710938 3.7542757987976074219 6.1242842674255371094 5.2610187530517578125 4.6418185234069824219 3.5161280632019042969 2.2570109367370605469 1.8354465961456298828 2.6612186431884765625 1.9042052030563354492 1.9599417448043823242 3.3697400093078613281 2.7902104854583740234 2.2776558399200439453 1.8908388614654541016 1.6448738574981689453 1.7985336780548095703 0.092541255056858062744 0.82178103923797607422 2.7455728054046630859 1.2831655740737915039 3.3341350555419921875 1.7276912927627563477 3.4983403682708740234 3.0382478237152099609 2.5231046676635742188 3.2084703445434570312 0.27450001239776611328 4.3356690406799316406 3.8233675956726074219 2.2701525688171386719 1.2189959287643432617 0.28827777504920959473 0.64328777790069580078 0.023546250537037849426 0.0068160002119839191437 1.8189370632171630859 1.4759495258331298828 2.7401578426361083984 2.7570970058441162109 1.9586462974548339844 3.4253277778625488281 4.6252522468566894531 3.7262227535247802734 3.9747405052185058594 3.9343585968017578125 4.0170497894287109375 3.2607085704803466797 2.1400973796844482422 2.2744057178497314453 1.0836396217346191406 1.0014671087265014648 1.5006047487258911133 4.2007670402526855469 3.6164095401763916016 0.45611149072647094727 4.3448023796081542969 6.1509404182434082031 3.1520278453826904297 3.2039377689361572266 3.9078838825225830078 4.1749262809753417969 3.8203995227813720703 3.7694871425628662109 3.4577171802520751953 2.5433702468872070312 2.7291033267974853516 5.11511993408203125 2.8553435802459716797 4.3316020965576171875 3.4753844738006591797 2.4845368862152099609 3.278553009033203125 0.58844524621963500977 0.23611849546432495117 0.0068160002119839191437 0.0068160002119839191437 0.012144312262535095215 1.9298605918884277344 1.1115465164184570312 0.0068160002119839191437 0.0068160002119839191437 0.25159594416618347168 2.2360200881958007812 3.9835362434387207031 3.4598984718322753906 
2.40438079833984375 3.5954365730285644531 4.0357484817504882812 6.0907568931579589844 5.6061983108520507812 2.3171014785766601562 2.5528361797332763672 3.3013539314270019531 3.3596017360687255859 3.0713562965393066406 3.0780193805694580078 3.582080841064453125 1.7483484745025634766 2.8235907554626464844 1.6750767230987548828 3.9921889305114746094 3.0526134967803955078 2.8118274211883544922 3.2292311191558837891 2.6488020420074462891 1.5897839069366455078 1.6081339120864868164 1.198313593864440918 1.4610613584518432617 1.7432771921157836914 2.6726400852203369141 3.2659349441528320312 2.8173308372497558594 3.8275961875915527344 2.7977237701416015625 3.1601135730743408203 2.2083966732025146484 1.4769053459167480469 1.1982977390289306641 0.093682125210762023926 0.0068160002119839191437 0.67142534255981445312 1.0225490331649780273 0.91259670257568359375 0.59483098983764648438 0.54696470499038696289 1.8136920928955078125 3.9754116535186767578 3.9119117259979248047 3.9675538539886474609 3.5444278717041015625 3.2633566856384277344 1.8419319391250610352 3.9681723117828369141 3.9768745899200439453 2.9915478229522705078 3.9912009239196777344 3.3827600479125976562 3.6958043575286865234 4.1711783409118652344 4.4531645774841308594 3.4693276882171630859 3.9448633193969726562 3.86008453369140625 4.5308737754821777344 3.6621270179748535156 3.9874122142791748047 5.0657987594604492188 3.8568491935729980469 3.5773708820343017578 3.7039172649383544922 3.6941664218902587891 3.7024796009063720703 3.6103618144989013672 2.9073438644409179688 4.0821623802185058594 3.7215535640716552734 4.0809416770935058594 3.6575539112091064453 1.4604409933090209961 0.96867650747299194336 0.0068160002119839191437 0.79259055852890014648 0.75092095136642456055 2.9983222484588623047 1.1989810466766357422 0.0068160002119839191437 0.0068160002119839191437 1.8577914237976074219 3.9775853157043457031 2.7910904884338378906 1.7526459693908691406 
3.3932509422302246094 3.8652396202087402344 5.5357089042663574219 4.9331617355346679688 3.0950388908386230469 2.2492616176605224609 1.2000287771224975586 2.4902987480163574219 2.0964460372924804688 1.0193668603897094727 4.9635691642761230469 3.1318147182464599609 3.2870881557464599609 3.9591786861419677734 1.9090726375579833984 3.7120890617370605469 4.584842681884765625 3.1726276874542236328 3.4975383281707763672 3.2562093734741210938 3.7310712337493896484 3.083858489990234375 2.4514737129211425781 3.0760324001312255859 1.9236015081405639648 2.6894733905792236328 1.8411931991577148438 1.3568439483642578125 0.79179894924163818359 1.9247951507568359375 1.5284516811370849609 0.69789999723434448242 0.54806369543075561523 1.0657750368118286133 0.51330870389938354492 0.96789401769638061523 1.8999440670013427734 1.1869072914123535156 1.431560516357421875 3.1068489551544189453 1.1909977197647094727 2.3885641098022460938 2.7692773342132568359 2.7180597782135009766 1.6007081270217895508 3.5035531520843505859 3.906307220458984375 3.2304265499114990234 3.9738793373107910156 3.6543016433715820312 3.0960562229156494141 3.9991304874420166016 3.4427943229675292969 3.3103072643280029297 3.4138505458831787109 3.2950918674468994141 3.6640472412109375 4.6618490219116210938 6.2631363868713378906 2.7346694469451904297 4.3420758247375488281 3.9872324466705322266 4.0725269317626953125 3.1044743061065673828 3.5782978534698486328 2.9670305252075195312 1.6107822656631469727 2.5195326805114746094 3.1718835830688476562 1.5788621902465820312 3.7202420234680175781 4.4548859596252441406 4.3916726112365722656 2.8327131271362304688 2.8238680362701416016 2.4929273128509521484 1.781351923942565918 1.6966331005096435547 2.6980099678039550781 2.5285117626190185547 1.50118255615234375 0.0068160002119839191437 0.42479369044303894043 4.9857044219970703125 3.8655328750610351562 3.5237133502960205078 3.533550262451171875 
3.8906383514404296875 4.9306898117065429688 5.4150891304016113281 3.9865853786468505859 2.6325783729553222656 2.3881425857543945312 2.5535788536071777344 1.9015575647354125977 3.9536125659942626953 1.1955699920654296875 2.3443315029144287109 2.8480939865112304688 2.949649810791015625 3.7288715839385986328 2.6208233833312988281 3.7428994178771972656 3.1728067398071289062 3.4170584678649902344 3.0764467716217041016 3.8734180927276611328 2.9890999794006347656 0.2802943885326385498 2.0959291458129882812 3.6480360031127929688 0.6823374629020690918 1.9788492918014526367 0.27954378724098205566 0.69646036624908447266 0.21106666326522827148 0.21475000679492950439 0.48475882411003112793 2.6474430561065673828 0.30107143521308898926 1.8971384763717651367 0.052721463143825531006 0.95488530397415161133 0.52743983268737792969 0.95031535625457763672 0.28253126144409179688 1.197161555290222168 1.5297386646270751953 2.6836652755737304688 3.913341522216796875 3.9392645359039306641 3.9364483356475830078 3.8892312049865722656 3.9959175586700439453 3.9773669242858886719 3.9418935775756835938 3.8817477226257324219 3.9851670265197753906 4.0068197250366210938 3.5103521347045898438 2.98882293701171875 1.3978995084762573242 0.77185356616973876953 2.8528630733489990234 3.2817311286926269531 3.4856984615325927734 0.73370200395584106445 2.3887009620666503906 3.9114642143249511719 4.8374738693237304688 3.9837334156036376953 3.9459300041198730469 3.0065348148345947266 3.3132207393646240234 2.9561088085174560547 1.1506350040435791016 2.5461378097534179688 3.9165034294128417969 4.2224535942077636719 4.3426527976989746094 3.6530067920684814453 2.6368284225463867188 3.2826604843139648438 1.7210668325424194336 3.5687360763549804688 4.7602744102478027344 2.1301167011260986328 2.3228452205657958984 2.3874833583831787109 3.532581329345703125 4.3974771499633789062 4.5569806098937988281 3.7190709114074707031 3.5207228660583496094 
4.646442413330078125 4.626255035400390625 4.3909583091735839844 5.4354853630065917969 3.9737462997436523438 3.7961604595184326172 4.226787567138671875 4.0956783294677734375 3.9395730495452880859 3.9189321994781494141 4.3512063026428222656 3.6542003154754638672 3.1949923038482666016 4.9119486808776855469 3.7160112857818603516 1.8223670721054077148 3.3968203067779541016 1.5479514598846435547 2.3749382495880126953 3.9872071743011474609 2.6863310337066650391 0.31436875462532043457 0.29056251049041748047 1.0734046697616577148 1.3132176399230957031 0.68063765764236450195 1.8868793249130249023 1.1896594762802124023 3.0345935821533203125 3.5982847213745117188 2.6258113384246826172 0.56398123502731323242 0.26759377121925354004 1.9544212818145751953 0.98517000675201416016 1.4240248203277587891 0.31325000524520874023 0.2749499976634979248 2.7302596569061279297 3.4933810234069824219 2.5923755168914794922 3.9340984821319580078 3.9438762664794921875 3.8716840744018554688 3.9597077369689941406 3.5927095413208007812 3.4271187782287597656 4.407909393310546875 3.5847229957580566406 2.9264833927154541016 3.3513686656951904297 3.9616456031799316406 2.3743569850921630859 1.8330081701278686523 1.9685407876968383789 1.1380257606506347656 1.9254118204116821289 2.7458508014678955078 2.4398267269134521484 1.3783917427062988281 3.8726649284362792969 2.8375787734985351562 5.8216118812561035156 4.4440951347351074219 3.9942374229431152344 2.9299731254577636719 2.4399981498718261719 1.7796106338500976562 2.1721746921539306641 3.0779817104339599609 3.9886004924774169922 4.1453371047973632812 3.8026213645935058594 3.7146646976470947266 3.6709170341491699219 3.2030484676361083984 2.2290577888488769531 3.5007305145263671875 3.5579462051391601562 1.5081959962844848633 2.4273068904876708984 3.3683977127075195312 3.1452181339263916016 3.0112278461456298828 3.3061861991882324219 4.4911284446716308594 3.7062230110168457031 
4.4465627670288085938 4.5791678428649902344 4.4521746635437011719 3.4446053504943847656 3.9685416221618652344 3.9921078681945800781 2.7413756847381591797 1.1226111650466918945 4.1663026809692382812 4.3914918899536132812 4.4919071197509765625 3.1492788791656494141 2.9671940803527832031 3.9236469268798828125 4.3532290458679199219 1.351014256477355957 2.982696533203125 3.529323577880859375 4.0029263496398925781 3.9837386608123779297 1.8846992254257202148 1.8972721099853515625 3.1620197296142578125 2.151275634765625 1.4919438362121582031 1.4778729677200317383 2.8480699062347412109 4.0547213554382324219 3.9666838645935058594 4.1864080429077148438 5.21532440185546875 1.8499268293380737305 0.73043119907379150391 0.29357692599296569824 0.30050000548362731934 0.5486800074577331543 1.2199929952621459961 0.94310998916625976562 1.0872771739959716797 2.7477102279663085938 3.2673349380493164062 4.6452355384826660156 3.7230310440063476562 3.2651844024658203125 2.7615821361541748047 3.6328520774841308594 2.8628313541412353516 3.2583403587341308594 1.3858945369720458984 1.0285241603851318359 0.0068160002119839191437 0.48991149663925170898 0.0068160002119839191437 0.0068160002119839191437 3.0226652622222900391 3.6875779628753662109 3.5812692642211914062 3.9087507724761962891 3.8181326389312744141 3.9317898750305175781 4.2988677024841308594 4.1661705970764160156 4.37640380859375 4.2790966033935546875 3.6865508556365966797 3.189464569091796875 2.5572996139526367188 1.015659332275390625 3.5958795547485351562 3.9536604881286621094 4.0572781562805175781 2.2050259113311767578 1.532708287239074707 4.3305497169494628906 3.7046561241149902344 2.1532628536224365234 2.3643617630004882812 3.4928958415985107422 3.2549066543579101562 2.0121066570281982422 1.8356721401214599609 1.0949137210845947266 1.1006817817687988281 2.6886503696441650391 3.0947072505950927734 3.0475890636444091797 3.5416836738586425781 
4.8014035224914550781 5.2150568962097167969 3.5641546249389648438 3.2450520992279052734 3.8013541698455810547 3.9953660964965820312 4.1242227554321289062 3.0659489631652832031 2.9674279689788818359 4.1120867729187011719 3.9849219322204589844 1.50395965576171875 2.1824407577514648438 2.9747407436370849609 2.03842926025390625 1.500429987907409668 2.6317212581634521484 3.843021392822265625 4.4391312599182128906 1.062044978141784668 2.7421643733978271484 2.3416433334350585938 3.2520818710327148438 3.1558065414428710938 0.2567068934440612793 1.485278010368347168 4.0198602676391601562 4.6936016082763671875 1.8534052371978759766 1.8217313289642333984 2.1052982807159423828 0.63842558860778808594 0.28483334183692932129 1.6061748266220092773 0.26300001144409179688 1.6166657209396362305 5.9025726318359375 2.4441990852355957031 2.4676809310913085938 1.1401555538177490234 3.1924736499786376953 5.5081400871276855469 1.5210165977478027344 1.3689466714859008789 0.653888702392578125 1.1984407901763916016 0.43963262438774108887 2.6638083457946777344 3.4217395782470703125 1.1304436922073364258 0.0068160002119839191437 0.0068160002119839191437 0.0068160002119839191437 0.0068160002119839191437 3.9044158458709716797 3.2874302864074707031 3.1728639602661132812 3.7282748222351074219 3.8504722118377685547 3.8922002315521240234 4.5302724838256835938 4.3081831932067871094 4.3764901161193847656 3.9965977668762207031 3.57170867919921875 1.2888524532318115234 0.77732789516448974609 0.95159620046615600586 3.487400054931640625 4.0114836692810058594 3.7859792709350585938 1.1011031866073608398 1.5611696243286132812 3.129573822021484375 2.8570432662963867188 3.1874907016754150391 2.1759405136108398438 3.5537431240081787109 2.9512894153594970703 0.82281315326690673828 1.0766048431396484375 1.4639440774917602539 1.4313369989395141602 3.5754616260528564453 3.4840791225433349609 2.8423893451690673828 1.3550914525985717773 
5.2775788307189941406 4.6826338768005371094 2.7856500148773193359 3.2403328418731689453 3.6917781829833984375 3.9664838314056396484 3.9126665592193603516 2.8379538059234619141 1.9667024612426757812 2.7622504234313964844 2.7381465435028076172 2.8015587329864501953 2.7865602970123291016 2.9947066307067871094 1.7304235696792602539 0.29000002145767211914 1.9176204204559326172 1.6315916776657104492 0.80827552080154418945 3.5621767044067382812 4.5246644020080566406 0.29000002145767211914 4.0205864906311035156 1.8049714565277099609 4.0388770103454589844 2.2721152305603027344 1.1235744953155517578 3.5302145481109619141 4.0069966316223144531 3.8436379432678222656 3.4696602821350097656 2.3423390388488769531 1.5681054592132568359 0.94457983970642089844 3.0270290374755859375 1.1530665159225463867 5.37155914306640625 2.5565357208251953125 2.1172919273376464844 0.05577649921178817749 0.98851799964904785156 3.4613537788391113281 1.7508521080017089844 1.5479773283004760742 0.53431880474090576172 0.99013566970825195312 0.092069000005722045898 2.0463392734527587891 3.1182081699371337891 0.68095374107360839844 0.0068160002119839191437 0.0068160002119839191437 0.0068160002119839191437 0.0068160002119839191437 3.7472512722015380859 3.7620160579681396484 3.0722808837890625 3.3569614887237548828 3.7870187759399414062 3.9451382160186767578 3.7821557521820068359 4.3064265251159667969 4.3765921592712402344 3.2472589015960693359 3.6431527137756347656 2.0106875896453857422 2.0540573596954345703 1.8934156894683837891 3.1666402816772460938 4.4023885726928710938 0.88493013381958007812 0.85989755392074584961 2.2862470149993896484 3.0022847652435302734 3.3027312755584716797 1.9642415046691894531 2.620235443115234375 2.9613358974456787109 0.2729505002498626709 0.5176849365234375 1.0528161525726318359 3.272708892822265625 1.2474046945571899414 3.2182769775390625 3.7156481742858886719 2.4148302078247070312 0.0068160002119839191437 
4.1925630569458007812 3.4540264606475830078 3.1685717105865478516 3.4936630725860595703 4.8198022842407226562 3.9715392589569091797 4.0603117942810058594 3.1720371246337890625 1.8125886917114257812 3.2930920124053955078 3.9457492828369140625 4.6556639671325683594 3.7663159370422363281 3.5168130397796630859 2.9145045280456542969 2.9625475406646728516 1.2315081357955932617 2.4269597530364990234 3.1302902698516845703 1.9813429117202758789 2.5932784080505371094 1.5537720918655395508 3.7935001850128173828 4.1311564445495605469 4.3800001144409179688 4.3775110244750976562 2.428340911865234375 3.5121083259582519531 3.22011566162109375 3.5354790687561035156 3.5084221363067626953 1.6477882862091064453 3.7164046764373779297 5.1777553558349609375 3.2803709506988525391 2.8390886783599853516 3.7636573314666748047 0.44279998540878295898 0.70989930629730224609 0.86000728607177734375 1.7116225957870483398 3.9310405254364013672 3.9591660499572753906 3.8987987041473388672 0.7238922119140625 0.092069000005722045898 0.092069000005722045898 1.5134252309799194336 2.4376006126403808594 2.6372306346893310547 0.0068160002119839191437 0.0068160002119839191437 0.0068160002119839191437 2.4166955947875976562 2.6518399715423583984 2.5440154075622558594 3.7590167522430419922 3.4189965724945068359 3.6643359661102294922 3.7727651596069335938 3.4649491310119628906 3.9278464317321777344 4.0992517471313476562 3.9257876873016357422 4.4506478309631347656 3.4243016242980957031 3.2702012062072753906 3.6177341938018798828 4.7327551841735839844 2.6209123134613037109 1.4800702333450317383 2.0439171791076660156 2.1183788776397705078 2.3386964797973632812 1.8659440279006958008 2.8465974330902099609 3.7084901332855224609 2.8973302841186523438 0.74293440580368041992 0.57266348600387573242 2.8677723407745361328 3.4644863605499267578 2.0288572311401367188 2.2594859600067138672 3.0781817436218261719 2.8959493637084960938 0.70226699113845825195 
4.0804743766784667969 3.0941143035888671875 3.5045368671417236328 3.4428472518920898438 5.3534159660339355469 4.2969484329223632812 4.3678889274597167969 3.5542874336242675781 0.39949473738670349121 1.0528442859649658203 3.0145742893218994141 3.3452956676483154297 3.7092533111572265625 3.1858973503112792969 1.6126676797866821289 1.9566388130187988281 0.84886753559112548828 2.1376640796661376953 3.2034604549407958984 4.3412575721740722656 4.3800001144409179688 4.3800001144409179688 4.3800001144409179688 4.3800001144409179688 2.6094379425048828125 3.3158860206604003906 4.0123925209045410156 2.9677901268005371094 3.945987701416015625 5.9248867034912109375 4.51731109619140625 3.1111311912536621094 2.6321535110473632812 4.78910064697265625 1.6451573371887207031 2.9991209506988525391 4.2847003936767578125 0.44279998540878295898 0.44279998540878295898 0.44279998540878295898 3.2180194854736328125 3.9705638885498046875 3.9968225955963134766 3.3609280586242675781 0.83548814058303833008 1.6213107109069824219 0.16804587841033935547 0.061621498316526412964 0.0068160002119839191437 0.0068160002119839191437 0.0068160002119839191437 0.0068160002119839191437 0.0068160002119839191437 0.0068160002119839191437 3.441349029541015625 3.8206667900085449219 3.6841681003570556641 3.5842311382293701172 3.9653997421264648438 3.8182320594787597656 3.5802593231201171875 2.5746006965637207031 4.021427154541015625 3.6685781478881835938 4.0581579208374023438 3.8774571418762207031 3.7626500129699707031 4.2484769821166992188 4.4867124557495117188 1.7017598152160644531 3.9049093723297119141 3.5499765872955322266 3.5114758014678955078 3.5598366260528564453 2.9618513584136962891 3.1451478004455566406 2.9894385337829589844 1.8322218656539916992 0.24461850523948669434 3.3389348983764648438 3.0796620845794677734 2.1753561496734619141 1.4272178411483764648 1.2154692411422729492 2.3178668022155761719 0.23415063321590423584 1.8201082944869995117 
3.549739837646484375 3.5087189674377441406 3.8527657985687255859 3.8901798725128173828 3.8832542896270751953 3.9763531684875488281 4.8357601165771484375 3.3911602497100830078 3.3947193622589111328 3.4212436676025390625 3.4715490341186523438 3.0965223312377929688 3.4990298748016357422 2.7154996395111083984 2.8868885040283203125 1.1397739648818969727 2.5993437767028808594 4.3800001144409179688 4.3800001144409179688 4.3800001144409179688 4.3800001144409179688 4.3800001144409179688 3.8830025196075439453 3.01371002197265625 4.3767628669738769531 3.7942631244659423828 2.311107635498046875 3.7761135101318359375 4.37660980224609375 1.5724111795425415039 2.1079685688018798828 2.1266307830810546875 3.4780137538909912109 3.3599088191986083984 3.5701336860656738281 6.1208219528198242188 4.9787755012512207031 0.81930649280548095703 0.44279998540878295898 1.0126458406448364258 3.8603758811950683594 3.8878810405731201172 3.5509305000305175781 2.0426497459411621094 1.3440238237380981445 0.29956999421119689941 0.092069000005722045898 0.30421406030654907227 0.0068160002119839191437 0.0068160002119839191437 0.0068160002119839191437 0.0068160002119839191437 0.0068160002119839191437 0.0068160002119839191437 2.8943223953247070312 3.9045374393463134766 3.4292767047882080078 3.4024040699005126953 3.4259092807769775391 3.5042073726654052734 4.3426690101623535156 4.2461428642272949219 3.6881589889526367188 3.6483340263366699219 4.9100041389465332031 4.069671630859375 4.6280360221862792969 4.4045519828796386719 4.1080417633056640625 1.0753414630889892578 3.9504134654998779297 3.4648947715759277344 2.5206203460693359375 3.5720651149749755859 3.4749901294708251953 3.6569600105285644531 1.479472041130065918 1.5113772153854370117 1.5113233327865600586 2.4464313983917236328 3.4826695919036865234 2.32460784912109375 0.5325228571891784668 0.99215537309646606445 1.0668940544128417969 0.6200618743896484375 2.3884348869323730469 
3.7840790748596191406 3.8607110977172851562 3.869945526123046875 3.6147067546844482422 3.6505770683288574219 3.6369051933288574219 3.8089051246643066406 3.732326507568359375 3.8491761684417724609 3.2376794815063476562 3.5880391597747802734 3.5955572128295898438 3.7474222183227539062 3.3063559532165527344 2.2500503063201904297 2.1187803745269775391 4.3800001144409179688 4.3800001144409179688 4.3800001144409179688 4.378025054931640625 4.6829099655151367188 4.3148293495178222656 1.7345029115676879883 3.0614304542541503906 2.2139871120452880859 0.74389785528182983398 1.4817785024642944336 2.4675030708312988281 3.8578708171844482422 2.4727358818054199219 0.76906645298004150391 0.57452368736267089844 2.4605894088745117188 3.9804062843322753906 3.6576371192932128906 3.4517452716827392578 1.6827883720397949219 0.67524546384811401367 2.3335843086242675781 3.6968016624450683594 3.8704099655151367188 3.8317592144012451172 3.5063958168029785156 2.5566093921661376953 2.8399798870086669922 2.4351048469543457031 1.5309393405914306641 1.3633286952972412109 0.0068160002119839191437 1.0668023824691772461 1.4396170377731323242 0.0068160002119839191437 1.2445884943008422852 1.7567826509475708008 3.9278371334075927734 3.5968081951141357422 3.9004178047180175781 2.9158909320831298828 3.6805467605590820312 3.7774565219879150391 3.1656122207641601562 3.9053032398223876953 4.6249728202819824219 4.6252703666687011719 4.1406641006469726562 3.8671495914459228516 3.4676225185394287109 3.1727213859558105469 2.6696105003356933594 1.8463714122772216797 3.8778128623962402344 3.5213146209716796875 3.5254027843475341797 3.7570121288299560547 3.7502982616424560547 1.7035474777221679688 0.0068160002119839191437 1.417386174201965332 2.8003516197204589844 2.2009034156799316406 3.4800999164581298828 1.3167631626129150391 1.2553830146789550781 1.4604170322418212891 1.8544363975524902344 0.35606774687767028809 0.8155949711799621582 
3.6194891929626464844 2.5823311805725097656 4.501499176025390625 3.5362639427185058594 3.4527354240417480469 4.0185918807983398438 3.6229517459869384766 3.5273284912109375 3.6320815086364746094 1.6197252273559570312 3.4971878528594970703 3.1709837913513183594 1.8533264398574829102 2.1301875114440917969 1.552958369255065918 4.1311564445495605469 4.3800001144409179688 4.003387451171875 4.264026641845703125 4.9474377632141113281 4.9204473495483398438 1.5718587636947631836 0.85100537538528442383 2.8776860237121582031 1.55077362060546875 2.8844234943389892578 3.1644220352172851562 2.1819093227386474609 2.6409871578216552734 0.94347721338272094727 0.5886332392692565918 0.49571770429611206055 2.944309234619140625 3.8526482582092285156 2.4714307785034179688 3.9698333740234375 1.6194646358489990234 1.0258574485778808594 3.3466250896453857422 3.6109521389007568359 3.6045999526977539062 3.2928969860076904297 2.7461464405059814453 3.2537655830383300781 2.2594523429870605469 4.0442419052124023438 3.7833840847015380859 0.25205698609352111816 0.37213593721389770508 1.4657092094421386719 2.3000736236572265625 2.1876506805419921875 3.8321685791015625 3.1905589103698730469 3.46356964111328125 3.1832256317138671875 3.0767300128936767578 2.9431438446044921875 3.8376600742340087891 3.4888796806335449219 3.8281607627868652344 4.426166534423828125 4.3860836029052734375 4.3322629928588867188 3.2460887432098388672 3.6971883773803710938 3.3215303421020507812 4.1128020286560058594 4.1778187751770019531 2.7768654823303222656 3.8956782817840576172 3.4346814155578613281 2.8610851764678955078 1.8034971952438354492 2.3874170780181884766 3.4445445537567138672 2.722721099853515625 3.2631402015686035156 1.8015232086181640625 1.7479784488677978516 4.291996002197265625 3.4042861461639404297 2.642803192138671875 3.3118124008178710938 2.9136240482330322266 2.6568202972412109375 5.4184370040893554688 
2.7749037742614746094 0.5757490992546081543 2.5111775398254394531 3.52630615234375 3.7324876785278320312 3.8010144233703613281 3.8355133533477783203 3.4368922710418701172 3.6502773761749267578 1.5873203277587890625 1.9752671718597412109 2.5559666156768798828 1.7171421051025390625 1.2872703075408935547 4.379451751708984375 4.3800001144409179688 4.3800001144409179688 4.3800001144409179688 4.4176158905029296875 4.7987146377563476562 5.1255035400390625 4.041225433349609375 3.4304225444793701172 2.1890995502471923828 3.4967370033264160156 3.52341461181640625 3.0004227161407470703 3.6459062099456787109 3.8036255836486816406 3.4325935840606689453 1.8446861505508422852 3.4965012073516845703 3.9778375625610351562 3.9941525459289550781 3.9424395561218261719 3.2134232521057128906 0.68701964616775512695 2.7851650714874267578 3.6133453845977783203 2.7619292736053466797 3.1300721168518066406 2.6176497936248779297 1.5316376686096191406 3.2604596614837646484 3.9514851570129394531 2.4512157440185546875 0.89192873239517211914 0.25205698609352111816 1.4380842447280883789 2.6462304592132568359 3.6626286506652832031 3.3533208370208740234 2.4906249046325683594 4.0096096992492675781 3.8948144912719726562 2.8760762214660644531 1.0591367483139038086 2.4353239536285400391 3.2176077365875244141 3.4073069095611572266 3.989185333251953125 4.6748142242431640625 4.0602192878723144531 3.5704677104949951172 3.4040651321411132812 3.5886583328247070312 2.6099598407745361328 3.5275945663452148438 3.0692224502563476562 2.9881010055541992188 3.7271680831909179688 3.4193348884582519531 3.2518591880798339844 2.9037392139434814453 0.74997752904891967773 0.28869324922561645508 0.87363433837890625 1.770157933235168457 1.7356913089752197266 2.391666412353515625 3.2855141162872314453 3.5337669849395751953 4.3863263130187988281 5.7480559349060058594 4.4482593536376953125 4.0905413627624511719 4.1016283035278320312 
3.6054055690765380859 2.7991225719451904297 3.0351564884185791016 3.1832103729248046875 3.6461048126220703125 3.5898408889770507812 4.29239654541015625 1.6110094785690307617 3.8396060466766357422 2.5591454505920410156 0.37049806118011474609 0.52251410484313964844 0.5912945866584777832 1.3324375152587890625 1.3112083673477172852 4.3800001144409179688 4.3800001144409179688 4.3774638175964355469 4.3769073486328125 4.0525712966918945312 3.1114354133605957031 2.7392950057983398438 4.2068848609924316406 4.8433895111083984375 3.5945999622344970703 3.2695331573486328125 3.208953857421875 2.5401823520660400391 1.5004333257675170898 2.3882741928100585938 3.1309762001037597656 1.4314783811569213867 2.4468288421630859375 2.9718782901763916016 3.7884390354156494141 3.2948157787322998047 2.4671504497528076172 3.6345336437225341797 3.5275087356567382812 3.0744488239288330078 3.6902799606323242188 3.7769908905029296875 3.8002936840057373047 4.0416173934936523438 4.0157732963562011719 2.6349720954895019531 0.65981817245483398438 1.2176612615585327148 2.9978494644165039062 3.7135646343231201172 2.9351172447204589844 3.5508241653442382812 3.34803009033203125 3.7965776920318603516 3.0758955478668212891 2.5804696083068847656 1.902409672737121582 2.9763185977935791016 4.0346493721008300781 4.7363896369934082031 3.9939823150634765625 4.01371002197265625 3.6306633949279785156 3.6862015724182128906 3.5139455795288085938 3.8073210716247558594 3.7546372413635253906 3.8671274185180664062 3.6304047107696533203 3.7542288303375244141 3.9204812049865722656 3.5244748592376708984 2.9426352977752685547 3.1733174324035644531 2.0754239559173583984 1.7360519170761108398 3.1181051731109619141 3.8439812660217285156 3.7279751300811767578 3.1831326484680175781 4.3181176185607910156 5.3616018295288085938 4.6258130073547363281 4.3764810562133789062 4.62561798095703125 3.8458931446075439453 4.4947867393493652344 
2.8703527450561523438 3.4959495067596435547 3.4705898761749267578 3.5360715389251708984 3.3239703178405761719 4.0176572799682617188 2.584136962890625 2.2549536228179931641 3.49332427978515625 1.9893099069595336914 1.0479120016098022461 1.4042141437530517578 0.33403950929641723633 0.363071441650390625 3.6970221996307373047 4.3800001144409179688 4.7059741020202636719 4.330997467041015625 3.0965263843536376953 3.2490944862365722656 2.4357762336730957031 2.1411614418029785156 3.8132791519165039062 4.7418684959411621094 3.6799356937408447266 3.5294446945190429688 3.3131592273712158203 2.7735171318054199219 0.92516678571701049805 2.5562713146209716797 2.1321623325347900391 0.93993878364562988281 3.4902155399322509766 3.6380758285522460938 3.8796086311340332031 4.0596570968627929688 2.7248504161834716797 3.3157451152801513672 3.7783858776092529297 4.0718970298767089844 3.5749125480651855469 2.2658259868621826172 1.5128226280212402344 3.5156230926513671875 4.0109906196594238281 4.0293321609497070312 1.7802032232284545898 1.9299865961074829102 1.2919549942016601562 3.1793425083160400391 3.4649906158447265625 0.87683635950088500977 0.44279998540878295898 0.44279998540878295898 0.64687860012054443359 0.80843740701675415039 3.9762303829193115234 3.9272551536560058594 3.8732874393463134766 5.1265769004821777344 3.9462666511535644531 3.4025151729583740234 3.4124085903167724609 3.62786865234375 3.4748733043670654297 3.5296144485473632812 3.5945043563842773438 3.6431107521057128906 4.6208171844482421875 4.0812726020812988281 4.3093423843383789062 3.9668135643005371094 4.2461233139038085938 4.2999129295349121094 3.5311594009399414062 2.4377138614654541016 1.7811919450759887695 3.5260665416717529297 4.4256658554077148438 4.1894650459289550781 4.6027841567993164062 4.4875473976135253906 4.8758487701416015625 4.2872972488403320312 4.3725557327270507812 4.2814083099365234375 2.9451303482055664062 
3.1934466361999511719 3.4057219028472900391 3.3633327484130859375 4.5029468536376953125 4.6530199050903320312 3.9049935340881347656 3.1472697257995605469 2.1700670719146728516 1.284903407096862793 1.6678159236907958984 3.9662585258483886719 1.0224653482437133789 0.2981961369514465332 4.0482082366943359375 4.3347620964050292969 4.1836390495300292969 3.6739645004272460938 3.1592226028442382812 2.54898834228515625 2.3012478351593017578 2.5663325786590576172 2.4901115894317626953 3.8309905529022216797 5.2615613937377929688 3.5960223674774169922 3.5158302783966064453 3.6687133312225341797 2.9757807254791259766 2.7761838436126708984 0.44279998540878295898 2.0457136631011962891 2.0932917594909667969 4.2142572402954101562 3.6522669792175292969 3.7799298763275146484 3.8898296356201171875 3.284412384033203125 3.8984830379486083984 4.1558847427368164062 2.50949859619140625 0.0068160002119839191437 0.0068160002119839191437 1.010377049446105957 3.7783308029174804688 4.0263843536376953125 4.0305318832397460938 4.030254364013671875 3.9789669513702392578 3.5590615272521972656 1.7603412866592407227 4.0134820938110351562 0.66655212640762329102 0.44279998540878295898 0.44279998540878295898 0.44279998540878295898 3.1396336555480957031 4.0381059646606445312 4.0092616081237792969 4.1186680793762207031 5.0343136787414550781 3.9470803737640380859 3.2204265594482421875 3.8949468135833740234 3.029216766357421875 3.6684436798095703125 3.4580867290496826172 3.4776153564453125 3.142757415771484375 4.6401047706604003906 2.1574981212615966797 4.286251068115234375 4.1612868309020996094 3.6176369190216064453 1.8859813213348388672 1.8130286931991577148 1.851870417594909668 2.3198244571685791016 3.4562590122222900391 3.6784548759460449219 4.2237963676452636719 4.1499853134155273438 3.9727094173431396484 3.7196741104125976562 3.5942251682281494141 4.6574044227600097656 2.7179853916168212891 2.6955466270446777344 
3.2203137874603271484 3.4605448246002197266 2.6790077686309814453 4.3841428756713867188 2.5925631523132324219 3.7817921638488769531 1.4210005998611450195 0.29554167389869689941 0.77595746517181396484 2.3310768604278564453 0.27506250143051147461 0.28296321630477905273 0.29553750157356262207 0.75982499122619628906 3.1230499744415283203 2.901325225830078125 2.0881323814392089844 1.2594060897827148438 3.6270952224731445312 2.6759145259857177734 2.5547811985015869141 2.3823654651641845703 3.318675994873046875 4.1794066429138183594 3.3400251865386962891 3.6124966144561767578 3.3254330158233642578 3.5831215381622314453 0.97049045562744140625 0.44279998540878295898 2.7246685028076171875 5.8999867439270019531 2.1665444374084472656 3.7021372318267822266 4.3800001144409179688 4.0629715919494628906 3.9755165576934814453 4.040393829345703125 2.4841718673706054688 0.0068160002119839191437 0.0068160002119839191437 0.0068160002119839191437 1.9967759847640991211 4.0143761634826660156 3.7524535655975341797 4.0165705680847167969 2.7562165260314941406 3.968967437744140625 4.0021848678588867188 4.0118317604064941406 4.0277075767517089844 2.0108456611633300781 0.44279998540878295898 0.44279998540878295898 0.66655212640762329102 4.0319676399230957031 4.0314149856567382812 4.0005078315734863281 3.5363676548004150391 4.4798665046691894531 3.878070831298828125 3.5777275562286376953 3.7516088485717773438 1.4002404212951660156 2.7532231807708740234 4.9371967315673828125 3.8027546405792236328 3.7124180793762207031 3.5760030746459960938 2.8347032070159912109 3.9898612499237060547 4.3310308456420898438 3.8002991676330566406 1.6017891168594360352 2.3917453289031982422 1.7909086942672729492 3.8045377731323242188 4.3453521728515625 4.3090043067932128906 4.4550433158874511719 3.9101471900939941406 4.6551213264465332031 3.2920498847961425781 3.0416722297668457031 1.3515665531158447266 0.72195100784301757812 3.4509654045104980469 
3.2036812305450439453 3.1667897701263427734 2.6691219806671142578 2.9539573192596435547 3.6023783683776855469 2.7379453182220458984 0.24320246279239654541 1.3119515180587768555 2.0327286720275878906 3.5807299613952636719 1.4832901954650878906 1.9941930770874023438 2.6837749481201171875 3.2550857067108154297 4.3800001144409179688 2.7882895469665527344 3.2928006649017333984 3.824413299560546875 2.4019887447357177734 4.2688059806823730469 2.9740309715270996094 3.7112138271331787109 3.2541663646697998047 3.8317558765411376953 3.5786211490631103516 3.7751331329345703125 3.4237084388732910156 3.4531378746032714844 1.5361969470977783203 0.66655212640762329102 4.1145586967468261719 1.8498620986938476562 0.96384567022323608398 3.2643108367919921875 4.3521018028259277344 4.0633568763732910156 3.9349267482757568359 2.2266230583190917969 0.0068160002119839191437 0.0068160002119839191437 0.0068160002119839191437 0.25942820310592651367 3.2732391357421875 4.0119953155517578125 3.9757006168365478516 3.7774899005889892578 3.5380883216857910156 4.049488067626953125 3.9919333457946777344 4.0279755592346191406 4.01513671875 4.0171260833740234375 1.0941755771636962891 0.44279998540878295898 2.4604651927947998047 3.9841349124908447266 4.000530242919921875 4.002849578857421875 4.4623241424560546875 4.4468560218811035156 3.6652307510375976562 4.0236339569091796875 3.4360582828521728516 3.2242970466613769531 3.6440653800964355469 4.5102534294128417969 3.5541391372680664062 4.3565545082092285156 4.7447633743286132812 3.7228760719299316406 2.8801124095916748047 3.6887872219085693359 3.1640636920928955078 2.9518277645111083984 3.5955410003662109375 3.7048614025115966797 3.9579453468322753906 3.2901041507720947266 3.9860413074493408203 3.5837755203247070312 3.6418337821960449219 3.4145193099975585938 2.9065198898315429688 2.7709641456604003906 0.23415063321590423584 1.5821377038955688477 3.2944927215576171875 
3.0658547878265380859 1.4352364540100097656 2.4895617961883544922 1.6443362236022949219 1.1616109609603881836 1.2995430231094360352 0.88232600688934326172 2.3311364650726318359 3.4611451625823974609 2.5712478160858154297 2.4614815711975097656 3.3768751621246337891 4.3800001144409179688 4.3800001144409179688 4.3800001144409179688 1.2843152284622192383 1.9193892478942871094 3.2200469970703125 1.0935356616973876953 2.9659035205841064453 3.9760308265686035156 4.5221505165100097656 2.1457765102386474609 2.74813079833984375 3.7930166721343994141 3.4642970561981201172 3.4951741695404052734 2.7650198936462402344 0.64133226871490478516 2.7464613914489746094 3.9717395305633544922 0.26113998889923095703 0.63938271999359130859 3.1355535984039306641 4.2734613418579101562 4.0029492378234863281 3.9545314311981201172 0.42730942368507385254 0.0068160002119839191437 0.7341238856315612793 3.4237186908721923828 4.0158529281616210938 3.9958989620208740234 3.6861491203308105469 4.014934539794921875 3.9814839363098144531 3.4888119697570800781 1.2607250213623046875 2.7340087890625 4.0173916816711425781 4.0314245223999023438 4.0035982131958007812 3.732997894287109375 3.3510286808013916016 4.0042433738708496094 4.0699977874755859375 4.011260986328125 3.6949510574340820312 3.7555594444274902344 2.7862219810485839844 4.2196965217590332031 3.8046896457672119141 3.7043082714080810547 3.5400261878967285156 3.5685634613037109375 3.8201222419738769531 3.5383031368255615234 3.4119076728820800781 2.5757875442504882812 3.447345733642578125 2.3164186477661132812 2.0479536056518554688 1.0041482448577880859 1.6224343776702880859 3.7222585678100585938 3.9225590229034423828 3.1771173477172851562 1.5351661443710327148 0.79852497577667236328 0.9995905756950378418 3.0325593948364257812 2.8669762611389160156 2.7481327056884765625 2.8191814422607421875 1.8260916471481323242 2.3593511581420898438 2.8937380313873291016 
3.4564111232757568359 3.2006840705871582031 2.5497617721557617188 1.3420141935348510742 3.0694344043731689453 2.1924014091491699219 4.0091652870178222656 4.0459265708923339844 3.5800085067749023438 3.0728633403778076172 3.1092784404754638672 4.1311564445495605469 4.3800001144409179688 4.3800001144409179688 4.3800001144409179688 3.1973426342010498047 3.1131556034088134766 2.4570851325988769531 2.0199565887451171875 1.03295135498046875 2.8062183856964111328 4.3376231193542480469 3.2572453022003173828 4.0709223747253417969 4.6167736053466796875 3.6839799880981445312 3.6309144496917724609 2.10054779052734375 1.4277012348175048828 3.8944859504699707031 2.0764346122741699219 0.2492882460355758667 1.6320873498916625977 3.5895724296569824219 4.3462672233581542969 4.2817621231079101562 3.9531190395355224609 0.99157655239105224609 0.0068160002119839191437 2.9633097648620605469 3.9719057083129882812 4.0313286781311035156 4.0314927101135253906 3.9620480537414550781 4.0095005035400390625 3.9959361553192138672 1.2506862878799438477 3.2475373744964599609 1.4869800806045532227 4.0020494461059570312 4.052898406982421875 4.0406103134155273438 4.01898193359375 4.0190639495849609375 3.9949672222137451172 4.1238565444946289062 3.9283416271209716797 2.4509122371673583984 1.1784785985946655273 1.2062487602233886719 2.6176941394805908203 3.6426839828491210938 3.5518231391906738281 3.9742035865783691406 3.4920771121978759766 3.5703423023223876953 3.8642652034759521484 3.59152984619140625 1.6342040300369262695 3.1930017471313476562 4.1370825767517089844 1.5548841953277587891 1.7761312723159790039 1.5502731800079345703 3.7927978038787841797 3.9028375148773193359 3.4819948673248291016 1.3755403757095336914 1.1921873092651367188 0.86361414194107055664 2.7386994361877441406 3.0779521465301513672 2.8202114105224609375 2.83742523193359375 1.97168731689453125 2.9060957431793212891 3.4008152484893798828 
3.3312308788299560547 1.8565994501113891602 1.2620651721954345703 2.9855387210845947266 3.7113163471221923828 4.7960381507873535156 3.9995534420013427734 3.6070711612701416016 3.6772589683532714844 2.3247816562652587891 4.3800001144409179688 4.3800001144409179688 4.2656140327453613281 4.3800001144409179688 4.3800001144409179688 4.0638775825500488281 5.7905416488647460938 3.6168730258941650391 3.8342797756195068359 3.1378428936004638672 2.4721584320068359375 3.9083569049835205078 3.6563940048217773438 4.8000521659851074219 4.0018391609191894531 3.9470474720001220703 3.8361647129058837891 3.7947108745574951172 3.343597412109375 2.3739845752716064453 3.1036832332611083984 2.7734584808349609375 3.3691251277923583984 3.2099471092224121094 4.1493334770202636719 3.9749274253845214844 3.9439179897308349609 2.4543251991271972656 1.4742075204849243164 3.9407172203063964844 4.0269708633422851562 4.0064172744750976562 4.0096898078918457031 3.9535212516784667969 4.0090160369873046875 2.7079863548278808594 2.9867455959320068359 1.7102509737014770508 2.9965887069702148438 4.0506000518798828125 4.2083106040954589844 4.0906968116760253906 4.0033321380615234375 3.9259116649627685547 3.9081799983978271484 3.9225287437438964844 3.2253935337066650391 1.862048029899597168 1.6919809579849243164 1.7942368984222412109 1.2441877126693725586 3.5916171073913574219 3.9664340019226074219 3.7142395973205566406 3.3227827548980712891 3.7499980926513671875 3.8967492580413818359 5.0082898139953613281 3.6947243213653564453 3.2240433692932128906 3.0604383945465087891 1.2431695461273193359 1.3819346427917480469 3.2111966609954833984 3.9923884868621826172 3.9162530899047851562 3.8752987384796142578 2.3273770809173583984 1.9255995750427246094 0.86361414194107055664 2.1503224372863769531 2.7739641666412353516 2.7771220207214355469 3.262790679931640625 3.2707655429840087891 2.5332148075103759766 1.4506545066833496094 
2.52130126953125 4.8776769638061523438 2.3072936534881591797 2.5909631252288818359 3.5200948715209960938 5.2014136314392089844 4.37133026123046875 2.4982280731201171875 2.58252716064453125 4.0482082366943359375 4.3800001144409179688 4.3545947074890136719 4.1085138320922851562 4.3523240089416503906 4.3800001144409179688 2.466732025146484375 5.7086634635925292969 4.7854795455932617188 5.1327419281005859375 4.4754815101623535156 3.6285922527313232422 3.8671343326568603516 4.95008087158203125 4.3880128860473632812 3.79848480224609375 3.5553812980651855469 3.0943753719329833984 3.508998870849609375 3.2995946407318115234 2.7248299121856689453 1.3486653566360473633 4.3800001144409179688 4.3800001144409179688 2.9173109531402587891 4.0144419670104980469 3.7005450725555419922 3.961048126220703125 3.7994375228881835938 3.4493620395660400391 3.9824559688568115234 3.9801385402679443359 3.9566211700439453125 4.1511468887329101562 4.165622711181640625 3.9778883457183837891 2.2217013835906982422 1.9509608745574951172 3.7436673641204833984 3.6901910305023193359 2.0681283473968505859 3.9703383445739746094 3.9845156669616699219 4.015819549560546875 3.9860377311706542969 3.9161303043365478516 3.5807981491088867188 1.6505566835403442383 3.3584346771240234375 3.1139655113220214844 1.2887120246887207031 2.5265226364135742188 3.8528513908386230469 3.8681399822235107422 3.4178037643432617188 3.7153806686401367188 3.7213940620422363281 3.9744246006011962891 5.0538177490234375 3.9413530826568603516 2.613941192626953125 1.1977840662002563477 0.70633596181869506836 2.9426200389862060547 2.5670390129089355469 4.0255918502807617188 4.0201430320739746094 3.7119200229644775391 2.6932654380798339844 0.64212816953659057617 0.84454768896102905273 3.0132050514221191406 1.1541509628295898438 1.0644201040267944336 2.0376708507537841797 1.9695670604705810547 0.32963094115257263184 1.5391209125518798828 
3.5022711753845214844 3.9047048091888427734 1.7040057182312011719 3.1114737987518310547 3.7202990055084228516 3.8686459064483642578 3.8299131393432617188 2.6617102622985839844 2.3651723861694335938 4.0378751754760742188 4.3800001144409179688 4.3442378044128417969 3.7483670711517333984 4.357677459716796875 4.3800001144409179688 4.3791995048522949219 2.8790404796600341797 3.9613511562347412109 4.8989057540893554688 4.9655094146728515625 4.5167703628540039062 5.0543317794799804688 4.6007375717163085938 3.8902041912078857422 3.9116532802581787109 3.2590551376342773438 3.4446747303009033203 3.9143087863922119141 2.5601620674133300781 4.1555323600769042969 0.79824393987655639648 2.1934080123901367188 3.7194707393646240234 2.3663876056671142578 3.4155969619750976562 1.4628951549530029297 1.9848988056182861328 3.2212483882904052734 4.002361297607421875 3.9525065422058105469 3.9664340019226074219 3.9851222038269042969 4.0721120834350585938 3.8529622554779052734 3.9490487575531005859 3.9238305091857910156 3.9498205184936523438 4.0264468193054199219 4.0178122520446777344 4.02149200439453125 4.0256915092468261719 3.9923117160797119141 4.0049390792846679688 4.0002803802490234375 3.7704946994781494141 2.5505135059356689453 3.5084969997406005859 3.4670720100402832031 2.9728450775146484375 2.9428627490997314453 3.1779732704162597656 3.6997072696685791016 3.7153196334838867188 3.6541109085083007812 3.3227779865264892578 3.5196235179901123047 3.9233202934265136719 5.2362356185913085938 3.1314179897308349609 1.3419322967529296875 1.52454376220703125 0.41369736194610595703 3.7272043228149414062 3.9765458106994628906 4.0075025558471679688 3.9786975383758544922 3.8316333293914794922 2.5032401084899902344 0.18518818914890289307 3.4199876785278320312 2.3837060928344726562 1.596881866455078125 1.4367098808288574219 1.9243127107620239258 2.0684986114501953125 1.0062549114227294922 1.519354701042175293 
4.736328125 3.8540282249450683594 2.65013885498046875 2.8389525413513183594 1.8347555398941040039 2.9045608043670654297 3.8928983211517333984 3.1003248691558837891 1.7538354396820068359 1.9751666784286499023 3.8878500461578369141 3.7262003421783447266 4.2794919013977050781 1.8473953008651733398 4.3794231414794921875 2.7390851974487304688 0.039456333965063095093 3.8883893489837646484 3.2032575607299804688 3.5715641975402832031 3.9341244697570800781 4.5450625419616699219 5.42443084716796875 4.0890569686889648438 3.5401971340179443359 3.579471588134765625 3.3046472072601318359 4.1060705184936523438 1.7916896343231201172 2.3763029575347900391 1.3734360933303833008 0.74957066774368286133 2.3908314704895019531 3.7499032020568847656 2.2852184772491455078 0.17030999064445495605 0.088562995195388793945 0.1430609971284866333 2.5729496479034423828 3.9834506511688232422 3.9623684883117675781 3.9930627346038818359 4.01245880126953125 4.02317047119140625 4.003559112548828125 3.8977985382080078125 4.0179114341735839844 3.9619803428649902344 4.01996612548828125 3.9578504562377929688 4.3443655967712402344 3.9909381866455078125 4.0198087692260742188 4.0148258209228515625 2.89661407470703125 0.50117987394332885742 1.8151671886444091797 3.0007431507110595703 2.7796177864074707031 2.6621747016906738281 0.40667808055877685547 3.2479755878448486328 3.2937524318695068359 2.7325723171234130859 2.5341694355010986328 4.8301882743835449219 4.8752207756042480469 4.9893975257873535156 2.7943968772888183594 1.86395263671875 2.2316768169403076172 1.2228281497955322266 3.8510684967041015625 3.9796175956726074219 4.0001096725463867188 3.978969573974609375 3.7456400394439697266 3.8206379413604736328 0.29448848962783813477 0.77484458684921264648 3.9206373691558837891 3.4923639297485351562 2.5623390674591064453 3.4833045005798339844 3.6513876914978027344 3.5408198833465576172 2.6548421382904052734 
3.5305247306823730469 3.9944198131561279297 3.0716035366058349609 2.4714620113372802734 1.6907701492309570312 1.82984161376953125 3.3996694087982177734 2.1799552440643310547 4.086750030517578125 4.0378751754760742188 3.0288577079772949219 3.7914564609527587891 2.1448905467987060547 3.0706670284271240234 3.9605760574340820312 2.7161672115325927734 0.49042543768882751465 3.88118743896484375 3.0951414108276367188 3.6322891712188720703 3.8963038921356201172 3.8807625770568847656 3.8903937339782714844 3.8005135059356689453 3.8255968093872070312 3.4831168651580810547 4.19976043701171875 3.8198134899139404297 1.081267237663269043 0.55346399545669555664 1.8962626457214355469 2.3390247821807861328 2.108394622802734375 3.8437047004699707031 3.6785821914672851562 1.6968319416046142578 0.30655500292778015137 0.41555097699165344238 1.8268927335739135742 4.1470446586608886719 4.007686614990234375 3.9982366561889648438 4.0284862518310546875 4.0208439826965332031 4.0131883621215820312 4.0139689445495605469 3.9692091941833496094 3.9131817817687988281 3.903934478759765625 3.7024378776550292969 3.925189971923828125 4.0114121437072753906 4.0243296623229980469 3.9606118202209472656 2.9503490924835205078 1.9360513687133789062 1.3333290815353393555 0.4207496345043182373 0.7309430241584777832 0.28731501102447509766 0.0068160002119839191437 0.0068160002119839191437 0.0068160002119839191437 0.0068160002119839191437 0.27992856502532958984 4.4160170555114746094 4.7116441726684570312 4.2035250663757324219 2.8928866386413574219 3.9812903404235839844 3.5931773185729980469 3.2281403541564941406 4.0023016929626464844 4.0108895301818847656 4.0285930633544921875 3.8157279491424560547 3.041385650634765625 3.7126970291137695312 2.6665327548980712891 3.1741728782653808594 3.4587526321411132812 1.143128514289855957 0.42159995436668395996 3.5764162540435791016 3.9131093025207519531 3.9431440830230712891 3.9770960807800292969 
5.1371011734008789062 3.8525111675262451172 2.628376007080078125 1.7594363689422607422 3.7683503627777099609 2.5834345817565917969 3.1106822490692138672 1.6573489904403686523 1.209659576416015625 4.3774347305297851562 4.6786246299743652344 4.3404483795166015625 6.3566250801086425781 2.8179185390472412109 4.3800001144409179688 3.4413065910339355469 3.2854285240173339844 3.7482519149780273438 3.6209356784820556641 3.8780517578125 3.9183061122894287109 3.9216473102569580078 3.4635760784149169922 3.6387786865234375 3.7210133075714111328 3.8548500537872314453 4.0418353080749511719 3.7501988410949707031 0.84550106525421142578 0.83211630582809448242 2.1934080123901367188 2.1401824951171875 3.6752221584320068359 3.8696162700653076172 3.8828806877136230469 3.2313914299011230469 0.30655500292778015137 0.27930599451065063477 2.888462066650390625 3.8693358898162841797 3.9658896923065185547 3.9908397197723388672 4.0173254013061523438 4.0244092941284179688 4.0022678375244140625 4.1451630592346191406 3.9411129951477050781 3.8482732772827148438 3.9404125213623046875 3.9611678123474121094 3.8765244483947753906 3.9974093437194824219 3.8825662136077880859 3.9938333034515380859 3.6949930191040039062 2.5604422092437744141 2.3555967807769775391 2.6355679035186767578 1.2495207786560058594 0.71711498498916625977 1.4782329797744750977 1.4449676275253295898 2.1534106731414794922 1.8503247499465942383 3.3120753765106201172 4.5436859130859375 4.6432394981384277344 4.0134129524230957031 3.9240279197692871094 4.8153476715087890625 3.9552979469299316406 3.9616560935974121094 4.0161824226379394531 3.9963965415954589844 3.9398682117462158203 3.638580322265625 3.4905543327331542969 3.6499128341674804688 3.2511320114135742188 2.8063950538635253906 3.2113180160522460938 1.1162554025650024414 1.0040911436080932617 2.2091321945190429688 3.9674391746520996094 4.0119128227233886719 3.9454903602600097656 
3.3160948753356933594 1.5109179019927978516 3.3718478679656982422 4.1132578849792480469 2.9983062744140625 3.5233631134033203125 2.0431261062622070312 0.24923563003540039062 0.57318735122680664062 4.7540497779846191406 3.8599359989166259766 4.3114557266235351562 0.22348363697528839111 0.20688363909721374512 4.3800001144409179688 2.4414982795715332031 1.7637686729431152344 3.1094112396240234375 3.5637285709381103516 3.7908582687377929688 3.9061868190765380859 3.830394744873046875 3.2179322242736816406 3.4555206298828125 3.4678530693054199219 3.6184208393096923828 1.5901942253112792969 0.18248467147350311279 0.048026502132415771484 0.0068160002119839191437 0.0068160002119839191437 1.6298536062240600586 2.5583217144012451172 3.8553647994995117188 3.9091238975524902344 3.9658582210540771484 0.39567899703979492188 1.8880901336669921875 3.8504672050476074219 3.4792294502258300781 3.6323759555816650391 3.8866639137268066406 3.9923174381256103516 3.9481992721557617188 3.9658260345458984375 3.1444880962371826172 3.2729814052581787109 4.0233774185180664062 2.7374932765960693359 3.3026306629180908203 4.0386629104614257812 3.9248287677764892578 3.5153512954711914062 4.2142348289489746094 4.0196595191955566406 3.9701559543609619141 3.9980008602142333984 1.8855267763137817383 0.0068160002119839191437 2.1625761985778808594 1.2343595027923583984 0.0068160002119839191437 2.9037373065948486328 4.0301899909973144531 4.35660552978515625 3.4129879474639892578 4.2665181159973144531 3.9226326942443847656 3.9597365856170654297 3.9830057621002197266 3.9980714321136474609 3.8790025711059570312 4.0266346931457519531 4.0074458122253417969 3.7372422218322753906 3.5815627574920654297 3.9254732131958007812 3.4065852165222167969 2.6742870807647705078 2.7138447761535644531 2.3931946754455566406 3.1451895236968994141 0.0068160002119839191437 0.25687876343727111816 3.9186000823974609375 3.9117820262908935547 3.9097361564636230469 
3.0491507053375244141 2.4377839565277099609 3.0963513851165771484 3.2169089317321777344 2.7651276588439941406 1.8373026847839355469 4.4161128997802734375 2.5770554542541503906 2.042758941650390625 1.5137422084808349609 3.5327799320220947266 2.1189825534820556641 0.22278125584125518799 2.6714353561401367188 4.3461627960205078125 1.8235716819763183594 0.0068160002119839191437 3.5825057029724121094 3.6003730297088623047 2.2131154537200927734 3.0271046161651611328 3.9450535774230957031 3.084613800048828125 3.5841338634490966797 3.8947024345397949219 0.53356492519378662109 0.25237500667572021484 0.25984376668930053711 0.33757632970809936523 0.0068160002119839191437 0.0068160002119839191437 0.62970882654190063477 1.8732111454010009766 3.7517020702362060547 3.6738605499267578125 3.9384639263153076172 2.7123334407806396484 4.4268183708190917969 3.2629072666168212891 3.4477591514587402344 3.8685193061828613281 3.9572870731353759766 3.9269285202026367188 3.9485738277435302734 4.0053906440734863281 3.4908809661865234375 2.5059289932250976562 1.2619215250015258789 0.50793135166168212891 0.30655500292778015137 2.0996479988098144531 3.9274761676788330078 3.6610994338989257812 4.0657582283020019531 4.5610213279724121094 3.9479153156280517578 3.8624672889709472656 1.6640217304229736328 0.0068160002119839191437 0.2470165640115737915 0.0068160002119839191437 2.0068349838256835938 4.0682697296142578125 4.2010416984558105469 3.8605284690856933594 4.5036296844482421875 3.9597699642181396484 3.9680535793304443359 3.9298698902130126953 4.0139055252075195312 4.0074152946472167969 3.9637389183044433594 3.9779081344604492188 3.9118738174438476562 3.9713101387023925781 4.4297490119934082031 4.0658750534057617188 3.1956269741058349609 3.0576281547546386719 1.9445596933364868164 2.4180271625518798828 2.2908682823181152344 1.5261377096176147461 1.2105230093002319336 2.5275864601135253906 3.9705328941345214844 3.9465625286102294922 
1.1522932052612304688 2.9297423362731933594 3.7701511383056640625 3.1124987602233886719 2.5239839553833007812 1.1332679986953735352 4.1958670616149902344 2.1235184669494628906 2.4396111965179443359 1.4620925188064575195 2.4340872764587402344 2.9073655605316162109 0.94469988346099853516 1.2710000276565551758 4.3542981147766113281 2.6476590633392333984 0.0068160002119839191437 3.5498030185699462891 3.6941812038421630859 3.7015633583068847656 3.7043712139129638672 3.8602921962738037109 3.80771636962890625 3.8797972202301025391 4.129497528076171875 1.7745548486709594727 0.50458902120590209961 0.68427950143814086914 0.0068160002119839191437 0.0068160002119839191437 0.0068160002119839191437 0.55772900581359863281 0.92386329174041748047 3.4969949722290039062 4.0419950485229492188 3.2565271854400634766 3.86511993408203125 3.5522725582122802734 3.487880706787109375 3.1422541141510009766 3.7741701602935791016 3.2212576866149902344 3.9588854312896728516 3.7329916954040527344 1.7543771266937255859 0.99646574258804321289 2.55608367919921875 0.22480799257755279541 1.3087856769561767578 1.7939970493316650391 0.30655500292778015137 3.710174560546875 3.9757709503173828125 3.9617524147033691406 4.0832986831665039062 4.0310416221618652344 3.2065632343292236328 0.0068160002119839191437 0.73426526784896850586 2.4555673599243164062 1.5070047378540039062 3.4325089454650878906 3.9357419013977050781 4.0347390174865722656 4.0018396377563476562 3.9759969711303710938 3.9761192798614501953 3.9534144401550292969 3.9677448272705078125 4.0322222709655761719 4.0094504356384277344 3.981929779052734375 3.9571878910064697266 3.852054595947265625 3.9822990894317626953 4.57761383056640625 3.1892025470733642578 1.9898279905319213867 2.1992807388305664062 0.638355255126953125 1.8042635917663574219 3.0134074687957763672 2.3917341232299804688 2.4448339939117431641 3.2574710845947265625 3.6329433917999267578 3.3364419937133789062 
1.9544985294342041016 3.5185720920562744141 3.7436039447784423828 3.1731429100036621094 2.4872236251831054688 2.2163536548614501953 2.5349051952362060547 1.2946453094482421875 3.3371589183807373047 1.5067409276962280273 3.4012587070465087891 2.4930412769317626953 4.5901508331298828125 1.1898676156997680664 4.3800001144409179688 2.77202606201171875 2.0374727249145507812 2.8880963325500488281 3.1554698944091796875 3.8145468235015869141 3.5886235237121582031 4.3568744659423828125 4.1441659927368164062 3.5172045230865478516 1.8543757200241088867 0.49617582559585571289 0.32128125429153442383 0.1137172505259513855 0.0068160002119839191437 0.0068160002119839191437 0.0068160002119839191437 0.0068160002119839191437 0.60336834192276000977 1.4471815824508666992 3.8473474979400634766 3.9643785953521728516 3.6948215961456298828 3.2805807590484619141 3.8281023502349853516 3.1545548439025878906 3.9714674949645996094 4.0081915855407714844 4.0080418586730957031 3.0177671909332275391 0.22480799257755279541 0.30655500292778015137 0.19755899906158447266 1.2310521602630615234 3.8147985935211181641 3.9410638809204101562 3.7569015026092529297 3.9746387004852294922 3.7131209373474121094 3.9440131187438964844 3.951946258544921875 3.9517035484313964844 3.4844570159912109375 0.24935956299304962158 1.466925501823425293 3.9719748497009277344 3.6285643577575683594 2.7137937545776367188 3.9647736549377441406 3.9637429714202880859 3.990825653076171875 3.9741845130920410156 3.4735195636749267578 3.2025227546691894531 3.9461958408355712891 3.8277471065521240234 3.8873054981231689453 3.9732885360717773438 3.9674663543701171875 3.9890279769897460938 4.0060625076293945312 3.91812896728515625 3.9583418369293212891 4.2387418746948242188 1.486699223518371582 0.48169714212417602539 2.3019051551818847656 4.0628137588500976562 1.0452333688735961914 3.1653733253479003906 3.7204790115356445312 3.7796456813812255859 3.3286061286926269531 
1.8563747406005859375 1.5908781290054321289 2.1773750782012939453 0.91945654153823852539 0.62473928928375244141 2.7666401863098144531 2.1328344345092773438 0.28890001773834228516 1.1625343561172485352 1.4462052583694458008 2.3199286460876464844 2.2546365261077880859 4.2963323593139648438 3.6720895767211914062 3.2313411235809326172 3.6296403408050537109 3.3524203300476074219 2.7933967113494873047 3.4922108650207519531 3.4667885303497314453 3.4900090694427490234 2.6690022945404052734 3.7709059715270996094 4.3135027885437011719 1.420649409294128418 0.25058224797248840332 0.45641362667083740234 0.062616311013698577881 0.064756751060485839844 0.35232749581336975098 0.29595094919204711914 0.0068160002119839191437 0.044721625745296478271 1.3659631013870239258 3.5184996128082275391 4.9019641876220703125 4.0691666603088378906 3.3141691684722900391 4.6347584724426269531 3.6435027122497558594 3.7206220626831054688 3.9793248176574707031 4.0103921890258789062 3.9820599555969238281 3.2882895469665527344 2.7791752815246582031 2.5526776313781738281 4.0041818618774414062 4.0481095314025878906 3.3579998016357421875 3.765438079833984375 3.0203740596771240234 3.8947122097015380859 3.1563086509704589844 2.7087290287017822266 3.6954333782196044922 3.9740986824035644531 3.9849240779876708984 3.9371962547302246094 3.96111297607421875 2.7131407260894775391 1.4262273311614990234 3.6695382595062255859 3.9302930831909179688 2.1909236907958984375 3.3457088470458984375 3.8404664993286132812 3.7221243381500244141 3.1894268989562988281 3.9250278472900390625 3.8984959125518798828 3.8723738193511962891 3.8870122432708740234 3.9762883186340332031 3.9777472019195556641 3.8985397815704345703 4.0146069526672363281 4.4770894050598144531 2.1899468898773193359 1.7669979333877563477 3.5314469337463378906 4.6275815963745117188 1.943978428840637207 3.3427681922912597656 3.9413726329803466797 3.7021279335021972656 3.9429318904876708984 
2.8071451187133789062 4.6727819442749023438 4.3553557395935058594 1.9536123275756835938 1.2934514284133911133 3.8420963287353515625 0.40047776699066162109 0.30606251955032348633 3.0645735263824462891 1.2343451976776123047 2.7636830806732177734 1.1868333816528320312 4.1234064102172851562 1.7407500743865966797 2.2400000095367431641 2.8895249366760253906 2.6298418045043945312 2.1053044795989990234 2.6315755844116210938 3.4480831623077392578 2.9855437278747558594 4.86957550048828125 4.5315675735473632812 4.115550994873046875 2.7573525905609130859 1.3970304727554321289 0.91705626249313354492 0.80042749643325805664 1.8829283714294433594 1.7237104177474975586 0.71283698081970214844 0.028874563053250312805 0.0068160002119839191437 1.2712433338165283203 3.47666168212890625 3.4996170997619628906 4.0271382331848144531 3.2283258438110351562 3.9889326095581054688 3.6902017593383789062 2.755802154541015625 4.0013403892517089844 3.9852283000946044922 3.9947860240936279297 3.9622912406921386719 3.9520235061645507812 3.9738984107971191406 4.0559682846069335938 3.8734924793243408203 3.7701623439788818359 4.6326375007629394531 3.5821857452392578125 3.9620275497436523438 2.9738066196441650391 1.0041838884353637695 0.7407194972038269043 3.5770668983459472656 4.1126089096069335938 3.9557049274444580078 4.0025734901428222656 1.7527666091918945312 3.8838717937469482422 3.847621917724609375 3.9673452377319335938 3.9315345287322998047 4.0096096992492675781 3.4886279106140136719 2.5056028366088867188 1.1683002710342407227 3.9433622360229492188 3.9864163398742675781 3.9963779449462890625 3.975830078125 3.7807869911193847656 3.8872311115264892578 3.706371307373046875 3.97855377197265625 4.2819585800170898438 4.0010404586791992188 1.4723765850067138672 0.72219663858413696289 1.6551305055618286133 3.2828593254089355469 3.9594199657440185547 3.9335377216339111328 3.9481317996978759766 3.9699225425720214844 
2.8522410392761230469 3.9316449165344238281 5.3740344047546386719 1.9006984233856201172 3.3275396823883056641 2.048065185546875 0.41740664839744567871 1.3825963735580444336 1.7890065908432006836 2.4065599441528320312 4.4879984855651855469 0.90038836002349853516 4.3800001144409179688 3.5589001178741455078 2.1377134323120117188 2.7169756889343261719 1.9507191181182861328 2.83005523681640625 2.0606787204742431641 3.3706090450286865234 3.4826493263244628906 3.8566431999206542969 2.8701672554016113281 3.5689115524291992188 3.6126048564910888672 3.6704733371734619141 2.5056362152099609375 1.8905942440032958984 1.1211140155792236328 0.20511850714683532715 0.45613238215446472168 0.90888357162475585938 0.0068160002119839191437 2.5994651317596435547 2.0702543258666992188 3.9425146579742431641 3.7574143409729003906 3.9177241325378417969 4.3621287345886230469 3.6779916286468505859 3.7317750453948974609 3.9616343975067138672 4.0014810562133789062 3.9745154380798339844 4.0195994377136230469 3.9634735584259033203 3.978633880615234375 4.0013785362243652344 3.7990696430206298828 3.5170865058898925781 3.8660871982574462891 3.9904193878173828125 3.7843880653381347656 2.4741148948669433594 2.2551531791687011719 2.040683746337890625 4.7347226142883300781 4.4743990898132324219 4.0543413162231445312 3.9924998283386230469 1.8761714696884155273 3.9411396980285644531 3.9788279533386230469 3.7109036445617675781 3.6871449947357177734 3.40064239501953125 3.6430802345275878906 1.8792781829833984375 2.7786128520965576172 3.9791684150695800781 3.9792628288269042969 3.9171137809753417969 3.9905378818511962891 3.8925073146820068359 3.769039154052734375 3.6395139694213867188 3.7701170444488525391 4.0151529312133789062 3.9299843311309814453 3.6295101642608642578 2.9738492965698242188 2.7421982288360595703 3.4674963951110839844 4.1510729789733886719 3.9829051494598388672 3.9454264640808105469 3.96315765380859375 
1.8727387189865112305 3.9651958942413330078 4.1172852516174316406 2.1536264419555664062 3.5839192867279052734 3.1106789112091064453 1.7316615581512451172 2.3102908134460449219 4.4001545906066894531 3.9460279941558837891 3.5889372825622558594 1.6398477554321289062 4.3800001144409179688 4.3316679000854492188 3.8274264335632324219 1.9340221881866455078 2.804492950439453125 3.2131240367889404297 3.2472522258758544922 3.0658555030822753906 3.3446674346923828125 2.4576516151428222656 3.0037744045257568359 3.4238333702087402344 3.9510223865509033203 3.5325331687927246094 2.6709218025207519531 3.0192091464996337891 1.9114837646484375 2.9053449630737304688 0.057006753981113433838 1.0319961309432983398 0.017472624778747558594 1.1054403781890869141 4.8788585662841796875 2.6739344596862792969 2.9762051105499267578 3.9093060493469238281 3.6934092044830322266 3.9828555583953857422 3.8657295703887939453 3.7926959991455078125 3.9486067295074462891 3.7228305339813232422 3.9647235870361328125 3.9440774917602539062 3.9332721233367919922 4.0086030960083007812 4.0029225349426269531 3.4589893817901611328 2.8699052333831787109 3.4982378482818603516 2.8608615398406982422 0.51298809051513671875 1.7529615163803100586 3.9889059066772460938 4.2234973907470703125 4.0980248451232910156 4.4362254142761230469 3.3061378002166748047 0.25781711935997009277 0.17535044252872467041 0.25783139467239379883 2.3845756053924560547 2.4425206184387207031 2.0711705684661865234 2.3490998744964599609 1.5073767900466918945 3.6157958507537841797 3.7773592472076416016 3.9510114192962646484 3.5008656978607177734 1.8080848455429077148 3.5106968879699707031 3.7149441242218017578 3.7886590957641601562 3.9643659591674804688 4.5322961807250976562 4.635799407958984375 3.954654693603515625 4.3227949142456054688 4.0129590034484863281 3.0053250789642333984 3.2789604663848876953 5.3138928413391113281 3.5093076229095458984 4.1158003807067871094 
1.634711146354675293 3.9580175876617431641 5.3465218544006347656 2.9423410892486572266 3.3066513538360595703 3.9358165264129638672 0.68412965536117553711 3.0686380863189697266 3.8484969139099121094 3.8375484943389892578 4.8953261375427246094 1.5699608325958251953 4.3800001144409179688 4.1713495254516601562 4.0468721389770507812 2.6681015491485595703 3.5028820037841796875 2.9943578243255615234 3.2253975868225097656 3.1746046543121337891 4.77724456787109375 2.6343908309936523438 3.1886632442474365234 3.3904435634613037109 4.3185534477233886719 5.3072748184204101562 1.5184984207153320312 3.3381075859069824219 2.1898682117462158203 2.8431854248046875 0.081486999988555908203 0.67659741640090942383 1.1054403781890869141 4.3800001144409179688 4.3797731399536132812 4.3613100051879882812 2.7910590171813964844 3.8969945907592773438 3.8893435001373291016 3.7854712009429931641 3.9173960685729980469 3.8057184219360351562 3.8606917858123779297 3.9517500400543212891 3.9460902214050292969 3.9730982780456542969 4.025249481201171875 3.9727220535278320312 3.9554207324981689453 3.9672186374664306641 3.5029745101928710938 3.7559549808502197266 1.5161917209625244141 0.11581199616193771362 0.19755899906158447266 1.7356245517730712891 3.9644656181335449219 3.9991927146911621094 4.023571014404296875 4.8344273567199707031 3.4104535579681396484 3.66632080078125 1.2404333353042602539 1.4851665496826171875 2.3477358818054199219 1.3682048320770263672 0.88243907690048217773 1.1323349475860595703 4.0055918693542480469 3.9154934883117675781 3.9797310829162597656 2.6399118900299072266 1.7683851718902587891 2.7143104076385498047 3.2726476192474365234 3.7424449920654296875 3.9602735042572021484 3.8910269737243652344 3.8398280143737792969 3.9700345993041992188 4.0091552734375 4.0550189018249511719 2.9882719516754150391 3.7859416007995605469 4.5754752159118652344 2.9995605945587158203 4.0023961067199707031 
1.3383405208587646484 1.3900498151779174805 4.6802911758422851562 4.6101469993591308594 2.7344803810119628906 4.1128168106079101562 4.8223476409912109375 1.6604294776916503906 3.5780904293060302734 4.1342949867248535156 3.5337634086608886719 3.0950098037719726562 3.1726577281951904297 4.3800001144409179688 1.4598635435104370117 1.8760625123977661133 2.5889523029327392578 3.3867223262786865234 3.2432050704956054688 2.8936841487884521484 4.4804553985595703125 3.3404674530029296875 3.4051940441131591797 3.3974175453186035156 3.520843505859375 2.6829748153686523438 3.2336809635162353516 3.1012492179870605469 3.4873881340026855469 1.9245790243148803711 2.3011126518249511719 2.4527013301849365234 2.429180145263671875 3.120281219482421875 4.3800001144409179688 4.3800001144409179688 4.0368685722351074219 3.8813097476959228516 3.9418163299560546875 3.9871702194213867188 3.6559605598449707031 3.9400751590728759766 3.9562695026397705078 3.9438767433166503906 3.9614253044128417969 3.8316559791564941406 3.9286100864410400391 3.9453756809234619141 3.9298045635223388672 3.9280595779418945312 4.2328925132751464844 3.448760986328125 0.53112328052520751953 0.1430609971284866333 0.33806556463241577148 2.0538504123687744141 4.4208536148071289062 4.3292264938354492188 4.1307377815246582031 4.5181131362915039062 4.2633800506591796875 4.2984704971313476562 4.2773218154907226562 0.77754473686218261719 2.3666155338287353516 3.1220507621765136719 3.8104412555694580078 2.8690896034240722656 4.5172467231750488281 4.0011115074157714844 3.9850969314575195312 2.6341946125030517578 2.3785517215728759766 0.44279998540878295898 1.7996628284454345703 3.7315757274627685547 4.0905208587646484375 4.3492960929870605469 3.9734816551208496094 4.012416839599609375 3.9983088970184326172 4.0087175369262695312 3.9997889995574951172 4.0204510688781738281 4.01708984375 4.0227270126342773438 4.0165424346923828125 
2.1745345592498779297 1.8221077919006347656 3.5720307826995849609 2.2720105648040771484 3.3917763233184814453 3.1754856109619140625 3.3300800323486328125 3.7363004684448242188 3.5822789669036865234 3.6203262805938720703 4.8210077285766601562 6.5425267219543457031 3.7586383819580078125 4.3218865394592285156 4.2010731697082519531 3.1306006908416748047 1.8072181940078735352 3.2301440238952636719 3.4576044082641601562 2.0475528240203857422 3.6940400600433349609 2.2093343734741210938 1.3329143524169921875 3.4024207592010498047 4.4745779037475585938 2.9144306182861328125 2.5545694828033447266 1.5090416669845581055 2.8016119003295898438 2.6702225208282470703 3.9547586441040039062 3.9018344879150390625 3.8213267326354980469 4.3081712722778320312 2.0156705379486083984 4.0181870460510253906 4.5876822471618652344 3.4817485809326171875 3.9559581279754638672 3.7659587860107421875 3.9570405483245849609 3.6586034297943115234 3.9552826881408691406 3.9165472984313964844 3.8022160530090332031 3.8207507133483886719 3.6537535190582275391 3.84383392333984375 3.7922985553741455078 3.8271694183349609375 5.3122911453247070312 3.9453413486480712891 0.49949151277542114258 0.0068160002119839191437 2.9766933917999267578 4.1416959762573242188 4.8763766288757324219 4.3800001144409179688 5.4893465042114257812 4.0299692153930664062 4.0445303916931152344 4.0763459205627441406 5.6334853172302246094 1.2522356510162353516 3.8688094615936279297 3.6018426418304443359 3.8009896278381347656 2.2615478038787841797 4.0258665084838867188 3.9683752059936523438 3.968494415283203125 3.9876887798309326172 5.6117987632751464844 3.708438873291015625 2.3952529430389404297 3.9209513664245605469 4.0789971351623535156 3.9926686286926269531 4.0332636833190917969 4.0297231674194335938 4.0081152915954589844 4.0274820327758789062 4.0324196815490722656 4.0220861434936523438 4.0099096298217773438 4.0127620697021484375 4.0081987380981445312 
2.8745434284210205078 2.7748610973358154297 4.4316148757934570312 2.4624891281127929688 2.0976464748382568359 0.63521099090576171875 2.7826025485992431641 3.8804366588592529297 3.2114276885986328125 5.37514495849609375 4.5012869834899902344 4.0725865364074707031 3.4903666973114013672 3.9574921131134033203 4.0805387496948242188 3.6281468868255615234 2.33559417724609375 1.5582699775695800781 1.0162814855575561523 2.5492789745330810547 3.2854611873626708984 0.25476917624473571777 1.0008918046951293945 3.0486533641815185547 4.37640380859375 3.7298808097839355469 3.0670456886291503906 3.9695904254913330078 2.5069897174835205078 3.3011877536773681641 3.8140003681182861328 3.8246583938598632812 3.9639527797698974609 4.2631540298461914062 2.0010509490966796875 1.6752932071685791016 3.4485673904418945312 3.011882781982421875 4.2156686782836914062 3.8964691162109375 3.757320404052734375 3.8996634483337402344 3.8730113506317138672 3.9054257869720458984 3.8971076011657714844 3.9578795433044433594 3.8590767383575439453 3.9379174709320068359 3.9555537700653076172 3.9454216957092285156 3.9699721336364746094 3.5806598663330078125 0.74289178848266601562 2.2639079093933105469 4.2449536323547363281 4.3800001144409179688 4.3797998428344726562 4.3791995048522949219 4.3805584907531738281 4.1312623023986816406 3.6105225086212158203 1.9716243743896484375 4.3339056968688964844 4.4451551437377929688 3.5476167201995849609 3.7903904914855957031 4.0007338523864746094 4.0182909965515136719 4.0024476051330566406 3.9842021465301513672 3.0103216171264648438 3.4989097118377685547 3.1761147975921630859 4.0987839698791503906 4.0740423202514648438 3.9074125289916992188 4.0097599029541015625 4.0038094520568847656 4.0273566246032714844 4.0201439857482910156 4.0187230110168457031 4.0169200897216796875 4.0025067329406738281 3.976165771484375 3.9999475479125976562 3.9313280582427978516 4.0043630599975585938 
2.7749655246734619141 4.6695599555969238281 4.4637584686279296875 2.1552436351776123047 2.4708385467529296875 0.0068160002119839191437 1.7453341484069824219 1.9874656200408935547 1.1257266998291015625 4.280498504638671875 4.1803517341613769531 4.7097873687744140625 4.0689306259155273438 3.9275832176208496094 3.9232568740844726562 4.3800001144409179688 2.9802484512329101562 2.4064869880676269531 2.1159129142761230469 1.2312061786651611328 3.2682394981384277344 0.0068160002119839191437 1.5061277151107788086 4.0836915969848632812 4.23126220703125 4.0904455184936523438 3.4583160877227783203 3.7659087181091308594 3.8877894878387451172 3.8378362655639648438 3.2307188510894775391 2.7438604831695556641 3.9402525424957275391 4.867420196533203125 1.2493205070495605469 0.49430191516876220703 2.5704059600830078125 3.0118184089660644531 3.9645307064056396484 3.8874576091766357422 3.8406250476837158203 3.92804718017578125 3.95928955078125 4.3242921829223632812 4.0783228874206542969 3.9818952083587646484 4.0409908294677734375 4.4068722724914550781 4.0514864921569824219 4.4665951728820800781 4.51515960693359375 4.8223910331726074219 4.7445554733276367188 4.6004300117492675781 4.3300952911376953125 5.2904934883117675781 4.7979617118835449219 4.7095012664794921875 4.2372713088989257812 4.2674050331115722656 5.7027368545532226562 4.2760939598083496094 3.9782302379608154297 4.0172801017761230469 4.0232295989990234375 4.0272641181945800781 4.0156564712524414062 3.9854128360748291016 3.9611620903015136719 2.2674045562744140625 0.25737369060516357422 3.4469633102416992188 2.6918132305145263672 3.8621399402618408203 3.9943101406097412109 3.9711701869964599609 3.9703724384307861328 4.0230832099914550781 4.0232949256896972656 4.0102891921997070312 3.9982206821441650391 4.0060343742370605469 3.982341766357421875 3.8978464603424072266 3.9482514858245849609 3.4664592742919921875 1.3292847871780395508 
0.83857357501983642578 3.0865738391876220703 2.5795421600341796875 3.0730962753295898438 1.2382375001907348633 1.2372397184371948242 0.51061558723449707031 0.84092384576797485352 0.0068160002119839191437 3.1903851032257080078 4.4127283096313476562 4.3766117095947265625 3.6411042213439941406 3.8647541999816894531 3.8762335777282714844 3.6216325759887695312 2.7043323516845703125 2.9319913387298583984 2.1252362728118896484 5.5486764907836914062 4.0973443984985351562 2.1484014987945556641 2.238006591796875 4.0525045394897460938 4.3263182640075683594 4.0114245414733886719 3.7264199256896972656 3.6874973773956298828 3.5686335563659667969 3.9360845088958740234 1.6520251035690307617 4.8521890640258789062 3.4423527717590332031 4.4408512115478515625 0.49362674355506896973 0.0068160002119839191437 2.9891719818115234375 2.7935795783996582031 4.2161111831665039062 4.0787501335144042969 3.9765057563781738281 3.9359273910522460938 3.9960901737213134766 4.0042743682861328125 4.3652782440185546875 4.0450830459594726562 3.9688913822174072266 3.9690654277801513672 4.0101776123046875 4.0910439491271972656 4.0479230880737304688 4.5008416175842285156 4.2772684097290039062 4.1194911003112792969 4.0044941902160644531 4.1117215156555175781 4.0513815879821777344 2.5092062950134277344 4.0297636985778808594 4.3997073173522949219 4.0134067535400390625 4.0288767814636230469 4.0184993743896484375 4.0189995765686035156 4.0014200210571289062 4.022342681884765625 4.0197296142578125 4.0209183692932128906 2.7719249725341796875 0.71934014558792114258 3.1531896591186523438 3.95212554931640625 3.2802977561950683594 3.8805890083312988281 4.127048492431640625 3.9902720451354980469 3.9508433341979980469 3.9659092426300048828 3.9606356620788574219 3.786037445068359375 3.8406975269317626953 3.8553655147552490234 3.9515891075134277344 3.9661858081817626953 3.9757969379425048828 1.7472598552703857422 2.1123824119567871094 
1.488362431526184082 3.3842029571533203125 4.5770292282104492188 4.5925688743591308594 5.3448057174682617188 2.0728700160980224609 0.44923135638236999512 4.1283488273620605469 2.977359771728515625 2.9397838115692138672 4.0425066947937011719 3.9240856170654296875 3.8721942901611328125 3.3593680858612060547 3.8729510307312011719 3.8713114261627197266 3.1851828098297119141 1.2577630281448364258 3.5560696125030517578 3.8760378360748291016 1.9026291370391845703 5.1547188758850097656 3.9010856151580810547 3.9841239452362060547 3.8733122348785400391 3.9424827098846435547 3.9743685722351074219 3.9179017543792724609 3.7756025791168212891 2.0077106952667236328 1.9845290184020996094 4.7200479507446289062 5.2991271018981933594 4.0756464004516601562 0.59389841556549072266 0.0068160002119839191437 1.1645557880401611328 3.0545308589935302734 3.9531538486480712891 4.0046076774597167969 3.996112823486328125 3.9884662628173828125 4.0072340965270996094 4.0194430351257324219 3.9783222675323486328 4.0124821662902832031 3.9384160041809082031 3.9367210865020751953 3.8413662910461425781 3.6874270439147949219 3.9563412666320800781 3.9956405162811279297 4.0388102531433105469 4.0275855064392089844 4.0374588966369628906 4.0177936553955078125 4.0188689231872558594 0.25737369060516357422 3.2800068855285644531 2.7657597064971923828 3.2598125934600830078 4.0504617691040039062 4.0500283241271972656 4.0554780960083007812 4.0369176864624023438 4.0237774848937988281 3.9997432231903076172 3.9970090389251708984 2.0056543350219726562 1.7573611736297607422 1.6543343067169189453 1.5101621150970458984 3.5782420635223388672 3.7604393959045410156 3.9501740932464599609 3.9302072525024414062 3.9208517074584960938 3.9273715019226074219 3.903697967529296875 3.8155460357666015625 3.8391826152801513672 3.8857519626617431641 3.9068381786346435547 3.0762498378753662109 2.9789783954620361328 2.9864702224731445312 5.049335479736328125 
3.2258701324462890625 5.347278594970703125 3.8949520587921142578 4.3304572105407714844 4.1446638107299804688 5.43265533447265625 2.0035877227783203125 3.2005155086517333984 5.599735260009765625 3.2949421405792236328 3.1222844123840332031 3.8657748699188232422 3.8930637836456298828 2.7400560379028320312 3.2152507305145263672 1.4497485160827636719 2.0622396469116210938 1.5436071157455444336 2.9981241226196289062 1.2969805002212524414 2.3211772441864013672 2.4163439273834228516 3.2354023456573486328 3.5201017856597900391 3.9318318367004394531 4.03021240234375 3.7337284088134765625 3.9919812679290771484 5.0142841339111328125 5.1469364166259765625 4.0123524665832519531 2.5406582355499267578 3.1653125286102294922 0.48756799101829528809 0.1430609971284866333 0.0068160002119839191437 1.6475385427474975586 3.6825993061065673828 3.9251494407653808594 3.9422383308410644531 4.0105371475219726562 4.00388336181640625 2.5152099132537841797 4.0218424797058105469 3.9989755153656005859 3.9654605388641357422 3.8578159809112548828 3.9501488208770751953 3.8975691795349121094 3.9054138660430908203 3.96596527099609375 4.005664825439453125 4.022624969482421875 4.03406524658203125 4.0460791587829589844 1.7578098773956298828 0.25841701030731201172 0.26138707995414733887 3.0527586936950683594 0.0068160002119839191437 1.771872401237487793 4.0576596260070800781 4.0448060035705566406 4.0443902015686035156 4.0681042671203613281 4.0447359085083007812 4.0115370750427246094 3.7410235404968261719 2.2412579059600830078 0.96603304147720336914 0.4840748906135559082 0.25737369060516357422 3.7809329032897949219 3.8229732513427734375 3.9745404720306396484 3.9316687583923339844 3.8683834075927734375 3.8747935295104980469 3.6530888080596923828 3.8584668636322021484 3.8659737110137939453 3.8978250026702880859 3.9338216781616210938 3.1723837852478027344 3.4490971565246582031 4.9045572280883789062 6.2612600326538085938 
4.239826202392578125 3.9602863788604736328 3.5646572113037109375 0.79773122072219848633 2.0177555084228515625 3.6555712223052978516 2.7242021560668945312 3.9221742153167724609 3.9748940467834472656 3.7980344295501708984 2.9435999393463134766 4.0878953933715820312 4.3291583061218261719 4.4924564361572265625 3.6327996253967285156 2.0660617351531982422 2.6168718338012695312 2.0883665084838867188 3.3641140460968017578 3.444766998291015625 3.2490222454071044922 3.6113035678863525391 4.1398372650146484375 4.1933083534240722656 4.2072577476501464844 4.5462188720703125 3.7385876178741455078 3.8206076622009277344 4.3271832466125488281 4.7846469879150390625 3.9924798011779785156 3.9507186412811279297 2.9433810710906982422 0.11581199616193771362 0.034065000712871551514 0.0068160002119839191437 0.3800264894962310791 3.7972455024719238281 3.8626973628997802734 3.9985077381134033203 3.9647059440612792969 4.0166258811950683594 3.7794001102447509766 4.0285458564758300781 3.9753682613372802734 3.8736820220947265625 3.8812251091003417969 3.4857578277587890625 3.9471914768218994141 3.7125589847564697266 3.7125763893127441406 4.0108790397644042969 4.0111823081970214844 4.0563478469848632812 3.7960979938507080078 0.1430609971284866333 0.034065000712871551514 0.59770512580871582031 2.0129985809326171875 0.0068160002119839191437 0.51298809051513671875 4.040195465087890625 4.0248379707336425781 4.0020318031311035156 3.9602081775665283203 4.0342698097229003906 4.0242586135864257812 1.0095424652099609375 0.0068160002119839191437 2.9621508121490478516 2.1997601985931396484 2.6415193080902099609 3.9283306598663330078 3.9821536540985107422 3.9833750724792480469 3.9518501758575439453 3.9238274097442626953 3.9217290878295898438 3.927982330322265625 3.9139187335968017578 3.9275815486907958984 3.9366881847381591797 3.9578468799591064453 3.963726043701171875 3.9093143939971923828 4.6139149665832519531 3.9967076778411865234 
3.2366847991943359375 3.2964103221893310547 3.2407345771789550781 0.80269253253936767578 2.2226951122283935547 3.0977399349212646484 1.9620529413223266602 3.6472160816192626953 3.0528752803802490234 3.1491878032684326172 4.0226726531982421875 1.1259930133819580078 3.0889339447021484375 3.6120202541351318359 4.1835303306579589844 3.871982574462890625 3.1307139396667480469 1.9911993741989135742 1.9558683633804321289 1.2797367572784423828 2.4777784347534179688 4.3800001144409179688 4.21941375732421875 3.8019270896911621094 3.5808897018432617188 3.1639361381530761719 3.0563492774963378906 3.5386221408843994141 4.7271037101745605469 4.5553612709045410156 3.9224553108215332031 2.2915709018707275391 2.1270043849945068359 0.49971681833267211914 2.3051979541778564453 2.2339327335357666016 2.1579053401947021484 3.7755720615386962891 3.7886214256286621094 3.885623931884765625 4.0017614364624023438 4.0053567886352539062 4.047969818115234375 4.0211029052734375 3.960968017578125 3.9282484054565429688 3.8776507377624511719 3.7312841415405273438 2.461277008056640625 3.9766552448272705078 3.9684326648712158203 3.7242882251739501953 3.0001881122589111328 3.5495390892028808594 2.7928822040557861328 0.49881011247634887695 0.0068160002119839191437 0.26071894168853759766 0.26138707995414733887 0.0068160002119839191437 0.0068160002119839191437 4.0465826988220214844 4.0158329010009765625 4.0284686088562011719 3.7272379398345947266 4.0037717819213867188 2.5238549709320068359 0.0068160002119839191437 1.2526384592056274414 2.7689840793609619141 3.9916760921478271484 3.9552369117736816406 3.9781131744384765625 3.8799488544464111328 3.2153303623199462891 2.32050323486328125 3.9706628322601318359 4.0167980194091796875 4.4933352470397949219 4.1328067779541015625 3.9899637699127197266 3.9758393764495849609 3.9906072616577148438 3.9846236705780029297 3.9736416339874267578 4.0300989151000976562 4.0317440032958984375 
3.5624461174011230469 0.93022978305816650391 3.1344993114471435547 2.6831007003784179688 3.6878559589385986328 3.4326121807098388672 3.7728722095489501953 3.7703676223754882812 3.8514399528503417969 3.7818496227264404297 3.4738831520080566406 2.6822335720062255859 1.9579896926879882812 3.8333520889282226562 2.466732025146484375 4.351726531982421875 3.2644305229187011719 2.4785411357879638672 3.7649419307708740234 3.3227853775024414062 3.3183305263519287109 4.1793889999389648438 1.9194483757019042969 2.0927715301513671875 3.5248460769653320312 3.9542858600616455078 2.7984204292297363281 4.2835540771484375 5.6533403396606445312 4.4485731124877929688 3.04052734375 0.092069000005722045898 1.3221178054809570312 1.0846956968307495117 3.3823480606079101562 3.0343840122222900391 3.0415844917297363281 3.7785379886627197266 3.5336463451385498047 3.9602639675140380859 4.0116133689880371094 4.0181269645690917969 3.995983123779296875 3.9975910186767578125 4.0078344345092773438 3.99816131591796875 3.9700529575347900391 3.9776945114135742188 3.9790396690368652344 3.794097900390625 1.9810526371002197266 3.4566664695739746094 3.9611721038818359375 4.0012297630310058594 4.01895904541015625 3.6819486618041992188 2.5235259532928466797 4.049198150634765625 0.76438474655151367188 0.503566741943359375 2.5184934139251708984 3.5368800163269042969 3.7614643573760986328 3.6625678539276123047 3.4449782371520996094 2.6823301315307617188 1.7675964832305908203 0.0068160002119839191437 0.76009911298751831055 4.0063748359680175781 3.9254384040832519531 3.8821094036102294922 3.9427990913391113281 3.9438683986663818359 2.2213764190673828125 0.073901250958442687988 0.24486400187015533447 3.9712758064270019531 3.9872095584869384766 3.961978912353515625 3.9035067558288574219 3.9945206642150878906 3.9360804557800292969 3.9643294811248779297 4.0305395126342773438 4.0181722640991210938 4.0452570915222167969 
1.9169253110885620117 0.0068160002119839191437 0.0068160002119839191437 2.3897612094879150391 3.8975503444671630859 3.6268222332000732422 3.7662186622619628906 3.8109254837036132812 3.3054947853088378906 3.9626965522766113281 3.3407571315765380859 3.2967810630798339844 1.9520539045333862305 3.6451158523559570312 3.8299655914306640625 4.3800001144409179688 3.1963548660278320312 2.1539189815521240234 3.9047636985778808594 4.2055749893188476562 4.1044306755065917969 3.6169755458831787109 2.2734963893890380859 1.169488072395324707 3.4306268692016601562 3.255817413330078125 3.5179460048675537109 4.4810614585876464844 2.6965467929840087891 3.5448017120361328125 2.7027242183685302734 0.50846856832504272461 0.092069000005722045898 0.55138576030731201172 1.3134176731109619141 1.8122975826263427734 4.112171173095703125 3.3810725212097167969 3.8440806865692138672 3.6209840774536132812 3.7395575046539306641 3.94927215576171875 3.9538092613220214844 3.933258056640625 3.235652923583984375 3.7245802879333496094 3.7434904575347900391 3.9962971210479736328 3.5914118289947509766 1.9647697210311889648 0.75489217042922973633 3.9778423309326171875 3.2374758720397949219 4.0036687850952148438 3.9957082271575927734 4.00274658203125 3.0124936103820800781 2.7612330913543701172 0.50977110862731933594 1.4892418384552001953 1.2456313371658325195 4.0173487663269042969 4.028949737548828125 4.0099010467529296875 1.9553574323654174805 0.0068160002119839191437 0.0068160002119839191437 1.2624551057815551758 1.2622878551483154297 3.9924356937408447266 3.9653835296630859375 3.8592956066131591797 3.9202356338500976562 3.9458308219909667969 2.4752397537231445312 0.016077499836683273315 2.2391164302825927734 3.9684698581695556641 4.0001955032348632812 4.0166258811950683594 3.9704346656799316406 3.9788818359375 3.9881389141082763672 3.9734821319580078125 3.9896473884582519531 3.5234632492065429688 3.0152819156646728516 
1.7943931818008422852 0.0068160002119839191437 0.0068160002119839191437 2.2474193572998046875 3.8185813426971435547 3.4466674327850341797 3.6416907310485839844 2.6420843601226806641 2.3565318584442138672 3.2059571743011474609 2.7717959880828857422 4.2752103805541992188 4.1120042800903320312 3.6158974170684814453 3.9812080860137939453 4.1072673797607421875 2.3886418342590332031 2.8689787387847900391 3.1236863136291503906 3.8921639919281005859 4.0713787078857421875 2.8689250946044921875 2.0402486324310302734 3.2489714622497558594 4.2803282737731933594 2.8831472396850585938 3.4193859100341796875 4.2800092697143554688 5.6215524673461914062 3.6461825370788574219 3.070110321044921875 1.1229765415191650391 0.23991556465625762939 1.4107478857040405273 0.40328943729400634766 3.2868504524230957031 3.8660111427307128906 3.2685182094573974609 3.5784273147583007812 3.9637210369110107422 4.0147142410278320312 3.9695658683776855469 4.0008120536804199219 3.9856600761413574219 3.7650532722473144531 3.7224435806274414062 2.2605271339416503906 2.4832630157470703125 0.0068160002119839191437 1.7621392011642456055 0.50536644458770751953 4.027313232421875 3.94631195068359375 4.00727081298828125 3.5290858745574951172 3.5098383426666259766 3.8014047145843505859 1.6973723173141479492 3.0172681808471679688 3.9701013565063476562 3.9739022254943847656 3.9848852157592773438 4.0035042762756347656 3.9968688488006591797 2.2643289566040039062 2.0209476947784423828 1.5161343812942504883 4.0180001258850097656 3.4607830047607421875 3.9488935470581054688 3.7947773933410644531 3.8942632675170898438 3.9177808761596679688 3.919925689697265625 1.8958048820495605469 0.26374211907386779785 3.4283754825592041016 3.9739856719970703125 4.0189847946166992188 4.0144658088684082031 4.01224517822265625 4.0027494430541992188 4.0157532691955566406 3.9911625385284423828 2.5114841461181640625 0.25799986720085144043 1.0090467929840087891 
1.6724870204925537109 0.0068160002119839191437 0.0068160002119839191437 1.9803307056427001953 3.6211366653442382812 3.3619062900543212891 3.7936801910400390625 2.6713113784790039062 3.2562215328216552734 1.3457599878311157227 2.2440960407257080078 4.3800001144409179688 4.3521018028259277344 4.0288991928100585938 4.1567783355712890625 4.3800001144409179688 4.332973480224609375 3.4770820140838623047 2.9845652580261230469 4.0663652420043945312 3.3411271572113037109 2.5999634265899658203 3.3206646442413330078 3.8878681659698486328 4.8353600502014160156 4.1329092979431152344 3.6044571399688720703 3.6552219390869140625 4.4679579734802246094 1.9158846139907836914 3.7154893875122070312 1.0298221111297607422 0.84357452392578125 0.46469962596893310547 2.513134002685546875 4.2892184257507324219 3.3243114948272705078 3.5158727169036865234 3.7349212169647216797 3.7972500324249267578 3.9724671840667724609 4.0398893356323242188 4.0040917396545410156 3.9039142131805419922 3.2584538459777832031 2.2546269893646240234 0.5033944249153137207 0.0068160002119839191437 0.0068160002119839191437 0.25509688258171081543 0.76326769590377807617 4.0096893310546875 3.9948909282684326172 4.003841400146484375 3.9867177009582519531 3.9855980873107910156 3.9983198642730712891 4.0030956268310546875 3.9036343097686767578 3.9557828903198242188 3.9925768375396728516 3.9338877201080322266 3.9650058746337890625 4.0055775642395019531 4.0258550643920898438 4.0120897293090820312 3.9668850898742675781 3.9994769096374511719 3.9233777523040771484 3.9630331993103027344 3.9330585002899169922 3.9245040416717529297 3.9012470245361328125 3.0931360721588134766 0.28014001250267028809 1.9719250202178955078 3.9274835586547851562 3.8975927829742431641 4.013751983642578125 4.0006856918334960938 4.0185136795043945312 3.7793455123901367188 3.9931404590606689453 4.01026153564453125 4.0093717575073242188 4.011837005615234375 2.0196239948272705078 
0.0068160002119839191437 0.0068160002119839191437 0.0068160002119839191437 2.475833892822265625 3.4709994792938232422 3.5599977970123291016 3.8886122703552246094 3.46489715576171875 1.3730341196060180664 1.1001120805740356445 3.1751101016998291016 4.3800001144409179688 2.6854803562164306641 3.2484214305877685547 4.2791900634765625 4.3800001144409179688 3.7659690380096435547 3.0215756893157958984 3.0655059814453125 1.9494966268539428711 2.7509217262268066406 2.8548324108123779297 3.1629588603973388672 3.3313908576965332031 3.9795029163360595703 4.3312973976135253906 3.6252565383911132812 3.9993059635162353516 4.3711409568786621094 4.7077188491821289062 3.9350721836090087891 1.2313436269760131836 0.78719621896743774414 0.96686136722564697266 3.3184955120086669922 1.9826201200485229492 2.9666359424591064453 3.9500136375427246094 3.5429170131683349609 3.6535837650299072266 4.0128750801086425781 3.9585397243499755859 4.0736193656921386719 4.0222043991088867188 3.2020218372344970703 0.0068160002119839191437 0.0068160002119839191437 0.0068160002119839191437 0.0068160002119839191437 0.0068160002119839191437 0.50337773561477661133 4.0058970451354980469 3.9990363121032714844 3.9917910099029541016 3.94007110595703125 3.9872658252716064453 3.9960081577301025391 3.9624533653259277344 3.4792599678039550781 3.9209680557250976562 3.9209680557250976562 3.9061946868896484375 3.9452426433563232422 3.9209680557250976562 4.011806488037109375 3.9698071479797363281 3.9001369476318359375 4.0044155120849609375 3.9184470176696777344 3.9514803886413574219 3.8704481124877929688 3.8070349693298339844 3.5272629261016845703 1.1546100378036499023 0.061313997954130172729 2.9706187248229980469 3.7686672210693359375 4.0020303726196289062 3.96259307861328125 1.9952285289764404297 2.0133481025695800781 1.5230834484100341797 2.5525496006011962891 4.0009493827819824219 4.0104742050170898438 4.0164403915405273438 0.0068160002119839191437 
