ncols        19
nrows        23
xllcorner    508536.404131802963
yllcorner    5265348.997906560078
cellsize     570.000000000000
NODATA_value -9999
0.23399999737739562988 0.23399999737739562988 0.23399999737739562988 0.23399999737739562988 0.23399999737739562988 0.23399999737739562988 0.23368421196937561035 0.37695425748825073242 0.23399999737739562988 0.23399999737739562988 0.23399999737739562988 0.23242105543613433838 0.70097219944000244141 0.65972000360488891602 4.0550050735473632812 9.7344789505004882812 8.1060609817504882812 6.4700994491577148438 2.8505885601043701172 
0.23399999737739562988 0.23399999737739562988 0.23399999737739562988 0.23399999737739562988 0.26944372057914733887 0.89900231361389160156 1.3986151218414306641 0.8734028935432434082 0.23399999737739562988 0.23368421196937561035 0.93066012859344482422 2.1952457427978515625 4.2220845222473144531 4.1158666610717773438 3.5476636886596679688 8.73656463623046875 6.1110415458679199219 7.6268076896667480469 4.9743852615356445312 
0.23399999737739562988 0.23399999737739562988 0.23399999737739562988 0.25580829381942749023 1.7469199895858764648 2.3627371788024902344 1.4120271205902099609 0.23140165209770202637 0.25668361783027648926 1.2321624755859375 6.0951685905456542969 4.6254062652587890625 4.5222902297973632812 5.89615631103515625 4.8564500808715820312 5.2891130447387695312 4.4863018989562988281 2.973728179931640625 4.778118133544921875 
0.23399999737739562988 0.23399999737739562988 0.23399999737739562988 0.80279719829559326172 2.7337429523468017578 2.199230194091796875 1.5841859579086303711 0.82294046878814697266 2.0324575901031494141 2.6228144168853759766 3.5627303123474121094 3.0655994415283203125 4.8481011390686035156 7.3044977188110351562 3.1832616329193115234 4.0605559349060058594 4.0897779464721679688 2.4788224697113037109 5.503482818603515625 
0.23399999737739562988 0.23399999737739562988 0.32666748762130737305 2.0145211219787597656 2.411602020263671875 3.3043038845062255859 3.3625178337097167969 2.6210050582885742188 2.3101520538330078125 1.3259094953536987305 2.6417798995971679688 2.6508343219757080078 6.2262682914733886719 3.7013564109802246094 4.0266246795654296875 2.1177513599395751953 3.8865602016448974609 1.9118204116821289062 1.8290917873382568359 
1.5794289112091064453 3.2010567188262939453 2.2154691219329833984 2.7030415534973144531 1.922719120979309082 3.6049561500549316406 5.3587727546691894531 4.4404702186584472656 2.8076035976409912109 2.1587839126586914062 3.1459984779357910156 3.5448470115661621094 7.402675628662109375 1.7202066183090209961 1.6629029512405395508 2.7815840244293212891 2.9537320137023925781 2.0118291378021240234 2.5818750858306884766 
3.0292081832885742188 5.1403946876525878906 2.3185312747955322266 4.0893883705139160156 2.7866256237030029297 4.5731778144836425781 3.8988971710205078125 2.7635302543640136719 3.0712063312530517578 2.9806957244873046875 3.9100308418273925781 3.2203905582427978516 8.10761260986328125 2.2637691497802734375 2.0660684108734130859 2.6082048416137695312 3.0813307762145996094 1.9651166200637817383 3.3161778450012207031 
4.930423736572265625 4.4793376922607421875 2.7134604454040527344 3.3664276599884033203 4.1023917198181152344 3.1975867748260498047 3.1950716972351074219 5.8503060340881347656 4.4090008735656738281 4.5100359916687011719 3.6066553592681884766 4.4879503250122070312 10.595733642578125 2.5800619125366210938 2.7737302780151367188 2.2170257568359375 2.7148447036743164062 2.7558164596557617188 3.4697825908660888672 
5.3940477371215820312 5.6060271263122558594 2.7187511920928955078 3.7056500911712646484 3.7044794559478759766 4.2997622489929199219 3.8182823657989501953 2.8857567310333251953 3.1247758865356445312 3.1607789993286132812 1.7732576131820678711 4.1641845703125 5.5070147514343261719 2.9056153297424316406 2.8389694690704345703 2.9824805259704589844 1.6059092283248901367 3.042850494384765625 2.7697625160217285156 
3.9347887039184570312 4.4744281768798828125 4.0067028999328613281 2.8278996944427490234 4.5083017349243164062 3.2296144962310791016 3.8888304233551025391 2.5446810722351074219 2.0813257694244384766 2.7163827419281005859 1.7074159383773803711 2.0304937362670898438 7.9124479293823242188 4.533966064453125 3.9947161674499511719 2.6512026786804199219 2.2297489643096923828 2.6332201957702636719 3.1908218860626220703 
3.9997372627258300781 5.5522618293762207031 4.1678791046142578125 2.7135648727416992188 3.2704777717590332031 2.8406167030334472656 3.5680284500122070312 2.6118295192718505859 3.0559451580047607422 2.5535967350006103516 2.6955907344818115234 5.928379058837890625 3.6300382614135742188 3.4167134761810302734 3.2990942001342773438 1.9407309293746948242 1.7695660591125488281 2.9038910865783691406 1.8877904415130615234 
3.7540082931518554688 5.0502610206604003906 2.2840304374694824219 3.3004026412963867188 3.4798970222473144531 1.7300477027893066406 1.1128090620040893555 1.5424667596817016602 2.0882914066314697266 3.8368418216705322266 2.8434770107269287109 4.1736216545104980469 5.0479946136474609375 3.4290180206298828125 3.9396688938140869141 0.67762476205825805664 1.5046498775482177734 2.1931354999542236328 1.8672603368759155273 
5.6068854331970214844 2.2793667316436767578 2.6943769454956054688 2.4737646579742431641 2.1020491123199462891 1.2888084650039672852 0.89044076204299926758 0.78463780879974365234 1.4403755664825439453 2.8646423816680908203 2.7455694675445556641 3.5831558704376220703 5.1259922981262207031 4.0135464668273925781 3.1524157524108886719 3.4230463504791259766 1.8344238996505737305 2.5132083892822265625 3.1161961555480957031 
4.8742237091064453125 3.2733523845672607422 3.5879011154174804688 2.5470726490020751953 3.1632907390594482422 3.3108718395233154297 3.237689971923828125 2.3522508144378662109 2.6334621906280517578 4.2460803985595703125 1.2559090852737426758 1.6388298273086547852 3.9368410110473632812 5.2562408447265625 3.7710847854614257812 2.32869720458984375 3.1412818431854248047 2.54244232177734375 2.3174142837524414062 
3.2455315589904785156 3.1821537017822265625 2.4153146743774414062 3.2167029380798339844 6.6569256782531738281 4.2796182632446289062 2.8354310989379882812 2.0082638263702392578 2.7584140300750732422 3.2750594615936279297 2.0994031429290771484 3.2558925151824951172 3.4988296031951904297 5.1404147148132324219 3.3110499382019042969 3.0621106624603271484 2.8967468738555908203 4.3742589950561523438 4.9143376350402832031 
3.8009691238403320312 1.9523390531539916992 1.025019526481628418 4.0971355438232421875 4.2775793075561523438 2.9373979568481445312 2.1182296276092529297 2.8682506084442138672 1.5025806427001953125 2.6708111763000488281 2.894474029541015625 2.2433648109436035156 4.3116784095764160156 3.179729461669921875 4.1771264076232910156 4.0512218475341796875 5.3684029579162597656 6.3401174545288085938 3.1099722385406494141 
2.6594536304473876953 2.8928251266479492188 3.0694849491119384766 3.4116902351379394531 4.8802356719970703125 2.8786911964416503906 2.1388485431671142578 2.6802015304565429688 2.5014054775238037109 2.7470450401306152344 2.6747801303863525391 3.3662858009338378906 3.4247407913208007812 2.7415728569030761719 4.217670440673828125 3.4532442092895507812 4.0684094429016113281 3.6352360248565673828 3.4212372303009033203 
2.8879590034484863281 2.6172943115234375 3.2911913394927978516 2.5052695274353027344 3.1224613189697265625 2.1344354152679443359 1.3839529752731323242 1.9808816909790039062 2.7423989772796630859 2.8718705177307128906 2.9054410457611083984 3.40433502197265625 1.8371175527572631836 4.02077484130859375 4.3923254013061523438 2.9072577953338623047 3.8088777065277099609 2.6898896694183349609 2.8374853134155273438 
2.6612832546234130859 1.854411005973815918 0.96903014183044433594 2.5275971889495849609 3.5208261013031005859 1.1059670448303222656 0.67581880092620849609 3.2169940471649169922 2.9187865257263183594 2.1517450809478759766 2.6475150585174560547 2.7342734336853027344 2.0932772159576416016 3.0935997962951660156 2.5691225528717041016 3.0511212348937988281 4.2274389266967773438 3.107120513916015625 2.7786161899566650391 
3.5120015144348144531 2.5920784473419189453 3.1672904491424560547 2.5431299209594726562 3.1995892524719238281 3.7789144515991210938 1.6590880155563354492 2.9604921340942382812 3.0830709934234619141 2.7976739406585693359 3.1999051570892333984 2.3223028182983398438 3.555515289306640625 2.4411666393280029297 2.8588874340057373047 2.6823394298553466797 3.3852512836456298828 3.1088225841522216797 2.8610830307006835938 
3.9088470935821533203 2.2941613197326660156 3.0245440006256103516 2.775913238525390625 3.3744943141937255859 3.3833584785461425781 4.0178136825561523438 2.1557567119598388672 3.1182434558868408203 3.3591215610504150391 3.9477438926696777344 3.7314400672912597656 3.8212730884552001953 3.0537383556365966797 2.0941081047058105469 2.6511964797973632812 2.7868409156799316406 2.7119817733764648438 3.5912952423095703125 
2.2039048671722412109 3.3898494243621826172 3.2512073516845703125 2.5944571495056152344 2.6615328788757324219 3.9074060916900634766 4.4259853363037109375 2.3471705913543701172 2.7698857784271240234 2.7196810245513916016 2.3605051040649414062 2.1481478214263916016 1.4098105430603027344 2.3485379219055175781 1.6991869211196899414 2.4168159961700439453 3.3234033584594726562 2.7628610134124755859 2.6551680564880371094 
1.3787497282028198242 2.7896776199340820312 2.7220716476440429688 2.9100339412689208984 2.6925351619720458984 4.0652899742126464844 4.2881498336791992188 2.7803163528442382812 2.7864606380462646484 1.8477914333343505859 1.1630541086196899414 2.7576932907104492188 2.7266488075256347656 2.7549006938934326172 2.7726414203643798828 2.088756561279296875 2.6714012622833251953 2.4855227470397949219 1.9764310121536254883 
