ncols        19
nrows        23
xllcorner    508536.404131802963
yllcorner    5265348.997906560078
cellsize     570.000000000000
NODATA_value -9999
0.75999999046325683594 0.75999999046325683594 0.75999999046325683594 0.75999999046325683594 0.75999999046325683594 0.75999999046325683594 0.75836288928985595703 1.6396950483322143555 0.75999999046325683594 0.75999999046325683594 0.75999999046325683594 0.75181436538696289062 3.4613480567932128906 2.1950917243957519531 13.144392013549804688 29.980072021484375 26.25907135009765625 21.46533966064453125 8.9063386917114257812 
0.75999999046325683594 0.75999999046325683594 0.75999999046325683594 0.75999999046325683594 0.96922600269317626953 4.4795989990234375 5.3755693435668945312 3.4237949848175048828 0.75999999046325683594 0.75836288928985595703 4.9435839653015136719 12.853565216064453125 18.76068115234375 16.992879867553710938 15.413433074951171875 27.356866836547851562 24.82273101806640625 25.834093093872070312 17.959676742553710938 
0.75999999046325683594 0.75999999046325683594 0.75999999046325683594 0.88970100879669189453 11.585911750793457031 16.09061431884765625 6.4293360710144042969 0.74783933162689208984 0.89583951234817504883 6.9970865249633789062 23.523983001708984375 19.858739852905273438 19.144687652587890625 22.138898849487304688 18.620969772338867188 19.746816635131835938 18.043750762939453125 14.765906333923339844 18.525709152221679688 
0.75999999046325683594 0.75999999046325683594 0.75999999046325683594 4.5010919570922851562 17.186437606811523438 11.78766632080078125 5.0309901237487792969 3.7887463569641113281 9.370574951171875 13.673700332641601562 16.804729461669921875 11.908343315124511719 18.083944320678710938 26.279224395751953125 16.230930328369140625 18.630155563354492188 19.072317123413085938 14.142404556274414062 23.30133056640625 
0.75999999046325683594 0.75999999046325683594 1.0260599851608276367 13.173792839050292969 15.815595626831054688 13.536923408508300781 7.7169661521911621094 14.996539115905761719 12.250102996826171875 8.2003316879272460938 16.893140792846679688 11.600177764892578125 21.793478012084960938 19.139530181884765625 19.803964614868164062 12.492380142211914062 17.7741851806640625 12.775178909301757812 11.3734893798828125 
8.1297922134399414062 14.724568367004394531 10.318723678588867188 18.201726913452148438 12.00933837890625 14.142696380615234375 18.699481964111328125 17.225435256958007812 15.705536842346191406 13.516332626342773438 19.847049713134765625 19.706304550170898438 25.01778411865234375 9.9533939361572265625 11.055377006530761719 17.831645965576171875 18.624937057495117188 12.761862754821777344 15.865155220031738281 
15.713467597961425781 18.979566574096679688 12.181960105895996094 22.666046142578125 16.306947708129882812 17.896310806274414062 15.315683364868164062 13.555532455444335938 14.706251144409179688 15.731820106506347656 22.13509368896484375 19.94171142578125 25.214979171752929688 15.224370002746582031 14.411694526672363281 17.23680877685546875 19.635282516479492188 12.835661888122558594 15.975304603576660156 
19.01200103759765625 14.023972511291503906 19.103878021240234375 20.53189849853515625 20.906982421875 16.732425689697265625 16.711496353149414062 22.919994354248046875 19.483001708984375 18.467254638671875 19.20484161376953125 21.70867919921875 35.334934234619140625 17.471979141235351562 18.6775054931640625 12.546027183532714844 15.973992347717285156 13.765755653381347656 20.912450790405273438 
21.69095611572265625 21.615421295166015625 19.12329864501953125 22.778774261474609375 20.25315093994140625 18.814287185668945312 18.503543853759765625 13.209620475769042969 19.055566787719726562 17.193140029907226562 10.541003227233886719 21.545589447021484375 22.208744049072265625 15.998172760009765625 19.30182647705078125 17.467443466186523438 10.780034065246582031 12.817177772521972656 15.675976753234863281 
18.8577880859375 21.1245880126953125 20.9067840576171875 19.801660537719726562 22.640855789184570312 16.274587631225585938 19.026395797729492188 15.337464332580566406 14.108551025390625 17.935518264770507812 4.1748905181884765625 13.136971473693847656 21.39739990234375 23.70104217529296875 20.2548980712890625 17.72121429443359375 13.441277503967285156 14.670454025268554688 7.2538962364196777344 
23.978519439697265625 23.046621322631835938 19.950544357299804688 18.904079437255859375 19.006032943725585938 13.79125213623046875 14.55007171630859375 13.275605201721191406 12.2947845458984375 16.4253387451171875 19.05873870849609375 21.316802978515625 15.733315467834472656 16.666452407836914062 11.224621772766113281 11.475634574890136719 10.606698036193847656 18.064119338989257812 12.951760292053222656 
21.39208984375 20.981409072875976562 14.564126014709472656 19.03524017333984375 18.19715118408203125 5.9196577072143554688 4.7761449813842773438 6.9770731925964355469 8.7487049102783203125 21.468963623046875 19.817523956298828125 15.799944877624511719 18.342393875122070312 19.809274673461914062 13.733757972717285156 3.1705641746520996094 9.5212049484252929688 14.565332412719726562 12.636220932006835938 
23.439378738403320312 13.760068893432617188 15.077280044555664062 14.411519050598144531 13.61954498291015625 7.8118462562561035156 3.7961926460266113281 4.2122783660888671875 6.6249213218688964844 19.2377471923828125 19.4712677001953125 20.570087432861328125 21.701915740966796875 21.661382675170898438 17.776798248291015625 15.355803489685058594 10.62757110595703125 13.352280616760253906 19.15489959716796875 
23.4029693603515625 17.045396804809570312 17.494390487670898438 15.89232635498046875 16.450382232666015625 14.151447296142578125 12.429645538330078125 8.2666368484497070312 15.446480751037597656 24.436046600341796875 7.8080568313598632812 11.047181129455566406 22.159467697143554688 25.750743865966796875 19.2317962646484375 14.276218414306640625 19.863939285278320312 17.1529388427734375 13.449360847473144531 
20.108242034912109375 18.503124237060546875 16.60858154296875 4.1016278266906738281 19.392749786376953125 22.58150482177734375 16.03521728515625 7.4472031593322753906 18.63674163818359375 17.458860397338867188 10.45709991455078125 17.7451019287109375 20.637125015258789062 24.694894790649414062 17.479373931884765625 19.332159042358398438 16.810022354125976562 22.62020111083984375 23.583263397216796875 
20.140514373779296875 9.23165130615234375 5.6522207260131835938 15.515933036804199219 19.656354904174804688 20.102205276489257812 5.1261973381042480469 15.062616348266601562 9.3086557388305664062 17.429227828979492188 16.573877334594726562 10.323533058166503906 22.693777084350585938 19.9093780517578125 20.127885818481445312 22.476762771606445312 24.93199920654296875 27.43636322021484375 20.643520355224609375 
16.353345870971679688 17.11666107177734375 3.6282219886779785156 17.2553863525390625 22.538036346435546875 18.220546722412109375 7.3704133033752441406 14.63434600830078125 16.752010345458984375 17.601301193237304688 17.451684951782226562 20.919733047485351562 20.824932098388671875 19.214757919311523438 21.987756729125976562 21.08123779296875 23.468210220336914062 21.3891448974609375 21.891378402709960938 
15.242482185363769531 15.956946372985839844 9.979602813720703125 8.53948974609375 19.734239578247070312 14.179478645324707031 7.0250668525695800781 11.055654525756835938 18.760162353515625 19.15004730224609375 18.858758926391601562 21.45696258544921875 11.691204071044921875 17.940999984741210938 22.95208740234375 19.958536148071289062 21.722284317016601562 15.603506088256835938 19.772724151611328125 
12.622876167297363281 7.1334972381591796875 2.5219845771789550781 17.350034713745117188 20.22191619873046875 5.4102802276611328125 3.3024492263793945312 18.419202804565429688 19.413570404052734375 13.859953880310058594 15.887098312377929688 17.830141067504882812 13.223896980285644531 19.935964584350585938 18.10376739501953125 20.216680526733398438 22.671842575073242188 19.543487548828125 19.609762191772460938 
13.179465293884277344 14.801745414733886719 4.9873118400573730469 17.807712554931640625 18.97637176513671875 14.494379043579101562 10.255198478698730469 10.250474929809570312 20.044095993041992188 19.7113800048828125 19.994283676147460938 10.917634963989257812 13.988264083862304688 13.148954391479492188 17.777776718139648438 14.953924179077148438 20.428680419921875 17.854913711547851562 17.965936660766601562 
14.272792816162109375 10.787680625915527344 17.407278060913085938 17.276187896728515625 16.223392486572265625 20.110626220703125 20.022039413452148438 10.824445724487304688 20.24822235107421875 20.948724746704101562 20.501041412353515625 16.323223114013671875 18.225786209106445312 19.952251434326171875 14.638804435729980469 17.035221099853515625 19.71016693115234375 18.77545166015625 15.407486915588378906 
11.011273384094238281 20.645975112915039062 16.4658050537109375 12.851175308227539062 13.499978065490722656 18.458379745483398438 21.913421630859375 14.620272636413574219 19.451517105102539062 19.078479766845703125 16.529794692993164062 14.788086891174316406 9.4535303115844726562 16.450099945068359375 11.700352668762207031 16.586559295654296875 20.387754440307617188 19.410783767700195312 16.152393341064453125 
8.9754705429077148438 18.01097869873046875 7.2036104202270507812 7.4453763961791992188 16.86965179443359375 19.292520523071289062 22.89832305908203125 17.811460494995117188 18.887058258056640625 12.75234222412109375 7.7311992645263671875 19.395355224609375 19.069889068603515625 19.317493438720703125 19.647821426391601562 13.2442474365234375 18.839075088500976562 17.492734909057617188 13.706284523010253906 
