ncols        87
nrows        107
xllcorner    508536.404131802963
yllcorner    5265618.997906560078
cellsize     120.000000000000
NODATA_value -9999
0.015058999881148338318 0.015058999881148338318 0.015058999881148338318 0.015058999881148338318 0.015058999881148338318 0.015058999881148338318 0.015058999881148338318 0.015058999881148338318 0.015058999881148338318 0.015058999881148338318 0.015058999881148338318 0.015058999881148338318 0.015058999881148338318 0.015058999881148338318 0.015058999881148338318 0.015058999881148338318 0.015058999881148338318 0.015058999881148338318 0.015058999881148338318 0.015058999881148338318 0.015058999881148338318 0.015058999881148338318 0.015058999881148338318 0.015058999881148338318 0.015058999881148338318 0.015058999881148338318 0.015058999881148338318 0.015058999881148338318 0.015058999881148338318 0.015058999881148338318 0.015058999881148338318 0.015058999881148338318 0.015058999881148338318 0.015058999881148338318 0.015058999881148338318 0.015058999881148338318 0.015058999881148338318 0.015058999881148338318 0.015058999881148338318 0.015058999881148338318 0.015058999881148338318 0.015058999881148338318 0.015058999881148338318 0.015058999881148338318 0.015058999881148338318 0.015058999881148338318 0.015058999881148338318 0.015058999881148338318 0.015058999881148338318 0.015058999881148338318 0.015058999881148338318 0.015058999881148338318 0.015058999881148338318 0.015058999881148338318 0.015058999881148338318 0.015058999881148338318 0.015058999881148338318 0.015058999881148338318 0.015058999881148338318 0.015058999881148338318 0.015058999881148338318 0.015058999881148338318 0.015058999881148338318 0.015058999881148338318 0.015058999881148338318 0.015058999881148338318 0.2072404325008392334 0.94900095462799072266 2.752643585205078125 3.5432558059692382812 3.6190788745880126953 8.0747394561767578125 6.3468914031982421875 9.1263322830200195312 6.2104678153991699219 1.3652681112289428711 8.1886110305786132812 6.0187482833862304688 3.2793202400207519531 5.8363385200500488281 7.4672770500183105469 6.6027064323425292969 10.791234016418457031 8.098857879638671875 9.1191587448120117188 9.5204601287841796875 10.617914199829101562 
0.015058999881148338318 0.015058999881148338318 0.015058999881148338318 0.015058999881148338318 0.015058999881148338318 0.015058999881148338318 0.015058999881148338318 0.015058999881148338318 0.015058999881148338318 0.015058999881148338318 0.015058999881148338318 0.015058999881148338318 0.015058999881148338318 0.015058999881148338318 0.015058999881148338318 0.015058999881148338318 0.015058999881148338318 0.015058999881148338318 0.015058999881148338318 0.015058999881148338318 0.015058999881148338318 0.015058999881148338318 0.015058999881148338318 0.015058999881148338318 0.015058999881148338318 0.015058999881148338318 0.015058999881148338318 0.015058999881148338318 0.015058999881148338318 0.015058999881148338318 0.015058999881148338318 0.015058999881148338318 0.015058999881148338318 0.015058999881148338318 0.015058999881148338318 0.015058999881148338318 0.015058999881148338318 0.015058999881148338318 0.015058999881148338318 0.015058999881148338318 0.015058999881148338318 0.015058999881148338318 0.015058999881148338318 0.015058999881148338318 0.015058999881148338318 0.015058999881148338318 0.015058999881148338318 0.015058999881148338318 0.015058999881148338318 0.015058999881148338318 0.015058999881148338318 0.015058999881148338318 0.015058999881148338318 0.015058999881148338318 0.015058999881148338318 0.015058999881148338318 0.015058999881148338318 0.015058999881148338318 0.015058999881148338318 0.015058999881148338318 0.015058999881148338318 0.49161779880523681641 0.49161779880523681641 0.015058999881148338318 0.015058999881148338318 0.34245949983596801758 2.9633014202117919922 2.7379879951477050781 4.5213103294372558594 3.5521540641784667969 7.4012150764465332031 11.498400688171386719 7.3267574310302734375 7.2006196975708007812 9.37714385986328125 4.8629312515258789062 6.0067028999328613281 8.0244531631469726562 7.9825839996337890625 7.6185045242309570312 5.1443114280700683594 5.4338598251342773438 5.9660186767578125 6.4111080169677734375 4.9224009513854980469 7.3016743659973144531 2.7562727928161621094 
0.015058999881148338318 0.015058999881148338318 0.015058999881148338318 0.015058999881148338318 0.015058999881148338318 0.015058999881148338318 0.015058999881148338318 0.015058999881148338318 0.015058999881148338318 0.015058999881148338318 0.015058999881148338318 0.015058999881148338318 0.015058999881148338318 0.015058999881148338318 0.015058999881148338318 0.015058999881148338318 0.015058999881148338318 0.015058999881148338318 0.015058999881148338318 0.015058999881148338318 0.015058999881148338318 0.015058999881148338318 0.015058999881148338318 0.015058999881148338318 0.015058999881148338318 0.015058999881148338318 0.015058999881148338318 0.015058999881148338318 0.015058999881148338318 0.015058999881148338318 0.015058999881148338318 0.015058999881148338318 0.015058999881148338318 0.015058999881148338318 0.015058999881148338318 0.015058999881148338318 0.015058999881148338318 0.015058999881148338318 0.015058999881148338318 0.015058999881148338318 0.015058999881148338318 0.015058999881148338318 0.015058999881148338318 0.015058999881148338318 0.015058999881148338318 0.015058999881148338318 0.015058999881148338318 0.015058999881148338318 0.015058999881148338318 0.015058999881148338318 0.015058999881148338318 0.015058999881148338318 0.015058999881148338318 0.015058999881148338318 0.015058999881148338318 0.015058999881148338318 0.015058999881148338318 0.015058999881148338318 0.10510418564081192017 0.97080844640731811523 1.3509505987167358398 0.58961701393127441406 0.22516442835330963135 0.024955311790108680725 0.20201499760150909424 0.75401914119720458984 3.1420159339904785156 2.856311798095703125 3.5503919124603271484 7.6971302032470703125 7.5780196189880371094 10.316522598266601562 8.9664049148559570312 8.7664060592651367188 9.6222324371337890625 7.3376431465148925781 2.5291612148284912109 8.7530117034912109375 7.2675118446350097656 8.6393146514892578125 6.0855932235717773438 8.1558485031127929688 7.6392879486083984375 8.5359630584716796875 7.4745030403137207031 3.5775015354156494141 0.054644249379634857178 
0.015058999881148338318 0.015058999881148338318 0.015058999881148338318 0.015058999881148338318 0.015058999881148338318 0.015058999881148338318 0.015058999881148338318 0.015058999881148338318 0.015058999881148338318 0.015058999881148338318 0.015058999881148338318 0.015058999881148338318 0.015058999881148338318 0.015058999881148338318 0.015058999881148338318 0.015058999881148338318 0.015058999881148338318 0.015058999881148338318 0.015058999881148338318 0.015058999881148338318 0.015058999881148338318 0.015058999881148338318 0.015058999881148338318 0.015058999881148338318 0.015058999881148338318 0.015058999881148338318 0.015058999881148338318 0.015058999881148338318 0.015058999881148338318 0.015058999881148338318 0.015058999881148338318 0.015058999881148338318 0.015058999881148338318 0.015058999881148338318 0.015058999881148338318 0.045074060559272766113 0.015058999881148338318 0.015058999881148338318 0.015058999881148338318 0.015058999881148338318 0.015058999881148338318 0.015058999881148338318 0.015058999881148338318 0.015058999881148338318 0.015058999881148338318 0.015058999881148338318 0.015058999881148338318 0.015058999881148338318 0.015058999881148338318 0.015058999881148338318 0.015058999881148338318 0.015058999881148338318 0.015058999881148338318 0.015058999881148338318 0.015058999881148338318 0.015058999881148338318 0.015058999881148338318 0.13511924445629119873 0.42973950505256652832 5.2622036933898925781 3.222564697265625 0.26163604855537414551 1.4260375499725341797 5.3469247817993164062 2.1614146232604980469 2.6373131275177001953 6.4182124137878417969 3.2347648143768310547 6.0381035804748535156 10.076109886169433594 10.033564567565917969 10.621516227722167969 9.0616598129272460938 10.011944770812988281 9.0711145401000976562 8.9462270736694335938 6.8961210250854492188 11.657580375671386719 6.4258055686950683594 10.20227813720703125 8.06027984619140625 9.0454187393188476562 10.103832244873046875 9.1987009048461914062 5.4612269401550292969 1.097843170166015625 0.90817177295684814453 
0.015058999881148338318 0.015058999881148338318 0.015058999881148338318 0.015058999881148338318 0.015058999881148338318 0.015058999881148338318 0.015058999881148338318 0.015058999881148338318 0.015058999881148338318 0.015058999881148338318 0.015058999881148338318 0.015058999881148338318 0.015058999881148338318 0.015058999881148338318 0.015058999881148338318 0.015058999881148338318 0.015058999881148338318 0.015058999881148338318 0.015058999881148338318 0.015058999881148338318 0.015058999881148338318 0.015058999881148338318 0.015058999881148338318 0.015058999881148338318 0.015058999881148338318 0.015058999881148338318 0.015058999881148338318 0.015058999881148338318 0.015058999881148338318 0.015058999881148338318 0.015058999881148338318 0.015058999881148338318 0.015058999881148338318 0.58678936958312988281 3.8709256649017333984 3.9031894207000732422 0.23506075143814086914 0.015058999881148338318 0.015058999881148338318 0.015058999881148338318 0.015058999881148338318 0.015058999881148338318 0.015058999881148338318 0.015058999881148338318 0.015058999881148338318 0.015058999881148338318 0.015058999881148338318 0.015058999881148338318 0.015058999881148338318 0.015058999881148338318 0.015058999881148338318 0.015058999881148338318 0.015058999881148338318 0.015058999881148338318 0.015058999881148338318 0.10510418564081192017 0.25331330299377441406 0.62783247232437133789 1.445469975471496582 1.9093321561813354492 0.38078126311302185059 0.79947608709335327148 0.48598492145538330078 4.3544874191284179688 7.1934561729431152344 7.0045881271362304688 3.1506488323211669922 4.8789854049682617188 6.5354075431823730469 9.6340694427490234375 6.8350343704223632812 6.9941568374633789062 7.3770160675048828125 7.5390448570251464844 9.1380357742309570312 9.927547454833984375 9.4724521636962890625 10.114541053771972656 5.7277965545654296875 7.5292367935180664062 3.3678102493286132812 9.991985321044921875 7.676990509033203125 8.8349323272705078125 2.5716023445129394531 0.75547355413436889648 0.87083029747009277344 
0.015058999881148338318 0.015058999881148338318 0.015058999881148338318 0.015058999881148338318 0.015058999881148338318 0.015058999881148338318 0.015058999881148338318 0.015058999881148338318 0.015058999881148338318 0.015058999881148338318 0.015058999881148338318 0.015058999881148338318 0.015058999881148338318 0.015058999881148338318 0.015058999881148338318 0.015058999881148338318 0.015058999881148338318 0.015058999881148338318 0.015058999881148338318 0.015058999881148338318 0.015058999881148338318 0.015058999881148338318 0.015058999881148338318 0.015058999881148338318 0.015058999881148338318 0.015058999881148338318 0.015058999881148338318 0.015058999881148338318 0.015058999881148338318 0.015058999881148338318 0.015058999881148338318 0.19514937698841094971 1.4242655038833618164 3.4118921756744384766 2.3044149875640869141 6.9213275909423828125 0.31211587786674499512 0.015058999881148338318 0.015058999881148338318 0.015058999881148338318 0.015058999881148338318 0.015058999881148338318 0.015058999881148338318 0.015058999881148338318 0.015058999881148338318 0.015058999881148338318 0.015058999881148338318 0.015058999881148338318 0.015058999881148338318 0.015058999881148338318 0.015058999881148338318 0.015058999881148338318 0.045074060559272766113 0.28146186470985412598 1.4280605316162109375 2.0479347705841064453 3.2214791774749755859 3.8323917388916015625 1.9401636123657226562 2.7260899543762207031 3.3359758853912353516 4.6006264686584472656 1.6998610496520996094 5.0277795791625976562 6.6638140678405761719 7.6399998664855957031 3.7618246078491210938 4.6311025619506835938 3.4774529933929443359 4.7250990867614746094 6.4911742210388183594 6.2947888374328613281 7.2620043754577636719 9.6430902481079101562 12.037484169006347656 8.7481899261474609375 8.7500152587890625 9.1808643341064453125 3.3043255805969238281 4.1767001152038574219 7.4524645805358886719 7.378032684326171875 9.9687442779541015625 5.3968152999877929688 0.69365292787551879883 0.096738003194332122803 0.44580000638961791992 
0.015058999881148338318 0.015058999881148338318 0.015058999881148338318 0.015058999881148338318 0.015058999881148338318 0.015058999881148338318 0.015058999881148338318 0.015058999881148338318 0.015058999881148338318 0.015058999881148338318 0.015058999881148338318 0.015058999881148338318 0.015058999881148338318 0.015058999881148338318 0.015058999881148338318 0.015058999881148338318 0.015058999881148338318 0.015058999881148338318 0.015058999881148338318 0.015058999881148338318 0.015058999881148338318 0.015058999881148338318 0.015058999881148338318 0.015058999881148338318 0.015058999881148338318 0.015058999881148338318 0.015058999881148338318 0.015058999881148338318 0.19514937698841094971 0.29476475715637207031 0.29938861727714538574 6.4584908485412597656 5.0044879913330078125 2.1833996772766113281 1.0326297283172607422 1.6718970537185668945 1.1782820224761962891 0.015058999881148338318 0.015058999881148338318 0.015058999881148338318 0.015058999881148338318 0.015058999881148338318 0.015058999881148338318 0.015058999881148338318 0.015058999881148338318 0.015058999881148338318 0.015058999881148338318 0.015058999881148338318 0.015058999881148338318 0.015058999881148338318 0.045074060559272766113 0.56303244829177856445 1.2570185661315917969 2.3587749004364013672 3.1701192855834960938 3.5800340175628662109 4.7830243110656738281 4.1569805145263671875 8.4907321929931640625 5.6060357093811035156 3.9459068775177001953 4.4665660858154296875 2.5962271690368652344 5.7466678619384765625 7.0892181396484375 5.5374407768249511719 4.9509263038635253906 5.4546113014221191406 4.8269438743591308594 2.7187185287475585938 4.2331552505493164062 8.4650259017944335938 10.759034156799316406 9.6458482742309570312 10.290119171142578125 7.50479888916015625 10.71537017822265625 5.5005216598510742188 4.0514636039733886719 6.5676970481872558594 8.94930267333984375 8.0436105728149414062 10.346117973327636719 7.632061004638671875 8.68189239501953125 3.7122309207916259766 4.8894701004028320312 
0.015058999881148338318 0.015058999881148338318 0.015058999881148338318 0.015058999881148338318 0.015058999881148338318 0.015058999881148338318 0.015058999881148338318 0.015058999881148338318 0.015058999881148338318 0.015058999881148338318 0.015058999881148338318 0.015058999881148338318 0.015058999881148338318 0.015058999881148338318 0.015058999881148338318 0.015058999881148338318 0.015058999881148338318 0.015058999881148338318 0.015058999881148338318 0.015058999881148338318 0.015058999881148338318 0.015058999881148338318 0.015058999881148338318 0.015058999881148338318 0.015058999881148338318 0.015058999881148338318 0.32464799284934997559 0.81768471002578735352 0.63479387760162353516 1.0972495079040527344 2.9865717887878417969 2.6312696933746337891 0.50035649538040161133 1.7731759548187255859 1.5306818485260009766 0.13511924445629119873 0.015058999881148338318 0.015058999881148338318 0.015058999881148338318 0.015058999881148338318 0.015058999881148338318 0.015058999881148338318 0.015058999881148338318 0.015058999881148338318 0.015058999881148338318 0.015058999881148338318 0.015058999881148338318 0.015058999881148338318 0.015058999881148338318 0.17722536623477935791 0.9209232330322265625 2.1979742050170898438 2.5574853420257568359 6.0181879997253417969 2.7113821506500244141 5.3745431900024414062 4.1270308494567871094 4.1854333877563476562 7.7431559562683105469 9.1328592300415039062 3.8850493431091308594 4.21492767333984375 3.6874508857727050781 6.631992340087890625 8.24805450439453125 4.5008702278137207031 5.4011492729187011719 5.786945343017578125 5.9381527900695800781 3.030002593994140625 4.9155521392822265625 7.3930106163024902344 10.939569473266601562 6.7832627296447753906 6.5064635276794433594 7.1208133697509765625 9.10137939453125 4.9236407279968261719 5.4534974098205566406 9.4469289779663085938 9.2524871826171875 8.4669942855834960938 8.3947420120239257812 6.7397327423095703125 7.6514811515808105469 8.8786745071411132812 7.7755956649780273438 
0.015058999881148338318 0.015058999881148338318 0.015058999881148338318 0.015058999881148338318 0.015058999881148338318 0.015058999881148338318 0.015058999881148338318 0.015058999881148338318 0.015058999881148338318 0.015058999881148338318 0.015058999881148338318 0.015058999881148338318 0.015058999881148338318 0.015058999881148338318 0.015058999881148338318 0.015058999881148338318 0.015058999881148338318 0.015058999881148338318 0.015058999881148338318 0.015058999881148338318 0.015058999881148338318 0.015058999881148338318 0.015058999881148338318 0.13511924445629119873 0.19557456672191619873 3.0368010997772216797 5.7294259071350097656 3.1827831268310546875 0.27398750185966491699 4.3750061988830566406 1.5951596498489379883 1.6760206222534179688 2.6176176071166992188 1.3499863147735595703 0.66656404733657836914 0.015058999881148338318 0.015058999881148338318 0.015058999881148338318 0.015058999881148338318 0.015058999881148338318 0.015058999881148338318 0.015058999881148338318 0.015058999881148338318 0.015058999881148338318 0.015058999881148338318 0.015058999881148338318 0.015058999881148338318 0.045074060559272766113 0.45828387141227722168 0.52758777141571044922 0.29970723390579223633 3.1772770881652832031 2.4752898216247558594 2.6283228397369384766 3.6497616767883300781 3.8616392612457275391 4.0944571495056152344 5.0295739173889160156 5.9466390609741210938 8.0603809356689453125 3.9408979415893554688 4.1256971359252929688 7.2158770561218261719 9.6082210540771484375 7.4541501998901367188 6.9940314292907714844 5.7862377166748046875 9.3527822494506835938 9.0719156265258789062 6.072265625 9.1920385360717773438 7.7599520683288574219 10.310604095458984375 6.8638319969177246094 4.4608845710754394531 4.713588714599609375 7.7233071327209472656 5.6666684150695800781 6.9312758445739746094 5.1776452064514160156 5.8170137405395507812 9.25119781494140625 9.2568645477294921875 6.4461674690246582031 4.2752056121826171875 3.0893254280090332031 6.7031641006469726562 
0.015058999881148338318 0.015058999881148338318 0.015058999881148338318 0.015058999881148338318 0.015058999881148338318 0.015058999881148338318 0.015058999881148338318 0.015058999881148338318 0.015058999881148338318 0.015058999881148338318 0.015058999881148338318 0.015058999881148338318 0.015058999881148338318 0.015058999881148338318 0.015058999881148338318 0.015058999881148338318 0.015058999881148338318 0.015058999881148338318 0.015058999881148338318 0.015058999881148338318 0.015058999881148338318 0.075089126825332641602 1.3304551839828491211 0.78577572107315063477 8.6309833526611328125 2.3057825565338134766 5.1956496238708496094 4.10366058349609375 2.1144413948059082031 1.2106068134307861328 0.62018507719039916992 3.4930334091186523438 1.3619962930679321289 0.66960811614990234375 0.045074060559272766113 0.015058999881148338318 0.015058999881148338318 0.015058999881148338318 0.015058999881148338318 0.015058999881148338318 0.015058999881148338318 0.015058999881148338318 0.015058999881148338318 0.015058999881148338318 0.015058999881148338318 0.015058999881148338318 0.10510418564081192017 1.0261521339416503906 4.32238006591796875 5.4835386276245117188 4.369853973388671875 6.27263641357421875 4.8849735260009765625 5.3980388641357421875 7.9639515876770019531 3.7380948066711425781 2.5308287143707275391 6.9431004524230957031 7.550464630126953125 11.3339385986328125 5.1130781173706054688 3.0888988971710205078 8.2331218719482421875 10.236864089965820312 9.957035064697265625 5.1556944847106933594 5.4695076942443847656 7.204311370849609375 5.9237432479858398438 4.9660797119140625 5.9287500381469726562 8.088764190673828125 11.940181732177734375 5.7151021957397460938 4.3608407974243164062 6.3836240768432617188 7.3396005630493164062 3.1809794902801513672 7.2876877784729003906 3.8500163555145263672 4.3614201545715332031 4.8287763595581054688 6.1426973342895507812 8.9084234237670898438 0.015058999881148338318 0.94926732778549194336 7.0441999435424804688 
0.015058999881148338318 0.015058999881148338318 0.015058999881148338318 0.015058999881148338318 0.015058999881148338318 0.015058999881148338318 0.015058999881148338318 0.015058999881148338318 0.015058999881148338318 0.015058999881148338318 0.015058999881148338318 0.015058999881148338318 0.015058999881148338318 0.015058999881148338318 0.015058999881148338318 0.015058999881148338318 0.015058999881148338318 0.015058999881148338318 0.015058999881148338318 0.075089126825332641602 0.27626788616180419922 3.105167388916015625 4.4361414909362792969 5.7909564971923828125 3.9456717967987060547 5.8866543769836425781 6.2851734161376953125 3.6576979160308837891 3.6178917884826660156 5.0758085250854492188 1.9104242324829101562 4.6403684616088867188 0.82919114828109741211 0.1666644364595413208 0.015058999881148338318 0.015058999881148338318 0.015058999881148338318 0.015058999881148338318 0.015058999881148338318 0.015058999881148338318 0.015058999881148338318 0.015058999881148338318 0.015058999881148338318 0.015058999881148338318 0.015058999881148338318 0.075089126825332641602 0.30474531650543212891 3.0630669593811035156 5.8521595001220703125 6.4747190475463867188 7.0732393264770507812 7.54827117919921875 5.3436522483825683594 9.8673582077026367188 5.4846587181091308594 2.7802639007568359375 3.2555220127105712891 8.7633495330810546875 7.0811514854431152344 9.9079504013061523438 3.9701595306396484375 2.4771416187286376953 10.902118682861328125 8.3620023727416992188 8.0895624160766601562 5.0974640846252441406 5.7558245658874511719 9.6475372314453125 6.7021603584289550781 11.251118659973144531 4.9935450553894042969 7.5429930686950683594 9.5001201629638671875 8.1930103302001953125 5.0606818199157714844 3.6502625942230224609 4.5241994857788085938 2.1315770149230957031 6.8723464012145996094 5.3559689521789550781 3.7181246280670166016 3.5755586624145507812 2.7526118755340576172 6.04424285888671875 0.92841172218322753906 1.6970489025115966797 7.5605597496032714844 
0.015058999881148338318 0.015058999881148338318 0.015058999881148338318 0.015058999881148338318 0.015058999881148338318 0.015058999881148338318 0.015058999881148338318 0.015058999881148338318 0.015058999881148338318 0.015058999881148338318 0.015058999881148338318 0.015058999881148338318 0.015058999881148338318 0.015058999881148338318 0.015058999881148338318 0.015058999881148338318 0.015058999881148338318 0.015058999881148338318 0.015058999881148338318 0.33346217870712280273 1.338251948356628418 4.9307646751403808594 5.5250420570373535156 4.490283966064453125 4.2425889968872070312 5.9177217483520507812 5.6385750770568847656 5.2975816726684570312 3.762844085693359375 2.7207560539245605469 4.9602813720703125 1.4032453298568725586 0.46500831842422485352 0.045074060559272766113 0.015058999881148338318 0.015058999881148338318 0.015058999881148338318 0.015058999881148338318 0.015058999881148338318 0.015058999881148338318 0.015058999881148338318 0.015058999881148338318 0.015058999881148338318 0.015058999881148338318 0.19205562770366668701 0.32136362791061401367 1.8578879833221435547 3.2830421924591064453 4.1807923316955566406 3.7963640689849853516 3.6493620872497558594 8.0067138671875 10.068787574768066406 6.1976270675659179688 4.3651995658874511719 3.3966467380523681641 5.2275300025939941406 3.1600158214569091797 7.7497406005859375 9.4057569503784179688 4.6610503196716308594 0.35911250114440917969 7.9424462318420410156 8.1169309616088867188 10.332202911376953125 8.8701009750366210938 7.1292238235473632812 6.0026979446411132812 10.311962127685546875 10.40955352783203125 4.5361275672912597656 5.275371551513671875 11.261323928833007812 7.1872544288635253906 3.3020548820495605469 3.5307552814483642578 1.7084690332412719727 3.0168671607971191406 3.7070589065551757812 5.3061070442199707031 5.4336252212524414062 3.7694668769836425781 1.4436502456665039062 1.8296978473663330078 1.9761563539505004883 2.8079433441162109375 5.5488638877868652344 
0.015058999881148338318 0.015058999881148338318 0.015058999881148338318 0.015058999881148338318 0.015058999881148338318 0.015058999881148338318 0.015058999881148338318 0.015058999881148338318 0.015058999881148338318 0.015058999881148338318 0.015058999881148338318 0.015058999881148338318 0.015058999881148338318 0.015058999881148338318 0.015058999881148338318 0.015058999881148338318 0.015058999881148338318 0.015058999881148338318 0.075089126825332641602 0.37926718592643737793 3.5182375907897949219 2.1223437786102294922 3.1918148994445800781 5.2895565032958984375 2.4979691505432128906 5.2928643226623535156 4.213897705078125 5.3588299751281738281 2.0327465534210205078 3.9358842372894287109 2.0370061397552490234 1.6338362693786621094 0.40408667922019958496 0.015058999881148338318 0.015058999881148338318 0.015058999881148338318 0.015058999881148338318 0.015058999881148338318 0.015058999881148338318 0.015058999881148338318 0.015058999881148338318 0.015058999881148338318 0.015058999881148338318 0.20504568517208099365 0.27811294794082641602 2.5427889823913574219 3.4234468936920166016 4.9207439422607421875 5.4857640266418457031 6.7107033729553222656 6.2595095634460449219 10.011548995971679688 9.7496185302734375 8.2210845947265625 12.631212234497070312 4.7974634170532226562 6.3734540939331054688 5.8188018798828125 6.8978362083435058594 7.6843886375427246094 2.9956221580505371094 0.32443749904632568359 6.6312375068664550781 7.8686203956604003906 7.6296677589416503906 7.7530450820922851562 10.926061630249023438 7.3341727256774902344 7.6487660408020019531 3.5141727924346923828 4.1186161041259765625 2.6620833873748779297 1.8423023223876953125 5.5277566909790039062 5.2911062240600585938 4.6742939949035644531 2.8735487461090087891 5.0261125564575195312 7.2317667007446289062 7.4907541275024414062 4.9560670852661132812 3.3033659458160400391 1.5535624027252197266 3.0969476699829101562 2.4970717430114746094 7.4508814811706542969 4.1857819557189941406 
0.015058999881148338318 0.015058999881148338318 0.015058999881148338318 0.015058999881148338318 0.015058999881148338318 0.015058999881148338318 0.015058999881148338318 0.015058999881148338318 0.015058999881148338318 0.015058999881148338318 0.015058999881148338318 0.015058999881148338318 0.015058999881148338318 0.015058999881148338318 0.015058999881148338318 0.015058999881148338318 0.015058999881148338318 0.015058999881148338318 0.26417681574821472168 2.4521429538726806641 6.0835361480712890625 3.4072513580322265625 4.4429268836975097656 4.4951128959655761719 2.5369358062744140625 5.3032736778259277344 5.1703729629516601562 5.4318037033081054688 3.7384715080261230469 6.5979199409484863281 3.9534888267517089844 3.0552072525024414062 0.52163285017013549805 0.015058999881148338318 0.015058999881148338318 0.015058999881148338318 0.015058999881148338318 0.015058999881148338318 0.015058999881148338318 0.015058999881148338318 0.015058999881148338318 0.015058999881148338318 0.2645053863525390625 1.1565084457397460938 3.8030598163604736328 5.1377482414245605469 5.9308400154113769531 5.8160195350646972656 6.7607064247131347656 6.9106583595275878906 7.471221923828125 11.004262924194335938 11.588104248046875 4.6208252906799316406 8.1903171539306640625 5.3016600608825683594 8.6843614578247070312 6.5135822296142578125 6.4212527275085449219 7.0567636489868164062 3.1392474174499511719 0.39880201220512390137 5.9899358749389648438 10.028851509094238281 8.3396425247192382812 6.9684648513793945312 5.3501334190368652344 7.1820311546325683594 6.2730326652526855469 3.0555589199066162109 3.4539787769317626953 4.554561614990234375 6.2264270782470703125 7.6442627906799316406 5.564731597900390625 7.8904452323913574219 4.3704481124877929688 4.1153011322021484375 4.7369742393493652344 8.281078338623046875 5.3652510643005371094 2.2193439006805419922 1.7074520587921142578 3.754146575927734375 0.76125979423522949219 3.2481286525726318359 3.48758697509765625 
0.015058999881148338318 0.015058999881148338318 0.015058999881148338318 0.015058999881148338318 0.015058999881148338318 0.015058999881148338318 0.015058999881148338318 0.015058999881148338318 0.015058999881148338318 0.015058999881148338318 0.015058999881148338318 0.015058999881148338318 0.015058999881148338318 0.015058999881148338318 0.015058999881148338318 0.015058999881148338318 0.015058999881148338318 0.015058999881148338318 0.67213338613510131836 6.1702704429626464844 6.7876100540161132812 3.2112073898315429688 4.8825540542602539062 5.765636444091796875 2.6969897747039794922 1.9289532899856567383 4.6763386726379394531 2.1465582847595214844 4.74456024169921875 5.0457224845886230469 3.3283939361572265625 1.5347172021865844727 0.015058999881148338318 0.015058999881148338318 0.015058999881148338318 0.015058999881148338318 0.015058999881148338318 0.015058999881148338318 0.015058999881148338318 0.015058999881148338318 0.045074060559272766113 0.52174144983291625977 3.4818942546844482422 5.1479096412658691406 6.3674230575561523438 5.3831982612609863281 6.4249372482299804688 6.5681595802307128906 5.2461714744567871094 5.0053172111511230469 7.8589596748352050781 9.6308507919311523438 6.6921916007995605469 4.8992166519165039062 6.6067857742309570312 4.5057697296142578125 8.6451692581176757812 11.56685638427734375 9.4120435714721679688 8.3421545028686523438 1.4846155643463134766 0.38647902011871337891 1.8007029294967651367 10.673790931701660156 9.786632537841796875 6.2165479660034179688 5.3142609596252441406 6.659839630126953125 5.34033966064453125 2.7804396152496337891 2.9650602340698242188 5.6530704498291015625 7.8521161079406738281 8.5213346481323242188 8.181926727294921875 8.2550716400146484375 3.5180578231811523438 3.0640876293182373047 4.37085723876953125 6.9038486480712890625 4.8908123970031738281 3.5787646770477294922 1.9330437183380126953 2.2414011955261230469 1.8647396564483642578 4.2369470596313476562 7.3315677642822265625 
0.015058999881148338318 0.015058999881148338318 0.015058999881148338318 0.015058999881148338318 0.015058999881148338318 0.015058999881148338318 0.015058999881148338318 0.015058999881148338318 0.015058999881148338318 0.015058999881148338318 0.015058999881148338318 0.015058999881148338318 0.015058999881148338318 0.015058999881148338318 0.015058999881148338318 0.015058999881148338318 0.015058999881148338318 0.015058999881148338318 1.4162575006484985352 5.4059700965881347656 5.7936205863952636719 2.9806363582611083984 2.5308539867401123047 2.8651304244995117188 2.1194944381713867188 1.711696624755859375 4.9123129844665527344 3.9415788650512695312 7.5227518081665039062 5.6338267326354980469 1.7606976032257080078 0.1533718109130859375 0.015058999881148338318 0.015058999881148338318 0.015058999881148338318 0.015058999881148338318 0.015058999881148338318 0.015058999881148338318 0.034851625561714172363 0.25298717617988586426 0.50280553102493286133 4.7851390838623046875 7.8111791610717773438 4.9250454902648925781 3.4511036872863769531 4.7240247726440429688 5.007854461669921875 10.099681854248046875 6.1567120552062988281 9.4258050918579101562 3.9121000766754150391 0.83667540550231933594 0.86549741029739379883 0.2682476341724395752 2.9802715778350830078 4.6278638839721679688 6.09445953369140625 10.856205940246582031 7.62709808349609375 2.5591604709625244141 1.5632649660110473633 2.5189383029937744141 5.7330064773559570312 5.7865266799926757812 9.5823841094970703125 7.654521942138671875 5.1899356842041015625 6.8372640609741210938 3.6766543388366699219 2.8636560440063476562 2.9316754341125488281 1.6972873210906982422 1.3621046543121337891 6.3833303451538085938 7.4323263168334960938 6.8366212844848632812 6.9352331161499023438 4.4599637985229492188 2.4470510482788085938 7.484661102294921875 4.2146296501159667969 1.3245395421981811523 0.90078526735305786133 1.5475792884826660156 4.2205061912536621094 5.5446214675903320312 6.772716522216796875 
0.015058999881148338318 0.015058999881148338318 0.015058999881148338318 0.015058999881148338318 0.015058999881148338318 0.015058999881148338318 0.015058999881148338318 0.015058999881148338318 0.015058999881148338318 0.015058999881148338318 0.015058999881148338318 0.015058999881148338318 0.015058999881148338318 0.015058999881148338318 0.015058999881148338318 0.015058999881148338318 0.015058999881148338318 0.13511924445629119873 1.7256528139114379883 3.3548686504364013672 3.8140177726745605469 3.4957158565521240234 3.1424174308776855469 0.34011951088905334473 0.42666393518447875977 0.57897889614105224609 1.9645061492919921875 2.6650748252868652344 6.5047330856323242188 3.1009285449981689453 0.52877080440521240234 0.015058999881148338318 0.015058999881148338318 0.015058999881148338318 0.015058999881148338318 0.10510418564081192017 0.086854062974452972412 0.47747653722763061523 1.1492668390274047852 2.4468331336975097656 3.1126294136047363281 2.3130133152008056641 4.2941193580627441406 0.82763046026229858398 2.8425917625427246094 3.2629141807556152344 2.7291777133941650391 4.8228445053100585938 6.8988542556762695312 6.1010909080505371094 3.8174886703491210938 0.32167106866836547852 0.015058999881148338318 0.015058999881148338318 0.95828020572662353516 1.7291777133941650391 9.173969268798828125 9.7332172393798828125 7.1129770278930664062 5.3905515670776367188 7.4086732864379882812 3.8395574092864990234 8.1260166168212890625 7.2015352249145507812 9.0879535675048828125 6.7909979820251464844 7.0870380401611328125 6.811473846435546875 4.4681720733642578125 2.6771168708801269531 3.4398076534271240234 1.6291894912719726562 3.0321073532104492188 7.0408425331115722656 8.0734767913818359375 6.3292279243469238281 2.8378138542175292969 4.2407789230346679688 9.02828216552734375 8.476348876953125 4.9413065910339355469 1.1856123208999633789 0.18867656588554382324 0.18220373988151550293 3.1870369911193847656 6.7536950111389160156 12.799966812133789062 
0.015058999881148338318 0.015058999881148338318 0.015058999881148338318 0.015058999881148338318 0.015058999881148338318 0.015058999881148338318 0.015058999881148338318 0.015058999881148338318 0.015058999881148338318 0.015058999881148338318 0.015058999881148338318 0.015058999881148338318 0.015058999881148338318 0.015058999881148338318 0.015058999881148338318 0.015058999881148338318 0.015058999881148338318 0.46385887265205383301 3.7702679634094238281 4.7332949638366699219 6.3874964714050292969 3.1091749668121337891 0.55416703224182128906 0.47682586312294006348 2.6355123519897460938 1.6727162599563598633 1.0754362344741821289 4.7790141105651855469 5.8757061958312988281 1.3892987966537475586 1.6013008356094360352 0.015058999881148338318 0.015058999881148338318 0.015058999881148338318 0.015058999881148338318 0.15764699876308441162 0.25196895003318786621 6.5996603965759277344 7.3264966011047363281 6.0810327529907226562 3.4026160240173339844 0.22176074981689453125 1.9405052661895751953 1.7869409322738647461 6.197757720947265625 0.015058999881148338318 0.015058999881148338318 1.3632388114929199219 4.5048060417175292969 2.2022063732147216797 3.0548098087310791016 0.015058999881148338318 0.015058999881148338318 0.015058999881148338318 1.8027831315994262695 6.5742373466491699219 10.061909675598144531 7.7267193794250488281 10.590989112854003906 3.5602743625640869141 3.9011969566345214844 7.6984286308288574219 6.5361495018005371094 10.416341781616210938 6.89626312255859375 7.3061122894287109375 6.2479887008666992188 6.08670806884765625 7.1612615585327148438 0.26328489184379577637 3.8046336174011230469 3.0625798702239990234 3.9386818408966064453 4.5543413162231445312 4.9682898521423339844 4.3060088157653808594 4.6464519500732421875 6.85311126708984375 8.176815032958984375 5.4333429336547851562 5.094867706298828125 3.3390548229217529297 0.76698076725006103516 1.0787655115127563477 3.9990925788879394531 6.5819082260131835938 3.3559055328369140625 
0.015058999881148338318 0.015058999881148338318 0.015058999881148338318 0.015058999881148338318 0.015058999881148338318 0.015058999881148338318 0.015058999881148338318 0.015058999881148338318 0.015058999881148338318 0.015058999881148338318 0.015058999881148338318 0.015058999881148338318 0.015058999881148338318 0.015058999881148338318 0.015058999881148338318 0.015058999881148338318 0.027150062844157218933 0.96065211296081542969 5.2749261856079101562 5.75003814697265625 6.7667212486267089844 3.0969574451446533203 1.6008914709091186523 1.6610517501831054688 2.3690054416656494141 2.3575267791748046875 4.0645442008972167969 3.5519430637359619141 5.0040683746337890625 7.6475825309753417969 2.0113394260406494141 0.045074060559272766113 0.045074060559272766113 0.015058999881148338318 0.22325849533081054688 0.37464573979377746582 2.8981318473815917969 7.3213176727294921875 5.3125333786010742188 3.8372426033020019531 5.3317055702209472656 0.40285420417785644531 0.39953312277793884277 1.8477815389633178711 3.3787443637847900391 0.015058999881148338318 0.015058999881148338318 0.043207876384258270264 2.0907151699066162109 2.0894215106964111328 1.4573779106140136719 1.9119147062301635742 1.3033111095428466797 0.26539444923400878906 1.0227115154266357422 6.8726034164428710938 8.9876508712768554688 6.2183032035827636719 5.9813742637634277344 4.0635614395141601562 6.6919226646423339844 7.0669331550598144531 9.7399873733520507812 10.168496131896972656 7.0642685890197753906 6.70963287353515625 9.5001897811889648438 7.2967104911804199219 5.7511272430419921875 1.1623550653457641602 0.34871000051498413086 0.72663974761962890625 4.6510357856750488281 2.6296963691711425781 3.5259993076324462891 3.2926051616668701172 3.4319558143615722656 4.0401797294616699219 8.3989162445068359375 4.7608513832092285156 3.7804212570190429688 1.324970245361328125 1.7145341634750366211 3.3448765277862548828 7.6569814682006835938 3.4423825740814208984 1.1828317642211914062 
0.015058999881148338318 0.015058999881148338318 0.015058999881148338318 0.015058999881148338318 0.015058999881148338318 0.015058999881148338318 0.015058999881148338318 0.015058999881148338318 0.015058999881148338318 0.015058999881148338318 0.015058999881148338318 0.015058999881148338318 0.015058999881148338318 0.015058999881148338318 0.015058999881148338318 0.015058999881148338318 0.06342325359582901001 3.5029613971710205078 4.474864959716796875 4.5523777008056640625 4.2153062820434570312 2.4893643856048583984 4.2313771247863769531 2.6693959236145019531 1.5064482688903808594 2.7251653671264648438 2.2084946632385253906 2.7147347927093505859 5.3498606681823730469 4.7602648735046386719 3.591091156005859375 0.82178348302841186523 0.31520962715148925781 0.34026473760604858398 3.9379420280456542969 1.3713947534561157227 6.0072264671325683594 6.2973775863647460938 4.7699823379516601562 0.72650390863418579102 2.9586462974548339844 0.20350818336009979248 0.041980311274528503418 1.1254260540008544922 0.74694222211837768555 0.045074060559272766113 1.6620311737060546875 0.096738003194332122803 2.9268715381622314453 3.4407117366790771484 2.8013098239898681641 2.4715294837951660156 3.2818677425384521484 1.0840907096862792969 1.0035523176193237305 4.375514984130859375 6.7282667160034179688 6.8036637306213378906 11.880000114440917969 6.2177219390869140625 10.2205047607421875 8.746509552001953125 9.5051031112670898438 6.6514763832092285156 6.5055766105651855469 5.41039276123046875 10.597440719604492188 9.8451995849609375 9.820404052734375 7.2521166801452636719 4.4792146682739257812 1.2867156267166137695 1.1806658506393432617 1.7375870943069458008 3.1607985496520996094 4.308887481689453125 4.5762276649475097656 5.6119470596313476562 8.64252471923828125 5.6663527488708496094 2.0695681571960449219 1.2102261781692504883 0.99300521612167358398 2.5120356082916259766 3.939151763916015625 1.665722966194152832 0.51908725500106811523 
0.015058999881148338318 0.015058999881148338318 0.015058999881148338318 0.015058999881148338318 0.015058999881148338318 0.015058999881148338318 0.015058999881148338318 0.015058999881148338318 0.015058999881148338318 0.015058999881148338318 0.015058999881148338318 0.015058999881148338318 0.015058999881148338318 0.015058999881148338318 0.015058999881148338318 0.015058999881148338318 1.296864628791809082 4.6759767532348632812 4.4518280029296875 4.2081785202026367188 2.5177989006042480469 2.9047887325286865234 4.9835877418518066406 3.0864608287811279297 1.5426114797592163086 3.1168813705444335938 6.7372083663940429688 8.14272308349609375 6.1240334510803222656 6.7467293739318847656 7.6399998664855957031 7.6399998664855957031 3.0795474052429199219 3.2401645183563232422 4.8042135238647460938 3.5432846546173095703 5.1225919723510742188 5.7512054443359375 5.3585357666015625 0.59881788492202758789 3.3675596714019775391 0.14099681377410888672 0.015058999881148338318 0.097050502896308898926 0.14966556429862976074 0.11530306190252304077 0.69796431064605712891 0.30118599534034729004 5.3063302040100097656 4.5537443161010742188 3.0442984104156494141 5.7826313972473144531 2.6826183795928955078 2.3563852310180664062 3.4666109085083007812 1.5289477109909057617 5.5579156875610351562 3.9681315422058105469 5.4040932655334472656 7.2427797317504882812 9.018764495849609375 5.7494421005249023438 5.5472936630249023438 5.8360424041748046875 6.7602910995483398438 7.4862608909606933594 8.3855037689208984375 8.1959438323974609375 7.5381746292114257812 4.9523215293884277344 2.7139763832092285156 2.6851313114166259766 3.4620954990386962891 1.9647173881530761719 1.844860076904296875 4.4396443367004394531 4.2711548805236816406 5.5580883026123046875 6.0608768463134765625 6.2728247642517089844 0.3473905026912689209 0.86663055419921875 1.7250542640686035156 3.0629892349243164062 2.2779607772827148438 2.6397736072540283203 1.5462577342987060547 
0.015058999881148338318 0.015058999881148338318 0.015058999881148338318 0.015058999881148338318 0.015058999881148338318 0.015058999881148338318 0.015058999881148338318 0.015058999881148338318 0.015058999881148338318 0.015058999881148338318 0.015058999881148338318 0.015058999881148338318 0.015058999881148338318 0.015058999881148338318 0.045074060559272766113 0.78979241847991943359 4.9435238838195800781 5.2885527610778808594 5.5487060546875 5.243007659912109375 4.0359067916870117188 3.1992399692535400391 3.3254866600036621094 2.397632598876953125 2.1406877040863037109 4.0385217666625976562 1.7613239288330078125 8.910064697265625 5.1841282844543457031 5.3526849746704101562 6.7407250404357910156 9.3065080642700195312 1.9442954063415527344 0.27149373292922973633 3.6003768444061279297 4.4176421165466308594 3.3900666236877441406 5.6557750701904296875 5.79239654541015625 3.3534200191497802734 4.3334164619445800781 0.17658688127994537354 0.041980311274528503418 0.40524345636367797852 0.015058999881148338318 0.075089126825332641602 0.50143194198608398438 1.8377727270126342773 2.5367989540100097656 2.5429313182830810547 1.5647368431091308594 5.1214609146118164062 5.5809998512268066406 3.3906924724578857422 4.1908192634582519531 7.0377054214477539062 7.4031229019165039062 6.8749551773071289062 3.8426833152770996094 11.780497550964355469 7.2796368598937988281 5.2223882675170898438 5.0991063117980957031 5.1321530342102050781 10.494217872619628906 5.3735775947570800781 5.793270111083984375 5.3604679107666015625 7.5838122367858886719 4.5357728004455566406 5.4219465255737304688 3.5401792526245117188 1.6388300657272338867 1.6682275533676147461 2.7088673114776611328 4.1786999702453613281 2.34685516357421875 2.8774559497833251953 3.1817224025726318359 2.1721680164337158203 0.58216834068298339844 0.2377948760986328125 1.5978448390960693359 2.3372402191162109375 2.5867981910705566406 2.1769902706146240234 1.9905686378479003906 
0.015058999881148338318 0.015058999881148338318 0.015058999881148338318 0.015058999881148338318 0.015058999881148338318 0.015058999881148338318 0.015058999881148338318 0.015058999881148338318 0.015058999881148338318 0.015058999881148338318 0.015058999881148338318 0.015058999881148338318 0.015058999881148338318 1.0582218170166015625 1.1724491119384765625 0.8328030705451965332 3.6318356990814208984 4.7117328643798828125 5.5028324127197265625 6.3463191986083984375 4.0466933250427246094 4.4110164642333984375 2.9849145412445068359 6.7576856613159179688 4.0635037422180175781 1.0636546611785888672 2.66809844970703125 6.1817369461059570312 6.4995617866516113281 6.7037281990051269531 0.39130625128746032715 6.4890141487121582031 5.2744951248168945312 1.5256494283676147461 5.3006539344787597656 5.2339024543762207031 3.0351839065551757812 3.9702379703521728516 4.9066624641418457031 5.0872926712036132812 3.6651964187622070312 6.0365757942199707031 6.3118529319763183594 1.4632266759872436523 1.7914381027221679688 4.1725893020629882812 1.8251221179962158203 2.1403934955596923828 3.4855220317840576172 2.9787869453430175781 2.9447603225708007812 3.3178665637969970703 3.6133210659027099609 1.7245481014251708984 1.1436120271682739258 3.3294370174407958984 3.589199066162109375 9.4436016082763671875 4.8609633445739746094 10.008153915405273438 7.7731909751892089844 6.7879052162170410156 4.5355887413024902344 2.7529406547546386719 7.3752288818359375 9.3840894699096679688 5.1065106391906738281 4.9469547271728515625 5.5711870193481445312 5.4771246910095214844 5.0126185417175292969 0.32506251335144042969 0.25643077492713928223 2.0460131168365478516 3.2004337310791015625 2.9699513912200927734 3.5910027027130126953 3.9312024116516113281 5.7605595588684082031 2.9899778366088867188 3.5109002590179443359 1.9937897920608520508 1.968432307243347168 3.8909902572631835938 1.8001520633697509766 2.8119649887084960938 0.34177500009536743164 
0.015058999881148338318 0.015058999881148338318 0.015058999881148338318 0.015058999881148338318 0.015058999881148338318 0.015058999881148338318 0.015058999881148338318 0.015058999881148338318 0.015058999881148338318 0.015058999881148338318 0.015058999881148338318 0.015058999881148338318 1.5047655105590820312 2.4688017368316650391 3.6227536201477050781 1.2160780429840087891 1.7920782566070556641 4.6652979850769042969 5.4534354209899902344 5.7934255599975585938 5.7799477577209472656 4.585845947265625 3.9227817058563232422 3.684772491455078125 7.6857991218566894531 5.1493024826049804688 3.0034899711608886719 7.1972222328186035156 6.0687928199768066406 8.3182287216186523438 2.6966419219970703125 7.5334229469299316406 3.2832834720611572266 4.1075029373168945312 2.8945095539093017578 3.3499820232391357422 7.0212931632995605469 3.0925354957580566406 1.468152165412902832 1.9739801883697509766 2.3476154804229736328 2.660282135009765625 1.824382781982421875 2.2949662208557128906 3.0551686286926269531 2.7216942310333251953 2.0057673454284667969 1.1814696788787841797 3.3151221275329589844 2.3331878185272216797 2.5829856395721435547 4.0286502838134765625 3.9353470802307128906 2.6809287071228027344 4.0870676040649414062 3.8516988754272460938 3.6257081031799316406 6.5779118537902832031 6.4456830024719238281 12.213190078735351562 9.6201381683349609375 9.5911540985107421875 5.55980682373046875 4.0793924331665039062 4.3660821914672851562 5.7522587776184082031 5.0350642204284667969 4.3757333755493164062 3.4200913906097412109 2.7690370082855224609 3.7233855724334716797 4.4374952316284179688 2.6878530979156494141 2.8852705955505371094 2.7366876602172851562 1.3469834327697753906 4.3669528961181640625 6.6633191108703613281 6.13266754150390625 4.2701230049133300781 3.2949981689453125 4.1313772201538085938 1.0885683298110961914 4.3889689445495605469 2.7939515113830566406 2.9407651424407958984 0.44580000638961791992 
0.015058999881148338318 0.015058999881148338318 0.015058999881148338318 0.015058999881148338318 0.015058999881148338318 0.21285867691040039062 1.6975866556167602539 4.2376852035522460938 1.3272491693496704102 0.045074060559272766113 0.015058999881148338318 0.075089126825332641602 5.3293271064758300781 4.8220758438110351562 5.6198573112487792969 4.3974428176879882812 4.5646839141845703125 5.0508432388305664062 5.614482879638671875 5.261775970458984375 6.1779603958129882812 2.9592463970184326172 3.4594984054565429688 7.0234003067016601562 6.5305800437927246094 1.3320244550704956055 5.2207341194152832031 2.6365134716033935547 4.8485441207885742188 9.924816131591796875 5.9618306159973144531 9.0458240509033203125 6.4887928962707519531 7.2157158851623535156 6.8640036582946777344 5.2382555007934570312 6.3663468360900878906 5.9299449920654296875 5.0428638458251953125 3.6791405677795410156 3.5112679004669189453 2.4744901657104492188 2.4988884925842285156 3.7468693256378173828 2.7179934978485107422 1.1133223772048950195 1.0795549154281616211 1.3905243873596191406 2.5158383846282958984 2.5270714759826660156 2.34925079345703125 4.8620314598083496094 6.0141048431396484375 2.7027709484100341797 5.1569013595581054688 4.8073096275329589844 6.6806325912475585938 5.76743316650390625 8.0107097625732421875 10.439934730529785156 8.30825042724609375 7.2345871925354003906 2.7219433784484863281 5.9373598098754882812 4.2512178421020507812 2.9950270652770996094 1.2696956396102905273 1.756893157958984375 0.96908628940582275391 2.2330219745635986328 1.7273585796356201172 2.6901907920837402344 2.0755419731140136719 3.2636811733245849609 3.4789061546325683594 1.0370097160339355469 2.7765586376190185547 5.5302882194519042969 6.0328783988952636719 4.7879853248596191406 3.2831521034240722656 5.4195227622985839844 1.2106575965881347656 2.9705398082733154297 3.3902013301849365234 4.2820329666137695312 0.44580000638961791992 
0.015058999881148338318 0.015058999881148338318 0.015058999881148338318 0.057165123522281646729 1.2633135318756103516 3.0705287456512451172 2.6183845996856689453 8.592067718505859375 7.6170964241027832031 0.70285993814468383789 0.10510418564081192017 2.0713694095611572266 2.5667026042938232422 5.0579919815063476562 6.2908411026000976562 5.8021388053894042969 5.3761200904846191406 6.4879403114318847656 5.0051050186157226562 4.9736914634704589844 3.1522891521453857422 2.5660452842712402344 1.796794891357421875 4.9909877777099609375 3.2037749290466308594 1.8140102624893188477 5.0416440963745117188 6.6585726737976074219 10.647059440612792969 8.3036346435546875 9.141635894775390625 4.4430360794067382812 6.7768735885620117188 2.644161224365234375 1.9889358282089233398 4.7303318977355957031 7.1147341728210449219 5.7314500808715820312 3.7538003921508789062 4.4187130928039550781 4.41071319580078125 2.5846464633941650391 3.0274791717529296875 2.3812191486358642578 2.8775415420532226562 0.52575564384460449219 1.7628821134567260742 2.9758849143981933594 2.0956215858459472656 2.5348942279815673828 3.5674433708190917969 3.9947056770324707031 5.3310179710388183594 3.9375352859497070312 5.3340692520141601562 7.0080022811889648438 6.5236310958862304688 9.3687200546264648438 8.7120294570922851562 10.502177238464355469 8.0936946868896484375 4.5771584510803222656 5.1020493507385253906 1.621804356575012207 7.6282806396484375 4.514179229736328125 3.560550689697265625 4.6161146163940429688 3.647846221923828125 4.0043244361877441406 3.1202075481414794922 2.9070725440979003906 5.6598958969116210938 8.34670257568359375 2.1502778530120849609 1.4615242481231689453 6.7110643386840820312 6.0773472785949707031 6.5374751091003417969 3.8500337600708007812 3.5310726165771484375 2.6849868297576904297 2.8925712108612060547 3.2851216793060302734 3.1787950992584228516 3.55728912353515625 0.44580000638961791992 
0.075089126825332641602 0.4161898195743560791 1.5196889638900756836 3.1789290904998779297 3.9250421524047851562 1.8157534599304199219 3.4169383049011230469 3.990100860595703125 2.0706043243408203125 2.7867286205291748047 3.0786843299865722656 4.5141935348510742188 0.26228800415992736816 3.7953481674194335938 4.9340505599975585938 5.4863805770874023438 5.592472076416015625 3.8808121681213378906 2.1971583366394042969 3.0347774028778076172 1.2535564899444580078 4.0044507980346679688 1.419315338134765625 1.3529005050659179688 1.5623012781143188477 1.4711363315582275391 4.9698362350463867188 7.4065880775451660156 11.973860740661621094 9.2754068374633789062 6.8059253692626953125 3.9572837352752685547 4.3271975517272949219 3.5565412044525146484 3.7492380142211914062 5.8917474746704101562 1.1990033388137817383 5.7106451988220214844 1.1483014822006225586 2.1534383296966552734 1.2148369550704956055 3.4552319049835205078 2.28694915771484375 2.891017913818359375 3.6448700428009033203 0.53870409727096557617 3.6793587207794189453 4.2325129508972167969 3.0236442089080810547 3.4200999736785888672 3.8933560848236083984 5.25566864013671875 3.7619309425354003906 4.7141437530517578125 4.6686434745788574219 4.042499542236328125 6.4015092849731445312 2.9743592739105224609 6.1059155464172363281 11.020461082458496094 5.1097402572631835938 5.3387904167175292969 4.3369011878967285156 2.1832439899444580078 2.1963551044464111328 2.4926559925079345703 2.0257008075714111328 3.4617290496826171875 3.3768854141235351562 3.5993268489837646484 2.3570935726165771484 2.5227899551391601562 2.8178837299346923828 2.9823839664459228516 2.2313401699066162109 1.5112092494964599609 7.6399998664855957031 5.508697509765625 5.2539129257202148438 5.8646392822265625 4.2240891456604003906 1.1113005876541137695 2.7352802753448486328 1.4301551580429077148 2.5981886386871337891 1.6980016231536865234 0.38647902011871337891 
4.190704345703125 4.7602214813232421875 7.3995976448059082031 8.4492692947387695312 2.1583242416381835938 2.9559144973754882812 1.9974229335784912109 4.3476567268371582031 3.2089846134185791016 8.964885711669921875 1.558962702751159668 6.3003687858581542969 2.0440912246704101562 3.9652895927429199219 3.2662363052368164062 3.3940181732177734375 2.1308612823486328125 2.0189008712768554688 2.5910799503326416016 4.0811991691589355469 0.64028012752532958984 1.6075201034545898438 0.27340817451477050781 2.2038397789001464844 2.0799605846405029297 2.7591433525085449219 5.42632293701171875 5.9248471260070800781 10.502958297729492188 2.9539306163787841797 4.1643505096435546875 2.9463317394256591797 5.5009102821350097656 4.3412418365478515625 4.6434502601623535156 4.1561141014099121094 4.7955698966979980469 5.8482265472412109375 1.6739982366561889648 1.4262698888778686523 1.1443938016891479492 3.0992252826690673828 2.0887219905853271484 2.2057592868804931641 3.3657419681549072266 3.4750072956085205078 2.1658887863159179688 2.0549700260162353516 3.8238592147827148438 1.6227247714996337891 1.4770056009292602539 3.3569321632385253906 3.6080229282379150391 4.9819889068603515625 8.4624080657958984375 4.4722433090209960938 6.5624623298645019531 7.5106949806213378906 9.2873239517211914062 12.178866386413574219 4.9858336448669433594 4.4700350761413574219 3.3118879795074462891 3.5310397148132324219 3.5844185352325439453 5.1761527061462402344 3.5912411212921142578 2.3519356250762939453 4.9222459793090820312 2.4541723728179931641 3.8795139789581298828 2.4724683761596679688 4.1712040901184082031 2.6315605640411376953 1.886791229248046875 1.3511488437652587891 7.6399998664855957031 6.967334747314453125 5.1023287773132324219 5.5489649772644042969 3.6150364875793457031 1.3953025341033935547 0.44422358274459838867 0.20836250483989715576 0.72832340002059936523 2.0430228710174560547 0.86185050010681152344 
4.6301054954528808594 3.9744803905487060547 3.0336298942565917969 5.078582763671875 1.7755975723266601562 1.9546080827713012695 2.9616110324859619141 4.4852151870727539062 3.6936376094818115234 6.7125201225280761719 0.16513431072235107422 2.1134755611419677734 2.2747349739074707031 2.0051593780517578125 1.7516463994979858398 0.47223168611526489258 0.35133969783782958984 0.20851600170135498047 1.6277663707733154297 2.8563961982727050781 1.0722259283065795898 5.4195456504821777344 3.4104163646697998047 1.893887639045715332 1.1813147068023681641 4.4121403694152832031 4.2492527961730957031 6.5557508468627929688 8.6688699722290039062 6.0985136032104492188 5.487636566162109375 2.4247348308563232422 6.8267345428466796875 5.0730214118957519531 4.6055598258972167969 0.67033445835113525391 0.44824999570846557617 0.42813125252723693848 0.93798398971557617188 2.8310248851776123047 0.21370449662208557129 4.6719222068786621094 1.9420915842056274414 2.7757177352905273438 3.7628428936004638672 4.8806257247924804688 0.30395555496215820312 5.1705336570739746094 5.8840131759643554688 2.6629326343536376953 3.3076710700988769531 2.4967792034149169922 2.9314038753509521484 8.3837156295776367188 5.2528462409973144531 4.1632590293884277344 6.3777627944946289062 10.503320693969726562 10.272927284240722656 9.970058441162109375 7.8221535682678222656 3.877285003662109375 3.2309427261352539062 3.3032336235046386719 3.0093631744384765625 3.5692837238311767578 1.5812594890594482422 4.7682108879089355469 5.1261105537414550781 2.8742208480834960938 2.4679555892944335938 3.4453206062316894531 5.2053747177124023438 4.9483342170715332031 1.2338635921478271484 3.2690072059631347656 4.3691110610961914062 3.6848809719085693359 3.7327773571014404297 4.5882077217102050781 2.6564536094665527344 0.82069236040115356445 0.15139375627040863037 0.25076875090599060059 1.2642503976821899414 1.2273918390274047852 1.2752219438552856445 
3.4468441009521484375 2.7997739315032958984 2.1182539463043212891 3.4319310188293457031 3.4889435768127441406 2.4696073532104492188 4.5301108360290527344 3.9159200191497802734 5.7800140380859375 4.8546018600463867188 1.7448860406875610352 0.26193344593048095703 2.0298919677734375 2.0755660533905029297 2.0899379253387451172 0.96271032094955444336 0.52952104806900024414 0.20851600170135498047 2.5673305988311767578 6.7739729881286621094 4.6198935508728027344 5.489887237548828125 4.6115889549255371094 2.5036931037902832031 2.5456151962280273438 2.88500213623046875 5.9960312843322753906 6.793926239013671875 7.2527008056640625 5.6854610443115234375 5.01064300537109375 3.8313114643096923828 5.4770689010620117188 9.1924190521240234375 2.5841004848480224609 2.8341476917266845703 0.3981062471866607666 0.31391251087188720703 2.6597142219543457031 5.9370365142822265625 2.6249067783355712891 4.9608530998229980469 3.0330929756164550781 2.1528925895690917969 3.3126552104949951172 1.2229249477386474609 0.80544424057006835938 6.6099748611450195312 2.6924531459808349609 2.5455477237701416016 1.1636512279510498047 2.3474209308624267578 2.4704082012176513672 4.3149261474609375 3.3063759803771972656 6.1937589645385742188 5.8085832595825195312 12.115532875061035156 8.8398694992065429688 8.8321781158447265625 6.3259434700012207031 2.3035309314727783203 1.7677649259567260742 1.9347784519195556641 4.4638957977294921875 3.3686275482177734375 2.9455151557922363281 4.6871972084045410156 6.3689165115356445312 3.0397303104400634766 0.015058999881148338318 0.015058999881148338318 3.5722396373748779297 6.2818899154663085938 3.5543277263641357422 3.5356316566467285156 3.6029355525970458984 1.8406686782836914062 2.0637085437774658203 3.2540225982666015625 1.7853147983551025391 0.48514285683631896973 0.10431875288486480713 0.42071875929832458496 0.42846250534057617188 0.97995585203170776367 1.2161262035369873047 
2.1618130207061767578 2.0352110862731933594 3.8281660079956054688 2.4092164039611816406 2.4546880722045898438 2.2174298763275146484 3.8186976909637451172 6.5829515457153320312 8.3613519668579101562 7.1934561729431152344 1.9288616180419921875 3.9994711875915527344 6.0228562355041503906 2.2377810478210449219 1.4372562170028686523 0.31551769375801086426 0.46041855216026306152 0.37173289060592651367 3.0751461982727050781 5.590606689453125 6.0435838699340820312 4.9355859756469726562 0.91513586044311523438 1.3501032590866088867 4.1193337440490722656 3.9387044906616210938 8.1968965530395507812 8.2857341766357421875 11.160404205322265625 3.3630900382995605469 2.5708205699920654297 4.9158697128295898438 5.3002820014953613281 8.5946168899536132812 4.1616840362548828125 2.5781016349792480469 0.80128759145736694336 2.6153018474578857422 4.5247578620910644531 3.3422942161560058594 0.61035186052322387695 1.8987889289855957031 2.8772494792938232422 3.6415798664093017578 3.0717537403106689453 1.7146472930908203125 0.46372312307357788086 1.7606714963912963867 1.6264598369598388672 0.9129543304443359375 1.3457288742065429688 1.2510416507720947266 2.0401973724365234375 3.7327759265899658203 3.2274272441864013672 5.1299872398376464844 3.6755123138427734375 12.003186225891113281 6.9000062942504882812 9.6714019775390625 10.055833816528320312 5.1466898918151855469 2.7322602272033691406 1.6202592849731445312 3.0170240402221679688 7.2410421371459960938 3.6949782371520996094 4.8966698646545410156 4.6962370872497558594 4.4343557357788085938 0.63486701250076293945 1.0812369585037231445 3.47554779052734375 4.2547268867492675781 3.8054449558258056641 6.9854645729064941406 1.6494519710540771484 1.4322210550308227539 6.0786671638488769531 2.2677743434906005859 1.8519957065582275391 2.4853291511535644531 3.0399293899536132812 2.5792434215545654297 1.6769030094146728516 4.5912079811096191406 5.0449466705322265625 
3.3902292251586914062 6.002513885498046875 6.5818810462951660156 4.2057442665100097656 3.1232812404632568359 2.9190402030944824219 4.0937457084655761719 7.5209531784057617188 8.4274969100952148438 6.5267686843872070312 3.2352907657623291016 3.7171754837036132812 4.7402906417846679688 0.67656713724136352539 2.7784008979797363281 0.46041855216026306152 1.0002281665802001953 1.1655392646789550781 2.0022947788238525391 4.4566354751586914062 4.1715526580810546875 4.8007407188415527344 2.4362630844116210938 1.7497850656509399414 2.2960696220397949219 4.7039785385131835938 6.0207285881042480469 7.4460978507995605469 9.660919189453125 4.1794066429138183594 1.4851346015930175781 6.1310405731201171875 3.9967331886291503906 3.3260419368743896484 4.7032980918884277344 4.8687167167663574219 4.800914764404296875 4.3049678802490234375 4.3738303184509277344 3.9698691368103027344 2.3075096607208251953 3.0742321014404296875 2.3131866455078125 2.1334860324859619141 3.8524010181427001953 5.5615186691284179688 2.3352434635162353516 1.6030514240264892578 1.1777319908142089844 2.2740123271942138672 1.7784066200256347656 0.96298164129257202148 2.8677041530609130859 2.2233791351318359375 2.6751396656036376953 5.5764031410217285156 5.3467121124267578125 8.4740238189697265625 8.6491003036499023438 9.6637401580810546875 6.4564175605773925781 4.7958621978759765625 4.734466552734375 4.3835597038269042969 3.6180462837219238281 4.5737514495849609375 4.7697167396545410156 5.0123262405395507812 4.9003138542175292969 4.738254547119140625 1.4121431112289428711 1.6868890523910522461 4.1383266448974609375 4.2371239662170410156 3.9735102653503417969 3.647308349609375 3.6603333950042724609 5.7618494033813476562 4.2514739036560058594 2.1017000675201416016 2.1864135265350341797 2.6843502521514892578 2.9589495658874511719 2.8753831386566162109 2.5005877017974853516 4.7434563636779785156 3.1872057914733886719 
3.3715140819549560547 1.5821328163146972656 4.7829251289367675781 2.4971821308135986328 4.5402064323425292969 3.5819296836853027344 5.3441681861877441406 5.841449737548828125 4.7608613967895507812 2.5465390682220458984 3.5523540973663330078 6.2981500625610351562 1.6673870086669921875 2.0159499645233154297 4.2928395271301269531 0.20851600170135498047 2.7001209259033203125 4.5857934951782226562 4.2798132896423339844 1.1374515295028686523 3.7314124107360839844 3.6249463558197021484 4.1477694511413574219 2.7512745857238769531 5.4276604652404785156 7.048641204833984375 9.5188512802124023438 7.5761580467224121094 5.9741163253784179688 3.5541660785675048828 4.1397190093994140625 7.8068866729736328125 7.4736070632934570312 5.3708133697509765625 3.8296084403991699219 8.2822999954223632812 6.1659679412841796875 8.973560333251953125 7.5820250511169433594 7.1570897102355957031 5.7865052223205566406 3.9546792507171630859 4.1333823204040527344 4.0467200279235839844 4.27819061279296875 8.8681621551513671875 3.2906432151794433594 2.8043358325958251953 3.5362985134124755859 3.12676239013671875 1.4306541681289672852 1.9765198230743408203 2.3028225898742675781 3.0540461540222167969 3.6454164981842041016 6.0038690567016601562 5.9554429054260253906 9.6719532012939453125 9.725238800048828125 9.2930755615234375 5.7873096466064453125 5.1715435981750488281 4.8842973709106445312 4.9390864372253417969 2.0380461215972900391 1.4922406673431396484 3.5978293418884277344 3.7049052715301513672 4.0353937149047851562 4.735263824462890625 1.2415072917938232422 0.9262682795524597168 3.5162446498870849609 3.5451929569244384766 4.1782670021057128906 2.3028366565704345703 4.8524112701416015625 4.8927035331726074219 0.51055121421813964844 0.20851600170135498047 0.20851600170135498047 2.3646364212036132812 1.8505463600158691406 3.0301358699798583984 2.2097229957580566406 4.8491449356079101562 1.1088361740112304688 
3.3567104339599609375 3.4332089424133300781 1.789714813232421875 7.7980508804321289062 7.79723358154296875 7.3383135795593261719 10.825536727905273438 10.302018165588378906 7.5350213050842285156 6.3307847976684570312 6.0574893951416015625 4.5323681831359863281 1.5206844806671142578 3.4912550449371337891 2.2634022235870361328 0.20851600170135498047 4.5749726295471191406 5.715465545654296875 2.4719281196594238281 4.4774441719055175781 4.1425914764404296875 3.5204298496246337891 3.5603272914886474609 3.4697382450103759766 5.6034502983093261719 3.5821938514709472656 5.3104724884033203125 4.5786404609680175781 6.9565362930297851562 2.0920732021331787109 5.5137491226196289062 5.7004542350769042969 8.3928289413452148438 4.1177277565002441406 4.6066632270812988281 3.9238524436950683594 4.1772704124450683594 7.2208724021911621094 5.8560876846313476562 7.3141527175903320312 10.879155158996582031 3.9887995719909667969 2.9119505882263183594 5.8581862449645996094 4.47911834716796875 7.748020172119140625 7.6522016525268554688 3.6979603767395019531 1.6450593471527099609 1.1506720781326293945 1.8438338041305541992 3.0239298343658447266 0.699108123779296875 2.7168431282043457031 5.6316523551940917969 5.8700003623962402344 8.8864717483520507812 10.686734199523925781 8.5888490676879882812 10.697418212890625 6.7950763702392578125 5.1299047470092773438 3.8463916778564453125 4.0852589607238769531 2.8654849529266357422 2.3133089542388916016 3.4995009899139404297 3.9323990345001220703 4.0615906715393066406 4.4981713294982910156 1.9201495647430419922 0.76307070255279541016 3.2288012504577636719 3.4498698711395263672 2.4807312488555908203 4.9111270904541015625 3.0554404258728027344 4.5126948356628417969 5.8171167373657226562 0.20851600170135498047 0.20851600170135498047 0.92460364103317260742 0.62125277519226074219 1.71685028076171875 1.3462647199630737305 3.5559439659118652344 2.8093388080596923828 
2.9475939273834228516 2.2889292240142822266 0.63763886690139770508 5.6137175559997558594 11.143924713134765625 8.152843475341796875 8.5768365859985351562 6.2269639968872070312 4.2823266983032226562 5.8957929611206054688 5.6856789588928222656 3.8229653835296630859 3.143779754638671875 2.1523954868316650391 2.5679864883422851562 2.6956250667572021484 4.20175933837890625 6.2170433998107910156 5.1500611305236816406 2.2534894943237304688 4.30899810791015625 2.6038074493408203125 7.7680139541625976562 6.5892663002014160156 2.7741067409515380859 3.9223377704620361328 3.9725375175476074219 3.1857624053955078125 5.2470941543579101562 2.1321954727172851562 5.1942081451416015625 4.7742757797241210938 10.179970741271972656 8.5448789596557617188 5.0436239242553710938 6.96643829345703125 11.572857856750488281 9.2282209396362304688 6.0574002265930175781 2.4333713054656982422 3.3378207683563232422 3.4662444591522216797 3.6897070407867431641 4.9256682395935058594 5.2711453437805175781 6.3763685226440429688 3.3825597763061523438 5.1642560958862304688 2.9201896190643310547 1.0539996623992919922 1.9268671274185180664 2.4334244728088378906 4.6241040229797363281 3.4609820842742919922 4.5703096389770507812 5.30883026123046875 6.5720367431640625 11.256087303161621094 9.51297760009765625 8.971714019775390625 5.1388545036315917969 5.0386648178100585938 4.5199184417724609375 3.9603760242462158203 4.4953904151916503906 2.5223815441131591797 2.5362770557403564453 3.9619343280792236328 4.1230144500732421875 3.7018537521362304688 5.223270416259765625 0.73930335044860839844 0.98209333419799804688 0.9645099639892578125 1.6967102289199829102 4.2086167335510253906 1.6382277011871337891 0.89413130283355712891 3.2394585609436035156 1.1280983686447143555 0.56742024421691894531 1.269808650016784668 1.656589508056640625 1.8593761920928955078 3.7060842514038085938 4.9749741554260253906 2.2476780414581298828 
2.8737673759460449219 3.6769993305206298828 2.9258654117584228516 7.1906266212463378906 10.521350860595703125 8.1129522323608398438 8.9423007965087890625 2.9300143718719482422 1.8134229183197021484 5.7301025390625 5.1703085899353027344 4.0690722465515136719 3.6511538028717041016 3.0253579616546630859 2.9002563953399658203 3.7258784770965576172 3.4857695102691650391 3.8415174484252929688 2.3180804252624511719 0.57854950428009033203 1.7316105365753173828 5.0058312416076660156 6.763179779052734375 3.8032650947570800781 3.0851531028747558594 4.0502114295959472656 4.5052113533020019531 5.1631870269775390625 6.9158291816711425781 1.7943695783615112305 2.6985170841217041016 2.2936799526214599609 2.4295434951782226562 6.0760264396667480469 3.2057588100433349609 5.3261623382568359375 7.90174102783203125 8.2607583999633789062 3.4007952213287353516 4.360713958740234375 4.5360798835754394531 4.0834026336669921875 2.8743848800659179688 3.4163951873779296875 1.9758830070495605469 4.5389156341552734375 2.9686143398284912109 3.2592155933380126953 4.5651617050170898438 2.8780601024627685547 3.3456759452819824219 2.2019329071044921875 1.9082661867141723633 3.2865769863128662109 6.8862290382385253906 7.0586962699890136719 7.4732789993286132812 10.536935806274414062 6.4137525558471679688 11.137973785400390625 9.5780038833618164062 4.7144069671630859375 4.1678433418273925781 4.7174558639526367188 3.6090373992919921875 1.5218331813812255859 3.9383060932159423828 4.4443101882934570312 4.5790009498596191406 2.4465689659118652344 3.3532118797302246094 0.015058999881148338318 0.015058999881148338318 2.0927495956420898438 7.3670754432678222656 1.5460926294326782227 0.8457381129264831543 0.4730396270751953125 1.7403557300567626953 1.9569516181945800781 1.8385281562805175781 2.2245793342590332031 2.7826189994812011719 4.3235406875610351562 4.8106622695922851562 0.68400973081588745117 1.8071889877319335938 
1.3622385263442993164 3.0324485301971435547 4.1189022064208984375 6.9404268264770507812 10.850393295288085938 9.1369504928588867188 8.3587770462036132812 2.0624113082885742188 3.8584542274475097656 5.3056769371032714844 3.7833461761474609375 3.0930151939392089844 4.5920095443725585938 4.1389827728271484375 2.2935268878936767578 2.7605981826782226562 2.6252036094665527344 1.5245140790939331055 1.142619013786315918 0.20851600170135498047 0.20851600170135498047 5.206005096435546875 8.0913982391357421875 4.7645287513732910156 5.0283417701721191406 4.7498655319213867188 5.4036355018615722656 5.8347806930541992188 6.8622961044311523438 2.4681787490844726562 3.5749650001525878906 2.2309231758117675781 2.6364424228668212891 8.62834930419921875 5.1581959724426269531 4.0413732528686523438 6.6233267784118652344 7.9258017539978027344 4.1758222579956054688 5.1306691169738769531 7.7339510917663574219 6.9409899711608886719 4.9717617034912109375 6.3578996658325195312 5.4220476150512695312 7.6889781951904296875 5.5761570930480957031 0.41234999895095825195 5.5991230010986328125 5.4401993751525878906 5.9352159500122070312 1.931532740592956543 3.5283360481262207031 4.8861536979675292969 4.1620717048645019531 6.1749043464660644531 6.5922999382019042969 8.5460033416748046875 6.4262862205505371094 8.8431644439697265625 7.2475466728210449219 3.0267181396484375 1.6761139631271362305 3.8004467487335205078 4.0812892913818359375 1.9944243431091308594 3.8471295833587646484 4.3838853836059570312 2.5535075664520263672 1.3552615642547607422 4.3466410636901855469 1.1030944585800170898 2.1503553390502929688 6.3829684257507324219 3.7185678482055664062 4.8255238533020019531 2.5300083160400390625 1.3363095521926879883 3.4235997200012207031 2.0827660560607910156 3.6321961879730224609 2.44564056396484375 3.5897016525268554688 5.2872209548950195312 5.2872209548950195312 2.1432957649230957031 3.7854759693145751953 
1.7686809301376342773 3.0999538898468017578 7.1462960243225097656 10.483858108520507812 8.4514760971069335938 10.370659828186035156 3.9529314041137695312 2.0943427085876464844 4.6532797813415527344 5.2087869644165039062 4.5876836776733398438 3.8059873580932617188 3.9627616405487060547 3.7461824417114257812 2.5887148380279541016 1.7055020332336425781 1.1423553228378295898 0.91368210315704345703 0.37173289060592651367 0.20851600170135498047 1.4905779361724853516 4.0851535797119140625 6.0401220321655273438 4.95325469970703125 5.3873238563537597656 6.3140702247619628906 6.9951930046081542969 7.9327630996704101562 0.38139376044273376465 2.6498253345489501953 4.6909341812133789062 4.0310111045837402344 2.5941472053527832031 5.4922628402709960938 4.6484627723693847656 4.4086518287658691406 4.1594758033752441406 4.1916003227233886719 5.1524267196655273438 6.7553572654724121094 4.4030065536499023438 6.6581201553344726562 5.9462552070617675781 4.1920108795166015625 4.7374324798583984375 8.48424530029296875 5.6337790489196777344 0.39501249790191650391 7.7227449417114257812 4.5408167839050292969 1.9821674823760986328 0.92142450809478759766 3.7296664714813232422 3.6279206275939941406 4.2354054450988769531 7.4990620613098144531 6.7694983482360839844 6.31053924560546875 11.429914474487304688 8.0602750778198242188 7.1183643341064453125 1.5953798294067382812 3.1397478580474853516 1.7497723102569580078 2.2474238872528076172 2.9327921867370605469 4.093891143798828125 3.0561993122100830078 3.9115827083587646484 0.63708227872848510742 3.3171610832214355469 3.0302743911743164062 4.2970442771911621094 5.0691728591918945312 2.64263153076171875 4.0628271102905273438 2.3057465553283691406 0.70694768428802490234 3.2821419239044189453 2.2486994266510009766 3.2589323520660400391 2.6753523349761962891 4.9335179328918457031 7.1634411811828613281 2.9465329647064208984 4.0748457908630371094 7.6850810050964355469 
2.3581082820892333984 7.1307191848754882812 9.0001497268676757812 7.0132145881652832031 5.9248356819152832031 9.3305959701538085938 6.6426711082458496094 1.9123440980911254883 3.6069123744964599609 3.471927642822265625 2.9419999122619628906 2.3928470611572265625 2.7653574943542480469 2.2354297637939453125 2.3021857738494873047 2.9652829170227050781 0.96573370695114135742 0.20851600170135498047 0.20851600170135498047 0.31528225541114807129 1.9294217824935913086 3.2661681175231933594 5.0455079078674316406 5.2797398567199707031 6.6680388450622558594 9.7381849288940429688 8.4785795211791992188 9.97368621826171875 5.4989123344421386719 3.0699861049652099609 5.1025319099426269531 5.1631436347961425781 4.8839068412780761719 6.739727020263671875 5.8972649574279785156 7.210010528564453125 5.7030963897705078125 4.6708478927612304688 6.2691102027893066406 4.8726191520690917969 6.7977924346923828125 6.4568347930908203125 5.0854444503784179688 3.9934973716735839844 4.03459930419921875 7.8438286781311035156 1.7334004640579223633 5.3847708702087402344 5.9875416755676269531 1.9787582159042358398 2.1641485691070556641 2.8070623874664306641 5.3446097373962402344 6.374881744384765625 5.2532281875610351562 5.7186875343322753906 7.198764801025390625 9.9964389801025390625 8.5861635208129882812 9.8291215896606445312 8.1592798233032226562 5.7111663818359375 3.7272248268127441406 2.8544480800628662109 2.4217500686645507812 2.9920089244842529297 3.3233296871185302734 2.4738869667053222656 2.0339086055755615234 0.62930506467819213867 2.3723318576812744141 2.2737915515899658203 4.420169830322265625 3.8926024436950683594 5.9335961341857910156 2.9131407737731933594 0.92481863498687744141 1.6633481979370117188 1.2648164033889770508 2.3577902317047119141 2.6962513923645019531 4.5125665664672851562 5.4457235336303710938 3.8275294303894042969 4.3824677467346191406 5.4362282752990722656 7.6850810050964355469 
4.3931331634521484375 10.237870216369628906 9.9058017730712890625 5.0157542228698730469 7.3200545310974121094 8.280292510986328125 7.5061469078063964844 1.9600403308868408203 3.7817568778991699219 4.1586294174194335938 4.0998892784118652344 3.7290866374969482422 2.2354297637939453125 2.902484893798828125 1.831055760383605957 0.46041855216026306152 1.732392430305480957 0.77423685789108276367 0.43917679786682128906 4.1346645355224609375 4.4070768356323242188 4.572330474853515625 4.4043116569519042969 7.2744221687316894531 5.6181015968322753906 9.3241596221923828125 3.1055543422698974609 7.6375908851623535156 4.1212759017944335938 3.4793350696563720703 2.7564623355865478516 3.4685099124908447266 6.4614434242248535156 1.4516023397445678711 4.7998871803283691406 3.8692464828491210938 1.9309754371643066406 4.7727861404418945312 6.5758309364318847656 4.2379665374755859375 5.5009098052978515625 6.407741546630859375 3.8661153316497802734 3.3234844207763671875 4.2735114097595214844 4.3405556678771972656 2.5505051612854003906 7.4326868057250976562 0.015058999881148338318 0.015058999881148338318 0.44241866469383239746 1.909191131591796875 2.9346706867218017578 2.83261871337890625 3.4962253570556640625 5.8278837203979492188 9.4143171310424804688 10.587266921997070312 8.0252809524536132812 5.1993079185485839844 6.3552398681640625 7.0134382247924804688 4.7213120460510253906 4.8156971931457519531 2.5395653247833251953 3.9801197052001953125 3.4311439990997314453 0.7301794886589050293 5.5567073822021484375 5.18730926513671875 3.4178824424743652344 4.3357896804809570312 5.740550994873046875 4.6515860557556152344 1.7928507328033447266 1.7929294109344482422 3.0492765903472900391 3.4758727550506591797 2.3884763717651367188 3.1829626560211181641 3.3358147144317626953 4.5106306076049804688 5.376132965087890625 7.1634411811828613281 6.6868824958801269531 4.4431643486022949219 6.9298963546752929688 
6.7294778823852539062 11.137115478515625 8.0350732803344726562 4.7794909477233886719 6.0340352058410644531 8.54830169677734375 8.5945835113525390625 5.2084283828735351562 3.5767126083374023438 3.2527568340301513672 3.9830515384674072266 3.2162547111511230469 2.6468119621276855469 3.1186425685882568359 1.5809286832809448242 1.738452911376953125 1.6256636381149291992 0.78270864486694335938 3.1113708019256591797 5.9975948333740234375 5.2351460456848144531 4.1922616958618164062 8.050853729248046875 7.0423436164855957031 4.8168978691101074219 3.7209477424621582031 2.8909842967987060547 6.0916876792907714844 2.7761766910552978516 3.1699349880218505859 2.7341430187225341797 7.1213583946228027344 8.23639678955078125 1.3449789285659790039 1.471995234489440918 0.46528494358062744141 1.7612860202789306641 2.7922573089599609375 4.1089839935302734375 3.0085384845733642578 5.3323545455932617188 4.6797466278076171875 2.0433433055877685547 4.6677908897399902344 5.7026801109313964844 3.3695545196533203125 1.6392583847045898438 3.910648345947265625 1.0556428432464599609 3.1784451007843017578 0.18220373988151550293 0.75865083932876586914 3.1888103485107421875 2.7871005535125732422 2.8354701995849609375 3.7766234874725341797 8.2010908126831054688 7.8096070289611816406 8.6112775802612304688 3.0201287269592285156 3.5031685829162597656 3.2675824165344238281 4.7374043464660644531 4.9967823028564453125 2.8116014003753662109 1.9064121246337890625 2.6914598941802978516 2.6194050312042236328 7.6451387405395507812 4.4321928024291992188 3.0285658836364746094 3.8523526191711425781 2.2798905372619628906 1.9911504983901977539 2.1056885719299316406 4.1776299476623535156 4.1025357246398925781 2.9043731689453125 3.0890407562255859375 5.5404558181762695312 5.0079641342163085938 4.0126857757568359375 5.206371307373046875 4.5348792076110839844 1.9875824451446533203 3.5584125518798828125 7.6850810050964355469 
7.7612733840942382812 10.815302848815917969 5.5110278129577636719 4.8351535797119140625 4.7620205879211425781 8.0609846115112304688 10.771493911743164062 8.4981603622436523438 5.3814144134521484375 4.9752378463745117188 3.7856974601745605469 3.5090918540954589844 3.1365814208984375 1.4893443584442138672 2.0074853897094726562 1.4309294223785400391 1.8473023176193237305 1.2372347116470336914 3.1834154129028320312 6.7026019096374511719 3.8655118942260742188 5.0881357192993164062 7.4111728668212890625 7.9641394615173339844 3.3990948200225830078 3.0139443874359130859 3.20722198486328125 2.7135593891143798828 1.9432550668716430664 2.206695556640625 2.1221086978912353516 8.5531101226806640625 6.199626922607421875 2.0362405776977539062 1.1253644227981567383 0.49529999494552612305 0.38848218321800231934 2.366733551025390625 3.9700846672058105469 3.9303143024444580078 4.502719879150390625 6.4536027908325195312 3.7600145339965820312 3.2963614463806152344 3.6840689182281494141 1.4957500696182250977 3.002559661865234375 1.7561676502227783203 3.1033508777618408203 0.85360556840896606445 0.26577612757682800293 1.7330746650695800781 2.5650236606597900391 1.9161732196807861328 3.3275709152221679688 5.8785872459411621094 4.7118678092956542969 7.6263856887817382812 9.6559600830078125 2.8922965526580810547 3.8221745491027832031 6.2320795059204101562 4.8445215225219726562 3.7689664363861083984 2.6289248466491699219 6.6160922050476074219 4.8041219711303710938 4.2895221710205078125 4.3417940139770507812 3.8617877960205078125 3.8146998882293701172 3.9827654361724853516 2.3693721294403076172 1.619233250617980957 1.0974794626235961914 1.6018775701522827148 1.4297058582305908203 1.2007280588150024414 1.0377155542373657227 2.5186717510223388672 2.4253642559051513672 5.4690337181091308594 3.2737598419189453125 4.1577754020690917969 4.8313436508178710938 5.97791290283203125 5.7772984504699707031 
11.082089424133300781 8.012920379638671875 5.1971912384033203125 3.9251158237457275391 4.080242156982421875 4.0270714759826660156 9.471263885498046875 8.4347286224365234375 9.1008577346801757812 6.0584840774536132812 3.9972898960113525391 4.334629058837890625 3.86344146728515625 3.9616971015930175781 2.9988462924957275391 4.0393133163452148438 3.9361407756805419922 4.3411321640014648438 2.7054033279418945312 4.9387841224670410156 4.1957745552062988281 3.086505889892578125 3.6385412216186523438 5.9599828720092773438 5.7776150703430175781 4.5908403396606445312 2.3497605323791503906 4.5874156951904296875 2.0953974723815917969 2.984966278076171875 5.5532422065734863281 4.5140404701232910156 2.5777821540832519531 1.6051934957504272461 1.6708785295486450195 2.0614550113677978516 0.015058999881148338318 2.5026867389678955078 4.6727266311645507812 3.9643561840057373047 4.7471308708190917969 3.4761679172515869141 1.8460739850997924805 4.462696075439453125 5.0828857421875 2.3802714347839355469 3.991313934326171875 3.8955745697021484375 0.9217599034309387207 0.10510418564081192017 3.366954803466796875 3.9562327861785888672 2.1562695503234863281 1.1923412084579467773 2.4485259056091308594 2.2847342491149902344 3.2648072242736816406 6.981231689453125 7.6101908683776855469 7.1580576896667480469 5.2520642280578613281 7.7382917404174804688 8.9055547714233398438 4.9516687393188476562 5.2471380233764648438 2.6279561519622802734 7.3187918663024902344 3.1777937412261962891 2.8191556930541992188 3.5382566452026367188 3.5523731708526611328 5.5613017082214355469 4.4511885643005371094 2.1426618099212646484 1.0062298774719238281 1.7019610404968261719 0.35044375061988830566 0.52818906307220458984 0.051564123481512069702 3.0033383369445800781 4.8897275924682617188 4.8555445671081542969 4.432247161865234375 7.7326931953430175781 5.9735894203186035156 7.6399998664855957031 7.6399998664855957031 
13.067036628723144531 6.9697403907775878906 1.5288594961166381836 1.8629193305969238281 2.6257958412170410156 3.6222155094146728516 7.4930849075317382812 8.3684129714965820312 9.6532411575317382812 5.4496641159057617188 5.5137643814086914062 4.7889418601989746094 4.8118047714233398438 3.8959302902221679688 4.0283842086791992188 4.8298778533935546875 6.0028824806213378906 4.744197845458984375 3.4759836196899414062 4.0407271385192871094 3.6857342720031738281 2.7515685558319091797 5.0156502723693847656 6.2482461929321289062 4.43439483642578125 6.3022279739379882812 0.62046331167221069336 2.7782976627349853516 2.5899720191955566406 5.9316468238830566406 6.8512372970581054688 5.7085471153259277344 1.9177186489105224609 1.0864728689193725586 0.92824435234069824219 3.2439582347869873047 2.1787867546081542969 3.6342611312866210938 4.8593225479125976562 3.0183928012847900391 2.0182540416717529297 1.5251501798629760742 3.4760847091674804688 3.2527716159820556641 4.9263520240783691406 4.1175723075866699219 3.4319260120391845703 4.1641755104064941406 0.45527991652488708496 0.65596967935562133789 4.8358917236328125 2.7235107421875 0.91228067874908447266 0.21515941619873046875 0.99063372611999511719 2.91826629638671875 3.8454155921936035156 5.2379097938537597656 10.703554153442382812 11.322888374328613281 11.574499130249023438 3.4310996532440185547 5.7180356979370117188 8.2808675765991210938 7.5593285560607910156 7.626506805419921875 7.265720367431640625 5.544818878173828125 2.8209555149078369141 4.456203460693359375 3.2127184867858886719 3.8214714527130126953 3.0258693695068359375 3.3784306049346923828 2.0345900058746337891 0.49396523833274841309 1.5995051860809326172 3.6662957668304443359 0.88551896810531616211 3.3090569972991943359 2.5014481544494628906 4.7005109786987304688 3.2983152866363525391 6.5891938209533691406 5.6365370750427246094 7.1029987335205078125 7.6399998664855957031 
11.549285888671875 5.1894917488098144531 1.8288748264312744141 1.8092850446701049805 1.95224761962890625 1.7715359926223754883 8.5399198532104492188 6.7762269973754882812 8.805858612060546875 9.4119415283203125 6.6693906784057617188 5.0046982765197753906 3.6228971481323242188 3.5252654552459716797 2.9140405654907226562 4.190677642822265625 4.1595983505249023438 4.6415052413940429688 3.6879949569702148438 4.4959807395935058594 4.4720950126647949219 4.6195998191833496094 8.6110105514526367188 3.1536028385162353516 5.0981969833374023438 5.5999865531921386719 2.8442091941833496094 3.0714805126190185547 3.3896043300628662109 6.33097076416015625 5.6125726699829101562 1.9152588844299316406 7.2563338279724121094 8.0814828872680664062 3.2779796123504638672 3.5960690975189208984 3.0452678203582763672 3.548656463623046875 4.6086430549621582031 1.7430459260940551758 2.1349170207977294922 2.3255908489227294922 3.6796472072601318359 3.3589792251586914062 4.6816601753234863281 3.4982438087463378906 3.4071116447448730469 2.9863362312316894531 0.49529999494552612305 0.87666952610015869141 5.3465852737426757812 0.832691192626953125 1.9713163375854492188 0.29519957304000854492 1.4232523441314697266 4.0567669868469238281 3.8259258270263671875 6.3263573646545410156 9.3525190353393554688 11.918961524963378906 12.67894744873046875 4.3155965805053710938 2.0226843357086181641 4.0803856849670410156 5.9334359169006347656 4.4343380928039550781 5.1288895606994628906 5.8172521591186523438 6.0802092552185058594 6.1794791221618652344 4.4128007888793945312 3.7380845546722412109 2.2976014614105224609 1.4707397222518920898 4.107028961181640625 1.3169175386428833008 3.1493496894836425781 4.7276821136474609375 4.0392351150512695312 1.0348377227783203125 0.34459474682807922363 2.6377124786376953125 3.6978869438171386719 7.0309309959411621094 6.0050940513610839844 6.576572418212890625 7.6399998664855957031 
10.003394126892089844 3.6197457313537597656 1.9022451639175415039 1.3865157365798950195 1.6009596586227416992 1.4641155004501342773 6.3218412399291992188 5.1238331794738769531 5.5380015373229980469 8.903682708740234375 8.5573835372924804688 7.0372877120971679688 5.5736584663391113281 3.5090918540954589844 2.3909382820129394531 3.4588618278503417969 2.9734125137329101562 3.3367977142333984375 2.7059047222137451172 3.3921146392822265625 4.1533899307250976562 7.70008087158203125 6.1301274299621582031 3.6558864116668701172 2.947887420654296875 2.6327996253967285156 5.7350711822509765625 0.78855419158935546875 2.8437414169311523438 4.354869842529296875 4.685333251953125 4.1653223037719726562 1.0191133022308349609 5.7040572166442871094 3.5401215553283691406 3.2524721622467041016 3.0437362194061279297 3.6185772418975830078 2.0704720020294189453 1.4588125944137573242 2.5229818820953369141 2.7970232963562011719 0.8830630183219909668 3.0923681259155273438 4.8551893234252929688 4.0202922821044921875 4.0251646041870117188 0.19514937698841094971 0.49529999494552612305 3.3078467845916748047 6.079280853271484375 3.7225985527038574219 5.2022161483764648438 0.49529999494552612305 0.6035277247428894043 2.4239518642425537109 3.9296827316284179688 5.6865386962890625 13.167759895324707031 11.258457183837890625 10.666383743286132812 3.671024322509765625 2.7913842201232910156 3.3043384552001953125 2.8543076515197753906 2.7763071060180664062 3.6389036178588867188 5.7700562477111816406 5.4726033210754394531 5.3593850135803222656 5.5180835723876953125 4.4678502082824707031 2.4674708843231201172 3.3321137428283691406 4.5981383323669433594 5.5206465721130371094 3.8026490211486816406 4.47484588623046875 1.4021345376968383789 2.1574189662933349609 0.25519049167633056641 2.3104765415191650391 1.7960916757583618164 3.0021677017211914062 4.2187047004699707031 5.8008303642272949219 6.2064766883850097656 
11.628212928771972656 4.87647247314453125 1.6163198947906494141 1.8092850446701049805 1.95224761962890625 0.68740642070770263672 3.4519448280334472656 3.9269671440124511719 4.8122196197509765625 9.3036355972290039062 12.105051040649414062 5.6577863693237304688 4.8710017204284667969 3.9249544143676757812 2.7420077323913574219 3.4735434055328369141 2.9183478355407714844 3.9956979751586914062 1.9884905815124511719 2.2066106796264648438 7.0388202667236328125 5.9254345893859863281 4.3122944831848144531 4.0573072433471679688 1.5196532011032104492 0.31551769375801086426 1.6513499021530151367 0.53316795825958251953 2.0435309410095214844 5.6264119148254394531 4.4155974388122558594 4.6956391334533691406 1.2505301237106323242 3.4103271961212158203 2.1196939945220947266 1.9588212966918945312 2.6500189304351806641 0.49957954883575439453 2.7262504100799560547 1.4570777416229248047 4.1198840141296386719 4.8788700103759765625 3.8259258270263671875 4.0804438591003417969 2.7997350692749023438 3.4218566417694091797 4.4458594322204589844 1.0449815988540649414 0.67421478033065795898 4.7290086746215820312 2.3689792156219482422 0.42669412493705749512 0.37523975968360900879 1.0145790576934814453 2.9536340236663818359 1.0677567720413208008 2.3136513233184814453 2.3485894203186035156 7.72432708740234375 12.106570243835449219 7.0894651412963867188 6.385341644287109375 3.8196125030517578125 3.1250667572021484375 1.2193692922592163086 4.3368330001831054688 4.343624114990234375 5.7772836685180664062 3.5020666122436523438 1.3615726232528686523 0.88798165321350097656 5.0209507942199707031 3.1368863582611083984 2.9328045845031738281 2.3492078781127929688 2.8395020961761474609 2.4939546585083007812 3.2182471752166748047 2.1373300552368164062 4.4986095428466796875 1.6470986604690551758 0.45469495654106140137 2.4212751388549804688 3.9149563312530517578 1.7784779071807861328 3.4258863925933837891 7.6399998664855957031 
4.3920316696166992188 2.1732318401336669922 2.0757198333740234375 1.5058028697967529297 1.7509672641754150391 1.7840284109115600586 2.3285779953002929688 4.1924510002136230469 4.6886563301086425781 9.4496002197265625 10.05281829833984375 8.656658172607421875 4.7697167396545410156 4.1185297966003417969 3.5139768123626708984 5.5568261146545410156 3.0751411914825439453 3.9560115337371826172 0.91100680828094482422 5.4556818008422851562 4.9608554840087890625 4.85971832275390625 4.4530162811279296875 5.2213101387023925781 2.008441925048828125 1.7611767053604125977 1.3568224906921386719 1.3500827550888061523 2.6703662872314453125 3.2167046070098876953 3.7861788272857666016 4.6077589988708496094 0.94427257776260375977 1.0201156139373779297 1.9736849069595336914 2.9535596370697021484 4.7139840126037597656 0.77631908655166625977 2.3767824172973632812 2.5962657928466796875 2.7969484329223632812 0.87083029747009277344 1.482840418815612793 2.6005413532257080078 2.1373353004455566406 3.70745086669921875 1.3162486553192138672 0.49529999494552612305 1.9847942590713500977 3.1757791042327880859 2.5019772052764892578 1.8276017904281616211 1.3106846809387207031 2.177532196044921875 3.7622406482696533203 2.7161283493041992188 4.8155736923217773438 4.8223032951354980469 10.43968963623046875 7.00940704345703125 6.9030756950378417969 9.2938566207885742188 6.272747039794921875 2.6721489429473876953 2.7438399791717529297 2.70386505126953125 4.823253631591796875 6.9656305313110351562 4.43149566650390625 0.54441714286804199219 0.80739206075668334961 4.4610013961791992188 4.1209444999694824219 4.1637353897094726562 3.7444770336151123047 4.9047131538391113281 4.480670928955078125 4.0951786041259765625 2.7930345535278320312 1.7235883474349975586 1.0519531965255737305 2.2986829280853271484 6.2733793258666992188 4.1180605888366699219 1.9058380126953125 3.1038818359375 4.04290008544921875 
2.2157878875732421875 2.7393364906311035156 1.7412132024765014648 2.0165400505065917969 2.7565412521362304688 2.3058879375457763672 3.8706114292144775391 4.9468984603881835938 6.3111295700073242188 8.0576601028442382812 8.9844903945922851562 11.121118545532226562 5.0863046646118164062 3.9537014961242675781 4.1219968795776367188 4.2839732170104980469 2.8620302677154541016 4.2473001480102539062 1.9744362831115722656 5.4372754096984863281 3.8278036117553710938 4.0420718193054199219 4.5696463584899902344 2.8347043991088867188 5.2421174049377441406 2.6838333606719970703 1.106158137321472168 2.1350159645080566406 8.3779153823852539062 3.1242067813873291016 7.7742905616760253906 5.9701914787292480469 1.522387385368347168 2.9982457160949707031 0.71497404575347900391 1.0574823617935180664 1.9678423404693603516 1.9536082744598388672 3.6412303447723388672 4.203090667724609375 7.3706188201904296875 1.5569872856140136719 3.0778517723083496094 2.5817768573760986328 3.2049870491027832031 2.2661154270172119141 1.7302232980728149414 1.170466303825378418 4.0247178077697753906 3.9413845539093017578 3.5556390285491943359 2.9092240333557128906 2.0819728374481201172 2.3760180473327636719 5.3662257194519042969 5.6349725723266601562 4.5204572677612304688 7.5201249122619628906 8.2546453475952148438 7.6692633628845214844 7.8763885498046875 5.7649021148681640625 7.1278347969055175781 4.9584937095642089844 3.921604156494140625 2.2755601406097412109 5.9281444549560546875 6.1555013656616210938 2.7555704116821289062 2.3886661529541015625 2.9215385913848876953 0.86425983905792236328 4.8306970596313476562 3.1258382797241210938 4.3457312583923339844 2.7813494205474853516 2.7925794124603271484 3.6655459403991699219 1.4414845705032348633 1.1267415285110473633 1.5272482633590698242 3.6042759418487548828 5.2394270896911621094 4.4887385368347167969 3.8719387054443359375 4.3924479484558105469 5.8588857650756835938 
1.6819107532501220703 1.5499137639999389648 0.73120999336242675781 0.46986299753189086914 1.2382487058639526367 4.127742767333984375 6.0902690887451171875 10.002033233642578125 8.89078521728515625 7.2351598739624023438 5.58061981201171875 4.4715323448181152344 5.1279320716857910156 4.2829074859619140625 4.9476008415222167969 3.8664793968200683594 3.2467997074127197266 4.5331740379333496094 5.4455237388610839844 3.7001552581787109375 1.7627382278442382812 1.3433786630630493164 1.7352265119552612305 1.9448145627975463867 2.2980258464813232422 0.1385180056095123291 1.7922403812408447266 2.1060121059417724609 4.1629452705383300781 2.2323746681213378906 3.5413639545440673828 3.4452126026153564453 1.4390226602554321289 5.3510174751281738281 2.5715415477752685547 1.2513703107833862305 2.5122365951538085938 2.6517820358276367188 2.2152206897735595703 3.9791576862335205078 5.1174325942993164062 3.5796217918395996094 1.7475421428680419922 1.6670196056365966797 1.863001704216003418 2.4952225685119628906 3.5207898616790771484 3.9223039150238037109 4.1352887153625488281 3.9059131145477294922 3.4976391792297363281 3.4084537029266357422 2.3326807022094726562 2.54679107666015625 4.1009359359741210938 7.2796316146850585938 7.2328968048095703125 4.8420343399047851562 2.7894444465637207031 3.7688868045806884766 0.92408663034439086914 0.95609951019287109375 3.2298462390899658203 1.0133699178695678711 1.7577505111694335938 2.8139946460723876953 7.5959706306457519531 3.4919891357421875 4.3207163810729980469 3.7649333477020263672 3.8763437271118164062 0.39284375309944152832 0.79090297222137451172 3.2472288608551025391 4.6106843948364257812 6.0587854385375976562 6.2155222892761230469 3.4257755279541015625 0.58633279800415039062 0.43692499399185180664 1.8873734474182128906 4.2955179214477539062 6.4827070236206054688 4.9228577613830566406 5.3498106002807617188 4.4877910614013671875 4.7814760208129882812 
1.8831806182861328125 2.4724876880645751953 0.20851600170135498047 0.73120999336242675781 0.75589394569396972656 3.5864412784576416016 7.2564373016357421875 8.8104028701782226562 8.865917205810546875 8.1464910507202148438 5.6042470932006835938 2.9646673202514648438 4.349956512451171875 6.1117167472839355469 4.4445366859436035156 1.2009540796279907227 3.2963263988494873047 5.2109274864196777344 3.7821474075317382812 1.5679074525833129883 1.9860262870788574219 1.8581302165985107422 1.9117863178253173828 3.1645221710205078125 2.7559931278228759766 0.67642164230346679688 3.3724393844604492188 2.9415807723999023438 1.6020179986953735352 2.3840179443359375 6.0017580986022949219 4.3331141471862792969 5.4809012413024902344 4.5488271713256835938 3.9657411575317382812 3.9054725170135498047 5.0919537544250488281 4.6299633979797363281 7.2890448570251464844 7.3322014808654785156 5.3449687957763671875 3.0966446399688720703 1.6192089319229125977 2.1877524852752685547 2.7015557289123535156 6.2120413780212402344 4.9509310722351074219 4.9249987602233886719 3.0930309295654296875 3.0398852825164794922 2.6769771575927734375 2.7763295173645019531 4.20879364013671875 5.0749812126159667969 1.6660308837890625 6.9135951995849609375 7.2896790504455566406 5.5996623039245605469 8.7415971755981445312 6.2290892601013183594 3.9985396862030029297 0.48244363069534301758 1.3757531642913818359 0.5731245875358581543 3.0394692420959472656 3.0701322555541992188 4.4604315757751464844 2.9351859092712402344 4.8819122314453125 2.7620215415954589844 4.83022308349609375 0.97511464357376098633 1.6879117488861083984 1.4880067110061645508 3.20101165771484375 2.5923268795013427734 1.5874693393707275391 2.2417280673980712891 0.81988728046417236328 1.6766154766082763672 2.7938988208770751953 4.3430857658386230469 3.6885361671447753906 5.0750031471252441406 2.7343714237213134766 3.7248382568359375 3.6563298702239990234 
3.8050794601440429688 1.5814450979232788086 0.73120999336242675781 0.46986299753189086914 2.2418575286865234375 4.1288585662841796875 5.2695450782775878906 9.9401636123657226562 10.205462455749511719 4.3699245452880859375 1.6676502227783203125 2.1847529411315917969 4.6958222389221191406 4.5958094596862792969 3.8613002300262451172 3.5596673488616943359 4.7135772705078125 4.9524121284484863281 2.4232606887817382812 2.0679228305816650391 2.8385763168334960938 2.3897638320922851562 4.8966002464294433594 5.2607922554016113281 3.6119649410247802734 3.7053315639495849609 1.1681963205337524414 0.79798960685729980469 0.68742513656616210938 2.0457642078399658203 5.4348535537719726562 7.9731917381286621094 6.6520814895629882812 3.4023675918579101562 6.5712656974792480469 3.6793427467346191406 3.6586229801177978516 5.4432606697082519531 6.1266398429870605469 3.3975985050201416016 1.3185600042343139648 2.3556499481201171875 2.1982717514038085938 2.3484442234039306641 4.9978160858154296875 6.0013842582702636719 5.8185434341430664062 4.9874467849731445312 4.3883876800537109375 3.9367783069610595703 3.2669572830200195312 3.6398749351501464844 5.1213178634643554688 8.8524456024169921875 7.074047088623046875 5.399990081787109375 5.0386981964111328125 5.3211665153503417969 8.0785379409790039062 5.7758593559265136719 2.6327149868011474609 1.8677034378051757812 2.6513776779174804688 3.8368399143218994141 1.7798197269439697266 3.71923828125 6.68387603759765625 8.363193511962890625 7.1755323410034179688 6.5958776473999023438 6.4138193130493164062 3.8446640968322753906 1.0954120159149169922 1.4014153480529785156 0.90608334541320800781 2.2399671077728271484 4.3208293914794921875 2.3251998424530029297 2.1955704689025878906 0.27474874258041381836 0.57974326610565185547 3.1198282241821289062 3.5625436305999755859 5.4355130195617675781 1.8085693120956420898 4.2234668731689453125 0.67240422964096069336 
3.7745428085327148438 0.94521337747573852539 0.42251938581466674805 0.71383112668991088867 2.1602427959442138672 2.8439211845397949219 7.5304083824157714844 8.6159353256225585938 4.8225588798522949219 0.63829934597015380859 1.8377423286437988281 1.5782827138900756836 1.4960137605667114258 0.35696974396705627441 1.6771328449249267578 3.564594268798828125 5.3327550888061523438 3.6781685352325439453 1.7507690191268920898 2.0061013698577880859 2.4005539417266845703 3.0975625514984130859 4.7947201728820800781 4.3442730903625488281 1.9763649702072143555 6.0830197334289550781 3.0408921241760253906 1.913646697998046875 0.86076247692108154297 7.5035963058471679688 7.7433876991271972656 7.3461756706237792969 3.6504268646240234375 6.1444225311279296875 3.9136056900024414062 2.9314608573913574219 0.32443749904632568359 2.7045826911926269531 5.9290404319763183594 4.0531821250915527344 0.71257174015045166016 1.9100279808044433594 3.9122562408447265625 7.0016436576843261719 6.0314698219299316406 4.7463703155517578125 5.764453887939453125 5.0873045921325683594 5.3860063552856445312 6.2336988449096679688 5.3494415283203125 5.0515718460083007812 6.5448060035705566406 8.022617340087890625 6.3914942741394042969 4.4421224594116210938 3.965152740478515625 3.8751878738403320312 5.4000749588012695312 4.6896157264709472656 3.1510977745056152344 3.1097714900970458984 2.1559789180755615234 1.891659855842590332 3.2806711196899414062 6.0513987541198730469 5.6145462989807128906 8.8173809051513671875 7.7087497711181640625 8.8535585403442382812 1.4964896440505981445 0.4428755640983581543 0.015058999881148338318 0.015058999881148338318 0.1541255563497543335 3.9892337322235107422 4.7520055770874023438 3.3719167709350585938 1.3857606649398803711 1.785744786262512207 4.8366045951843261719 4.0614595413208007812 3.8772020339965820312 4.1754899024963378906 1.0776774883270263672 1.6671350002288818359 3.1155080795288085938 
5.6303095817565917969 2.2621698379516601562 1.3214050531387329102 0.63998419046401977539 3.9402668476104736328 5.7787499427795410156 9.5168790817260742188 8.266937255859375 2.8412547111511230469 0.4678421318531036377 1.6573280096054077148 4.1049990653991699219 3.4698698520660400391 4.0454273223876953125 1.9401766061782836914 4.4622960090637207031 4.6870927810668945312 4.1508846282958984375 3.3174214363098144531 6.0478267669677734375 2.9507691860198974609 4.5108127593994140625 2.6209397315979003906 1.8040164709091186523 2.5352752208709716797 2.1869776248931884766 1.1808545589447021484 3.6629297733306884766 5.8589682579040527344 7.608219146728515625 6.115802764892578125 6.409275054931640625 6.4515814781188964844 6.7651581764221191406 3.7520639896392822266 1.7026426792144775391 0.31378600001335144043 2.9896483421325683594 6.3301434516906738281 2.1960101127624511719 1.0120917558670043945 5.1481909751892089844 5.6630086898803710938 4.3877916336059570312 4.0692973136901855469 4.4781503677368164062 4.3701848983764648438 6.052631378173828125 4.7197813987731933594 5.8519315719604492188 4.7152500152587890625 6.1130580902099609375 8.4282407760620117188 5.0042929649353027344 3.5345966815948486328 4.5244312286376953125 2.8755142688751220703 6.2352948188781738281 9.1404714584350585938 6.5597996711730957031 2.4783260822296142578 2.4116377830505371094 1.1604359149932861328 3.8470888137817382812 6.2541928291320800781 4.8397412300109863281 4.7619199752807617188 8.8402891159057617188 9.3592309951782226562 3.8316903114318847656 0.045074060559272766113 0.015058999881148338318 0.015058999881148338318 0.015058999881148338318 0.027150062844157218933 0.38405811786651611328 0.78259795904159545898 2.4075677394866943359 5.9624533653259277344 3.4162228107452392578 3.1420273780822753906 4.8822484016418457031 3.7684717178344726562 2.5770316123962402344 3.5470564365386962891 3.1629056930541992188 3.5353400707244873047 
3.0095102787017822266 2.768489837646484375 2.0291469097137451172 3.0539433956146240234 5.0058202743530273438 7.5876364707946777344 8.4705781936645507812 3.5350353717803955078 2.0022411346435546875 2.0081651210784912109 2.1273312568664550781 3.1191258430480957031 3.5410060882568359375 2.5091795921325683594 4.5235834121704101562 6.5586590766906738281 4.6953825950622558594 6.7709145545959472656 3.3532154560089111328 2.9123735427856445312 2.7444250583648681641 2.6497693061828613281 1.3958725929260253906 4.0091443061828613281 3.7601263523101806641 3.0126738548278808594 1.4869693517684936523 1.4973503351211547852 2.2443499565124511719 6.513980865478515625 1.8003803491592407227 2.2298190593719482422 2.3959453105926513672 5.8674898147583007812 3.6975533962249755859 1.5706732273101806641 1.8097777366638183594 5.1741237640380859375 0.64352273941040039062 0.31211450695991516113 2.0728952884674072266 4.1050710678100585938 3.9932560920715332031 3.1324408054351806641 4.721820831298828125 4.3218889236450195312 4.2680878639221191406 4.4880251884460449219 7.1668577194213867188 6.5354981422424316406 4.4266018867492675781 6.4386973381042480469 8.2442378997802734375 6.7491903305053710938 7.8821530342102050781 3.7140896320343017578 4.2602410316467285156 7.4940476417541503906 6.8692202568054199219 7.0510926246643066406 2.9601442813873291016 2.767978668212890625 2.4376420974731445312 3.3395879268646240234 4.2424464225769042969 2.8591420650482177734 4.9548316001892089844 4.2502532005310058594 1.9261955022811889648 5.38898468017578125 0.49165943264961242676 0.015058999881148338318 0.015058999881148338318 0.015058999881148338318 0.015058999881148338318 0.28032130002975463867 0.61810058355331420898 2.3505330085754394531 4.5257391929626464844 6.1784238815307617188 2.2895848751068115234 4.6155920028686523438 4.7815923690795898438 3.9420573711395263672 4.4029850959777832031 2.1721880435943603516 2.4348292350769042969 
1.3522169589996337891 1.5288594961166381836 1.9298959970474243164 4.303020477294921875 6.5995578765869140625 10.133757591247558594 9.1227712631225585938 2.224849700927734375 3.0665988922119140625 2.3580353260040283203 5.0603203773498535156 3.1962032318115234375 4.0069675445556640625 4.0936102867126464844 6.7373538017272949219 4.7524027824401855469 4.509273529052734375 4.8501467704772949219 6.0202908515930175781 7.6402916908264160156 8.5821046829223632812 6.1931405067443847656 4.6286101341247558594 4.2746682167053222656 1.2858028411865234375 0.28691539168357849121 0.41979375481605529785 7.0908675193786621094 3.1928043365478515625 2.0078151226043701172 0.77561247348785400391 0.30709999799728393555 0.31700715422630310059 0.30709999799728393555 1.4219466447830200195 3.2068619728088378906 6.2196774482727050781 2.9153988361358642578 2.0683076381683349609 4.6041860580444335938 1.2714008092880249023 1.3605369329452514648 3.7326936721801757812 5.4741568565368652344 6.5487823486328125 5.1221675872802734375 4.0664033889770507812 4.5612378120422363281 7.4468030929565429688 5.1288928985595703125 3.004535675048828125 6.3102374076843261719 5.2881360054016113281 7.3959307670593261719 8.8797216415405273438 6.1826944351196289062 1.8268144130706787109 8.2941961288452148438 0.70951044559478759766 3.5244493484497070312 7.2195811271667480469 2.7188160419464111328 3.7112624645233154297 5.1047945022583007812 3.7908830642700195312 3.3761250972747802734 6.6781034469604492188 6.610706329345703125 4.1460490226745605469 1.5559301376342773438 4.7070717811584472656 1.0846936702728271484 0.015058999881148338318 0.024955311790108680725 0.015058999881148338318 1.3676593303680419922 0.82823252677917480469 0.49697732925415039062 1.5670298337936401367 4.1678194999694824219 2.9540612697601318359 2.9603390693664550781 2.7745676040649414062 2.4679555892944335938 3.8605256080627441406 3.9959020614624023438 2.2129316329956054688 
1.4647508859634399414 2.7769188880920410156 3.0278997421264648438 6.0803637504577636719 9.4635858535766601562 12.307538032531738281 3.6798412799835205078 2.6498537063598632812 1.7458956241607666016 2.6816036701202392578 4.7925248146057128906 1.7642937898635864258 4.2179198265075683594 4.2852602005004882812 3.4663271903991699219 3.7499940395355224609 4.014904022216796875 5.8414263725280761719 4.2094516754150390625 4.8397297859191894531 6.4665784835815429688 3.0185945034027099609 3.6830942630767822266 4.498111724853515625 1.1003749370574951172 0.32043862342834472656 1.7528517246246337891 7.6041855812072753906 1.3759576082229614258 4.7860460281372070312 6.8374776840209960938 0.82482862472534179688 0.31700626015663146973 1.2279094457626342773 0.50712954998016357422 1.5739696025848388672 2.2105591297149658203 1.2496674060821533203 2.0110571384429931641 2.8425784111022949219 4.3623752593994140625 0.1535666733980178833 4.8787488937377929688 6.7114338874816894531 6.1718792915344238281 5.6800580024719238281 4.2387065887451171875 4.099216461181640625 8.6277074813842773438 5.2658514976501464844 7.2920002937316894531 3.2222189903259277344 3.4415395259857177734 2.7118048667907714844 2.7931561470031738281 6.576526641845703125 1.1993674039840698242 5.3456978797912597656 1.8351284265518188477 6.8439111709594726562 8.7774534225463867188 4.1357932090759277344 3.8745224475860595703 5.0449585914611816406 4.0658063888549804688 3.8326230049133300781 6.792217254638671875 4.2325224876403808594 4.53394317626953125 3.0898013114929199219 7.2415838241577148438 4.3799910545349121094 0.73141324520111083984 0.37461987137794494629 0.22267581522464752197 0.071995377540588378906 0.027150062844157218933 0.045074060559272766113 0.039241123944520950317 3.0066015720367431641 1.4121558666229248047 0.015058999881148338318 0.015058999881148338318 0.015058999881148338318 1.3525274991989135742 5.0440831184387207031 4.2487187385559082031 
2.5917775630950927734 3.0082244873046875 3.5564029216766357422 10.797461509704589844 8.5651178359985351562 6.8368287086486816406 3.2714753150939941406 1.7803213596343994141 1.8843101263046264648 4.6874065399169921875 2.6650857925415039062 3.2118573188781738281 3.5662143230438232422 3.6119387149810791016 2.4754049777984619141 2.1199686527252197266 2.0315256118774414062 2.3125240802764892578 0.10817437618970870972 0.80065810680389404297 2.9909269809722900391 1.9223902225494384766 5.8058619499206542969 2.2357361316680908203 5.1743245124816894531 3.4303812980651855469 3.7872037887573242188 5.961490631103515625 0.30709999799728393555 7.0410532951354980469 5.0221905708312988281 2.6261582374572753906 1.4098936319351196289 0.32251110672950744629 1.0115599632263183594 0.033311560750007629395 0.015058999881148338318 2.9219329357147216797 1.4508591890335083008 3.4559345245361328125 4.9037179946899414062 3.1836049556732177734 3.7075016498565673828 6.6348385810852050781 4.1616759300231933594 4.7417478561401367188 4.2500815391540527344 4.9747481346130371094 5.0025882720947265625 2.7703008651733398438 2.7524178028106689453 1.2169926166534423828 1.0620545148849487305 1.5795854330062866211 6.4200344085693359375 5.7550759315490722656 0.55415695905685424805 7.4725708961486816406 10.950006484985351562 5.3694734573364257812 3.8590242862701416016 4.8273715972900390625 6.0246424674987792969 3.5878429412841796875 3.7408454418182373047 4.1294426918029785156 3.6266493797302246094 2.8925299644470214844 8.0573434829711914062 3.9414069652557373047 6.7882137298583984375 4.8763566017150878906 4.0357227325439453125 5.3876543045043945312 0.63739234209060668945 0.26693463325500488281 0.015058999881148338318 0.015058999881148338318 0.027150062844157218933 1.8315750360488891602 1.6042684316635131836 0.015058999881148338318 0.015058999881148338318 0.27527391910552978516 2.5636382102966308594 5.1923398971557617188 2.8746089935302734375 
1.5284782648086547852 3.600574493408203125 5.466033935546875 10.59177398681640625 8.9853124618530273438 2.8592820167541503906 2.8713793754577636719 4.3057141304016113281 3.6410670280456542969 4.4324212074279785156 4.4978151321411132812 4.8366785049438476562 2.0654513835906982422 4.0649261474609375 2.4408390522003173828 6.6245341300964355469 4.1658396720886230469 3.7016766071319580078 3.8358931541442871094 2.2818708419799804688 1.3965551853179931641 1.7633702754974365234 1.2754589319229125977 2.1716294288635253906 2.8769087791442871094 3.4583997726440429688 4.4875698089599609375 3.8847379684448242188 4.3404955863952636719 3.5926539897918701172 3.7601861953735351562 2.77532958984375 2.1309430599212646484 1.4491237401962280273 0.12309881299734115601 0.015058999881148338318 0.88415068387985229492 1.366038203239440918 0.9649226069450378418 0.72886741161346435547 0.6785557866096496582 3.0517983436584472656 4.656833648681640625 4.4305887222290039062 4.89186859130859375 4.8401155471801757812 4.1947169303894042969 2.1686577796936035156 4.8192343711853027344 5.1270222663879394531 3.1197538375854492188 5.4090304374694824219 3.2987191677093505859 4.2704539299011230469 5.5387778282165527344 6.4388470649719238281 3.3194577693939208984 6.2367238998413085938 5.9617419242858886719 7.4478077888488769531 4.246212005615234375 4.7013640403747558594 8.35523223876953125 4.5005292892456054688 3.9590303897857666016 4.021121978759765625 4.4374399185180664062 4.1956839561462402344 4.0640187263488769531 3.1216843128204345703 5.2825469970703125 5.5682125091552734375 6.075428009033203125 5.722759246826171875 1.8859485387802124023 1.3292555809020996094 0.015058999881148338318 1.5371774435043334961 0.95295131206512451172 3.9939088821411132812 0.95302319526672363281 0.015058999881148338318 0.015058999881148338318 1.6662793159484863281 4.9979205131530761719 2.6633942127227783203 1.3969399929046630859 
3.1432323455810546875 4.5100626945495605469 9.5121555328369140625 8.0000391006469726562 2.9274439811706542969 2.3646178245544433594 1.5927394628524780273 2.570705413818359375 2.7716596126556396484 1.4888772964477539062 7.8737945556640625 4.464618682861328125 3.5140521526336669922 4.9303488731384277344 2.52277374267578125 5.2077069282531738281 6.8944568634033203125 3.8584067821502685547 3.993488311767578125 4.0966215133666992188 5.2153649330139160156 4.44205474853515625 3.8262057304382324219 3.1347641944885253906 1.4720065593719482422 4.1021637916564941406 2.363208770751953125 1.3594089746475219727 0.71097749471664428711 2.0051779747009277344 1.8396368026733398438 1.054759979248046875 0.84394466876983642578 1.6489583253860473633 0.88361430168151855469 1.0052053928375244141 2.4006304740905761719 1.4206904172897338867 1.672396540641784668 4.7089838981628417969 1.3759747743606567383 4.2814960479736328125 4.2706074714660644531 2.2227404117584228516 1.4240624904632568359 3.9495782852172851562 4.6991758346557617188 2.9210302829742431641 5.1974358558654785156 3.8543784618377685547 3.9403738975524902344 5.3234100341796875 2.6796326637268066406 2.9683423042297363281 4.1784296035766601562 2.8974738121032714844 3.9783926010131835938 8.0810699462890625 10.472107887268066406 5.089717864990234375 6.4002957344055175781 5.1148204803466796875 5.48555755615234375 4.1886115074157714844 4.304111480712890625 3.7339730262756347656 1.5390380620956420898 2.9201989173889160156 2.70702362060546875 1.2396264076232910156 3.6750974655151367188 6.7325119972229003906 7.164279937744140625 3.872646331787109375 4.689937591552734375 4.1327352523803710938 2.3771860599517822266 1.7735645771026611328 3.8144474029541015625 2.7429139614105224609 1.2358503341674804688 0.015058999881148338318 0.44761583209037780762 8.0184497833251953125 4.3664789199829101562 3.9144418239593505859 3.52727508544921875 
4.7946958541870117188 7.6341185569763183594 8.544780731201171875 4.4126377105712890625 2.6765086650848388672 2.2263605594635009766 2.9113798141479492188 2.3343713283538818359 6.3585376739501953125 1.5510724782943725586 2.7120263576507568359 3.8209490776062011719 2.8773262500762939453 4.6270604133605957031 2.9133660793304443359 4.6530461311340332031 3.9720690250396728516 2.9915745258331298828 4.1363096237182617188 4.4118709564208984375 3.6280953884124755859 0.31405726075172424316 2.9415566921234130859 4.8447508811950683594 0.62091803550720214844 2.4153931140899658203 0.32085508108139038086 0.60865825414657592773 0.23611110448837280273 0.24024999141693115234 0.44428151845932006836 4.5607047080993652344 0.33682143688201904297 3.3086199760437011719 0.11922815442085266113 1.0912809371948242188 0.50994139909744262695 0.95046454668045043945 0.31608125567436218262 1.3321373462677001953 1.5881087779998779297 4.1683702468872070312 4.8984966278076171875 4.8263649940490722656 5.0565481185913085938 4.4363923072814941406 4.9944744110107421875 5.0753087997436523438 4.7436461448669433594 4.913394927978515625 4.8814826011657714844 5.4639353752136230469 3.6944215297698974609 3.5370323657989501953 1.4561383724212646484 0.54374301433563232422 2.5435860157012939453 3.3287169933319091797 6.1092309951782226562 0.79286473989486694336 2.2814946174621582031 5.7802252769470214844 7.4067754745483398438 4.6934714317321777344 4.7278232574462890625 3.8080446720123291016 3.7580275535583496094 3.3994643688201904297 1.010249018669128418 2.220859527587890625 4.7200908660888671875 6.5281615257263183594 6.272502899169921875 4.8221745491027832031 4.7186756134033203125 5.1838922500610351562 2.4519493579864501953 4.7208147048950195312 7.1051268577575683594 3.0136139392852783203 2.7134492397308349609 1.8173290491104125977 4.9175443649291992188 6.9981369972229003906 7.6338977813720703125 4.0621895790100097656 2.7517805099487304688 
6.4284634590148925781 7.9977269172668457031 6.1777434349060058594 8.32489776611328125 4.6400146484375 4.4165730476379394531 6.0907106399536132812 6.0996761322021484375 4.9311642646789550781 4.982761383056640625 6.3399114608764648438 5.6511588096618652344 4.8918886184692382812 7.5775675773620605469 4.2635555267333984375 1.9373787641525268555 3.8069036006927490234 1.9133517742156982422 2.6475739479064941406 6.2203145027160644531 3.0308332443237304688 0.35168126225471496582 0.32506251335144042969 1.7117185592651367188 1.2395206689834594727 1.1994971036911010742 2.6786823272705078125 1.6634670495986938477 5.3564915657043457031 6.2163257598876953125 4.4760880470275878906 1.01297760009765625 0.29936873912811279297 2.3870766162872314453 1.2971473932266235352 1.5087134838104248047 0.35044375061988830566 0.3075999915599822998 3.4933862686157226562 3.5999884605407714844 2.9275987148284912109 4.4944944381713867188 4.6209664344787597656 4.6851711273193359375 4.6727752685546875 3.3225007057189941406 4.17559814453125 5.8549757003784179688 3.7359137535095214844 3.5119454860687255859 3.9389052391052246094 5.2011008262634277344 2.5385420322418212891 2.1111953258514404297 2.2095859050750732422 1.0261352062225341797 1.2142142057418823242 3.1263194084167480469 2.3879857063293457031 1.6116888523101806641 4.61930084228515625 3.9336068630218505859 9.9228916168212890625 5.9802889823913574219 4.949951171875 3.3794484138488769531 1.9990001916885375977 2.3303163051605224609 2.4120547771453857422 2.5635807514190673828 4.8548736572265625 5.9910306930541992188 4.3444261550903320312 3.9891402721405029297 5.5343599319458007812 3.4196605682373046875 2.3101761341094970703 3.28861236572265625 3.8834846019744873047 2.5366601943969726562 1.749329686164855957 3.8489372730255126953 4.004009246826171875 3.6216847896575927734 3.2908322811126708984 6.4835419654846191406 4.1589827537536621094 
6.4778270721435546875 7.8402066230773925781 5.7465353012084960938 2.8917367458343505859 4.620494842529296875 6.022869110107421875 3.3666276931762695312 0.96035706996917724609 6.7876610755920410156 6.550994873046875 7.1162023544311523438 5.2133383750915527344 3.7029306888580322266 6.0993471145629882812 6.467864990234375 1.6835390329360961914 4.0044221878051757812 4.0427145957946777344 6.823406219482421875 5.6361083984375 2.0643441677093505859 2.1193203926086425781 5.4545130729675292969 3.2944893836975097656 1.7551017999649047852 1.7159204483032226562 4.3363933563232421875 5.8444814682006835938 6.3744840621948242188 6.1185016632080078125 8.8633432388305664062 3.0265994071960449219 1.1212209463119506836 0.3284384608268737793 0.33617332577705383301 0.69070512056350708008 1.5550647974014282227 1.2088435888290405273 1.1020629405975341797 2.9871132373809814453 3.9471638202667236328 7.48743438720703125 4.9275918006896972656 5.2920517921447753906 3.0809957981109619141 4.3018031120300292969 3.2822232246398925781 4.9093661308288574219 1.5787847042083740234 0.69241976737976074219 0.015058999881148338318 0.44187235832214355469 0.015058999881148338318 0.015058999881148338318 3.4593720436096191406 3.5540139675140380859 3.6542532444000244141 4.72714996337890625 4.2937402725219726562 4.8889780044555664062 5.8185939788818359375 6.0490779876708984375 7.303829193115234375 7.0453290939331054688 4.2408666610717773438 3.9949228763580322266 2.3054764270782470703 1.0761659145355224609 4.4918875694274902344 4.6653265953063964844 6.6612401008605957031 2.7205240726470947266 1.0568181276321411133 6.1840405464172363281 5.7289509773254394531 2.5869731903076171875 2.3820416927337646484 3.5436866283416748047 2.6600787639617919922 2.7921609878540039062 2.4046452045440673828 0.68610948324203491211 0.85055309534072875977 3.0841605663299560547 2.3993897438049316406 2.3883795738220214844 4.4961085319519042969 
7.9148817062377929688 8.6712551116943359375 3.3309900760650634766 2.6113531589508056641 4.1728448867797851562 5.2554755210876464844 5.8920125961303710938 4.3374752998352050781 5.0646276473999023438 6.0807995796203613281 6.438518524169921875 1.8683453798294067383 3.0597789287567138672 4.1034455299377441406 2.0822119712829589844 1.9821325540542602539 3.7844176292419433594 4.3910841941833496094 7.0119376182556152344 1.2838662862777709961 3.4244182109832763672 3.42481231689453125 4.6500411033630371094 3.9026196002960205078 0.2977415919303894043 2.8742761611938476562 4.9576349258422851562 7.0183434486389160156 2.6548376083374023438 2.3696961402893066406 2.6936960220336914062 1.2108708620071411133 0.31865832209587097168 1.8755131959915161133 0.29422998428344726562 2.7653644084930419922 9.601665496826171875 2.9128689765930175781 2.7909481525421142578 1.0410861968994140625 3.5306799411773681641 8.9951925277709960938 1.6590486764907836914 2.3088126182556152344 1.5419726371765136719 1.6146444082260131836 0.37287762761116027832 3.5483350753784179688 3.4003484249114990234 0.79092872142791748047 0.015058999881148338318 0.015058999881148338318 0.015058999881148338318 0.015058999881148338318 4.3413591384887695312 3.620128631591796875 4.1899137496948242188 3.5241551399230957031 4.2635655403137207031 4.6711754798889160156 6.6093578338623046875 7.2508349418640136719 7.4664168357849121094 4.9515128135681152344 3.7879126071929931641 0.98156571388244628906 0.97864753007888793945 1.0003823041915893555 4.1323647499084472656 5.0648651123046875 4.9118208885192871094 1.1449936628341674805 1.484832763671875 2.9528915882110595703 3.4365174770355224609 3.8971743583679199219 2.6028189659118652344 4.5399084091186523438 4.3018159866333007812 1.0720099210739135742 1.8413472175598144531 1.6874849796295166016 0.86028051376342773438 4.0463094711303710938 3.9792284965515136719 2.1116800308227539062 0.68363797664642333984 
8.9344377517700195312 6.3347668647766113281 1.5995389223098754883 2.7138361930847167969 3.7778527736663818359 4.76058197021484375 5.0225825309753417969 3.7539384365081787109 2.5259962081909179688 3.3390202522277832031 3.7939832210540771484 4.5889706611633300781 3.5288338661193847656 3.7863874435424804688 2.0972571372985839844 0.32443749904632568359 2.0668346881866455078 1.6201481819152832031 1.4221858978271484375 5.5474328994750976562 7.4098610877990722656 0.32443749904632568359 6.2856054306030273438 2.7797441482543945312 6.6899394989013671875 3.4746387004852294922 1.6962668895721435547 4.4649405479431152344 5.2156686782836914062 4.3896565437316894531 2.9575684070587158203 1.9777141809463500977 2.1530325412750244141 1.5430014133453369141 4.2827820777893066406 1.2278475761413574219 8.6038541793823242188 2.6212205886840820312 2.0064237117767333984 0.068901628255844116211 1.0278135538101196289 4.3962635993957519531 2.1156926155090332031 1.4850068092346191406 0.57686471939086914062 1.2807619571685791016 0.20851600170135498047 2.9836590290069580078 2.5204992294311523438 0.34934848546981811523 0.015058999881148338318 0.015058999881148338318 0.015058999881148338318 0.015058999881148338318 4.1053342819213867188 5.4148130416870117188 2.7495491504669189453 3.3172996044158935547 3.8915762901306152344 6.1084666252136230469 4.5293369293212890625 6.6909956932067871094 7.5008168220520019531 2.8615598678588867188 3.4734282493591308594 1.8571585416793823242 1.8081270456314086914 2.9039862155914306641 5.1263132095336914062 6.4729933738708496094 0.88326150178909301758 0.74070310592651367188 2.117076873779296875 3.1181645393371582031 3.3300158977508544922 2.0498564243316650391 2.9963724613189697266 2.8551535606384277344 0.30068007111549377441 0.64999157190322875977 1.5378582477569580078 2.9282331466674804688 1.0393946170806884766 2.5667784214019775391 4.2201094627380371094 4.0399427413940429688 0.015058999881148338318 
6.3484830856323242188 3.2813506126403808594 2.5511195659637451172 3.5971419811248779297 6.8588051795959472656 4.8674287796020507812 4.8037614822387695312 4.3841862678527832031 2.8015534877777099609 4.2703976631164550781 4.5361933708190917969 6.2559666633605957031 3.6945645809173583984 3.921905517578125 2.2801659107208251953 2.9305157661437988281 1.9808213710784912109 3.0870318412780761719 3.9312686920166015625 2.8864560127258300781 4.4949221611022949219 2.6540529727935791016 6.5924425125122070312 7.1903624534606933594 7.6399998664855957031 7.574077606201171875 3.7988314628601074219 4.3206434249877929688 5.2899489402770996094 3.2609400749206542969 3.9714128971099853516 1.5765273571014404297 6.4889020919799804688 9.0895509719848632812 3.8030407428741455078 2.9567589759826660156 3.9004056453704833984 0.49529999494552612305 0.76567506790161132812 1.0097907781600952148 2.4417934417724609375 4.5640535354614257812 5.6197562217712402344 5.0054116249084472656 0.86051166057586669922 0.20851600170135498047 0.20851600170135498047 1.9414156675338745117 2.8352253437042236328 3.1407251358032226562 0.015058999881148338318 0.015058999881148338318 0.015058999881148338318 2.3840436935424804688 2.6774580478668212891 3.2709212303161621094 4.6156797409057617188 3.5825984477996826172 4.3958873748779296875 4.1377305984497070312 3.5712885856628417969 5.612712860107421875 5.8728761672973632812 5.05716705322265625 5.7069911956787109375 3.1055529117584228516 3.0192518234252929688 4.8240761756896972656 7.3025035858154296875 3.2217752933502197266 1.9080237150192260742 1.5538485050201416016 2.0030798912048339844 2.0402195453643798828 1.4855915307998657227 3.3079288005828857422 4.7405467033386230469 3.0999021530151367188 0.78380244970321655273 0.70702791213989257812 2.7715036869049072266 4.1788048744201660156 2.1636459827423095703 2.5495946407318115234 3.2645151615142822266 4.2751975059509277344 0.3977127373218536377 
4.6520547866821289062 2.3746211528778076172 4.2187900543212890625 3.6005878448486328125 8.238864898681640625 5.8519878387451171875 6.5744504928588867188 5.8905377388000488281 0.4473349452018737793 1.1111934185028076172 3.3248534202575683594 3.5089600086212158203 4.9000072479248046875 2.58599090576171875 1.3599617481231689453 1.6883985996246337891 1.3292682170867919922 2.8260953426361083984 5.0749573707580566406 7.3375144004821777344 7.6399998664855957031 7.6399998664855957031 7.6399998664855957031 7.6399998664855957031 4.4769101142883300781 5.6630511283874511719 5.5531153678894042969 3.5871801376342773438 5.5197601318359375 9.6713628768920898438 6.9499754905700683594 4.8618330955505371094 3.2568144798278808594 7.3092775344848632812 2.9503052234649658203 4.0251340866088867188 6.1273665428161621094 0.49529999494552612305 0.49529999494552612305 0.49529999494552612305 3.3671424388885498047 5.3492298126220703125 6.0312228202819824219 3.3430840969085693359 0.93897455930709838867 2.6638479232788085938 0.64136737585067749023 0.13942421972751617432 0.015058999881148338318 0.015058999881148338318 0.015058999881148338318 0.015058999881148338318 0.015058999881148338318 0.015058999881148338318 4.0609989166259765625 5.0682473182678222656 4.1778340339660644531 3.9950838088989257812 5.0670871734619140625 4.3058238029479980469 3.8606195449829101562 2.6171317100524902344 6.3795571327209472656 3.8653919696807861328 5.7545943260192871094 4.2995257377624511719 4.1722612380981445312 7.0087599754333496094 7.3620090484619140625 1.4633737802505493164 4.4345564842224121094 3.4856107234954833984 3.5190970897674560547 3.7669069766998291016 2.3536067008972167969 2.6874241828918457031 2.8116724491119384766 2.2245533466339111328 0.25581517815589904785 4.7235217094421386719 2.9477839469909667969 1.4240431785583496094 1.3946092128753662109 0.99852716922760009766 1.3034156560897827148 0.26473119854927062988 0.90397626161575317383 
3.9706912040710449219 3.0314261913299560547 3.8020417690277099609 3.9649436473846435547 3.9043991565704345703 4.3692617416381835938 7.2688469886779785156 3.6801259517669677734 3.7622003555297851562 3.7268605232238769531 3.2837131023406982422 3.5116751194000244141 3.8311965465545654297 3.6609737873077392578 4.1243529319763183594 1.7173784971237182617 4.4491934776306152344 7.6399998664855957031 7.6399998664855957031 7.6399998664855957031 7.6399998664855957031 7.6399998664855957031 6.7654256820678710938 5.0870833396911621094 7.5138139724731445312 6.7469301223754882812 2.5401005744934082031 4.9547486305236816406 7.5991921424865722656 2.6089878082275390625 3.6229577064514160156 2.053936004638671875 3.3447179794311523438 4.3550944328308105469 5.1728281974792480469 10.052054405212402344 8.7937917709350585938 1.1646621227264404297 0.49529999494552612305 1.0532938241958618164 5.4142932891845703125 5.8463640213012695312 3.9467902183532714844 1.2354043722152709961 1.2416293621063232422 0.74891138076782226562 0.20851600170135498047 0.47286301851272583008 0.015058999881148338318 0.015058999881148338318 0.015058999881148338318 0.015058999881148338318 0.015058999881148338318 0.015058999881148338318 3.8784153461456298828 5.4131984710693359375 2.37635040283203125 2.2696537971496582031 2.5083200931549072266 3.2214708328247070312 5.7707109451293945312 5.4240860939025878906 4.2405800819396972656 4.7282395362854003906 8.2180490493774414062 6.2967729568481445312 7.70539093017578125 6.0820207595825195312 6.1251630783081054688 1.2974188327789306641 4.6957464218139648438 2.7468435764312744141 2.2119061946868896484 4.2900362014770507812 3.4529774188995361328 3.4215433597564697266 1.6869620084762573242 1.4113781452178955078 1.451932072639465332 2.4778776168823242188 3.5824818611145019531 1.7506681680679321289 0.56742024421691894531 0.85244715213775634766 0.65172499418258666992 0.57284891605377197266 1.1288369894027709961 
3.5994985103607177734 4.68651580810546875 4.2594227790832519531 3.549945831298828125 3.3427731990814208984 3.2575845718383789062 4.53670501708984375 3.3412070274353027344 3.7174565792083740234 3.0961928367614746094 2.8447871208190917969 3.5699439048767089844 4.2472729682922363281 4.2667708396911621094 1.9380910396575927734 3.1122117042541503906 7.6399998664855957031 7.6399998664855957031 7.6399998664855957031 7.6763982772827148438 7.4740977287292480469 7.2623610496520996094 2.5321543216705322266 4.5054922103881835938 3.0342402458190917969 1.0831751823425292969 1.6425980329513549805 3.3702435493469238281 5.0159955024719238281 2.5336055755615234375 0.94615089893341064453 0.35964143276214599609 2.6093044281005859375 5.1166243553161621094 3.7292749881744384766 3.6986296176910400391 1.7792673110961914062 0.66378301382064819336 2.6695809364318847656 4.4969849586486816406 6.5558371543884277344 5.1464929580688476562 2.7805910110473632812 2.0556807518005371094 2.9040915966033935547 2.6602606773376464844 1.8805446624755859375 1.8245314359664916992 0.015058999881148338318 1.2848001718521118164 1.7104256153106689453 0.015058999881148338318 1.6740765571594238281 2.8080086708068847656 4.5552420616149902344 4.1092858314514160156 5.5319714546203613281 2.7127645015716552734 4.1964001655578613281 4.5300045013427734375 2.4656913280487060547 5.4977746009826660156 7.8314981460571289062 7.4040808677673339844 5.969257354736328125 5.5924310684204101562 5.351123809814453125 3.9066205024719238281 3.6645152568817138672 1.9696598052978515625 3.9659299850463867188 3.0029866695404052734 3.1768124103546142578 3.9814255237579345703 4.5674257278442382812 1.7403045892715454102 0.015058999881148338318 1.7962838411331176758 3.7836306095123291016 2.0192105770111083984 4.165584564208984375 0.81896734237670898438 1.1525068283081054688 1.747229456901550293 0.99101042747497558594 0.31005394458770751953 0.57717227935791015625 
4.0418262481689453125 3.500499725341796875 5.493099212646484375 2.7593965530395507812 2.7639906406402587891 5.5348234176635742188 3.4242262840270996094 2.9262146949768066406 3.2642762660980224609 1.5312817096710205078 3.6935274600982666016 2.8460721969604492188 1.8851093053817749023 2.1445314884185791016 1.5782876014709472656 7.1903624534606933594 7.6399998664855957031 6.4107732772827148438 6.6936349868774414062 8.6636714935302734375 7.52855682373046875 1.7026609182357788086 0.96278053522109985352 3.8579871654510498047 0.97294479608535766602 2.3118181228637695312 2.7842581272125244141 1.4949334859848022461 3.2293975353240966797 0.61342096328735351562 0.62227213382720947266 0.59281343221664428711 2.7072610855102539062 5.0479459762573242188 2.7676916122436523438 4.6865086555480957031 1.8503961563110351562 1.4310202598571777344 3.5635654926300048828 4.4586234092712402344 3.8526778221130371094 2.4438817501068115234 2.2653017044067382812 3.0203914642333984375 1.9299093484878540039 5.1575350761413574219 4.4531650543212890625 0.28519454598426818848 0.21358600258827209473 1.3710540533065795898 2.7446630001068115234 2.7665750980377197266 5.5938267707824707031 5.1487574577331542969 6.0836701393127441406 5.237148284912109375 4.449737548828125 4.3157672882080078125 4.390163421630859375 4.633541107177734375 5.5712299346923828125 6.8589863777160644531 6.2898421287536621094 5.2240719795227050781 2.5905163288116455078 3.6251330375671386719 3.3183255195617675781 5.0889983177185058594 5.4189991950988769531 3.3121151924133300781 4.9740567207336425781 2.5896697044372558594 2.2999525070190429688 1.8777824640274047852 3.2702720165252685547 4.9477663040161132812 3.3013718128204345703 3.5890667438507080078 1.3939945697784423828 1.7819410562515258789 7.0833153724670410156 4.0949950218200683594 2.7921733856201171875 3.7862951755523681641 1.8808031082153320312 3.4868457317352294922 8.0646038055419921875 
2.0615291595458984375 0.43816688656806945801 2.3345472812652587891 3.0617554187774658203 4.0665187835693359375 4.875667572021484375 4.0829792022705078125 2.9552392959594726562 3.6533269882202148438 2.1140248775482177734 2.6131718158721923828 4.0242328643798828125 2.4847235679626464844 2.1170868873596191406 7.6341829299926757812 7.6399998664855957031 7.6399998664855957031 7.6399998664855957031 8.0177745819091796875 7.8311886787414550781 8.7954120635986328125 5.8377118110656738281 5.6483602523803710938 2.5812737941741943359 3.7046082019805908203 2.8648416996002197266 3.5027439594268798828 3.7428696155548095703 3.8521301746368408203 3.3571391105651855469 1.2214639186859130859 3.4789307117462158203 4.7250847816467285156 5.363964080810546875 4.3279504776000976562 3.3500301837921142578 0.73444020748138427734 3.545223236083984375 4.0733046531677246094 2.39612579345703125 2.6998298168182373047 1.8639254570007324219 1.525555729866027832 3.7181589603424072266 5.3869752883911132812 2.8946290016174316406 1.1545271873474121094 0.28519454598426818848 1.9815567731857299805 4.7810382843017578125 6.3689279556274414062 4.7024235725402832031 2.8527650833129882812 4.9340505599975585938 4.8433752059936523438 4.2455210685729980469 1.6951698064804077148 3.3241674900054931641 3.9134531021118164062 3.5371763706207275391 5.1891183853149414062 6.1757411956787109375 5.0265879631042480469 4.2788543701171875 3.1432027816772460938 3.1125164031982421875 3.0846283435821533203 3.7849161624908447266 2.9520344734191894531 4.5397853851318359375 4.2035632133483886719 2.7262542247772216797 3.7568192481994628906 4.2066984176635742188 1.1827741861343383789 0.31551769375801086426 0.9652315974235534668 2.3057081699371337891 1.9077160358428955078 3.8848814964294433594 5.5978331565856933594 3.6121609210968017578 6.0980830192565917969 9.431232452392578125 6.6121563911437988281 6.154438018798828125 5.3218517303466796875 
5.5717978477478027344 3.9692394733428955078 2.4313263893127441406 2.1980075836181640625 4.2551965713500976562 3.3955643177032470703 5.5780272483825683594 2.3431673049926757812 5.2427034378051757812 2.9949295520782470703 0.42104473710060119629 0.4847411811351776123 0.44874286651611328125 2.1756250858306884766 2.1518833637237548828 7.6399998664855957031 7.6399998664855957031 7.6808023452758789062 7.8091382980346679688 5.9767961502075195312 3.9488015174865722656 2.8085150718688964844 6.3605699539184570312 7.1183710098266601562 3.1574051380157470703 2.6562008857727050781 2.4801201820373535156 2.1680638790130615234 1.3567832708358764648 1.779391169548034668 2.0360956192016601562 1.5196137428283691406 2.6088891029357910156 3.3782100677490234375 3.8456580638885498047 3.3194804191589355469 3.7622351646423339844 3.9236063957214355469 3.4252970218658447266 2.1484425067901611328 4.0301728248596191406 4.230854034423828125 4.2570405006408691406 5.617401123046875 5.2788782119750976562 3.0149240493774414062 0.71497976779937744141 1.3574044704437255859 3.7873864173889160156 6.1511473655700683594 4.608753204345703125 5.1045732498168945312 4.8235602378845214844 5.3149065971374511719 3.8908317089080810547 3.4619326591491699219 1.7696532011032104492 3.3989555835723876953 5.5072827339172363281 8.1291799545288085938 4.64469146728515625 5.2083330154418945312 4.5586767196655273438 3.8343234062194824219 3.8989727497100830078 5.0722703933715820312 4.348026275634765625 4.4435858726501464844 4.3175921440124511719 5.8656334877014160156 4.4525737762451171875 3.7626254558563232422 2.6434929370880126953 3.5847897529602050781 1.7845612764358520508 2.7774608135223388672 5.1647291183471679688 5.4447908401489257812 5.8626389503479003906 5.3220458030700683594 6.2747368812561035156 8.1821918487548828125 7.6945443153381347656 7.2151818275451660156 7.6601796150207519531 4.7133917808532714844 5.2828631401062011719 
2.8030829429626464844 3.1507470607757568359 2.9775269031524658203 3.1375341415405273438 2.9466519355773925781 4.5436263084411621094 3.8078913688659667969 3.590518951416015625 5.2829236984252929688 2.1294775009155273438 1.5637559890747070312 1.4809397459030151367 0.37461987137794494629 0.40617144107818603516 6.5154376029968261719 7.6399998664855957031 7.28639984130859375 7.1923427581787109375 4.6368756294250488281 4.0932402610778808594 3.0483663082122802734 2.6599953174591064453 4.8941130638122558594 7.7626581192016601562 3.2635483741760253906 3.2783398628234863281 2.5832934379577636719 3.0008327960968017578 1.0348361730575561523 1.772688746452331543 1.5136253833770751953 1.1156926155090332031 4.570285797119140625 3.8086447715759277344 4.6136608123779296875 5.82299041748046875 3.4071304798126220703 2.6227200031280517578 4.5156431198120117188 5.678562164306640625 4.9320273399353027344 2.6963737010955810547 1.8026021718978881836 4.4015836715698242188 4.8087921142578125 5.2754793167114257812 2.1779334545135498047 2.3004055023193359375 2.1528594493865966797 5.1394772529602050781 3.9528608322143554688 0.93465954065322875977 0.49529999494552612305 0.49529999494552612305 0.66260033845901489258 0.87797594070434570312 5.6541919708251953125 4.9830532073974609375 4.9363336563110351562 7.7228064537048339844 4.5076203346252441406 4.2534718513488769531 3.1445162296295166016 3.5877971649169921875 3.8987886905670166016 3.8873777389526367188 3.9305062294006347656 4.2015566825866699219 6.8068642616271972656 6.9937186241149902344 6.1518001556396484375 4.6554594039916992188 5.593509674072265625 5.9131565093994140625 4.6225075721740722656 2.5867717266082763672 1.3697108030319213867 3.5661091804504394531 6.9459786415100097656 6.1650691032409667969 7.8955636024475097656 7.1734399795532226562 8.2039461135864257812 6.37358856201171875 6.9947390556335449219 5.445804595947265625 1.5468194484710693359 
2.3633763790130615234 2.7354986667633056641 2.3889982700347900391 6.6204404830932617188 6.9783911705017089844 5.9682374000549316406 5.1415019035339355469 2.7727832794189453125 1.6121392250061035156 1.9831929206848144531 5.5354051589965820312 1.5816835165023803711 0.34678950905799865723 7.0404829978942871094 7.2493195533752441406 6.3236794471740722656 5.2462096214294433594 2.8879570960998535156 3.0915541648864746094 2.681835174560546875 3.0631594657897949219 3.1166167259216308594 5.0713477134704589844 8.7136240005493164062 3.1931345462799072266 3.2947437763214111328 3.4999995231628417969 2.4952831268310546875 1.9966827630996704102 0.49529999494552612305 1.9563509225845336914 3.2093257904052734375 6.5457983016967773438 3.5233762264251708984 4.25286865234375 5.6963334083557128906 4.0561342239379882812 4.455745697021484375 6.0255694389343261719 3.3116617202758789062 0.015058999881148338318 0.015058999881148338318 1.312435150146484375 4.9775552749633789062 5.2057232856750488281 5.3978991508483886719 5.7243824005126953125 4.982418060302734375 3.9357826709747314453 2.0266902446746826172 5.4284543991088867188 0.76320880651473999023 0.49529999494552612305 0.49529999494552612305 0.49529999494552612305 4.4566187858581542969 6.3149900436401367188 5.9397683143615722656 6.4575715065002441406 8.3206539154052734375 4.5690445899963378906 3.3482577800750732422 4.8204836845397949219 2.9479200839996337891 3.7337861061096191406 3.5954840183258056641 4.6650328636169433594 3.1531357765197753906 7.3437104225158691406 3.6883084774017333984 7.2064023017883300781 6.2791895866394042969 5.0705370903015136719 3.0161070823669433594 2.1104922294616699219 1.6113244295120239258 2.9329843521118164062 3.1978020668029785156 3.9290862083435058594 6.3226747512817382812 5.8676724433898925781 4.5606517791748046875 3.6606934070587158203 3.7095160484313964844 7.4319386482238769531 2.1589143276214599609 1.3598229885101318359 
1.9961104393005371094 3.1470458507537841797 2.1416819095611572266 6.7350640296936035156 4.0521345138549804688 5.8843536376953125 2.1491227149963378906 0.33063334226608276367 0.98340767621994018555 2.9262793064117431641 0.30772501230239868164 0.31804180145263671875 0.33062499761581420898 1.0783166885375976562 5.3775687217712402344 4.6936998367309570312 1.8795821666717529297 1.5263503789901733398 5.7989315986633300781 4.6550831794738769531 2.8640089035034179688 4.4891304969787597656 5.0725388526916503906 5.3448781967163085938 2.5743465423583984375 3.2304646968841552734 2.5688064098358154297 3.147064208984375 0.91248697042465209961 0.49529999494552612305 3.1556406021118164062 10.635883331298828125 2.4322528839111328125 4.1392335891723632812 7.6399998664855957031 5.416591644287109375 4.5935196876525878906 5.1968512535095214844 2.9140970706939697266 0.015058999881148338318 0.015058999881148338318 0.015058999881148338318 2.4212510585784912109 4.7506122589111328125 4.8237600326538085938 5.2307586669921875 3.9832022190093994141 4.7606754302978515625 5.7719068527221679688 5.4209103584289550781 5.1520695686340332031 2.6609618663787841797 0.49529999494552612305 0.49529999494552612305 0.76320880651473999023 6.678791046142578125 6.5121965408325195312 5.7543244361877441406 5.0072393417358398438 7.8917908668518066406 4.258941650390625 4.8619871139526367188 4.3480138778686523438 2.2110273838043212891 3.5773613452911376953 7.9472832679748535156 5.4169316291809082031 3.4576032161712646484 4.4888629913330078125 4.0401458740234375 4.8188657760620117188 5.1701254844665527344 3.9304537773132324219 1.6427718400955200195 2.2394516468048095703 1.6066008806228637695 4.4041619300842285156 5.1627211570739746094 5.1742343902587890625 5.7487134933471679688 4.5055327415466308594 7.2799577713012695312 2.9247670173645019531 1.9399011135101318359 1.1442295312881469727 0.89236783981323242188 2.3687624931335449219 
2.0395846366882324219 2.4205594062805175781 2.7072887420654296875 2.7732586860656738281 4.6114645004272460938 3.7719831466674804688 0.27322447299957275391 1.6596419811248779297 2.4078071117401123047 4.0615324974060058594 1.0053609609603881836 3.37322998046875 4.6007246971130371094 5.5986571311950683594 7.6399998664855957031 4.5362696647644042969 3.4587233066558837891 3.8647613525390625 2.5932548046112060547 7.3309121131896972656 3.7662625312805175781 5.735004425048828125 3.9618566036224365234 4.9170737266540527344 3.4714725017547607422 3.8634650707244873047 2.5023872852325439453 2.9206180572509765625 1.4793288707733154297 0.76320880651473999023 5.5235400199890136719 3.2770035266876220703 0.93238317966461181641 4.835132598876953125 7.416629791259765625 5.3992919921875 4.9249811172485351562 2.7301342487335205078 0.015058999881148338318 0.015058999881148338318 0.015058999881148338318 0.58652710914611816406 4.9170484542846679688 5.4958539009094238281 4.7406263351440429688 5.5070133209228515625 4.9554433822631835938 5.4545354843139648438 5.0194377899169921875 5.3317432403564453125 5.1290187835693359375 5.4217529296875 1.4542771577835083008 0.49529999494552612305 3.3702929019927978516 5.7055745124816894531 5.9617486000061035156 5.5668139457702636719 7.139057159423828125 7.0967240333557128906 3.8506450653076171875 6.1045598983764648438 3.4144670963287353516 2.6233224868774414062 4.6635155677795410156 7.0048022270202636719 3.5511021614074707031 6.2662568092346191406 6.8356995582580566406 5.0858850479125976562 2.6160237789154052734 3.5133762359619140625 3.3195326328277587891 2.827121734619140625 4.7491202354431152344 5.0932931900024414062 5.1542596817016601562 3.9387671947479248047 4.9839715957641601562 3.5828964710235595703 3.2446169853210449219 3.306793212890625 1.7187610864639282227 1.9702470302581787109 0.26473119854927062988 1.5621018409729003906 2.3848416805267333984 
3.2373471260070800781 1.0237298011779785156 2.0311727523803710938 1.7127852439880371094 1.049746394157409668 2.5765631198883056641 1.460122227668762207 3.5891718864440917969 4.363002777099609375 2.0836005210876464844 3.1399767398834228516 5.8327813148498535156 7.6399998664855957031 7.6399998664855957031 7.6399998664855957031 2.1708047389984130859 2.0665013790130615234 3.4924428462982177734 1.1922600269317626953 4.4650540351867675781 4.4225406646728515625 7.1355690956115722656 2.4558293819427490234 3.3983988761901855469 4.038127899169921875 2.6698181629180908203 2.8797411918640136719 3.1574435234069824219 0.62999117374420166016 2.7869420051574707031 5.0548062324523925781 0.29519957304000854492 0.69433605670928955078 4.1255717277526855469 6.8533658981323242188 4.9114742279052734375 4.90625 0.4377002716064453125 0.015058999881148338318 0.74677312374114990234 3.9818849563598632812 6.3951158523559570312 5.6620655059814453125 4.8562178611755371094 5.7955865859985351562 5.3686985969543457031 4.5445489883422851562 1.9299303293228149414 3.5244100093841552734 5.6858654022216796875 5.883453369140625 5.6700310707092285156 4.9373097419738769531 5.0303902626037597656 6.3355422019958496094 5.79102325439453125 5.5477504730224609375 4.9784784317016601562 4.5232610702514648438 3.4469778537750244141 5.9882340431213378906 4.9365983009338378906 4.2808594703674316406 4.1750550270080566406 4.8521914482116699219 4.8007354736328125 3.8331122398376464844 4.0925836563110351562 3.0885319709777832031 3.7745733261108398438 3.1149518489837646484 1.7696285247802734375 1.1477428674697875977 2.5273840427398681641 5.0030465126037597656 6.3685231208801269531 3.2706658840179443359 1.3303681612014770508 0.73595649003982543945 1.1779536008834838867 2.0526683330535888672 2.1654591560363769531 1.5003887414932250977 2.4362692832946777344 1.113452911376953125 1.3986599445343017578 1.5350234508514404297 
3.8144419193267822266 2.9386117458343505859 2.0558748245239257812 1.7669854164123535156 3.3156414031982421875 2.5461874008178710938 5.3452205657958984375 5.6534433364868164062 3.9646902084350585938 3.18335723876953125 5.4098386764526367188 7.1903624534606933594 7.6399998664855957031 7.6399998664855957031 7.6399998664855957031 5.0254330635070800781 3.5190753936767578125 2.5148766040802001953 2.1211450099945068359 1.6232222318649291992 3.8626408576965332031 6.2084975242614746094 3.5897786617279052734 6.2439188957214355469 5.8307309150695800781 3.2286257743835449219 3.2141056060791015625 2.4702212810516357422 1.436000823974609375 4.0555248260498046875 2.1294040679931640625 0.28210079669952392578 1.553007960319519043 4.8444695472717285156 7.380474090576171875 6.976505279541015625 4.466846466064453125 1.1032123565673828125 0.015058999881148338318 4.0146331787109375 4.9282522201538085938 5.1198835372924804688 5.8502817153930664062 4.8821539878845214844 5.7157816886901855469 5.452388763427734375 1.9167052507400512695 4.6172637939453125 1.9673382043838500977 6.1081528663635253906 5.698810577392578125 4.9891791343688964844 5.0253729820251464844 5.72771453857421875 5.8796849250793457031 5.6945009231567382812 4.9407472610473632812 1.9155210256576538086 1.6448221206665039062 1.730349421501159668 3.2729673385620117188 4.0541939735412597656 3.9091045856475830078 5.4805898666381835938 4.3147521018981933594 4.7480173110961914062 4.6504559516906738281 3.6848270893096923828 1.0150929689407348633 3.1502928733825683594 7.2555818557739257812 2.7180707454681396484 2.9588007926940917969 2.625080108642578125 4.3553109169006347656 5.0209627151489257812 3.9722247123718261719 0.82240331172943115234 0.73470509052276611328 0.60825383663177490234 2.6812484264373779297 1.9023700952529907227 1.7020827531814575195 1.7700293064117431641 1.4402363300323486328 2.1575014591217041016 3.1115064620971679688 
2.5690436363220214844 1.1853996515274047852 1.3650079965591430664 3.1411554813385009766 4.5892496109008789062 7.9870634078979492188 5.1980743408203125 4.2084150314331054688 3.6597781181335449219 2.2313818931579589844 7.6399998664855957031 7.6399998664855957031 6.7810487747192382812 7.6399998664855957031 7.6399998664855957031 7.0130400657653808594 9.3998384475708007812 3.6443495750427246094 4.5283226966857910156 3.2400174140930175781 2.7998104095458984375 4.4011087417602539062 4.3144364356994628906 7.8916125297546386719 5.1225657463073730469 4.5368127822875976562 4.1119809150695800781 4.4687161445617675781 3.270328521728515625 2.4895386695861816406 3.6149322986602783203 4.5594868659973144531 5.8241124153137207031 4.5698266029357910156 5.9679846763610839844 4.890384674072265625 4.4542684555053710938 3.0343081951141357422 1.6913673877716064453 5.228870391845703125 5.7805347442626953125 5.4384107589721679688 5.0854768753051757812 6.1126241683959960938 5.4268622398376464844 3.5640561580657958984 4.474334716796875 2.0925731658935546875 5.3368535041809082031 6.012424468994140625 6.8523697853088378906 7.3967700004577636719 5.8965854644775390625 4.8700957298278808594 5.4895849227905273438 5.1727042198181152344 2.4114592075347900391 2.4354774951934814453 2.2507760524749755859 1.8708045482635498047 1.5211832523345947266 5.1195917129516601562 4.9645509719848632812 4.5335979461669921875 3.0282108783721923828 3.9015910625457763672 4.4810476303100585938 7.2403306961059570312 4.5033540725708007812 3.9371356964111328125 4.336772918701171875 1.3780790567398071289 1.453657984733581543 4.3276700973510742188 6.2235498428344726562 5.6656494140625 5.1563191413879394531 3.0932977199554443359 1.0854978561401367188 0.60825383663177490234 3.1120419502258300781 1.5342770814895629883 1.8754212856292724609 2.7579407691955566406 3.1090288162231445312 1.7185355424880981445 0.84123754501342773438 
3.0522687435150146484 7.9644894599914550781 2.9250032901763916016 3.539875030517578125 4.3661351203918457031 8.2260675430297851562 6.2994666099548339844 2.4657237529754638672 2.7689607143402099609 7.0404829978942871094 7.6399998664855957031 7.5635938644409179688 7.3171672821044921875 7.4495143890380859375 7.6399998664855957031 4.3040881156921386719 10.100637435913085938 6.6221075057983398438 8.0704298019409179688 6.7078995704650878906 5.577457427978515625 4.5195860862731933594 8.4343414306640625 6.4429674148559570312 4.2840027809143066406 3.9855425357818603516 2.3593273162841796875 3.0391435623168945312 5.3293957710266113281 2.6305835247039794922 2.4387004375457763672 7.6399998664855957031 7.6399998664855957031 4.1331181526184082031 5.1071844100952148438 4.5447854995727539062 5.61396026611328125 4.4414048194885253906 4.2643866539001464844 5.1249713897705078125 5.0227007865905761719 4.9390897750854492188 5.9377226829528808594 6.7634387016296386719 5.3243532180786132812 3.5331275463104248047 2.6050095558166503906 5.9816222190856933594 6.1532530784606933594 3.1293964385986328125 5.5610303878784179688 5.388248443603515625 6.3513336181640625 5.4968671798706054688 4.6125779151916503906 3.0705389976501464844 1.6717275381088256836 4.3992633819580078125 3.9104554653167724609 1.7109383344650268555 3.4694423675537109375 4.7539210319519042969 4.343776702880859375 3.9129145145416259766 4.5637264251708984375 4.3049645423889160156 4.6316766738891601562 8.3105630874633789062 5.0609350204467773438 3.1350979804992675781 1.1507817506790161133 0.46120119094848632812 3.8684792518615722656 3.9777660369873046875 6.9971704483032226562 6.411968231201171875 4.5499720573425292969 2.9257280826568603516 0.47161054611206054688 0.58378130197525024414 4.79865264892578125 1.2362353801727294922 0.7969124913215637207 2.7854552268981933594 3.379749298095703125 0.42110350728034973145 0.94582849740982055664 
4.8435120582580566406 4.6611247062683105469 2.0540850162506103516 5.2167453765869140625 4.14499664306640625 5.3161911964416503906 4.374481201171875 1.9845633506774902344 1.5900491476058959961 7.0289249420166015625 7.6399998664855957031 7.360782623291015625 5.8463826179504394531 7.46136474609375 7.6399998664855957031 7.6584715843200683594 4.9898920059204101562 4.8580689430236816406 6.7199368476867675781 7.5914411544799804688 6.8327298164367675781 7.6497845649719238281 6.7343473434448242188 4.3009657859802246094 5.2223300933837890625 2.7306923866271972656 3.0540339946746826172 4.9816842079162597656 2.4622731208801269531 6.2232999801635742188 1.2283915281295776367 3.8275294303894042969 6.2500796318054199219 2.5308716297149658203 3.5657579898834228516 1.800548553466796875 2.5144083499908447266 4.3317046165466308594 5.0356879234313964844 4.7009572982788085938 5.3568525314331054688 5.0470461845397949219 5.1430654525756835938 5.67034912109375 5.3259606361389160156 4.6567811965942382812 5.056552886962890625 5.5352792739868164062 5.9209804534912109375 5.4557852745056152344 5.2136807441711425781 5.6493005752563476562 6.3753418922424316406 6.0224118232727050781 4.7590451240539550781 2.5431470870971679688 3.5454831123352050781 4.0792446136474609375 2.3521380424499511719 3.3322091102600097656 4.3424820899963378906 5.3793077468872070312 4.2936067581176757812 4.6473894119262695312 2.5212450027465820312 3.2103357315063476562 4.9414544105529785156 8.3144178390502929688 4.2138957977294921875 2.0780744552612304688 1.1396017074584960938 0.35213148593902587891 5.014984130859375 6.0539460182189941406 6.5517630577087402344 6.0487279891967773438 5.7543849945068359375 3.0048940181732177734 0.23358231782913208008 5.5023036003112792969 3.8697607517242431641 1.1265271902084350586 1.7756476402282714844 2.3689913749694824219 1.8391386270523071289 0.81231546401977539062 0.95590698719024658203 
8.494815826416015625 4.6577305793762207031 3.840488433837890625 4.4461431503295898438 2.6573390960693359375 4.4364604949951171875 4.9911379814147949219 3.3133411407470703125 2.4765582084655761719 3.3513333797454833984 6.7469124794006347656 6.1722264289855957031 7.1653623580932617188 2.9079480171203613281 7.6127781867980957031 4.6491398811340332031 0.050954084843397140503 4.3682284355163574219 2.3405671119689941406 3.3384659290313720703 4.5918598175048828125 6.2970056533813476562 8.559024810791015625 5.4437656402587890625 4.2692437171936035156 3.8951432704925537109 3.3388473987579345703 5.5131449699401855469 2.0524246692657470703 3.8758325576782226562 2.3978531360626220703 1.3359450101852416992 3.9195184707641601562 4.5612196922302246094 2.8105206489562988281 0.19514937698841094971 0.10510418564081192017 0.16513431072235107422 3.1777374744415283203 5.2280726432800292969 5.4533843994140625 5.3164200782775878906 5.252628326416015625 6.0057077407836914062 5.3242297172546386719 4.5997114181518554688 5.5521159172058105469 4.8523607254028320312 5.6717844009399414062 4.9448437690734863281 7.0707445144653320312 5.7267870903015136719 6.5863022804260253906 6.3821587562561035156 3.7873697280883789062 0.45148372650146484375 1.4496998786926269531 3.8285360336303710938 2.0855374336242675781 3.2350001335144042969 0.2959467470645904541 3.7694034576416015625 4.2751517295837402344 3.3173847198486328125 3.6197292804718017578 8.1640911102294921875 8.3068990707397460938 7.888946533203125 4.43018341064453125 3.3540334701538085938 3.4457542896270751953 1.2594922780990600586 5.0114426612854003906 5.4946417808532714844 5.4983696937561035156 6.11072540283203125 4.6205773353576660156 5.454288482666015625 0.32068675756454467773 1.1148012876510620117 6.0679440498352050781 5.2801618576049804688 3.816402435302734375 3.82103729248046875 4.5224347114562988281 5.09374237060546875 4.1117062568664550781 
4.9174504280090332031 5.2934141159057617188 4.0306062698364257812 3.1356844902038574219 2.2830176353454589844 1.9979455471038818359 4.5470533370971679688 3.2585799694061279297 7.1162214279174804688 7.0289249420166015625 4.9559478759765625 5.2305865287780761719 2.6557614803314208984 3.1124336719512939453 6.0477366447448730469 4.6455035209655761719 0.50478464365005493164 4.1340074539184570312 2.2637982368469238281 3.2718911170959472656 4.2236952781677246094 4.1561417579650878906 4.7989892959594726562 4.1648578643798828125 4.6932272911071777344 3.3004543781280517578 6.3030972480773925781 4.070751190185546875 1.7183139324188232422 0.96817660331726074219 3.1923508644104003906 3.7437784671783447266 2.3530898094177246094 4.8421130180358886719 3.8450763225555419922 1.7048997879028320312 0.34522467851638793945 0.46528494358062744141 2.3643772602081298828 5.8342695236206054688 6.1497969627380371094 6.4191846847534179688 6.1105046272277832031 5.6772761344909667969 5.8532433509826660156 6.0293812751770019531 5.0248246192932128906 5.9643359184265136719 5.1017608642578125 4.1196274757385253906 6.2960495948791503906 5.7669568061828613281 6.2855830192565917969 5.9101324081420898438 3.7214188575744628906 2.4182360172271728516 1.38266754150390625 0.35689088702201843262 0.68386638164520263672 0.4081643223762512207 0.015058999881148338318 0.015058999881148338318 0.015058999881148338318 0.015058999881148338318 0.47864392399787902832 7.0100612640380859375 7.2923979759216308594 6.3254032135009765625 3.5340437889099121094 4.5802693367004394531 4.0077099800109863281 4.3609280586242675781 5.7220697402954101562 5.6504840850830078125 6.3809733390808105469 5.3781747817993164062 2.4245824813842773438 5.0735998153686523438 2.7879912853240966797 4.3080487251281738281 3.852603912353515625 1.4267240762710571289 0.43134456872940063477 3.7684140205383300781 5.0358872413635253906 6.2712016105651855469 7.6911988258361816406 
7.9639825820922851562 5.3994936943054199219 3.3449411392211914062 2.5891511440277099609 6.2086591720581054688 2.663818359375 2.4792680740356445312 2.0806844234466552734 2.0910329818725585938 7.8579921722412109375 7.2436900138854980469 7.3971953392028808594 10.742159843444824219 2.298099517822265625 7.6399998664855957031 5.2528429031372070312 3.4033787250518798828 3.8959627151489257812 3.8643980026245117188 4.2548813819885253906 4.2687244415283203125 4.5535750389099121094 3.6849460601806640625 3.4296185970306396484 3.8029873371124267578 4.78985595703125 6.1084799766540527344 3.5829141139984130859 1.5497831106185913086 1.4568264484405517578 3.8275294303894042969 2.8797516822814941406 3.9224126338958740234 3.8801763057708740234 3.9800145626068115234 4.3432035446166992188 0.34522467851638793945 0.31520962715148925781 3.4528629779815673828 6.1242041587829589844 5.4743714332580566406 5.3485155105590820312 6.2453479766845703125 6.4162473678588867188 5.7563199996948242188 6.3052797317504882812 4.9502363204956054688 4.7798900604248046875 6.622081756591796875 5.672580718994140625 4.5351538658142089844 5.4692263603210449219 5.2750263214111328125 6.0422353744506835938 5.0476369857788085938 4.3254771232604980469 3.0995764732360839844 3.4633893966674804688 1.7839212417602539062 0.61905837059020996094 1.8157331943511962891 1.3942781686782836914 2.0388667583465576172 3.3369858264923095703 4.6490311622619628906 6.2827420234680175781 6.7443394660949707031 4.90828704833984375 4.8403477668762207031 6.8234615325927734375 5.2611193656921386719 5.4315705299377441406 6.3670511245727539062 6.1193799972534179688 5.914157867431640625 4.9947123527526855469 4.0524206161499023438 3.9900772571563720703 2.0859458446502685547 1.6006212234497070312 2.9173009395599365234 0.82370942831039428711 1.3561551570892333984 2.5951685905456542969 4.691150665283203125 6.1115078926086425781 4.7560110092163085938 
4.0248889923095703125 1.880495905876159668 4.517337799072265625 6.6693553924560546875 4.0267467498779296875 4.2172002792358398438 2.1536307334899902344 0.29294687509536743164 0.43407937884330749512 8.1201725006103515625 6.2309365272521972656 7.3071565628051757812 0.2632020115852355957 0.24463950097560882568 7.6399998664855957031 2.3612010478973388672 1.2858372926712036133 1.9509292840957641602 3.7988290786743164062 4.7856388092041015625 4.3825817108154296875 4.1614880561828613281 2.8121399879455566406 3.0393147468566894531 3.185344696044921875 4.6745991706848144531 2.0799150466918945312 0.20477157831192016602 0.060232874006032943726 0.015058999881148338318 0.015058999881148338318 1.6416845321655273438 3.4333879947662353516 3.6886379718780517578 4.2775907516479492188 6.1223120689392089844 0.70625478029251098633 2.6855015754699707031 4.5471034049987792969 3.8247349262237548828 4.338985443115234375 4.4862036705017089844 5.5930714607238769531 5.7743253707885742188 5.650539398193359375 5.3352689743041992188 4.2493314743041992188 5.2339520454406738281 3.4427003860473632812 4.3627691268920898438 5.4322538375854492188 5.111331939697265625 5.7480330467224121094 6.7096505165100097656 6.8903555870056152344 7.0049190521240234375 7.3044590950012207031 1.4688738584518432617 0.015058999881148338318 2.2081182003021240234 1.2548271417617797852 0.015058999881148338318 3.275981903076171875 5.6789836883544921875 6.4402012825012207031 3.8274362087249755859 5.7000970840454101562 4.7743730545043945312 4.5805516242980957031 5.4346604347229003906 5.3926973342895507812 4.9515042304992675781 7.2225918769836425781 6.0880060195922851562 6.3388714790344238281 4.2524704933166503906 5.428813934326171875 2.7242381572723388672 1.7766821384429931641 2.3233661651611328125 2.4791162014007568359 3.6758670806884765625 0.015058999881148338318 0.37646156549453735352 5.6055026054382324219 5.1179018020629882812 4.0105385780334472656 
5.4804244041442871094 4.0796494483947753906 3.9964237213134765625 5.1977677345275878906 3.0444829463958740234 2.1105620861053466797 6.8947730064392089844 4.4043698310852050781 2.221050262451171875 2.2804493904113769531 4.3038845062255859375 3.3621988296508789062 0.24923124909400939941 4.3117690086364746094 7.5477628707885742188 2.1683332920074462891 0.015058999881148338318 3.3080122470855712891 3.2265303134918212891 2.0451130867004394531 3.0083425045013427734 4.7267208099365234375 2.3990814685821533203 3.7482135295867919922 4.2505774497985839844 0.52981555461883544922 0.28234374523162841797 0.29069998860359191895 0.48466783761978149414 0.015058999881148338318 0.015058999881148338318 0.766101837158203125 2.4317955970764160156 6.118160247802734375 3.9078588485717773438 5.0434784889221191406 3.7561438083648681641 6.3401083946228027344 2.4735746383666992188 2.8851568698883056641 3.7652809619903564453 5.1226515769958496094 4.814311981201171875 5.2983222007751464844 5.2510528564453125 4.5971789360046386719 3.6746978759765625 2.0624701976776123047 0.82226812839508056641 0.34522467851638793945 3.4581625461578369141 5.90332794189453125 4.9917664527893066406 5.8274388313293457031 6.9595012664794921875 5.29137420654296875 6.1712503433227539062 2.2473702430725097656 0.015058999881148338318 0.22425405681133270264 0.015058999881148338318 2.6578817367553710938 5.9349908828735351562 6.3952803611755371094 5.4732298851013183594 5.9342913627624511719 4.9252552986145019531 5.0412993431091308594 4.4421477317810058594 6.2729144096374511719 6.1113252639770507812 5.9596500396728515625 6.1049251556396484375 5.6709227561950683594 4.7891836166381835938 6.28199005126953125 6.2840352058410644531 3.451923370361328125 1.901358485221862793 1.9323880672454833984 1.6755435466766357422 2.5231008529663085938 1.3567464351654052734 1.377991795539855957 3.2387843132019042969 5.9116282463073730469 5.0033230781555175781 
1.2945661544799804688 3.2254636287689208984 4.9263081550598144531 4.4211363792419433594 3.0541443824768066406 1.9005298614501953125 6.4995584487915039062 2.7243103981018066406 3.6704878807067871094 1.6378755569458007812 3.0151002407073974609 4.5827045440673828125 1.4637449979782104492 2.1068999767303466797 7.4793071746826171875 3.3692140579223632812 0.015058999881148338318 2.9522175788879394531 4.2442460060119628906 4.5563206672668457031 3.8339066505432128906 4.1873445510864257812 4.2409229278564453125 4.3634095191955566406 5.9302682876586914062 3.0076527595520019531 0.5435860753059387207 0.85623985528945922852 0.015058999881148338318 0.015058999881148338318 0.015058999881148338318 0.66523087024688720703 1.1197123527526855469 4.9142308235168457031 6.2084565162658691406 3.2411952018737792969 4.599853515625 4.8194365501403808594 3.5849287509918212891 2.2492365837097167969 3.7200417518615722656 4.2638316154479980469 5.2450375556945800781 5.1492872238159179688 2.1648247241973876953 1.3216577768325805664 3.3805925846099853516 0.25517949461936950684 1.9596430063247680664 2.7410550117492675781 0.34522467851638793945 5.5163631439208984375 6.1365790367126464844 5.4279527664184570312 5.4775323867797851562 6.1548633575439453125 4.4966802597045898438 0.015058999881148338318 0.85416632890701293945 3.1364998817443847656 2.1190550327301025391 4.2409982681274414062 4.896022796630859375 5.9024934768676757812 5.5436029434204101562 4.7934598922729492188 5.3250489234924316406 5.2604031562805175781 5.2253499031066894531 6.6993937492370605469 6.3503541946411132812 6.149410247802734375 5.4721956253051757812 5.3295474052429199219 6.7755231857299804688 6.4620795249938964844 4.3564558029174804688 2.5783686637878417969 1.9038633108139038086 0.79071646928787231445 1.6531734466552734375 2.1309769153594970703 1.8583320379257202148 2.8601834774017333984 3.8371686935424804688 3.8725378513336181641 3.3389158248901367188 
1.4971246719360351562 3.5331544876098632812 5.0364308357238769531 3.6355183124542236328 3.3088328838348388672 3.7418780326843261719 4.3897647857666015625 2.0942337512969970703 4.0733628273010253906 2.2467737197875976562 4.0176439285278320312 3.1903052330017089844 7.9447221755981445312 1.298370361328125 7.6399998664855957031 4.8531932830810546875 2.0833976268768310547 2.2819375991821289062 2.6882038116455078125 3.9400086402893066406 2.9985392093658447266 5.7794957160949707031 5.9431333541870117188 3.4696669578552246094 2.1718850135803222656 0.55090528726577758789 0.35942500829696655273 0.1323280632495880127 0.015058999881148338318 0.015058999881148338318 0.015058999881148338318 0.015058999881148338318 0.46456754207611083984 1.7137918472290039062 5.6503477096557617188 5.5037946701049804688 3.8157129287719726562 3.2527766227722167969 5.1386499404907226562 2.7260358333587646484 4.8161606788635253906 5.5040225982666015625 5.508869171142578125 4.0868611335754394531 0.25517949461936950684 0.34522467851638793945 0.22516442835330963135 1.969246983528137207 6.9887785911560058594 6.4845752716064453125 6.4551553726196289062 6.0722532272338867188 4.9654545783996582031 4.8214740753173828125 5.3168358802795410156 5.6615099906921386719 4.8070502281188964844 0.28175437450408935547 1.4958575963973999023 4.8022613525390625 5.6557250022888183594 3.5060839653015136719 5.3648552894592285156 4.8092832565307617188 5.3635206222534179688 5.1946668624877929688 4.8509664535522460938 4.1601743698120117188 5.198574066162109375 6.373142242431640625 4.5594277381896972656 5.3866963386535644531 7.2758808135986328125 7.5409631729125976562 6.2179079055786132812 4.9327154159545898438 5.3132100105285644531 6.7706942558288574219 0.97918629646301269531 0.68563300371170043945 2.3859739303588867188 4.7665143013000488281 1.3025382757186889648 3.3840072154998779297 4.1256847381591796875 4.5887908935546875 2.9228408336639404297 
2.4918019771575927734 1.3509196043014526367 3.3150670528411865234 1.0302444696426391602 0.70882511138916015625 3.3374600410461425781 2.3615672588348388672 0.32319998741149902344 1.4622801542282104492 1.399428248405456543 3.1236417293548583984 3.2865037918090820312 7.3007183074951171875 5.1479902267456054688 4.8952279090881347656 5.1518492698669433594 3.4090621471405029297 2.3128793239593505859 3.3046536445617675781 2.9964704513549804688 2.8907861709594726562 4.0330333709716796875 4.5517277717590332031 4.8986768722534179688 1.5033769607543945312 0.280803680419921875 0.75180846452713012695 0.082220248878002166748 0.078485436737537384033 0.51277601718902587891 0.58260142803192138672 0.015058999881148338318 0.069256186485290527344 1.7034574747085571289 4.7575836181640625 7.7878670692443847656 5.4998178482055664062 3.2953550815582275391 7.1704306602478027344 4.5419287681579589844 4.5338759422302246094 5.0760507583618164062 5.4973592758178710938 4.9392104148864746094 4.6034488677978515625 3.635395050048828125 3.612335205078125 6.705577850341796875 7.2836718559265136719 4.0074329376220703125 6.2561178207397460938 5.5470557212829589844 5.9873089790344238281 3.7841577529907226562 3.7253878116607666016 4.8455457687377929688 5.0429797172546386719 5.2104711532592773438 4.8774619102478027344 4.9108028411865234375 3.8502705097198486328 1.4403274059295654297 4.2746777534484863281 4.7447257041931152344 2.6891815662384033203 4.0613179206848144531 5.0889678001403808594 5.6672720909118652344 4.7154455184936523438 5.2488255500793457031 6.1758809089660644531 6.0788679122924804688 4.8838605880737304688 5.2135992050170898438 6.2952671051025390625 4.8182878494262695312 5.1252574920654296875 6.9395041465759277344 1.6958576440811157227 1.6003527641296386719 3.7124142646789550781 6.6040668487548828125 2.3839261531829833984 4.4866557121276855469 4.4623260498046875 3.73970794677734375 4.5709552764892578125 
3.5775735378265380859 6.718532562255859375 7.6482415199279785156 3.0799243450164794922 1.973759770393371582 5.0546240806579589844 0.44797778129577636719 0.34240001440048217773 4.0855855941772460938 1.9926559925079345703 3.7425889968872070312 1.9366333484649658203 7.1816935539245605469 2.9259927272796630859 3.7846000194549560547 4.1200423240661621094 2.6719269752502441406 3.0322229862213134766 2.0294208526611328125 3.1571300029754638672 1.7725349664688110352 6.6799268722534179688 6.9381737709045410156 5.7838072776794433594 3.1993994712829589844 1.8171278238296508789 1.053456425666809082 1.375069737434387207 2.1178979873657226562 2.4307279586791992188 0.89397466182708740234 0.04540262371301651001 0.015058999881148338318 1.9571490287780761719 5.6287436485290527344 5.3463120460510253906 5.2835431098937988281 3.0895643234252929688 5.7005529403686523438 4.6730237007141113281 3.0467081069946289062 6.4906873703002929688 5.2163100242614746094 5.9121737480163574219 5.1623263359069824219 5.4671001434326171875 6.5053625106811523438 7.7053022384643554688 6.5259943008422851562 6.4821105003356933594 8.1372594833374023438 5.2192435264587402344 6.3852148056030273438 4.2203269004821777344 1.2852910757064819336 0.99923783540725708008 5.009021759033203125 6.0816216468811035156 4.9686512947082519531 5.0646548271179199219 2.529449462890625 4.5916476249694824219 4.3256897926330566406 6.2211108207702636719 5.6160554885864257812 6.44771575927734375 5.0903186798095703125 3.1238627433776855469 1.0280972719192504883 5.3889317512512207031 5.1009922027587890625 5.9331336021423339844 5.5848379135131835938 4.2294096946716308594 5.1595215797424316406 4.1572661399841308594 5.3580179214477539062 6.7621164321899414062 4.8254742622375488281 2.1577622890472412109 0.66898417472839355469 1.8825677633285522461 3.6112687587738037109 4.863330841064453125 4.4441847801208496094 4.718902587890625 5.4596033096313476562 
2.7390165328979492188 5.8561801910400390625 9.14762115478515625 2.3300023078918457031 6.1592516899108886719 3.4678251743316650391 0.46690666675567626953 1.7264041900634765625 2.1152944564819335938 2.4654853343963623047 6.2473230361938476562 1.3125051259994506836 7.6399998664855957031 6.173419952392578125 3.3831527233123779297 3.0641634464263916016 1.4205907583236694336 2.5443418025970458984 2.0225467681884765625 2.7649698257446289062 3.2273395061492919922 5.8243036270141601562 3.04068756103515625 3.4550566673278808594 3.7025761604309082031 6.1918382644653320312 4.4533014297485351562 2.2283895015716552734 1.3354355096817016602 0.23225963115692138672 0.75149595737457275391 1.1711510419845581055 0.015058999881148338318 4.5293898582458496094 3.1604833602905273438 5.6930918693542480469 5.1923031806945800781 4.5083813667297363281 6.4116153717041015625 4.0674762725830078125 4.532077789306640625 5.6840534210205078125 6.1453471183776855469 5.5392704010009765625 5.9610676765441894531 5.7483568191528320312 5.7417464256286621094 6.357860565185546875 5.9846062660217285156 5.6652827262878417969 5.6787805557250976562 5.8925409317016601562 3.5963430404663085938 3.1052844524383544922 3.2023262977600097656 2.7930219173431396484 8.0325746536254882812 7.451175689697265625 5.8512759208679199219 5.6138544082641601562 1.9132817983627319336 6.1131720542907714844 5.7754735946655273438 4.8533577919006347656 6.3055973052978515625 3.5851087570190429688 3.8018398284912109375 2.0548155307769775391 2.8439188003540039062 5.475307464599609375 5.59047698974609375 4.3443818092346191406 5.3887281417846679688 4.6929378509521484375 3.7487599849700927734 3.9583466053009033203 4.1862912178039550781 5.1663522720336914062 4.9353094100952148438 4.15241241455078125 4.0455617904663085938 3.1870875358581542969 4.3955760002136230469 5.9858808517456054688 5.1897082328796386719 4.4203095436096191406 4.8798418045043945312 
2.3248572349548339844 6.589813232421875 7.0939121246337890625 3.0108730792999267578 5.6321034431457519531 3.3896324634552001953 2.6700205802917480469 2.7111117839813232422 5.3054795265197753906 4.54871368408203125 4.5218386650085449219 1.9792103767395019531 7.6399998664855957031 7.2148694992065429688 6.0243668556213378906 2.6002213954925537109 3.7395777702331542969 2.7097420692443847656 2.2066471576690673828 2.3526794910430908203 2.8782169818878173828 1.9197715520858764648 2.1856045722961425781 2.5815713405609130859 4.70684051513671875 5.5129566192626953125 3.2889642715454101562 5.0119814872741699219 1.8756158351898193359 3.5931999683380126953 0.06981668621301651001 1.0764992237091064453 0.039241123944520950317 1.9333852529525756836 8.6271047592163085938 3.6839196681976318359 3.0114805698394775391 4.8162097930908203125 4.2653141021728515625 5.1901569366455078125 5.0443887710571289062 5.1345043182373046875 5.21924591064453125 4.4462847709655761719 5.0803785324096679688 6.0401721000671386719 5.6734433174133300781 7.4283623695373535156 6.6592259407043457031 5.5820064544677734375 3.7418265342712402344 5.6364126205444335938 2.9431908130645751953 0.8774464726448059082 2.1907074451446533203 5.1336202621459960938 5.9270768165588378906 6.1621069908142089844 7.1138391494750976562 4.5446710586547851562 0.31298285722732543945 0.098631374537944793701 0.67700409889221191406 2.2299392223358154297 2.8313350677490234375 1.6384971141815185547 2.6532628536224365234 1.4113144874572753906 3.805881500244140625 4.670063018798828125 5.3075733184814453125 4.193023681640625 2.2525963783264160156 4.114917755126953125 4.2115836143493652344 4.2475948333740234375 5.1877655982971191406 6.0751104354858398438 6.9304833412170410156 5.2264056205749511719 6.0634365081787109375 5.1633477210998535156 3.9895904064178466797 5.5552649497985839844 8.7045984268188476562 5.817317962646484375 6.9881839752197265625 
2.2028861045837402344 6.0775051116943359375 9.1042022705078125 4.1659030914306640625 4.5192661285400390625 5.2292451858520507812 0.57951301336288452148 4.3408808708190917969 3.7302367687225341797 3.5479261875152587891 7.2655811309814453125 2.2814536094665527344 7.6399998664855957031 6.1049866676330566406 5.3303055763244628906 4.0928578376770019531 3.3792405128479003906 2.1813211441040039062 2.4640479087829589844 2.4765191078186035156 6.7055401802062988281 1.7718157768249511719 2.5755128860473632812 2.9334473609924316406 5.8994760513305664062 7.8692808151245117188 1.7272107601165771484 5.7581706047058105469 2.9272456169128417969 3.5920362472534179688 0.096738003194332122803 0.90825438499450683594 1.9333852529525756836 7.6399998664855957031 7.6535477638244628906 7.6353235244750976562 3.1351523399353027344 4.3000812530517578125 3.908355712890625 4.409091949462890625 6.1640448570251464844 5.0868506431579589844 4.8699159622192382812 5.307132720947265625 6.1096134185791015625 7.6453685760498046875 10.434915542602539062 7.2751512527465820312 6.097766876220703125 5.6352062225341796875 5.4891915321350097656 6.4293341636657714844 2.4015750885009765625 0.13511924445629119873 0.22516442835330963135 2.2249121665954589844 5.0503473281860351562 5.5706892013549804688 5.4895191192626953125 8.4321184158325195312 5.5915884971618652344 6.5851316452026367188 1.5511592626571655273 1.7858934402465820312 4.1356034278869628906 1.5993851423263549805 1.0812685489654541016 1.7451512813568115234 5.8706979751586914062 4.6247744560241699219 5.8275203704833984375 3.2853159904479980469 2.0413432121276855469 3.3321330547332763672 3.6050555706024169922 3.7115561962127685547 4.9562115669250488281 4.0041861534118652344 4.336517333984375 4.61862945556640625 4.9672503471374511719 5.5335254669189453125 3.6457257270812988281 5.0169653892517089844 6.6693415641784667969 4.2661166191101074219 5.0825634002685546875 
1.3518844842910766602 1.9491989612579345703 6.9598560333251953125 7.5887551307678222656 3.0811972618103027344 6.1641216278076171875 7.0357732772827148438 2.6557059288024902344 4.1416678428649902344 6.2609276771545410156 4.6511411666870117188 4.9180426597595214844 3.2654755115509033203 7.6399998664855957031 1.9392476081848144531 3.1262874603271484375 2.4718484878540039062 3.0566563606262207031 2.4217562675476074219 1.7818645238876342773 6.4548206329345703125 2.7253084182739257812 2.8796429634094238281 2.740966796875 5.7301311492919921875 3.3554165363311767578 4.6603512763977050781 5.3341507911682128906 4.4198336601257324219 2.6853873729705810547 2.6394324302673339844 3.3193769454956054688 3.7322077751159667969 5.3744750022888183594 7.6399998664855957031 7.6399998664855957031 6.6413502693176269531 3.8839333057403564453 4.4271116256713867188 5.6982502937316894531 4.3413252830505371094 4.9272403717041015625 5.2622218132019042969 6.02045440673828125 5.5270543098449707031 5.3836927413940429688 6.8962731361389160156 5.893527984619140625 5.7595005035400390625 5.17719268798828125 6.4366579055786132812 5.11920928955078125 0.68619191646575927734 0.16513431072235107422 0.42304325103759765625 3.0638220310211181641 6.6581134796142578125 7.3568005561828613281 5.8184537887573242188 6.1908516883850097656 6.7089691162109375 7.2783918380737304688 6.3483905792236328125 1.2549463510513305664 3.1838583946228027344 3.7901935577392578125 5.4654254913330078125 4.006622314453125 6.377895355224609375 5.6504092216491699219 4.7550110816955566406 2.9887957572937011719 2.5016629695892333984 0.49529999494552612305 1.6460640430450439453 5.0667581558227539062 5.6991057395935058594 5.9874405860900878906 5.2779784202575683594 6.9199376106262207031 7.5750164985656738281 6.1724686622619628906 5.9523138999938964844 5.7801556587219238281 6.3441824913024902344 6.5496878623962402344 6.8672270774841308594 
2.0666813850402832031 2.9632217884063720703 6.0186614990234375 3.9069156646728515625 4.1951708793640136719 4.2535595893859863281 5.7347464561462402344 4.8424229621887207031 4.2745876312255859375 4.7389926910400390625 6.9057583808898925781 10.927676200866699219 6.1128220558166503906 7.18627166748046875 6.467388153076171875 4.7528281211853027344 1.4528675079345703125 2.6425969600677490234 2.6671149730682373047 2.1840217113494873047 4.5419507026672363281 1.9914629459381103516 1.0387825965881347656 3.9963638782501220703 7.12805938720703125 3.9323964118957519531 3.9171915054321289062 1.8006955385208129883 3.8934171199798583984 3.3325362205505371094 4.5245494842529296875 4.0840096473693847656 3.9952900409698486328 5.8226938247680664062 2.9851598739624023438 6.350032806396484375 7.7615747451782226562 3.9362752437591552734 4.6864528656005859375 3.9416337013244628906 5.5193409919738769531 4.3842186927795410156 4.7567954063415527344 4.0137686729431152344 3.8998930454254150391 4.5251364707946777344 3.7165505886077880859 4.7536816596984863281 4.8765687942504882812 5.0837702751159667969 7.9227628707885742188 5.6305217742919921875 0.79135483503341674805 0.015058999881148338318 3.6489267349243164062 6.3330454826354980469 8.4364309310913085938 7.6399998664855957031 9.1153106689453125 5.7622523307800292969 5.7750716209411621094 5.467205047607421875 9.163646697998046875 1.6768361330032348633 5.579315185546875 5.3749718666076660156 5.7756876945495605469 3.3180282115936279297 6.1192231178283691406 5.08083343505859375 4.5428361892700195312 5.1421151161193847656 8.8240451812744140625 5.3980002403259277344 2.4888141155242919922 4.660945892333984375 6.9059433937072753906 4.9562592506408691406 6.2145261764526367188 7.1358613967895507812 6.4994935989379882812 6.7258276939392089844 7.0538496971130371094 7.8466067314147949219 7.3973102569580078125 7.8161530494689941406 8.1193370819091796875 
4.4486379623413085938 3.8299717903137207031 6.7185192108154296875 3.4784767627716064453 3.5210864543914794922 1.0582218170166015625 4.1284971237182617188 4.4753232002258300781 4.1210432052612304688 9.3812150955200195312 6.3326125144958496094 5.7977809906005859375 5.689167022705078125 6.2782497406005859375 6.2993750572204589844 6.1035923957824707031 2.9222295284271240234 1.6719195842742919922 0.73782724142074584961 2.8161709308624267578 3.8313562870025634766 0.32167106866836547852 1.5045946836471557617 4.4968752861022949219 6.4343905448913574219 4.3071761131286621094 3.6301329135894775391 5.0578589439392089844 3.1555025577545166016 3.8413805961608886719 4.3842411041259765625 4.1942873001098632812 5.2785739898681640625 5.8354740142822265625 2.5637392997741699219 2.0945360660552978516 5.0512423515319824219 3.0392224788665771484 5.0122661590576171875 4.2655248641967773438 4.2570810317993164062 3.9743630886077880859 3.8780529499053955078 4.0336589813232421875 4.4326295852661132812 4.8189067840576171875 4.0366001129150390625 4.3784341812133789062 4.4748582839965820312 5.2523770332336425781 5.2147054672241210938 5.2374448776245117188 0.84742105007171630859 3.1105878353118896484 6.8049235343933105469 7.6399998664855957031 7.641826629638671875 7.6473064422607421875 6.4778156280517578125 6.1257295608520507812 5.773006439208984375 2.7561173439025878906 6.9372472763061523438 6.8101930618286132812 4.8647313117980957031 5.3262810707092285156 5.1730318069458007812 6.5664129257202148438 5.8020358085632324219 5.679409027099609375 3.9646391868591308594 4.6553025245666503906 3.9182951450347900391 5.9512996673583984375 5.5063309669494628906 4.801425933837890625 5.2736349105834960938 5.5851931571960449219 7.4377913475036621094 6.7978968620300292969 6.4274754524230957031 7.6104860305786132812 7.8592162132263183594 6.6901340484619140625 7.3524913787841796875 7.6096096038818359375 4.7674798965454101562 
3.16082000732421875 7.1996068954467773438 7.1420865058898925781 2.5055840015411376953 3.393650054931640625 0.015058999881148338318 1.759734034538269043 1.5069203376770019531 0.98644101619720458984 6.6771907806396484375 6.1567091941833496094 8.3287973403930664062 5.4216990470886230469 5.6691374778747558594 5.0074810981750488281 7.6399998664855957031 2.9592866897583007812 1.8396188020706176758 3.2596759796142578125 1.473219752311706543 5.3556265830993652344 0.015058999881148338318 2.5868356227874755859 6.2700510025024414062 5.3794498443603515625 5.9334716796875 3.6170051097869873047 4.5962443351745605469 4.950870513916015625 3.9458911418914794922 4.1932082176208496094 3.8435120582580566406 6.2393198013305664062 7.0306506156921386719 1.8483834266662597656 0.51800847053527832031 2.9586443901062011719 4.867137908935546875 5.2556195259094238281 4.5056166648864746094 4.32706451416015625 4.6252880096435546875 4.7744245529174804688 6.4004650115966796875 5.9888834953308105469 5.2476491928100585938 5.4058623313903808594 6.828426361083984375 5.4168453216552734375 7.1906232833862304688 7.6847400665283203125 8.1011486053466796875 7.7078409194946289062 7.8823366165161132812 7.3898191452026367188 8.67987823486328125 7.7942285537719726562 7.0349035263061523438 6.4959774017333984375 6.4960188865661621094 8.9901628494262695312 5.6861476898193359375 5.0879092216491699219 5.9944500923156738281 4.9296517372131347656 5.2577505111694335938 4.8392925262451171875 4.8810968399047851562 5.7450461387634277344 3.8341970443725585938 0.41866356134414672852 4.7795438766479492188 3.5039796829223632812 4.8710989952087402344 5.3176927566528320312 5.41724395751953125 5.0813465118408203125 6.1890325546264648438 7.0243787765502929688 6.734447479248046875 8.0372562408447265625 6.7794108390808105469 7.449382781982421875 6.0727496147155761719 5.6402649879455566406 5.6618833541870117188 2.5274298191070556641 
0.92346620559692382812 5.4311423301696777344 4.34030914306640625 4.0521755218505859375 1.5747928619384765625 1.4315048456192016602 0.84422218799591064453 1.1679173707962036133 0.015058999881148338318 5.5977587699890136719 6.02181243896484375 7.5755023956298828125 3.4634156227111816406 5.3214483261108398438 5.1603498458862304688 4.8080549240112304688 2.9476392269134521484 3.0686283111572265625 2.4494140148162841797 8.995464324951171875 6.8805985450744628906 2.8636705875396728516 3.4886429309844970703 6.9516134262084960938 6.6790385246276855469 5.1559009552001953125 4.7793025970458984375 4.9305653572082519531 3.5958051681518554688 4.2644133567810058594 1.7835274934768676758 7.1155762672424316406 5.7506361007690429688 6.9981555938720703125 0.53144919872283935547 0.015058999881148338318 3.5521650314331054688 4.6843309402465820312 5.3817501068115234375 5.9636797904968261719 5.0638422966003417969 4.9896712303161621094 4.6882152557373046875 5.1118845939636230469 6.3464779853820800781 5.7573027610778808594 4.8965363502502441406 5.0296177864074707031 5.6775035858154296875 6.0714039802551269531 5.449298858642578125 7.4009747505187988281 7.0203962326049804688 6.0674004554748535156 5.5953907966613769531 6.2586660385131835938 5.7338500022888183594 3.1574299335479736328 5.4818243980407714844 6.3593144416809082031 6.1680550575256347656 6.0862994194030761719 6.3964395523071289062 5.8998575210571289062 5.3937296867370605469 5.1410131454467773438 5.5216054916381835938 5.4873075485229492188 4.2942342758178710938 0.79341661930084228516 4.0978455543518066406 5.7783193588256835938 4.2891240119934082031 4.80182647705078125 6.3614544868469238281 5.2903347015380859375 4.6442351341247558594 5.3582162857055664062 5.1395678520202636719 4.1185355186462402344 4.7649793624877929688 4.4598188400268554688 5.3689799308776855469 4.8157777786254882812 6.249309539794921875 2.21115875244140625 3.8792054653167724609 
2.1250140666961669922 5.7456364631652832031 7.4581327438354492188 6.5766577720642089844 9.206188201904296875 3.0278778076171875 0.39477822184562683105 5.8033895492553710938 3.3600356578826904297 2.4179098606109619141 4.9348554611206054688 4.2755026817321777344 3.8645522594451904297 5.81380462646484375 4.5125584602355957031 5.0012078285217285156 2.8920719623565673828 1.3062143325805664062 5.6007328033447265625 6.8776636123657226562 2.7891025543212890625 8.0878019332885742188 5.1984381675720214844 5.0685820579528808594 5.4059329032897949219 4.6143288612365722656 5.0664262771606445312 4.2473468780517578125 4.2776951789855957031 2.4953601360321044922 2.5706400871276855469 7.0377650260925292969 9.3187360763549804688 6.6131534576416015625 0.61304938793182373047 0.015058999881148338318 1.2501649856567382812 3.6435339450836181641 4.7449975013732910156 5.4264140129089355469 5.05739593505859375 5.08448028564453125 5.1886115074157714844 5.7941770553588867188 6.0156826972961425781 5.6147618293762207031 4.7750844955444335938 5.5318160057067871094 4.5467777252197265625 4.8575067520141601562 5.6370325088500976562 5.5507440567016601562 6.4985504150390625 6.5296893119812011719 6.6279478073120117188 6.6405954360961914062 6.3393192291259765625 0.41866356134414672852 4.7908883094787597656 4.1427221298217773438 5.5745372772216796875 7.5097889900207519531 7.4170618057250976562 7.4340181350708007812 6.9266047477722167969 7.2417798042297363281 5.8233742713928222656 5.27077484130859375 2.9161124229431152344 2.9100098609924316406 2.1635537147521972656 2.4366865158081054688 4.8813366889953613281 3.5864899158477783203 5.2585897445678710938 4.2095174789428710938 4.0660662651062011719 4.033588409423828125 4.3222103118896484375 4.0080080032348632812 4.9761781692504882812 3.9236845970153808594 4.1962018013000488281 3.8913774490356445312 3.1912488937377929688 3.7497060298919677734 7.1035723686218261719 
4.5614538192749023438 8.8712816238403320312 4.9520773887634277344 7.4690947532653808594 6.0888409614562988281 8.72025299072265625 1.8469827175140380859 4.3298840522766113281 8.0326929092407226562 3.8756783008575439453 3.0108323097229003906 4.4392290115356445312 4.8731799125671386719 4.78064727783203125 5.255126953125 1.5357702970504760742 2.1181676387786865234 1.7954623699188232422 3.6850450038909912109 1.4421018362045288086 3.1569499969482421875 1.6220393180847167969 2.8842661380767822266 5.3606929779052734375 5.0719552040100097656 4.6582727432250976562 4.6963663101196289062 5.0593843460083007812 6.9606771469116210938 7.822906494140625 5.444766998291015625 3.6968598365783691406 5.0361728668212890625 0.46977946162223815918 0.16513431072235107422 0.015058999881148338318 1.8142857551574707031 4.6397213935852050781 5.2391061782836914062 4.68215179443359375 5.48404693603515625 5.7457494735717773438 3.5839109420776367188 6.0390162467956542969 5.5870652198791503906 5.4737262725830078125 4.4843564033508300781 4.5022816658020019531 4.4047021865844726562 4.8326311111450195312 5.3918275833129882812 5.4842104911804199219 6.1846270561218261719 6.4223647117614746094 6.8038020133972167969 2.6608004570007324219 0.37419268488883972168 0.51831281185150146484 5.6217441558837890625 0.015058999881148338318 3.3844170570373535156 7.8683428764343261719 7.1493320465087890625 7.6140041351318359375 8.2403278350830078125 8.439594268798828125 6.933345794677734375 5.3060235977172851562 3.1595795154571533203 1.0286253690719604492 0.52892655134201049805 0.41866356134414672852 4.1412987709045410156 3.6971158981323242188 5.5389251708984375 4.4329767227172851562 3.7458260059356689453 4.1963453292846679688 3.7153482437133789062 3.7411742210388183594 3.8000156879425048828 4.2277493476867675781 4.2332777976989746094 3.0752632617950439453 4.3058423995971679688 7.6434450149536132812 10.255655288696289062 
6.5819439888000488281 4.8334417343139648438 5.2212328910827636719 1.2178714275360107422 2.5498719215393066406 3.3893690109252929688 2.0339543819427490234 4.2099905014038085938 4.7838191986083984375 3.6971824169158935547 3.1712231636047363281 5.5787458419799804688 7.2189564704895019531 6.7351279258728027344 5.1318659782409667969 2.493534088134765625 2.4053480625152587891 2.2092137336730957031 4.5145978927612304688 4.8725843429565429688 4.2805886268615722656 3.9641270637512207031 6.2664008140563964844 7.3050661087036132812 6.7512621879577636719 7.5461874008178710938 6.3986897468566894531 5.7680220603942871094 6.0658254623413085938 6.4896421432495117188 5.5842466354370117188 5.4742665290832519531 3.3128254413604736328 0.13511924445629119873 0.045074060559272766113 0.015058999881148338318 0.37296855449676513672 4.9615278244018554688 4.5402765274047851562 5.3328232765197753906 5.0055875778198242188 6.2613706588745117188 5.5394368171691894531 5.6665101051330566406 5.489528656005859375 4.3825421333312988281 4.403667449951171875 4.2741117477416992188 4.6451420783996582031 4.402873992919921875 4.8016033172607421875 6.099590301513671875 5.7563772201538085938 7.1076335906982421875 6.7125334739685058594 0.16513431072235107422 0.045074060559272766113 1.1116117238998413086 3.7790062427520751953 0.015058999881148338318 0.8774464726448059082 7.0372242927551269531 6.3508634567260742188 6.7925119400024414062 6.7744197845458984375 6.380340576171875 7.5669794082641601562 1.8538355827331542969 0.015058999881148338318 3.8687238693237304688 2.8444073200225830078 3.8243441581726074219 4.0925898551940917969 4.53075408935546875 5.279979705810546875 5.0009579658508300781 4.2751054763793945312 4.0161685943603515625 4.4727864265441894531 3.9918107986450195312 4.4397029876708984375 4.7406282424926757812 4.8016772270202636719 5.256053924560546875 4.9827394485473632812 7.6966571807861328125 5.8588190078735351562 
4.0090136528015136719 3.8941662311553955078 4.0966973304748535156 1.2940859794616699219 2.7041170597076416016 2.4523396492004394531 1.5708515644073486328 4.4243335723876953125 4.000576019287109375 3.3912005424499511719 7.0207095146179199219 1.777928471565246582 4.0760488510131835938 5.3653268814086914062 6.2658171653747558594 5.5377011299133300781 2.6850757598876953125 1.571992039680480957 2.0793263912200927734 1.5577796697616577148 3.4327299594879150391 7.6399998664855957031 6.8002729415893554688 5.16628265380859375 3.7086176872253417969 3.8508613109588623047 5.4239978790283203125 5.1923079490661621094 6.8285174369812011719 6.5573291778564453125 5.2402544021606445312 3.0124783515930175781 2.3789458274841308594 0.34020256996154785156 2.4148786067962646484 2.5765039920806884766 2.0656068325042724609 3.9261744022369384766 4.8703551292419433594 4.7867021560668945312 5.5642118453979492188 5.4570441246032714844 5.7097225189208984375 5.7122740745544433594 5.5027041435241699219 5.4346995353698730469 4.3398175239562988281 4.62947845458984375 2.8054101467132568359 5.2307825088500976562 5.3104763031005859375 5.4363064765930175781 4.1029839515686035156 6.5355916023254394531 4.8375539779663085938 0.5293674468994140625 0.015058999881148338318 0.52855545282363891602 0.51831281185150146484 0.015058999881148338318 0.015058999881148338318 7.0840358734130859375 5.9078073501586914062 6.9714636802673339844 5.9345827102661132812 5.7966046333312988281 4.2175512313842773438 0.015058999881148338318 1.8544840812683105469 5.2766709327697753906 5.8981046676635742188 5.1851611137390136719 4.3776960372924804688 4.6620473861694335938 3.5474359989166259766 3.3825507164001464844 5.6231465339660644531 5.2482476234436035156 7.0198426246643066406 5.8691654205322265625 5.1228585243225097656 4.8635239601135253906 4.9841074943542480469 4.9802632331848144531 5.4452037811279296875 6.1322107315063476562 6.691986083984375 
4.5059099197387695312 1.1849958896636962891 5.1465253829956054688 4.3304128646850585938 4.6645689010620117188 2.9454867839813232422 5.3642911911010742188 4.9448032379150390625 4.5229282379150390625 5.0232167243957519531 3.0146484375 2.2383325099945068359 3.4051678180694580078 6.6868824958801269531 4.3040881156921386719 7.395824432373046875 3.6380722522735595703 2.2118535041809082031 5.4130907058715820312 5.218074798583984375 4.4428324699401855469 6.2213778495788574219 1.487418055534362793 1.5221844911575317383 3.3060159683227539062 6.0895876884460449219 2.9123606681823730469 6.5428724288940429688 8.2151241302490234375 6.2234244346618652344 3.3334462642669677734 0.20851600170135498047 1.6748058795928955078 1.2552635669708251953 3.7836821079254150391 2.9648761749267578125 3.6748723983764648438 4.31739044189453125 3.5750796794891357422 5.9315423965454101562 5.3822259902954101562 6.6914563179016113281 5.2520780563354492188 6.1072545051574707031 6.1280217170715332031 6.2798318862915039062 5.0253953933715820312 4.8161935806274414062 5.3303022384643554688 5.0003151893615722656 3.2453370094299316406 3.9800941944122314453 5.3341736793518066406 6.1386008262634277344 6.0644702911376953125 5.9904236793518066406 4.945125579833984375 8.3730630874633789062 1.3231815099716186523 0.63384389877319335938 4.20068359375 5.2555222511291503906 7.2136321067810058594 5.2778067588806152344 6.4233989715576171875 4.1733007431030273438 3.1034445762634277344 0.015058999881148338318 1.2441693544387817383 6.4439859390258789062 5.3384566307067871094 4.500255584716796875 4.5452122688293457031 4.6589040756225585938 2.3042044639587402344 0.11323093622922897339 0.30167755484580993652 4.7386775016784667969 4.8356699943542480469 4.8941807746887207031 4.9985303878784179688 5.3255596160888671875 4.6523585319519042969 4.7810959815979003906 5.6187114715576171875 6.0992474555969238281 6.9619703292846679688 
1.422745823860168457 0.015058999881148338318 0.015058999881148338318 4.0084652900695800781 4.8139882087707519531 3.2500245571136474609 3.8363702297210693359 4.3117070198059082031 2.8933513164520263672 5.6478104591369628906 2.2041826248168945312 4.7056188583374023438 3.4235169887542724609 5.881137847900390625 5.6453919410705566406 7.6399998664855957031 3.6545920372009277344 1.7813192605972290039 4.4343304634094238281 6.4829373359680175781 5.9188036918640136719 3.8015534877777099609 1.2676223516464233398 0.84873813390731811523 3.845550537109375 3.7086842060089111328 3.1973857879638671875 6.2650284767150878906 3.5377118587493896484 4.7723360061645507812 2.5594129562377929688 0.68598687648773193359 0.20851600170135498047 0.9280242919921875 1.8291286230087280273 2.1952681541442871094 6.1877331733703613281 2.9463155269622802734 3.9951121807098388672 4.917064666748046875 4.9017305374145507812 5.8735942840576171875 5.6323428153991699219 5.5986814498901367188 4.1980710029602050781 5.4654016494750976562 6.5016412734985351562 5.89800262451171875 4.2503023147583007812 2.2928507328033447266 1.1021327972412109375 5.6839814186096191406 5.0524306297302246094 5.7846355438232421875 7.0406918525695800781 6.5183687210083007812 4.9078092575073242188 4.41353607177734375 0.87555181980133056641 2.4530017375946044922 2.0254869461059570312 7.0486426353454589844 7.6428275108337402344 7.1508631706237792969 3.6141719818115234375 0.015058999881148338318 0.015058999881148338318 2.5154511928558349609 2.0635762214660644531 6.4806466102600097656 6.0778098106384277344 4.1685762405395507812 5.4275379180908203125 4.4784531593322753906 3.0407021045684814453 0.024955311790108680725 2.3915879726409912109 5.0680055618286132812 5.7833847999572753906 6.2613706588745117188 4.5839791297912597656 4.9629187583923339844 4.9440555572509765625 4.8351740837097167969 5.3320593833923339844 5.8420591354370117188 4.4355912208557128906 
1.6212941408157348633 0.015058999881148338318 0.015058999881148338318 2.8603575229644775391 4.5312356948852539062 2.7324781417846679688 3.6960213184356689453 3.3653652667999267578 2.2938263416290283203 4.1955208778381347656 3.4371092319488525391 7.2470135688781738281 7.1755323410034179688 5.1389608383178710938 6.2395930290222167969 7.0552186965942382812 3.7602226734161376953 4.296108245849609375 4.6895060539245605469 5.0391788482666015625 5.7886710166931152344 1.5899502038955688477 1.3227102756500244141 2.6876740455627441406 5.8717007637023925781 4.3353118896484375 4.2026019096374511719 5.1261744499206542969 9.211284637451171875 4.9753956794738769531 3.6039464473724365234 0.69559741020202636719 0.26995068788528442383 1.415614008903503418 0.59126436710357666016 4.00079345703125 4.6043519973754882812 3.4365744590759277344 3.7014861106872558594 5.2352361679077148438 7.5099973678588867188 5.5147485733032226562 7.1862463951110839844 7.1635394096374511719 6.3800806999206542969 5.78971099853515625 4.1906757354736328125 3.3909957408905029297 0.015058999881148338318 3.0754411220550537109 0.84779030084609985352 7.3293337821960449219 6.810192108154296875 6.6480998992919921875 6.7755761146545410156 6.5669426918029785156 7.5027742385864257812 3.0838654041290283203 5.9256877899169921875 7.1083836555480957031 6.1246647834777832031 6.6145257949829101562 6.7586698532104492188 6.6438817977905273438 4.1226873397827148438 4.2616810798645019531 3.0177605152130126953 7.7601361274719238281 4.9685626029968261719 6.2144613265991210938 3.6274356842041015625 3.7477984428405761719 4.1173338890075683594 4.4251461029052734375 2.8557946681976318359 0.29059493541717529297 3.6861088275909423828 5.1430153846740722656 6.237979888916015625 6.0558371543884277344 5.8843283653259277344 5.2547502517700195312 5.5569524765014648438 5.3191804885864257812 3.9785785675048828125 0.39738374948501586914 1.6294772624969482422 
1.1297450065612792969 0.015058999881148338318 0.015058999881148338318 2.2542619705200195312 3.5577063560485839844 2.5493462085723876953 4.0991573333740234375 2.8397989273071289062 3.3035633563995361328 2.2073678970336914062 2.9851322174072265625 7.6399998664855957031 7.416629791259765625 5.6691808700561523438 6.2414507865905761719 7.6399998664855957031 7.422519683837890625 4.9633684158325195312 5.0155282020568847656 5.8421030044555664062 5.2927517890930175781 1.816193699836730957 2.4494776725769042969 4.9559316635131835938 7.5440111160278320312 5.8110356330871582031 4.1905665397644042969 4.18929290771484375 6.7502865791320800781 2.7826828956604003906 4.6252841949462890625 0.82890015840530395508 0.88546997308731079102 0.65329760313034057617 2.1590576171875 6.2244014739990234375 3.0232691764831542969 3.95420074462890625 4.1820311546325683594 4.586856842041015625 6.7231664657592773438 6.4344615936279296875 5.2617101669311523438 6.5855851173400878906 7.5335569381713867188 3.5667700767517089844 0.90597075223922729492 0.015058999881148338318 0.015058999881148338318 0.32452681660652160645 1.4082137346267700195 6.6318807601928710938 6.3874454498291015625 7.4977974891662597656 7.6003642082214355469 7.6420526504516601562 8.0418949127197265625 6.912120819091796875 5.8575844764709472656 6.3261651992797851562 5.976039886474609375 5.4273004531860351562 6.4094872474670410156 8.6698017120361328125 9.23779296875 8.508205413818359375 7.0825533866882324219 7.4762449264526367188 5.4122529029846191406 5.6541361808776855469 4.9796934127807617188 4.3500576019287109375 4.1134157180786132812 4.2524585723876953125 0.49161779880523681641 2.1629850864410400391 4.4908723831176757812 5.2569894790649414062 6.2981152534484863281 6.6882925033569335938 6.885097503662109375 6.2234659194946289062 6.1166749000549316406 6.0336256027221679688 6.5428209304809570312 6.571197509765625 2.8881285190582275391 
0.015058999881148338318 0.015058999881148338318 0.015058999881148338318 3.1016910076141357422 2.8243622779846191406 3.5060904026031494141 4.7715792655944824219 3.6559953689575195312 1.5868436098098754883 1.9212942123413085938 4.8402838706970214844 7.6399998664855957031 4.1802821159362792969 3.6427659988403320312 6.9019308090209960938 7.6399998664855957031 5.9946794509887695312 3.5498378276824951172 3.6158697605133056641 1.3378995656967163086 2.883502960205078125 1.6844618320465087891 2.4697098731994628906 2.6808264255523681641 5.3531770706176757812 7.2436685562133789062 4.3878378868103027344 5.5667376518249511719 7.836811065673828125 6.5614461898803710938 4.4978423118591308594 1.5050715208053588867 0.53723925352096557617 0.76289188861846923828 2.7091469764709472656 2.5620646476745605469 4.1563067436218261719 4.6326236724853515625 3.7175984382629394531 5.1054735183715820312 7.6267495155334472656 5.5689120292663574219 6.5895671844482421875 8.2903509140014648438 5.7042841911315917969 0.015058999881148338318 0.015058999881148338318 0.015058999881148338318 0.015058999881148338318 0.015058999881148338318 0.63399463891983032227 5.759136199951171875 5.7952775955200195312 6.6487293243408203125 5.5908308029174804688 6.3867483139038085938 8.7125396728515625 6.113452911376953125 4.9399709701538085938 5.2640128135681152344 5.2640128135681152344 4.9088253974914550781 6.3789520263671875 5.2640128135681152344 9.305110931396484375 7.698169708251953125 6.223663330078125 7.6552252769470214844 5.6281857490539550781 5.4514412879943847656 4.3132619857788085938 4.7627215385437011719 4.0967130661010742188 1.981324315071105957 0.075089126825332641602 3.7449493408203125 3.9586827754974365234 5.4363336563110351562 4.2304329872131347656 2.5739164352416992188 4.0068750381469726562 2.6234717369079589844 5.4778370857238769531 6.5202894210815429688 6.6283102035522460938 6.1408858299255371094 0.015058999881148338318 
