ncols        87
nrows        107
xllcorner    508536.404131802963
yllcorner    5265618.997906560078
cellsize     120.000000000000
NODATA_value -9999
0.0099999997764825820923 0.0099999997764825820923 0.0099999997764825820923 0.0099999997764825820923 0.0099999997764825820923 0.0099999997764825820923 0.0099999997764825820923 0.0099999997764825820923 0.0099999997764825820923 0.0099999997764825820923 0.0099999997764825820923 0.0099999997764825820923 0.0099999997764825820923 0.0099999997764825820923 0.0099999997764825820923 0.0099999997764825820923 0.0099999997764825820923 0.0099999997764825820923 0.0099999997764825820923 0.0099999997764825820923 0.0099999997764825820923 0.0099999997764825820923 0.0099999997764825820923 0.0099999997764825820923 0.0099999997764825820923 0.0099999997764825820923 0.0099999997764825820923 0.0099999997764825820923 0.0099999997764825820923 0.0099999997764825820923 0.0099999997764825820923 0.0099999997764825820923 0.0099999997764825820923 0.0099999997764825820923 0.0099999997764825820923 0.0099999997764825820923 0.0099999997764825820923 0.0099999997764825820923 0.0099999997764825820923 0.0099999997764825820923 0.0099999997764825820923 0.0099999997764825820923 0.0099999997764825820923 0.0099999997764825820923 0.0099999997764825820923 0.0099999997764825820923 0.0099999997764825820923 0.0099999997764825820923 0.0099999997764825820923 0.0099999997764825820923 0.0099999997764825820923 0.0099999997764825820923 0.0099999997764825820923 0.0099999997764825820923 0.0099999997764825820923 0.0099999997764825820923 0.0099999997764825820923 0.0099999997764825820923 0.0099999997764825820923 0.0099999997764825820923 0.0099999997764825820923 0.0099999997764825820923 0.0099999997764825820923 0.0099999997764825820923 0.0099999997764825820923 0.0099999997764825820923 0.37127631902694702148 1.5199550390243530273 1.0366389751434326172 0.68735402822494506836 0.68494218587875366211 0.78573304414749145508 0.43257105350494384766 1.0352861881256103516 0.59770560264587402344 2.3425374031066894531 0.85108470916748046875 0.5466544032096862793 0.69521039724349975586 0.86657238006591796875 1.0246286392211914062 0.73039048910140991211 0.7668864130973815918 0.56031185388565063477 0.4631627500057220459 0.86578863859176635742 0.67015999555587768555 
0.0099999997764825820923 0.0099999997764825820923 0.0099999997764825820923 0.0099999997764825820923 0.0099999997764825820923 0.0099999997764825820923 0.0099999997764825820923 0.0099999997764825820923 0.0099999997764825820923 0.0099999997764825820923 0.0099999997764825820923 0.0099999997764825820923 0.0099999997764825820923 0.0099999997764825820923 0.0099999997764825820923 0.0099999997764825820923 0.0099999997764825820923 0.0099999997764825820923 0.0099999997764825820923 0.0099999997764825820923 0.0099999997764825820923 0.0099999997764825820923 0.0099999997764825820923 0.0099999997764825820923 0.0099999997764825820923 0.0099999997764825820923 0.0099999997764825820923 0.0099999997764825820923 0.0099999997764825820923 0.0099999997764825820923 0.0099999997764825820923 0.0099999997764825820923 0.0099999997764825820923 0.0099999997764825820923 0.0099999997764825820923 0.0099999997764825820923 0.0099999997764825820923 0.0099999997764825820923 0.0099999997764825820923 0.0099999997764825820923 0.0099999997764825820923 0.0099999997764825820923 0.0099999997764825820923 0.0099999997764825820923 0.0099999997764825820923 0.0099999997764825820923 0.0099999997764825820923 0.0099999997764825820923 0.0099999997764825820923 0.0099999997764825820923 0.0099999997764825820923 0.0099999997764825820923 0.0099999997764825820923 0.0099999997764825820923 0.0099999997764825820923 0.0099999997764825820923 0.0099999997764825820923 0.0099999997764825820923 0.0099999997764825820923 0.0099999997764825820923 0.0099999997764825820923 0.088500000536441802979 0.088500000536441802979 0.0099999997764825820923 0.0099999997764825820923 0.38483881950378417969 1.1362988948822021484 0.64257717132568359375 0.75159156322479248047 0.31360304355621337891 1.1998429298400878906 0.53726863861083984375 0.84203308820724487305 0.71159064769744873047 1.2504053115844726562 0.72503495216369628906 0.68913024663925170898 1.2729660272598266602 1.1596485376358032227 1.2617304325103759766 0.61632025241851806641 1.0953412055969238281 0.69363325834274291992 0.99946111440658569336 0.62189018726348876953 1.1170686483383178711 1.4016392230987548828 
0.0099999997764825820923 0.0099999997764825820923 0.0099999997764825820923 0.0099999997764825820923 0.0099999997764825820923 0.0099999997764825820923 0.0099999997764825820923 0.0099999997764825820923 0.0099999997764825820923 0.0099999997764825820923 0.0099999997764825820923 0.0099999997764825820923 0.0099999997764825820923 0.0099999997764825820923 0.0099999997764825820923 0.0099999997764825820923 0.0099999997764825820923 0.0099999997764825820923 0.0099999997764825820923 0.0099999997764825820923 0.0099999997764825820923 0.0099999997764825820923 0.0099999997764825820923 0.0099999997764825820923 0.0099999997764825820923 0.0099999997764825820923 0.0099999997764825820923 0.0099999997764825820923 0.0099999997764825820923 0.0099999997764825820923 0.0099999997764825820923 0.0099999997764825820923 0.0099999997764825820923 0.0099999997764825820923 0.0099999997764825820923 0.0099999997764825820923 0.0099999997764825820923 0.0099999997764825820923 0.0099999997764825820923 0.0099999997764825820923 0.0099999997764825820923 0.0099999997764825820923 0.0099999997764825820923 0.0099999997764825820923 0.0099999997764825820923 0.0099999997764825820923 0.0099999997764825820923 0.0099999997764825820923 0.0099999997764825820923 0.0099999997764825820923 0.0099999997764825820923 0.0099999997764825820923 0.0099999997764825820923 0.0099999997764825820923 0.0099999997764825820923 0.0099999997764825820923 0.0099999997764825820923 0.0099999997764825820923 0.016937499865889549255 0.67117059230804443359 1.3594483137130737305 0.45021849870681762695 0.026187499985098838806 0.010874999687075614929 0.025076922029256820679 0.82405585050582885742 0.79208326339721679688 0.70180839300155639648 2.1219072341918945312 0.17686857283115386963 1.1026327610015869141 0.90662598609924316406 1.4268922805786132812 1.2360856533050537109 0.90662503242492675781 0.46926662325859069824 0.6719849705696105957 1.2964323759078979492 0.76748895645141601562 1.0048660039901733398 0.57991099357604980469 0.80379951000213623047 1.2376651763916015625 0.96256142854690551758 0.83435869216918945312 0.62629067897796630859 0.27254250645637512207 
0.0099999997764825820923 0.0099999997764825820923 0.0099999997764825820923 0.0099999997764825820923 0.0099999997764825820923 0.0099999997764825820923 0.0099999997764825820923 0.0099999997764825820923 0.0099999997764825820923 0.0099999997764825820923 0.0099999997764825820923 0.0099999997764825820923 0.0099999997764825820923 0.0099999997764825820923 0.0099999997764825820923 0.0099999997764825820923 0.0099999997764825820923 0.0099999997764825820923 0.0099999997764825820923 0.0099999997764825820923 0.0099999997764825820923 0.0099999997764825820923 0.0099999997764825820923 0.0099999997764825820923 0.0099999997764825820923 0.0099999997764825820923 0.0099999997764825820923 0.0099999997764825820923 0.0099999997764825820923 0.0099999997764825820923 0.0099999997764825820923 0.0099999997764825820923 0.0099999997764825820923 0.0099999997764825820923 0.0099999997764825820923 0.01231249980628490448 0.0099999997764825820923 0.0099999997764825820923 0.0099999997764825820923 0.0099999997764825820923 0.0099999997764825820923 0.0099999997764825820923 0.0099999997764825820923 0.0099999997764825820923 0.0099999997764825820923 0.0099999997764825820923 0.0099999997764825820923 0.0099999997764825820923 0.0099999997764825820923 0.0099999997764825820923 0.0099999997764825820923 0.0099999997764825820923 0.0099999997764825820923 0.0099999997764825820923 0.0099999997764825820923 0.0099999997764825820923 0.0099999997764825820923 0.019249999895691871643 0.96092760562896728516 1.0574679374694824219 0.94691705703735351562 0.10794812440872192383 0.87206959724426269531 0.8807500004768371582 0.34250000119209289551 2.7446753978729248047 0.45139688253402709961 0.8609790802001953125 0.24888144433498382568 0.37106037139892578125 0.30105823278427124023 1.0201264619827270508 1.4197850227355957031 0.93646019697189331055 0.87317097187042236328 0.52377402782440185547 0.65624403953552246094 0.5341014862060546875 1.0944999456405639648 0.72953855991363525391 0.82475626468658447266 0.82772433757781982422 0.59859842061996459961 1.0466560125350952148 1.0376768112182617188 0.3980045616626739502 0.56495827436447143555 
0.0099999997764825820923 0.0099999997764825820923 0.0099999997764825820923 0.0099999997764825820923 0.0099999997764825820923 0.0099999997764825820923 0.0099999997764825820923 0.0099999997764825820923 0.0099999997764825820923 0.0099999997764825820923 0.0099999997764825820923 0.0099999997764825820923 0.0099999997764825820923 0.0099999997764825820923 0.0099999997764825820923 0.0099999997764825820923 0.0099999997764825820923 0.0099999997764825820923 0.0099999997764825820923 0.0099999997764825820923 0.0099999997764825820923 0.0099999997764825820923 0.0099999997764825820923 0.0099999997764825820923 0.0099999997764825820923 0.0099999997764825820923 0.0099999997764825820923 0.0099999997764825820923 0.0099999997764825820923 0.0099999997764825820923 0.0099999997764825820923 0.0099999997764825820923 0.0099999997764825820923 0.76360374689102172852 0.77709150314331054688 1.4362870454788208008 0.027062499895691871643 0.0099999997764825820923 0.0099999997764825820923 0.0099999997764825820923 0.0099999997764825820923 0.0099999997764825820923 0.0099999997764825820923 0.0099999997764825820923 0.0099999997764825820923 0.0099999997764825820923 0.0099999997764825820923 0.0099999997764825820923 0.0099999997764825820923 0.0099999997764825820923 0.0099999997764825820923 0.0099999997764825820923 0.0099999997764825820923 0.0099999997764825820923 0.0099999997764825820923 0.016937499865889549255 0.029374999925494194031 1.1385164260864257812 1.6637353897094726562 0.55637925863265991211 0.20062500238418579102 0.3814862668514251709 0.60889166593551635742 1.6116995811462402344 1.1898125410079956055 1.1613333225250244141 1.0919910669326782227 0.97964853048324584961 0.48164024949073791504 0.51850241422653198242 0.32018813490867614746 1.1277786493301391602 0.81917226314544677734 0.54461115598678588867 0.7790978550910949707 0.91536378860473632812 1.1468638181686401367 0.69686263799667358398 1.1552309989929199219 0.90075099468231201172 0.61917960643768310547 0.99129259586334228516 0.90604931116104125977 0.85016846656799316406 0.51393461227416992188 0.40308019518852233887 0.5631275177001953125 
0.0099999997764825820923 0.0099999997764825820923 0.0099999997764825820923 0.0099999997764825820923 0.0099999997764825820923 0.0099999997764825820923 0.0099999997764825820923 0.0099999997764825820923 0.0099999997764825820923 0.0099999997764825820923 0.0099999997764825820923 0.0099999997764825820923 0.0099999997764825820923 0.0099999997764825820923 0.0099999997764825820923 0.0099999997764825820923 0.0099999997764825820923 0.0099999997764825820923 0.0099999997764825820923 0.0099999997764825820923 0.0099999997764825820923 0.0099999997764825820923 0.0099999997764825820923 0.0099999997764825820923 0.0099999997764825820923 0.0099999997764825820923 0.0099999997764825820923 0.0099999997764825820923 0.0099999997764825820923 0.0099999997764825820923 0.0099999997764825820923 0.023874999955296516418 1.3405773639678955078 0.70206826925277709961 0.33310732245445251465 0.22689381241798400879 0.035124998539686203003 0.0099999997764825820923 0.0099999997764825820923 0.0099999997764825820923 0.0099999997764825820923 0.0099999997764825820923 0.0099999997764825820923 0.0099999997764825820923 0.0099999997764825820923 0.0099999997764825820923 0.0099999997764825820923 0.0099999997764825820923 0.0099999997764825820923 0.0099999997764825820923 0.0099999997764825820923 0.0099999997764825820923 0.01231249980628490448 0.5394541621208190918 0.53598672151565551758 0.97485119104385375977 0.60247462987899780273 0.39986449480056762695 0.54329055547714233398 1.2701073884963989258 1.0448051691055297852 0.53670984506607055664 1.5328934192657470703 0.91355466842651367188 1.546536564826965332 1.2660000324249267578 0.84434425830841064453 1.3720552921295166016 0.84292143583297729492 0.72469866275787353516 0.53720182180404663086 0.93813782930374145508 1.1414031982421875 1.0671322345733642578 0.6306870579719543457 1.166127324104309082 1.1469824314117431641 0.73813676834106445312 2.2670664787292480469 1.6382312774658203125 1.2785285711288452148 1.5114635229110717773 0.6593475341796875 0.4672190546989440918 1.7557978630065917969 0.280292510986328125 0.079000003635883331299 
0.0099999997764825820923 0.0099999997764825820923 0.0099999997764825820923 0.0099999997764825820923 0.0099999997764825820923 0.0099999997764825820923 0.0099999997764825820923 0.0099999997764825820923 0.0099999997764825820923 0.0099999997764825820923 0.0099999997764825820923 0.0099999997764825820923 0.0099999997764825820923 0.0099999997764825820923 0.0099999997764825820923 0.0099999997764825820923 0.0099999997764825820923 0.0099999997764825820923 0.0099999997764825820923 0.0099999997764825820923 0.0099999997764825820923 0.0099999997764825820923 0.0099999997764825820923 0.0099999997764825820923 0.0099999997764825820923 0.0099999997764825820923 0.0099999997764825820923 0.0099999997764825820923 0.023874999955296516418 0.031999997794628143311 0.035187497735023498535 0.3116366267204284668 0.5645987391471862793 0.90448933839797973633 0.1848246157169342041 0.62332189083099365234 0.18318749964237213135 0.0099999997764825820923 0.0099999997764825820923 0.0099999997764825820923 0.0099999997764825820923 0.0099999997764825820923 0.0099999997764825820923 0.0099999997764825820923 0.0099999997764825820923 0.0099999997764825820923 0.0099999997764825820923 0.0099999997764825820923 0.0099999997764825820923 0.0099999997764825820923 0.01231249980628490448 1.8011826276779174805 0.46608301997184753418 0.47683256864547729492 1.6152235269546508789 1.6417942047119140625 0.95871174335479736328 1.5874102115631103516 0.87593293190002441406 1.0697884559631347656 1.1023298501968383789 1.0383001565933227539 0.78883212804794311523 0.99830776453018188477 0.70041239261627197266 2.0503029823303222656 0.95878887176513671875 1.0705331563949584961 0.70750588178634643555 0.54637497663497924805 0.78644132614135742188 0.55777823925018310547 0.87097328901290893555 0.81557756662368774414 0.73374134302139282227 1.1150702238082885742 0.94282692670822143555 1.57628631591796875 2.0896639823913574219 1.3252381086349487305 1.0449806451797485352 1.1518137454986572266 0.74263322353363037109 0.78281521797180175781 0.77672457695007324219 0.59760230779647827148 0.3580029904842376709 
0.0099999997764825820923 0.0099999997764825820923 0.0099999997764825820923 0.0099999997764825820923 0.0099999997764825820923 0.0099999997764825820923 0.0099999997764825820923 0.0099999997764825820923 0.0099999997764825820923 0.0099999997764825820923 0.0099999997764825820923 0.0099999997764825820923 0.0099999997764825820923 0.0099999997764825820923 0.0099999997764825820923 0.0099999997764825820923 0.0099999997764825820923 0.0099999997764825820923 0.0099999997764825820923 0.0099999997764825820923 0.0099999997764825820923 0.0099999997764825820923 0.0099999997764825820923 0.0099999997764825820923 0.0099999997764825820923 0.0099999997764825820923 0.47872132062911987305 0.64566588401794433594 0.090937063097953796387 0.16045743227005004883 0.29363986849784851074 0.17625518143177032471 1.16739654541015625 0.83079153299331665039 0.43346881866455078125 0.019249999895691871643 0.0099999997764825820923 0.0099999997764825820923 0.0099999997764825820923 0.0099999997764825820923 0.0099999997764825820923 0.0099999997764825820923 0.0099999997764825820923 0.0099999997764825820923 0.0099999997764825820923 0.0099999997764825820923 0.0099999997764825820923 0.0099999997764825820923 0.0099999997764825820923 0.36896380782127380371 1.868625640869140625 0.54114949703216552734 1.2782111167907714844 0.57853651046752929688 3.1547088623046875 1.146748661994934082 1.7101341485977172852 1.1324177980422973633 1.129267573356628418 0.98958623409271240234 0.89713656902313232422 0.95909970998764038086 0.66859829425811767578 0.94795626401901245117 1.2748229503631591797 1.4361319541931152344 0.83036899566650390625 0.9173991084098815918 0.56151545047760009766 0.2262929379940032959 1.2096192836761474609 0.895420074462890625 0.66323316097259521484 1.112307429313659668 0.6584300994873046875 0.95544219017028808594 1.0564703941345214844 1.3336631059646606445 1.9452788829803466797 0.98992478847503662109 1.102967381477355957 0.94763022661209106445 0.94811111688613891602 1.1282377243041992188 1.2112417221069335938 1.4107897281646728516 0.92925000190734863281 
0.0099999997764825820923 0.0099999997764825820923 0.0099999997764825820923 0.0099999997764825820923 0.0099999997764825820923 0.0099999997764825820923 0.0099999997764825820923 0.0099999997764825820923 0.0099999997764825820923 0.0099999997764825820923 0.0099999997764825820923 0.0099999997764825820923 0.0099999997764825820923 0.0099999997764825820923 0.0099999997764825820923 0.0099999997764825820923 0.0099999997764825820923 0.0099999997764825820923 0.0099999997764825820923 0.0099999997764825820923 0.0099999997764825820923 0.0099999997764825820923 0.0099999997764825820923 0.019249999895691871643 1.7562565803527832031 1.3171263933181762695 1.439400792121887207 0.57987540960311889648 0.041812498122453689575 0.59632152318954467773 0.14538750052452087402 0.61505097150802612305 0.58452296257019042969 0.46365061402320861816 0.19482274353504180908 0.0099999997764825820923 0.0099999997764825820923 0.0099999997764825820923 0.0099999997764825820923 0.0099999997764825820923 0.0099999997764825820923 0.0099999997764825820923 0.0099999997764825820923 0.0099999997764825820923 0.0099999997764825820923 0.0099999997764825820923 0.0099999997764825820923 0.01231249980628490448 0.80530774593353271484 1.1663340330123901367 0.46158879995346069336 1.4357143640518188477 1.1826412677764892578 0.68228816986083984375 0.54991894960403442383 0.98866665363311767578 1.5853319168090820312 0.93655127286911010742 1.1265709400177001953 1.1184852123260498047 0.63089197874069213867 1.2106422185897827148 1.1907825469970703125 0.65198266506195068359 1.22252655029296875 1.1692534685134887695 0.8226019740104675293 0.75447630882263183594 0.67567563056945800781 0.42745092511177062988 0.84926569461822509766 0.51616704463958740234 0.72834116220474243164 0.93154579401016235352 0.83947455883026123047 1.6919405460357666016 1.0215789079666137695 0.78415566682815551758 0.77259552478790283203 0.890045166015625 1.0575537681579589844 0.70708394050598144531 0.83254379034042358398 1.0457836389541625977 0.60252743959426879883 0.6992371678352355957 0.61272925138473510742 
0.0099999997764825820923 0.0099999997764825820923 0.0099999997764825820923 0.0099999997764825820923 0.0099999997764825820923 0.0099999997764825820923 0.0099999997764825820923 0.0099999997764825820923 0.0099999997764825820923 0.0099999997764825820923 0.0099999997764825820923 0.0099999997764825820923 0.0099999997764825820923 0.0099999997764825820923 0.0099999997764825820923 0.0099999997764825820923 0.0099999997764825820923 0.0099999997764825820923 0.0099999997764825820923 0.0099999997764825820923 0.0099999997764825820923 0.014624999836087226868 1.2250114679336547852 2.7834486961364746094 1.6564290523529052734 0.42673754692077636719 0.81846767663955688477 0.94581252336502075195 1.2399164438247680664 0.39943349361419677734 0.094230316579341888428 1.4063487052917480469 0.7047665715217590332 0.2001352459192276001 0.01231249980628490448 0.0099999997764825820923 0.0099999997764825820923 0.0099999997764825820923 0.0099999997764825820923 0.0099999997764825820923 0.0099999997764825820923 0.0099999997764825820923 0.0099999997764825820923 0.0099999997764825820923 0.0099999997764825820923 0.0099999997764825820923 0.016937499865889549255 1.1775667667388916016 0.8619219660758972168 0.95684641599655151367 1.4806368350982666016 1.7156035900115966797 0.97504305839538574219 0.98164373636245727539 0.84359985589981079102 1.7030191421508789062 2.3675339221954345703 0.80218517780303955078 0.96520388126373291016 0.70661395788192749023 0.76332873106002807617 1.433714747428894043 0.70009398460388183594 0.79045289754867553711 0.77778297662734985352 0.97768259048461914062 0.90739047527313232422 0.86094331741333007812 0.81573462486267089844 0.76375150680541992188 0.78160887956619262695 0.82684797048568725586 0.80421471595764160156 1.6043776273727416992 0.76178842782974243164 1.0081608295440673828 0.71663862466812133789 0.50700461864471435547 0.61775749921798706055 0.80573600530624389648 0.77515250444412231445 0.55653584003448486328 0.96555143594741821289 0.92593336105346679688 0.35539001226425170898 0.49462351202964782715 1.9107499122619628906 
0.0099999997764825820923 0.0099999997764825820923 0.0099999997764825820923 0.0099999997764825820923 0.0099999997764825820923 0.0099999997764825820923 0.0099999997764825820923 0.0099999997764825820923 0.0099999997764825820923 0.0099999997764825820923 0.0099999997764825820923 0.0099999997764825820923 0.0099999997764825820923 0.0099999997764825820923 0.0099999997764825820923 0.0099999997764825820923 0.0099999997764825820923 0.0099999997764825820923 0.0099999997764825820923 0.014624999836087226868 0.72530263662338256836 1.1703351736068725586 1.3512901067733764648 1.0997793674468994141 0.47985643148422241211 0.70871680974960327148 0.81110060214996337891 0.75625729560852050781 0.92400181293487548828 0.11716431379318237305 0.1603161245584487915 0.88310104608535766602 0.18269218504428863525 0.02675000019371509552 0.0099999997764825820923 0.0099999997764825820923 0.0099999997764825820923 0.0099999997764825820923 0.0099999997764825820923 0.0099999997764825820923 0.0099999997764825820923 0.0099999997764825820923 0.0099999997764825820923 0.0099999997764825820923 0.0099999997764825820923 0.014624999836087226868 1.0758913755416870117 0.28956875205039978027 0.51724809408187866211 0.79036062955856323242 1.8470550775527954102 1.0783236026763916016 0.94034296274185180664 0.80342239141464233398 0.98246115446090698242 2.2886741161346435547 1.9104799032211303711 1.012078404426574707 0.83713436126708984375 0.71527475118637084961 1.1768927574157714844 0.38745424151420593262 0.63258749246597290039 0.83662837743759155273 0.96135425567626953125 0.72216892242431640625 0.8949921727180480957 0.63907790184020996094 0.49414265155792236328 0.56084960699081420898 0.62337571382522583008 0.9934361577033996582 0.93757730722427368164 0.57892698049545288086 0.73105216026306152344 0.82989519834518432617 0.88780641555786132812 0.43961986899375915527 0.81907862424850463867 0.8723576664924621582 0.90323406457901000977 0.72759461402893066406 0.43724432587623596191 0.59352529048919677734 0.34465262293815612793 0.83374929428100585938 0.89980828762054443359 
0.0099999997764825820923 0.0099999997764825820923 0.0099999997764825820923 0.0099999997764825820923 0.0099999997764825820923 0.0099999997764825820923 0.0099999997764825820923 0.0099999997764825820923 0.0099999997764825820923 0.0099999997764825820923 0.0099999997764825820923 0.0099999997764825820923 0.0099999997764825820923 0.0099999997764825820923 0.0099999997764825820923 0.0099999997764825820923 0.0099999997764825820923 0.0099999997764825820923 0.0099999997764825820923 0.035437498241662979126 1.9206111431121826172 0.60890603065490722656 0.64263612031936645508 0.59282755851745605469 0.48732900619506835938 1.015080571174621582 1.2281646728515625 0.97351813316345214844 0.56945717334747314453 0.29628854990005493164 0.7694060206413269043 0.20318268239498138428 0.11775512248277664185 0.01231249980628490448 0.0099999997764825820923 0.0099999997764825820923 0.0099999997764825820923 0.0099999997764825820923 0.0099999997764825820923 0.0099999997764825820923 0.0099999997764825820923 0.0099999997764825820923 0.0099999997764825820923 0.0099999997764825820923 0.025875000283122062683 0.041499998420476913452 0.88511240482330322266 0.88067930936813354492 1.5866179466247558594 2.1107349395751953125 2.2878599166870117188 1.4658002853393554688 0.63133794069290161133 0.84880673885345458984 1.4692264795303344727 1.7482827901840209961 1.7701648473739624023 2.0747463703155517578 0.86366611719131469727 0.63754171133041381836 0.28703981637954711914 0.059000000357627868652 1.8505858182907104492 0.66066497564315795898 0.80150502920150756836 1.0893234014511108398 0.81475466489791870117 0.79350757598876953125 0.46811842918395996094 0.60697293281555175781 0.69283717870712280273 1.0952467918395996094 0.78061354160308837891 1.1242570877075195312 0.56436640024185180664 0.55649584531784057617 0.38501894474029541016 0.35823968052864074707 0.57196867465972900391 1.2227836847305297852 0.86971795558929443359 0.96400952339172363281 1.4353357553482055664 1.2454618215560913086 0.38839706778526306152 0.32599663734436035156 0.76690578460693359375 
0.0099999997764825820923 0.0099999997764825820923 0.0099999997764825820923 0.0099999997764825820923 0.0099999997764825820923 0.0099999997764825820923 0.0099999997764825820923 0.0099999997764825820923 0.0099999997764825820923 0.0099999997764825820923 0.0099999997764825820923 0.0099999997764825820923 0.0099999997764825820923 0.0099999997764825820923 0.0099999997764825820923 0.0099999997764825820923 0.0099999997764825820923 0.0099999997764825820923 0.014624999836087226868 0.41736316680908203125 0.43171799182891845703 0.34793594479560852051 0.97023755311965942383 0.59358435869216918945 0.7804043889045715332 1.3229087591171264648 1.9172588586807250977 0.89552104473114013672 0.43567937612533569336 0.58342498540878295898 0.62878400087356567383 0.2856362462043762207 0.10819262266159057617 0.0099999997764825820923 0.0099999997764825820923 0.0099999997764825820923 0.0099999997764825820923 0.0099999997764825820923 0.0099999997764825820923 0.0099999997764825820923 0.0099999997764825820923 0.0099999997764825820923 0.0099999997764825820923 0.024749999865889549255 1.0787664651870727539 0.77641469240188598633 1.7819762229919433594 1.1674213409423828125 0.917690277099609375 1.485510706901550293 1.2078704833984375 1.0133646726608276367 0.54493999481201171875 0.70120000839233398438 0.51893734931945800781 1.3454277515411376953 0.92509239912033081055 1.059521794319152832 0.88113462924957275391 0.90282177925109863281 0.84443867206573486328 0.050999999046325683594 0.74095636606216430664 1.0322482585906982422 1.2985384464263916016 1.1100493669509887695 0.61245274543762207031 0.94919091463088989258 0.79160398244857788086 1.1320213079452514648 0.95379948616027832031 1.3618712425231933594 0.89459663629531860352 0.64644598960876464844 0.53523409366607666016 0.9674307703971862793 0.77719837427139282227 1.0496447086334228516 0.42771369218826293945 0.83009123802185058594 0.76117503643035888672 2.0125684738159179688 3.3889479637145996094 2.4994964599609375 1.9329264163970947266 0.65377020835876464844 0.52883428335189819336 
0.0099999997764825820923 0.0099999997764825820923 0.0099999997764825820923 0.0099999997764825820923 0.0099999997764825820923 0.0099999997764825820923 0.0099999997764825820923 0.0099999997764825820923 0.0099999997764825820923 0.0099999997764825820923 0.0099999997764825820923 0.0099999997764825820923 0.0099999997764825820923 0.0099999997764825820923 0.0099999997764825820923 0.0099999997764825820923 0.0099999997764825820923 0.0099999997764825820923 0.37790131568908691406 2.1837491989135742188 0.77279675006866455078 0.63140463829040527344 1.4996078014373779297 1.3153978586196899414 1.5504249334335327148 1.4178212881088256836 1.2459268569946289062 0.66794806718826293945 1.3645813465118408203 1.2250814437866210938 0.55085599422454833984 0.69902986288070678711 0.090812504291534423828 0.0099999997764825820923 0.0099999997764825820923 0.0099999997764825820923 0.0099999997764825820923 0.0099999997764825820923 0.0099999997764825820923 0.0099999997764825820923 0.0099999997764825820923 0.0099999997764825820923 0.72530263662338256836 0.49048081040382385254 0.78777146339416503906 0.91368722915649414062 0.81582540273666381836 1.0335071086883544922 1.0922728776931762695 1.1563405990600585938 0.97267299890518188477 0.91093027591705322266 0.62903487682342529297 1.7687175273895263672 0.70806026458740234375 1.3624380826950073242 0.90996527671813964844 1.0617333650588989258 0.87402337789535522461 0.86814481019973754883 0.64281868934631347656 0.76117759943008422852 1.2054960727691650391 0.86089676618576049805 0.99467247724533081055 0.86463809013366699219 0.95151150226593017578 0.8835423588752746582 0.80981272459030151367 0.8753058314323425293 1.9438973665237426758 1.013529658317565918 0.85461193323135375977 1.0034693479537963867 1.1021227836608886719 0.75090986490249633789 0.58171260356903076172 0.71261036396026611328 0.63306736946105957031 0.95113152265548706055 0.81787872314453125 2.8235445022583007812 3.8211634159088134766 1.8830460309982299805 2.2532672882080078125 0.8860428929328918457 1.3905329704284667969 
0.0099999997764825820923 0.0099999997764825820923 0.0099999997764825820923 0.0099999997764825820923 0.0099999997764825820923 0.0099999997764825820923 0.0099999997764825820923 0.0099999997764825820923 0.0099999997764825820923 0.0099999997764825820923 0.0099999997764825820923 0.0099999997764825820923 0.0099999997764825820923 0.0099999997764825820923 0.0099999997764825820923 0.0099999997764825820923 0.0099999997764825820923 0.0099999997764825820923 1.8347564935684204102 1.1337580680847167969 0.79987734556198120117 0.69714027643203735352 1.2059500217437744141 1.1555503606796264648 1.2809355258941650391 3.0490679740905761719 1.0181881189346313477 0.88803654909133911133 1.2729659080505371094 0.58275216817855834961 0.76474654674530029297 0.78560930490493774414 0.0099999997764825820923 0.0099999997764825820923 0.0099999997764825820923 0.0099999997764825820923 0.0099999997764825820923 0.0099999997764825820923 0.0099999997764825820923 0.0099999997764825820923 0.01231249980628490448 0.06940600275993347168 1.0512967109680175781 0.74719434976577758789 1.5572988986968994141 0.88160747289657592773 0.8370196223258972168 0.86874997615814208984 1.1024143695831298828 1.2058262825012207031 1.1286575794219970703 0.87717384099960327148 1.1027594804763793945 1.7859017848968505859 0.91566413640975952148 1.201052546501159668 0.86288398504257202148 0.52496308088302612305 0.99843502044677734375 0.60646897554397583008 0.85998201370239257812 1.4513552188873291016 0.9655367732048034668 0.9075946807861328125 0.80708658695220947266 0.84967803955078125 0.87371921539306640625 0.85684782266616821289 0.8104947209358215332 0.95934981107711791992 2.1574914455413818359 0.71596395969390869141 0.85885870456695556641 1.0040766000747680664 1.1585770845413208008 0.77713304758071899414 0.4025293886661529541 1.1398445367813110352 1.1136821508407592773 0.98622012138366699219 1.0797492265701293945 2.2807748317718505859 3.0606524944305419922 2.8778314590454101562 2.1129214763641357422 1.1504176855087280273 1.4427112340927124023 
0.0099999997764825820923 0.0099999997764825820923 0.0099999997764825820923 0.0099999997764825820923 0.0099999997764825820923 0.0099999997764825820923 0.0099999997764825820923 0.0099999997764825820923 0.0099999997764825820923 0.0099999997764825820923 0.0099999997764825820923 0.0099999997764825820923 0.0099999997764825820923 0.0099999997764825820923 0.0099999997764825820923 0.0099999997764825820923 0.0099999997764825820923 0.0099999997764825820923 1.6823263168334960938 0.87763702869415283203 0.81255286931991577148 1.704672694206237793 2.1331391334533691406 1.192181706428527832 1.9560263156890869141 1.515944361686706543 0.33714532852172851562 0.74231475591659545898 0.89878982305526733398 0.4534676671028137207 0.82854944467544555664 0.058187499642372131348 0.0099999997764825820923 0.0099999997764825820923 0.0099999997764825820923 0.0099999997764825820923 0.0099999997764825820923 0.0099999997764825820923 0.011749999597668647766 0.029687499627470970154 0.81255775690078735352 0.68300169706344604492 0.88468313217163085938 1.2269608974456787109 1.5759960412979125977 1.0330320596694946289 1.1116814613342285156 1.0070756673812866211 1.2587763071060180664 0.92177271842956542969 1.1422743797302246094 0.50661110877990722656 0.4934616386890411377 0.4030055701732635498 0.66365861892700195312 0.99636638164520263672 1.1121962070465087891 0.67208003997802734375 0.72345966100692749023 0.81623852252960205078 1.1353238821029663086 1.1975715160369873047 1.1657904386520385742 0.73946166038513183594 1.0329535007476806641 0.6964569091796875 0.86536008119583129883 0.92342555522918701172 0.79542636871337890625 1.3155034780502319336 2.2687544822692871094 0.45589026808738708496 0.75468957424163818359 0.94960546493530273438 0.91522336006164550781 1.0599557161331176758 0.65142363309860229492 1.4917393922805786133 1.6856098175048828125 1.0888215303421020508 1.4161467552185058594 2.7144970893859863281 2.2305281162261962891 2.5532610416412353516 1.5138492584228515625 0.93762618303298950195 1.2608664035797119141 
0.0099999997764825820923 0.0099999997764825820923 0.0099999997764825820923 0.0099999997764825820923 0.0099999997764825820923 0.0099999997764825820923 0.0099999997764825820923 0.0099999997764825820923 0.0099999997764825820923 0.0099999997764825820923 0.0099999997764825820923 0.0099999997764825820923 0.0099999997764825820923 0.0099999997764825820923 0.0099999997764825820923 0.0099999997764825820923 0.0099999997764825820923 0.019249999895691871643 1.7150003910064697266 0.52622485160827636719 0.54997408390045166016 2.3395907878875732422 2.0001587867736816406 2.6497466564178466797 2.017871856689453125 0.18275749683380126953 0.27330094575881958008 0.774822235107421875 0.90834581851959228516 0.35643380880355834961 0.30375513434410095215 0.0099999997764825820923 0.0099999997764825820923 0.0099999997764825820923 0.0099999997764825820923 0.016937499865889549255 0.36233881115913391113 0.081664249300956726074 0.46456068754196166992 0.86024016141891479492 0.52754116058349609375 0.73448866605758666992 1.4770224094390869141 0.50959372520446777344 0.73834794759750366211 1.265336155891418457 0.8520857691764831543 1.0294194221496582031 1.2876697778701782227 0.94729447364807128906 1.2916181087493896484 0.38802644610404968262 0.35539001226425170898 0.35539001226425170898 0.72678333520889282227 0.99420636892318725586 0.75567018985748291016 0.86273986101150512695 0.85797911882400512695 0.87571603059768676758 0.87616521120071411133 0.28705549240112304688 0.94297719001770019531 0.91776543855667114258 0.98063492774963378906 0.74908334016799926758 0.8181069493293762207 0.86330187320709228516 0.89851939678192138672 2.1184794902801513672 1.7057877779006958008 1.0343750715255737305 0.84352725744247436523 1.0038071870803833008 1.0149986743927001953 0.94796484708786010742 1.1722178459167480469 0.67701590061187744141 0.82573944330215454102 0.8550745844841003418 0.87583786249160766602 1.034916996955871582 0.60131442546844482422 0.74313515424728393555 0.94621270895004272461 1.0018254518508911133 0.34637475013732910156 
0.0099999997764825820923 0.0099999997764825820923 0.0099999997764825820923 0.0099999997764825820923 0.0099999997764825820923 0.0099999997764825820923 0.0099999997764825820923 0.0099999997764825820923 0.0099999997764825820923 0.0099999997764825820923 0.0099999997764825820923 0.0099999997764825820923 0.0099999997764825820923 0.0099999997764825820923 0.0099999997764825820923 0.0099999997764825820923 0.0099999997764825820923 0.8093077540397644043 1.7948491573333740234 0.63986647129058837891 0.80329144001007080078 2.9825484752655029297 3.651332855224609375 3.1440660953521728516 0.76649135351181030273 0.63298153877258300781 0.16216781735420227051 1.0116652250289916992 0.54452919960021972656 0.53827559947967529297 0.40587499737739562988 0.0099999997764825820923 0.0099999997764825820923 0.0099999997764825820923 0.0099999997764825820923 0.36883881688117980957 3.1476118564605712891 1.1961576938629150391 0.80703192949295043945 1.0552992820739746094 0.96880835294723510742 0.21519500017166137695 0.65784686803817749023 0.56339085102081298828 0.94049912691116333008 0.35539001226425170898 0.35539001226425170898 1.2698127031326293945 1.3421465158462524414 1.5611649751663208008 1.8761465549468994141 0.35539001226425170898 0.35539001226425170898 0.35539001226425170898 0.77038162946701049805 1.2517631053924560547 0.83216756582260131836 0.56861525774002075195 0.46269956231117248535 0.60874462127685546875 0.5097020268440246582 0.77988213300704956055 1.4155234098434448242 0.76556038856506347656 1.3155612945556640625 0.85157680511474609375 0.81852144002914428711 0.86525475978851318359 0.97734946012496948242 2.5009648799896240234 0.67375719547271728516 0.88621246814727783203 0.93101680278778076172 1.0563116073608398438 1.148592829704284668 0.88836205005645751953 0.38214582204818725586 0.91479450464248657227 0.81757175922393798828 0.95259988307952880859 0.85450518131256103516 0.95082676410675048828 1.1569625139236450195 1.0648752450942993164 1.6886788606643676758 0.9498761296272277832 2.0941040515899658203 
0.0099999997764825820923 0.0099999997764825820923 0.0099999997764825820923 0.0099999997764825820923 0.0099999997764825820923 0.0099999997764825820923 0.0099999997764825820923 0.0099999997764825820923 0.0099999997764825820923 0.0099999997764825820923 0.0099999997764825820923 0.0099999997764825820923 0.0099999997764825820923 0.0099999997764825820923 0.0099999997764825820923 0.0099999997764825820923 0.35740131139755249023 2.1983120441436767578 0.87468379735946655273 0.79077535867691040039 0.78890788555145263672 2.3054401874542236328 2.9603943824768066406 1.2252686023712158203 0.90232545137405395508 0.60103738307952880859 1.1345736980438232422 1.4987081289291381836 0.6686108708381652832 0.54468876123428344727 0.33093750476837158203 0.01231249980628490448 0.01231249980628490448 0.0099999997764825820923 0.028625000268220901489 0.85017758607864379883 1.4899985790252685547 0.73350292444229125977 0.8025677800178527832 0.62226343154907226562 1.0565897226333618164 0.31663370132446289062 0.58316266536712646484 0.70144659280776977539 1.5505023002624511719 0.35539001226425170898 0.35539001226425170898 0.31540375947952270508 0.90061283111572265625 1.1574547290802001953 1.0136665105819702148 0.72304451465606689453 0.39970549941062927246 0.63696068525314331055 0.81361615657806396484 0.61245262622833251953 0.53465104103088378906 0.26941931247711181641 0.12223069369792938232 0.87654465436935424805 1.2169312238693237305 1.0119888782501220703 0.89409071207046508789 0.59124809503555297852 0.86498379707336425781 0.77591753005981445312 0.87298721075057983398 0.83864742517471313477 0.75591766834259033203 0.44663441181182861328 0.056600000709295272827 0.57050883769989013672 0.71221089363098144531 0.89581948518753051758 1.2544823884963989258 1.1238355636596679688 1.4783483743667602539 1.6449072360992431641 1.114471435546875 0.70005095005035400391 0.92016291618347167969 1.6411001682281494141 0.99237537384033203125 2.0894274711608886719 0.7251224517822265625 0.71553260087966918945 0.2650000154972076416 
0.0099999997764825820923 0.0099999997764825820923 0.0099999997764825820923 0.0099999997764825820923 0.0099999997764825820923 0.0099999997764825820923 0.0099999997764825820923 0.0099999997764825820923 0.0099999997764825820923 0.0099999997764825820923 0.0099999997764825820923 0.0099999997764825820923 0.0099999997764825820923 0.0099999997764825820923 0.0099999997764825820923 0.0099999997764825820923 1.3996052742004394531 2.1683497428894042969 0.73284345865249633789 0.7267659306526184082 0.73262554407119750977 0.5441786646842956543 0.80246627330780029297 0.43606236577033996582 0.53480774164199829102 0.79718238115310668945 0.54860460758209228516 0.53840744495391845703 0.84113061428070068359 0.60302013158798217773 0.57800000905990600586 0.11393749713897705078 0.033124998211860656738 0.038312498480081558228 0.15774938464164733887 2.6860289573669433594 1.1911832094192504883 0.92024618387222290039 0.74057340621948242188 0.76513898372650146484 0.62874126434326171875 0.23446938395500183105 0.33811563253402709961 0.51570051908493041992 0.7048009037971496582 0.37274062633514404297 0.836334228515625 0.280292510986328125 2.6994266510009765625 1.8235219717025756836 1.9961311817169189453 0.80041998624801635742 0.74365788698196411133 2.1814374923706054688 1.052562713623046875 1.2687697410583496094 0.42713412642478942871 0.5657736659049987793 0.23450155556201934814 1.0479530096054077148 0.80537384748458862305 0.90879482030868530273 0.58213603496551513672 0.85005980730056762695 0.86519736051559448242 0.93171876668930053711 0.7516015172004699707 0.90943318605422973633 0.84793430566787719727 0.8752155303955078125 0.59725624322891235352 0.18095858395099639893 0.8542416691780090332 1.0509103536605834961 0.79976099729537963867 1.2089025974273681641 1.080374598503112793 2.2967967987060546875 1.1740481853485107422 0.66712671518325805664 0.38302400708198547363 0.84082782268524169922 0.87760680913925170898 2.1133692264556884766 0.80364054441452026367 1.0949217081069946289 3.6602981090545654297 
0.0099999997764825820923 0.0099999997764825820923 0.0099999997764825820923 0.0099999997764825820923 0.0099999997764825820923 0.0099999997764825820923 0.0099999997764825820923 0.0099999997764825820923 0.0099999997764825820923 0.0099999997764825820923 0.0099999997764825820923 0.0099999997764825820923 0.0099999997764825820923 0.0099999997764825820923 0.0099999997764825820923 0.0099999997764825820923 1.8738042116165161133 1.5838111639022827148 0.98224961757659912109 1.0151779651641845703 1.1396923065185546875 1.2146515846252441406 1.1389383077621459961 0.60412055253982543945 0.73104649782180786133 2.2533605098724365234 0.80491214990615844727 0.46071025729179382324 0.61444705724716186523 1.1151415109634399414 1.2660000324249267578 1.2660000324249267578 0.50581252574920654297 0.13770456612110137939 1.6697077751159667969 1.4152185916900634766 1.6741362810134887695 0.86290723085403442383 0.92330342531204223633 0.82020854949951171875 0.80817514657974243164 0.26701813936233520508 0.35539001226425170898 0.28085500001907348633 0.2690181434154510498 0.26158064603805541992 0.25530189275741577148 0.56778699159622192383 1.9045746326446533203 1.5238351821899414062 1.3995196819305419922 0.88388830423355102539 0.31822362542152404785 0.87604773044586181641 0.61899685859680175781 1.2124594449996948242 0.39849951863288879395 0.58632922172546386719 1.0726872682571411133 1.4826081991195678711 0.99100947380065917969 0.90173524618148803711 0.90333020687103271484 0.88621938228607177734 0.81778866052627563477 0.99353122711181640625 1.2258558273315429688 1.2188048362731933594 0.75378143787384033203 0.90083587169647216797 1.420601963996887207 1.2339671850204467773 1.2311370372772216797 0.96825611591339111328 1.021474003791809082 0.77342021465301513672 0.974346160888671875 0.9431660771369934082 1.0301185846328735352 0.58939516544342041016 1.3553339242935180664 1.1224837303161621094 1.1210540533065795898 2.1143970489501953125 2.3351809978485107422 1.7203797101974487305 2.5454623699188232422 
0.0099999997764825820923 0.0099999997764825820923 0.0099999997764825820923 0.0099999997764825820923 0.0099999997764825820923 0.0099999997764825820923 0.0099999997764825820923 0.0099999997764825820923 0.0099999997764825820923 0.0099999997764825820923 0.0099999997764825820923 0.0099999997764825820923 0.0099999997764825820923 0.0099999997764825820923 0.01231249980628490448 2.5519556999206542969 1.6330921649932861328 0.83825266361236572266 1.0230052471160888672 1.0203324556350708008 1.6065874099731445312 2.0317547321319580078 0.67178243398666381836 2.16318511962890625 2.2975025177001953125 1.6686288118362426758 0.38068044185638427734 0.78398931026458740234 0.18862837553024291992 0.74854701757431030273 1.1176249980926513672 0.82796943187713623047 0.32209351658821105957 0.032062500715255737305 0.77580887079238891602 1.1356388330459594727 2.1106088161468505859 0.9969037175178527832 0.98709136247634887695 1.1487119197845458984 0.8084494471549987793 0.25174376368522644043 0.33811563253402709961 0.5818989872932434082 0.35539001226425170898 0.39009127020835876465 0.48811805248260498047 0.69863522052764892578 2.5017020702362060547 1.5406122207641601562 1.1002354621887207031 0.917140960693359375 0.673374176025390625 0.73398989439010620117 1.1379431486129760742 0.81257259845733642578 0.51058465242385864258 0.68890368938446044922 1.6552840471267700195 0.68544661998748779297 0.93418008089065551758 0.86986976861953735352 0.80340719223022460938 0.94381570816040039062 0.64206254482269287109 0.86229497194290161133 1.1546871662139892578 0.94310235977172851562 0.81697738170623779297 1.3579720258712768555 1.3284678459167480469 1.267918705940246582 0.71367764472961425781 1.8527148962020874023 0.59677678346633911133 1.1604362726211547852 1.4414670467376708984 0.835163116455078125 1.2399545907974243164 0.44459018111228942871 0.77897042036056518555 0.059336874634027481079 0.78493642807006835938 1.7967693805694580078 0.85382497310638427734 1.4559410810470581055 1.8817894458770751953 
0.0099999997764825820923 0.0099999997764825820923 0.0099999997764825820923 0.0099999997764825820923 0.0099999997764825820923 0.0099999997764825820923 0.0099999997764825820923 0.0099999997764825820923 0.0099999997764825820923 0.0099999997764825820923 0.0099999997764825820923 0.0099999997764825820923 0.0099999997764825820923 0.1739374995231628418 0.87567758560180664062 1.9144490957260131836 1.4661259651184082031 1.1611880064010620117 0.83373379707336425781 0.8335895538330078125 1.6827776432037353516 1.1092015504837036133 0.64817476272583007812 0.76180511713027954102 1.6937552690505981445 1.0200196504592895508 0.3013470768928527832 0.62138438224792480469 0.46745920181274414062 0.59193074703216552734 0.13425000011920928955 0.23731724917888641357 0.24947269260883331299 1.5035485029220581055 1.4270108938217163086 1.1007447242736816406 0.75485223531723022461 1.143412470817565918 1.9092133045196533203 0.8805420994758605957 1.5709939002990722656 2.3656911849975585938 2.2493097782135009766 3.5673062801361083984 3.2727353572845458984 1.9539122581481933594 2.0595335960388183594 3.0126500129699707031 3.00315093994140625 2.5068819522857666016 2.4462180137634277344 1.349660038948059082 0.54880660772323608398 0.90936261415481567383 1.0191191434860229492 0.7511113286018371582 1.4141354560852050781 0.46438887715339660645 0.90319001674652099609 0.74389415979385375977 0.81772089004516601562 0.83878028392791748047 0.47817537188529968262 0.43907201290130615234 1.1725882291793823242 0.71715295314788818359 1.2133982181549072266 1.2220118045806884766 0.75953286886215209961 0.74183797836303710938 0.96470254659652709961 0.052124999463558197021 0.03930769115686416626 1.8434835672378540039 2.4628775119781494141 3.2105116844177246094 2.1916279792785644531 2.2390344142913818359 1.228457331657409668 1.4917781352996826172 1.989681243896484375 2.1266376972198486328 2.0608878135681152344 1.3871680498123168945 1.5543766021728515625 2.1930260658264160156 0.054999999701976776123 
0.0099999997764825820923 0.0099999997764825820923 0.0099999997764825820923 0.0099999997764825820923 0.0099999997764825820923 0.0099999997764825820923 0.0099999997764825820923 0.0099999997764825820923 0.0099999997764825820923 0.0099999997764825820923 0.0099999997764825820923 0.0099999997764825820923 0.25012499094009399414 0.83291113376617431641 1.9994575977325439453 1.5444741249084472656 1.8218690156936645508 1.0598862171173095703 0.88568329811096191406 0.82179874181747436523 0.83752751350402832031 0.78225958347320556641 0.50259935855865478516 0.70097678899765014648 1.0752313137054443359 0.23336306214332580566 0.078583501279354095459 0.91328543424606323242 0.77749663591384887695 0.93864285945892333984 0.54728811979293823242 0.63217473030090332031 0.48305025696754455566 0.85952234268188476562 0.73605096340179443359 0.96069645881652832031 1.4148313999176025391 1.0048567056655883789 0.67616897821426391602 0.87782955169677734375 1.5423557758331298828 3.5865423679351806641 4.2994151115417480469 2.8749260902404785156 1.9777199029922485352 1.568444371223449707 0.45960187911987304688 1.4798724651336669922 2.1436614990234375 2.5941901206970214844 2.21067047119140625 1.085872650146484375 0.98570972681045532227 1.1543796062469482422 1.3926289081573486328 1.5989109277725219727 2.1215920448303222656 0.96007847785949707031 1.0384689569473266602 0.50804191827774047852 0.89360970258712768555 0.42131450772285461426 1.1864267587661743164 0.39228230714797973633 0.99964624643325805664 1.3864827156066894531 0.93199807405471801758 1.2552884817123413086 0.58319669961929321289 1.8161295652389526367 1.4717274904251098633 0.75561434030532836914 1.2483228445053100586 1.122090458869934082 2.712749481201171875 3.8910605907440185547 2.275341033935546875 1.6270105838775634766 1.0164066553115844727 1.1768842935562133789 1.7757411003112792969 1.5652894973754882812 1.4881372451782226562 1.0672152042388916016 1.2863793373107910156 0.47409576177597045898 0.079000003635883331299 
0.0099999997764825820923 0.0099999997764825820923 0.0099999997764825820923 0.0099999997764825820923 0.0099999997764825820923 0.92719954252243041992 0.789306640625 0.82500970363616943359 0.97110277414321899414 0.01231249980628490448 0.0099999997764825820923 0.014624999836087226868 1.2255263328552246094 1.4993634223937988281 0.84965467453002929688 1.6177799701690673828 1.5524348020553588867 1.1680433750152587891 0.85286480188369750977 1.0272073745727539062 0.82526409626007080078 0.54467058181762695312 0.64553689956665039062 1.3191989660263061523 0.96634370088577270508 0.57392340898513793945 0.87712514400482177734 0.36343100666999816895 1.3158723115921020508 0.8303089141845703125 0.61790674924850463867 0.80124634504318237305 0.7450955510139465332 0.67512071132659912109 0.84365612268447875977 1.0852974653244018555 0.9231917262077331543 0.99945139884948730469 1.2218192815780639648 1.9144928455352783203 2.7936320304870605469 3.8582694530487060547 3.0760586261749267578 2.4751338958740234375 1.9635437726974487305 1.4810050725936889648 0.55259716510772705078 2.1996281147003173828 2.6372449398040771484 2.6589150428771972656 2.3828008174896240234 1.4226319789886474609 1.220062255859375 0.47623056173324584961 1.1031363010406494141 1.069622039794921875 0.7607784271240234375 0.83485430479049682617 1.0107957124710083008 0.77367216348648071289 0.8680171966552734375 0.8729082942008972168 1.1554934978485107422 1.2639580965042114258 0.93170517683029174805 0.79518091678619384766 0.64112448692321777344 0.97037076950073242188 0.5788777470588684082 1.0539690256118774414 0.81445145606994628906 0.77870166301727294922 0.49501582980155944824 0.78157770633697509766 1.8709743022918701172 4.2790050506591796875 3.1456975936889648438 1.1268682479858398438 0.97189891338348388672 1.0210013389587402344 1.9273343086242675781 1.0798207521438598633 1.4497083425521850586 2.1754803657531738281 2.0189969539642333984 1.5179303884506225586 0.079000003635883331299 
0.0099999997764825820923 0.0099999997764825820923 0.0099999997764825820923 0.35971379280090332031 2.0254464149475097656 1.7455161809921264648 1.531795501708984375 1.0977751016616821289 0.76721566915512084961 0.66541761159896850586 0.016937499865889549255 0.33556249737739562988 3.5337367057800292969 1.4870961904525756836 0.81189298629760742188 0.88803380727767944336 0.84435319900512695312 0.82503885030746459961 0.82829213142395019531 0.81770986318588256836 0.44374635815620422363 1.8388332128524780273 0.93430489301681518555 1.9649057388305664062 1.0973086357116699219 0.56678241491317749023 1.4662741422653198242 0.56388872861862182617 0.74762594699859619141 1.1285915374755859375 0.97002911567687988281 0.85675394535064697266 0.69876337051391601562 1.3242398500442504883 1.5214021205902099609 1.7682702541351318359 0.62817376852035522461 0.82256305217742919922 1.0561423301696777344 0.82838588953018188477 0.96112656593322753906 2.8638985157012939453 2.2228827476501464844 3.0402457714080810547 1.5026891231536865234 0.52231961488723754883 1.0080895423889160156 2.1777217388153076172 2.7495431900024414062 2.6101553440093994141 1.7298911809921264648 1.9467530250549316406 1.0792708396911621094 1.2648704051971435547 1.2942153215408325195 0.87141937017440795898 1.0334599018096923828 1.1301872730255126953 0.96686190366744995117 0.69469881057739257812 0.90111482143402099609 0.99456667900085449219 0.98269051313400268555 0.3403777778148651123 0.74930155277252197266 1.0654164552688598633 1.5115270614624023438 1.6672037839889526367 1.8163129091262817383 1.7752119302749633789 1.6034798622131347656 1.4311575889587402344 1.501158595085144043 0.91346138715744018555 1.1896704435348510742 3.6474289894104003906 1.8038026094436645508 1.7446428537368774414 0.84797406196594238281 1.3529800176620483398 1.802920222282409668 1.2932693958282470703 2.5585076808929443359 1.7095000743865966797 1.7671245336532592773 1.7109577655792236328 0.079000003635883331299 
0.014624999836087226868 0.78193050622940063477 1.2035186290740966797 1.3419601917266845703 1.0665268898010253906 0.8680553436279296875 0.77921813726425170898 1.3270938396453857422 0.89952456951141357422 2.2865271568298339844 1.1896775960922241211 0.73268753290176391602 4.5331544876098632812 1.7382873296737670898 1.3783216476440429688 1.1402736902236938477 0.98700767755508422852 0.64510875940322875977 1.039536595344543457 0.59223359823226928711 0.81375634670257568359 0.80146700143814086914 0.94535815715789794922 0.3840567469596862793 0.64281392097473144531 0.27834030985832214355 1.2754584550857543945 0.90615606307983398438 0.64969485998153686523 1.0762985944747924805 1.1561021804809570312 0.74663299322128295898 0.56413447856903076172 0.77231770753860473633 0.96650916337966918945 0.71781766414642333984 0.19296187162399291992 0.71092128753662109375 0.55153888463973999023 0.51639676094055175781 0.16500337421894073486 2.9331996440887451172 2.7799403667449951172 2.6603791713714599609 1.3717492818832397461 0.45272287726402282715 0.51761078834533691406 1.2224187850952148438 2.1054444313049316406 2.2596728801727294922 1.5377961397171020508 0.97568207979202270508 1.3424571752548217773 1.1186370849609375 0.98655885457992553711 1.7962920665740966797 1.381837010383605957 2.3513510227203369141 1.2782413959503173828 0.61202245950698852539 0.87314397096633911133 1.0537024736404418945 0.97924184799194335938 0.27248632907867431641 0.34012699127197265625 0.54100531339645385742 0.80133873224258422852 0.61673599481582641602 0.74026006460189819336 0.69374984502792358398 1.3622047901153564453 1.3401285409927368164 0.4691187739372253418 1.0780484676361083984 2.2421038150787353516 3.8174085617065429688 1.2660000324249267578 2.1771044731140136719 0.85791045427322387695 0.95954996347427368164 1.1690605878829956055 1.4083788394927978516 2.3511691093444824219 1.6776232719421386719 0.84703564643859863281 3.5519483089447021484 1.4513552188873291016 
1.1246987581253051758 0.93379712104797363281 0.69074368476867675781 0.5388037562370300293 1.1190494298934936523 2.2941799163818359375 1.6926629543304443359 0.9638087153434753418 0.61973202228546142578 1.2683892250061035156 0.94724011421203613281 1.0374375581741333008 3.4554891586303710938 1.5467622280120849609 2.606853485107421875 3.0645630359649658203 2.7275681495666503906 3.0165154933929443359 0.97216188907623291016 1.1161043643951416016 0.58303123712539672852 1.1525785923004150391 0.71702420711517333984 1.0969970226287841797 0.62133169174194335938 0.74288868904113769531 0.54082781076431274414 1.1992051601409912109 0.6265964508056640625 0.59133267402648925781 0.6683304905891418457 0.19119442999362945557 0.64128381013870239258 0.97379356622695922852 1.006425023078918457 0.49989885091781616211 0.26295945048332214355 0.49277573823928833008 0.24792087078094482422 0.74392306804656982422 0.13145300745964050293 3.0769193172454833984 2.8104519844055175781 2.6743826866149902344 1.7587563991546630859 0.81852298974990844727 0.42364814877510070801 0.72626739740371704102 1.7392810583114624023 3.2051944732666015625 3.5606625080108642578 2.4594264030456542969 1.9909173250198364258 1.0463162660598754883 0.94843012094497680664 1.5343569517135620117 1.5653558969497680664 1.0487647056579589844 0.90967231988906860352 0.47263929247856140137 0.88897031545639038086 1.1578447818756103516 0.62677401304244995117 0.89520758390426635742 0.96498143672943115234 0.83754718303680419922 1.018133997917175293 1.3214952945709228516 1.8632578849792480469 0.59591501951217651367 1.958235621452331543 1.3928061723709106445 1.0351691246032714844 1.3576749563217163086 2.4072747230529785156 4.5636529922485351562 1.2660000324249267578 0.86694151163101196289 1.0932773351669311523 1.307612299919128418 1.5869035720825195312 1.9809298515319824219 0.10057743638753890991 0.032187499105930328369 0.8766524195671081543 3.6378760337829589844 2.1026170253753662109 
1.0814881324768066406 1.4587674140930175781 1.0570342540740966797 0.78419923782348632812 1.1213803291320800781 2.3954224586486816406 2.0470652580261230469 1.1967529058456420898 0.6023896336555480957 1.0245506763458251953 0.021562499925494194031 0.68527632951736450195 3.1714999675750732422 1.418770909309387207 1.9117095470428466797 3.7742767333984375 4.3582434654235839844 5.5684208869934082031 0.81534951925277709961 1.6302759647369384766 0.7158896327018737793 1.7060617208480834961 0.86814254522323608398 0.73064219951629638672 1.1831597089767456055 1.7800127267837524414 1.070490717887878418 0.73705649375915527344 0.68970137834548950195 0.69395601749420166016 0.91183882951736450195 0.26424080133438110352 0.95880091190338134766 0.89602339267730712891 0.9571520686149597168 0.31138974428176879883 0.48650002479553222656 0.44843751192092895508 0.37394192814826965332 1.1165876388549804688 0.31507000327110290527 1.7931337356567382812 2.9390990734100341797 2.27117919921875 1.3330551385879516602 0.9043941497802734375 0.39174407720565795898 0.43345919251441955566 1.9755384922027587891 2.7633354663848876953 2.5965034961700439453 2.9466862678527832031 2.5030910968780517578 1.0118013620376586914 1.0733053684234619141 1.4316362142562866211 1.4322798252105712891 0.86471885442733764648 0.7660153508186340332 0.81480926275253295898 0.72383087873458862305 1.5265729427337646484 1.2716156244277954102 0.85944509506225585938 1.468898773193359375 1.375540614128112793 2.06870269775390625 1.3608219623565673828 0.98556816577911376953 1.1718435287475585938 0.61648154258728027344 1.042090296745300293 0.94042670726776123047 1.0813803672790527344 2.0532634258270263672 2.963527679443359375 1.852870941162109375 1.7194772958755493164 1.7825176715850830078 1.8611509799957275391 2.5921778678894042969 1.5175259113311767578 0.0243750009685754776 0.040500000119209289551 0.69298791885375976562 3.1388807296752929688 3.7649476528167724609 
1.2021516561508178711 1.8918931484222412109 0.98959445953369140625 0.66220760345458984375 1.5346120595932006836 2.3938934803009033203 1.1739923954010009766 0.910823822021484375 1.7773717641830444336 0.48506113886833190918 0.26862499117851257324 3.8446643352508544922 1.3208307027816772461 2.2586045265197753906 1.6120101213455200195 4.8076162338256835938 5.0316882133483886719 5.5684208869934082031 3.5180792808532714844 1.4064245223999023438 1.6772774457931518555 0.93107199668884277344 0.41276311874389648438 0.76359099149703979492 1.0220381021499633789 0.72058355808258056641 0.95559966564178466797 1.0241781473159790039 0.70765978097915649414 0.88130789995193481445 0.52234220504760742188 0.59896439313888549805 0.4735063016414642334 0.52816164493560791016 0.64395099878311157227 1.2555904388427734375 0.30537500977516174316 0.11737500131130218506 0.82194304466247558594 0.5918954014778137207 0.16958355903625488281 1.6430453062057495117 1.9004157781600952148 2.824596405029296875 1.7579627037048339844 0.79558366537094116211 0.95652270317077636719 0.72391772270202636719 2.6230862140655517578 3.1416025161743164062 4.233203887939453125 2.9325692653656005859 2.7310020923614501953 1.9190998077392578125 3.0747535228729248047 1.0175246000289916992 0.861537933349609375 0.53780245780944824219 0.89771926403045654297 0.84023332595825195312 0.79271596670150756836 0.57300156354904174805 0.88820123672485351562 0.96837776899337768555 0.70744055509567260742 0.57316958904266357422 0.47474807500839233398 0.85606914758682250977 1.0327761173248291016 1.2217339277267456055 0.35539001226425170898 0.35539001226425170898 0.77462375164031982422 1.0148233175277709961 1.6875890493392944336 1.9398707151412963867 2.1556582450866699219 3.1295592784881591797 2.9683232307434082031 2.2454152107238769531 3.0614476203918457031 0.92807400226593017578 0.020437501370906829834 0.17543751001358032227 0.07500000298023223877 1.5529903173446655273 4.4403901100158691406 
2.6764044761657714844 1.0137808322906494141 0.93674135208129882812 1.8860260248184204102 1.7607619762420654297 1.8553296327590942383 1.351887822151184082 1.0512912273406982422 1.0233849287033081055 1.1898125410079956055 3.4384138584136962891 1.5702235698699951172 0.95120751857757568359 2.9484915733337402344 2.4591641426086425781 5.3895101547241210938 5.2864131927490234375 5.2813816070556640625 3.5349135398864746094 1.562987208366394043 0.8277028203010559082 1.1588577032089233398 0.43264275789260864258 1.6897159814834594727 1.2535665035247802734 0.90461879968643188477 0.67630279064178466797 1.0275784730911254883 0.48597544431686401367 0.63633209466934204102 0.21503569185733795166 1.532490849494934082 0.54221373796463012695 0.58765780925750732422 1.0737422704696655273 0.48136356472969055176 0.24486006796360015869 1.0349674224853515625 1.218630671501159668 0.60518592596054077148 0.62221580743789672852 1.5696405172348022461 2.4752221107482910156 2.327579498291015625 2.0160748958587646484 1.3556959629058837891 0.27957487106323242188 0.79929673671722412109 3.6015639305114746094 4.7512392997741699219 4.1499395370483398438 4.0044317245483398438 2.9403259754180908203 1.4958460330963134766 2.4633615016937255859 1.3458286523818969727 1.9703335762023925781 0.56821304559707641602 0.86942470073699951172 1.0132505893707275391 0.81397515535354614258 0.90441435575485229492 1.3936071395874023438 1.0872662067413330078 1.7402117252349853516 0.94933539628982543945 0.68177276849746704102 1.0299360752105712891 1.2762694358825683594 1.1976039409637451172 0.62640684843063354492 0.53087311983108520508 1.6139695644378662109 1.5516035556793212891 1.8303475379943847656 0.82826387882232666016 1.9478418827056884766 3.3556108474731445312 0.95873337984085083008 2.7060666084289550781 3.1275899410247802734 2.6347000598907470703 1.7858234643936157227 1.8518750667572021484 2.56536865234375 1.7403407096862792969 2.2560122013092041016 
1.6730369329452514648 0.97667557001113891602 0.33279338479042053223 1.2590305805206298828 1.795780181884765625 1.6524219512939453125 2.1653580665588378906 1.2272711992263793945 1.1199742555618286133 1.7824044227600097656 1.8342882394790649414 0.63305115699768066406 1.5959247350692749023 1.3692640066146850586 1.8793816566467285156 5.2864131927490234375 4.5798749923706054688 4.4634771347045898438 3.9625277519226074219 3.1962039470672607422 2.3430144786834716797 1.1437157392501831055 2.1627471446990966797 0.74331820011138916016 1.5968787670135498047 1.0468648672103881836 1.0580126047134399414 0.96539717912673950195 0.91192400455474853516 0.37492430210113525391 1.6905568838119506836 1.0694380998611450195 0.98089873790740966797 0.96384161710739135742 0.71824336051940917969 0.90708839893341064453 1.1009324789047241211 1.3110297918319702148 0.98633712530136108398 0.28171768784523010254 0.48703137040138244629 2.8016672134399414062 2.8487682342529296875 2.7025139331817626953 1.6651464700698852539 1.3939760923385620117 0.57409417629241943359 0.46993044018745422363 4.452297210693359375 4.0601878166198730469 3.517757415771484375 4.76714324951171875 2.2171502113342285156 2.3909432888031005859 2.4381341934204101562 1.1100907325744628906 0.99057698249816894531 1.0700322389602661133 0.8675219416618347168 0.76860737800598144531 0.79302209615707397461 0.90950357913970947266 1.061694025993347168 1.0371484756469726562 1.7993961572647094727 1.3340783119201660156 1.0780849456787109375 0.93468290567398071289 0.88201993703842163086 0.95039880275726318359 0.56310123205184936523 1.024666905403137207 1.5185784101486206055 1.7531578540802001953 1.4513506889343261719 1.0876483917236328125 0.74931609630584716797 1.3781616687774658203 2.3541007041931152344 3.2977664470672607422 3.3418605327606201172 2.4192998409271240234 2.4552443027496337891 2.4616868495941162109 2.3686206340789794922 1.7596888542175292969 1.9636595249176025391 
1.0696619749069213867 0.99735319614410400391 0.75963675975799560547 2.0163543224334716797 0.73894149065017700195 1.3444198369979858398 0.62373811006546020508 0.96925002336502075195 0.72086864709854125977 1.2531908750534057617 0.50940656661987304688 1.2329403162002563477 0.79825991392135620117 1.1714254617691040039 1.5059591531753540039 5.5684208869934082031 4.5540704727172851562 3.0392231941223144531 3.0614728927612304688 5.0306181907653808594 2.2744367122650146484 1.4845075607299804688 1.1472889184951782227 0.84167456626892089844 0.88900434970855712891 1.0200628042221069336 0.77451562881469726562 0.61518841981887817383 0.33267876505851745605 0.40826937556266784668 1.5193145275115966797 1.1195237636566162109 0.97668045759201049805 1.1145919561386108398 0.76295936107635498047 0.77125310897827148438 0.83753955364227294922 0.73769092559814453125 0.96301758289337158203 0.56854230165481567383 0.58725279569625854492 1.2821372747421264648 1.0961346626281738281 0.97441637516021728516 1.1802796125411987305 0.70173585414886474609 1.0154378414154052734 1.7302680015563964844 3.3701958656311035156 4.1057333946228027344 4.3628454208374023438 3.9238483905792236328 3.0272374153137207031 2.1566762924194335938 1.8348859548568725586 0.87363195419311523438 1.8666379451751708984 0.81737792491912841797 1.0217719078063964844 0.60657453536987304688 0.83091938495635986328 0.88264858722686767578 1.0056593418121337891 0.67760813236236572266 0.51316893100738525391 1.1487517356872558594 0.75037080049514770508 1.1304448843002319336 1.2577688694000244141 0.92744922637939453125 0.48593574762344360352 0.83040761947631835938 2.7777135372161865234 1.6187785863876342773 1.3524007797241210938 1.5406484603881835938 1.0326392650604248047 0.97297430038452148438 5.1744790077209472656 5.5684208869934082031 5.5684208869934082031 2.953125 2.6093163490295410156 2.4184262752532958984 2.6940484046936035156 2.4229371547698974609 3.9313111305236816406 
1.5186630487442016602 1.260186314582824707 0.31725001335144042969 0.54270493984222412109 0.38645789027214050293 0.88140964508056640625 0.79138028621673583984 0.78061771392822265625 0.41798612475395202637 0.83459138870239257812 0.82977312803268432617 1.6571978330612182617 1.3004541397094726562 1.5755338668823242188 2.6111633777618408203 5.5684208869934082031 2.6185703277587890625 1.9403116703033447266 4.1930832862854003906 2.1746706962585449219 1.685353398323059082 1.9158366918563842773 1.0672786235809326172 0.60169386863708496094 0.70517522096633911133 0.58672684431076049805 0.5379593968391418457 0.44792801141738891602 0.83442437648773193359 0.91529929637908935547 0.80182385444641113281 1.0948718786239624023 0.73169916868209838867 1.1863287687301635742 1.3710275888442993164 1.0265223979949951172 0.64833652973175048828 0.69472414255142211914 0.504291534423828125 0.97338050603866577148 0.70854938030242919922 1.0443841218948364258 1.1462569236755371094 1.1281802654266357422 1.1453133821487426758 0.95456665754318237305 0.34083563089370727539 0.84796977043151855469 3.6652944087982177734 4.3853235244750976562 4.1745166778564453125 3.2025961875915527344 2.0557391643524169922 2.5287282466888427734 0.98952305316925048828 1.2297506332397460938 0.74855369329452514648 0.69672822952270507812 0.97560060024261474609 0.67987924814224243164 0.81650483608245849609 0.85313129425048828125 0.72414189577102661133 0.76564425230026245117 2.6798460483551025391 0.95560085773468017578 0.85928481817245483398 1.0700706243515014648 1.2106925249099731445 1.0937055349349975586 0.79637372493743896484 0.51348793506622314453 1.6127583980560302734 1.4486383199691772461 0.92539048194885253906 0.82414078712463378906 1.7318863868713378906 1.1290078163146972656 2.9599211215972900391 5.5684208869934082031 5.5684208869934082031 4.2423810958862304688 1.3890073299407958984 3.05084228515625 3.6318919658660888672 3.15045166015625 2.7901048660278320312 
2.6176500320434570312 1.0823335647583007812 1.6209970712661743164 1.2550995349884033203 0.71068453788757324219 1.2754559516906738281 1.1077796220779418945 0.5097637176513671875 0.8852100372314453125 0.98634928464889526367 0.90006482601165771484 1.7784960269927978516 1.8254106044769287109 2.6735544204711914062 2.8194968700408935547 3.0759608745574951172 1.5110107660293579102 1.8869529962539672852 1.5052237510681152344 3.1787574291229248047 1.8175245523452758789 1.2888962030410766602 0.79777759313583374023 0.71093893051147460938 1.1648617982864379883 0.50310713052749633789 0.74963349103927612305 0.66541367769241333008 0.98198139667510986328 0.35855367779731750488 0.9752394556999206543 1.4451224803924560547 0.77980840206146240234 0.73988783359527587891 1.0798431634902954102 0.99813020229339599609 0.81761860847473144531 0.73352515697479248047 1.2490743398666381836 0.33007782697677612305 0.6591809391975402832 0.91304743289947509766 1.2262184619903564453 0.80626481771469116211 0.66638243198394775391 0.96023118495941162109 0.75101512670516967773 1.1172902584075927734 2.9902555942535400391 4.6812844276428222656 3.6094558238983154297 2.1085381507873535156 2.0485899448394775391 2.0282323360443115234 1.4444603919982910156 0.97529321908950805664 0.88222622871398925781 0.80925148725509643555 0.91913634538650512695 1.149199366569519043 0.84557247161865234375 0.93813943862915039062 0.8929157257080078125 1.0410076379776000977 0.93720567226409912109 0.91442620754241943359 1.5224057435989379883 1.1285064220428466797 1.1884145736694335938 1.4058842658996582031 1.0781242847442626953 0.41410869359970092773 0.4482809603214263916 0.44923126697540283203 0.55713057518005371094 1.069056391716003418 0.78793710470199584961 0.16678029298782348633 3.6503012180328369141 4.9731793403625488281 5.1075024604797363281 3.6752429008483886719 2.5686690807342529297 3.2973546981811523438 2.5626063346862792969 2.6137483119964599609 4.1324853897094726562 
2.4854369163513183594 1.4106328487396240234 1.1208018064498901367 1.006865382194519043 0.66003030538558959961 1.205252528190612793 0.75065273046493530273 0.9710972905158996582 1.0968604087829589844 1.0553451776504516602 1.0008050203323364258 1.7478201389312744141 1.918487548828125 2.0167994499206542969 2.3161242008209228516 1.9242721796035766602 1.4538989067077636719 2.4318835735321044922 3.0184025764465332031 5.1641416549682617188 4.0729641914367675781 2.0857367515563964844 0.40639805793762207031 0.57230263948440551758 0.89033097028732299805 0.94858580827713012695 0.86953485012054443359 0.88491082191467285156 0.89941513538360595703 1.0317617654800415039 1.0181384086608886719 2.1430141925811767578 3.7004704475402832031 1.9426099061965942383 2.6094431877136230469 0.77325409650802612305 0.63239449262619018555 1.0821411609649658203 0.43370711803436279297 1.0718783140182495117 1.3732120990753173828 1.0728501081466674805 0.74481511116027832031 0.56436550617218017578 1.1235510110855102539 0.72430872917175292969 0.89885061979293823242 1.1333856582641601562 1.6197755336761474609 1.1820601224899291992 1.319553375244140625 1.9110424518585205078 2.5446574687957763672 1.5014342069625854492 1.0386658906936645508 1.0605093240737915039 1.020277857780456543 0.65070366859436035156 1.2899473905563354492 0.76471787691116333008 0.6834405064582824707 1.2440226078033447266 1.8728650808334350586 0.86047530174255371094 1.4147704839706420898 3.3110940456390380859 1.5150991678237915039 1.1251213550567626953 1.6617826223373413086 3.3040499687194824219 1.9160952568054199219 0.35539001226425170898 0.35539001226425170898 0.77444529533386230469 0.89697909355163574219 1.0354353189468383789 0.60512077808380126953 0.48241886496543884277 1.2229268550872802734 1.9357744455337524414 0.89194846153259277344 2.5254793167114257812 2.2040107250213623047 2.5004961490631103516 0.83393752574920654297 3.4305710792541503906 2.9868319034576416016 
2.090320587158203125 1.8979448080062866211 0.44077301025390625 0.90211582183837890625 0.7550004124641418457 1.1241303682327270508 0.92006814479827880859 1.1217803955078125 1.2351500988006591797 0.86492884159088134766 1.4881131649017333984 2.3493211269378662109 1.1673772335052490234 1.0947031974792480469 2.6176242828369140625 2.1961495876312255859 2.4878082275390625 4.2884616851806640625 4.341106414794921875 5.5684208869934082031 5.5684208869934082031 2.0260143280029296875 0.77929961681365966797 1.0252777338027954102 0.88478487730026245117 0.96467107534408569336 0.86880052089691162109 0.91763061285018920898 0.73857897520065307617 0.43261307477951049805 0.77804601192474365234 2.2806820869445800781 3.504886627197265625 0.96269148588180541992 2.552982330322265625 1.8831996917724609375 1.2949074506759643555 0.83656203746795654297 0.39004057645797729492 1.1817517280578613281 0.90661036968231201172 0.85783106088638305664 1.1743941307067871094 0.99670499563217163086 0.97689205408096313477 0.91113650798797607422 1.2882008552551269531 0.27474999427795410156 0.55049180984497070312 0.87359702587127685547 0.90284717082977294922 2.4134197235107421875 1.9149181842803955078 1.4336552619934082031 1.3030829429626464844 0.99696433544158935547 1.2833603620529174805 1.1054958105087280273 1.3859575986862182617 1.0028184652328491211 1.1977208852767944336 1.1611480712890625 2.2494421005249023438 1.0226117372512817383 1.2187647819519042969 2.8617899417877197266 1.4792299270629882812 1.1796041727066040039 3.0621492862701416016 4.2264027595520019531 1.8542923927307128906 0.7806332707405090332 0.72904765605926513672 1.0232390165328979492 1.9012401103973388672 0.91273963451385498047 1.755785822868347168 0.63280332088470458984 1.3705388307571411133 1.9559305906295776367 1.3710894584655761719 2.9849066734313964844 2.6253750324249267578 0.91243749856948852539 0.91243749856948852539 2.6584792137145996094 1.7370551824569702148 
2.5697946548461914062 1.4820764064788818359 0.92146003246307373047 0.57358354330062866211 0.88274103403091430664 0.93627059459686279297 0.78937053680419921875 0.3776315152645111084 0.70797711610794067383 0.93524771928787231445 1.2284448146820068359 1.5043559074401855469 1.5368103981018066406 1.4098626375198364258 2.4159815311431884766 3.159816741943359375 4.4993224143981933594 4.9147672653198242188 5.2813816070556640625 5.5684208869934082031 4.2381119728088378906 1.2872904539108276367 0.84932696819305419922 0.91878205537796020508 0.89352548122406005859 0.86910402774810791016 0.88046181201934814453 0.8429317474365234375 0.30250000953674316406 1.1854380369186401367 1.1291937828063964844 1.9780237674713134766 3.1265273094177246094 2.5377178192138671875 2.9722592830657958984 1.4310852289199829102 1.3222869634628295898 0.77003645896911621094 1.1164826154708862305 0.9455769658088684082 1.2007077932357788086 0.94752711057662963867 1.1079509258270263672 1.4989172220230102539 1.0794064998626708984 0.70776033401489257812 0.26110807061195373535 0.2707500159740447998 0.96829420328140258789 1.4671866893768310547 1.6835093498229980469 1.1271027326583862305 1.627719879150390625 1.239924311637878418 1.4131211042404174805 1.0298610925674438477 1.1700700521469116211 0.99740165472030639648 0.70809817314147949219 1.3685113191604614258 0.95927482843399047852 0.93134886026382446289 0.73548710346221923828 1.5287481546401977539 0.52404427528381347656 2.3257250785827636719 1.3589099645614624023 2.0705883502960205078 1.4291061162948608398 2.3348500728607177734 2.6416378021240234375 1.8771581649780273438 1.2584855556488037109 1.9425790309906005859 2.3512365818023681641 0.77363151311874389648 0.69866001605987548828 1.7200418710708618164 1.3214670419692993164 2.0488312244415283203 2.3328924179077148438 3.2972953319549560547 2.3738884925842285156 1.1875 0.90627634525299072266 1.7049630880355834961 0.81972801685333251953 
1.8442962169647216797 1.208160400390625 0.8901589512825012207 0.77288353443145751953 1.07460784912109375 0.89111953973770141602 0.67977511882781982422 1.4358602762222290039 0.88765823841094970703 1.6721462011337280273 2.1184473037719726562 2.694492340087890625 2.2672145366668701172 2.7135157585144042969 2.7259714603424072266 3.1366689205169677734 4.9916110038757324219 5.5684208869934082031 5.5684208869934082031 5.3610129356384277344 3.115238189697265625 1.9049434661865234375 0.94683951139450073242 0.93066930770874023438 0.83957856893539428711 0.74178028106689453125 0.575580596923828125 0.55353111028671264648 0.57605212926864624023 0.81063824892044067383 1.1545571088790893555 1.3399444818496704102 1.5978772640228271484 0.86342966556549072266 1.8402665853500366211 1.0395395755767822266 1.2136404514312744141 1.1649134159088134766 1.1567964553833007812 0.943035125732421875 0.86515480279922485352 0.89578044414520263672 1.389698028564453125 1.3716363906860351562 1.3871965408325195312 0.61001598834991455078 0.23360250890254974365 0.67671227455139160156 0.46908158063888549805 0.59881263971328735352 0.53832155466079711914 1.4975515604019165039 1.0786268711090087891 0.95617300271987915039 1.0477614402770996094 1.1115587949752807617 1.1605699062347412109 0.92483621835708618164 0.82222068309783935547 0.74467444419860839844 0.89829009771347045898 0.9460951685905456543 1.55645751953125 1.0398393869400024414 0.89088994264602661133 0.77320200204849243164 0.55952513217926025391 1.7073768377304077148 0.82612884044647216797 1.1634585857391357422 1.0340776443481445312 1.1844615936279296875 1.1062231063842773438 2.5058391094207763672 1.4225510358810424805 0.89769399166107177734 0.2529004216194152832 0.36783006787300109863 1.041682124137878418 0.97738128900527954102 1.6902633905410766602 2.0408122539520263672 2.3558440208435058594 0.63800001144409179688 2.1450426578521728516 1.3719512224197387695 0.81972801685333251953 
1.1553285121917724609 0.90203875303268432617 0.58759659528732299805 0.98125129938125610352 0.88909393548965454102 1.1328308582305908203 0.88051825761795043945 1.3307852745056152344 0.97232806682586669922 1.2582995891571044922 1.4056686162948608398 2.0233311653137207031 2.7135157585144042969 2.1360726356506347656 3.2616744041442871094 5.2864131927490234375 3.6974725723266601562 4.9902620315551757812 5.1502094268798828125 1.9082663059234619141 1.0918738842010498047 1.137330174446105957 1.1491047143936157227 0.79822593927383422852 0.90990650653839111328 0.92363941669464111328 1.799985051155090332 1.3475066423416137695 1.2385017871856689453 1.2827198505401611328 1.9862189292907714844 0.83761012554168701172 0.74160254001617431641 1.8111832141876220703 1.5406533479690551758 1.4811817407608032227 1.3833369016647338867 1.2891414165496826172 0.82578241825103759766 1.3047641515731811523 0.88835597038269042969 0.79722285270690917969 1.6212381124496459961 1.6769870519638061523 1.1244564056396484375 1.1371681690216064453 0.41475224494934082031 0.78967398405075073242 0.35539001226425170898 0.35539001226425170898 0.78824061155319213867 1.4346687793731689453 2.2350990772247314453 2.4343626499176025391 2.0318405628204345703 1.3134686946868896484 1.0025455951690673828 1.0418348312377929688 0.82856249809265136719 1.09191131591796875 0.84639257192611694336 0.98178863525390625 1.4366708993911743164 0.96645373106002807617 1.5878566503524780273 1.1512484550476074219 1.7664397954940795898 2.9240772724151611328 1.5456384420394897461 1.006125330924987793 1.6879293918609619141 1.7688031196594238281 0.53872346878051757812 1.9576086997985839844 3.1474997997283935547 1.8517749309539794922 1.2768309116363525391 1.1528043746948242188 0.91069215536117553711 0.53355932235717773438 0.85714292526245117188 1.2489229440689086914 1.3470017910003662109 1.1875 1.109000086784362793 1.1813873052597045898 0.85137426853179931641 
1.0736210346221923828 0.75800460577011108398 0.87147611379623413086 1.0220450162887573242 0.98730564117431640625 1.1534049510955810547 1.1693907976150512695 0.79181265830993652344 1.4912552833557128906 1.8200256824493408203 1.6489289999008178711 1.8561637401580810547 2.3200902938842773438 1.9696803092956542969 3.4229092597961425781 4.0853552818298339844 3.6821982860565185547 4.7587718963623046875 4.0012664794921875 1.3505436182022094727 0.95558845996856689453 1.0873904228210449219 0.75277042388916015625 0.80379110574722290039 1.0638817548751831055 1.1763414144515991211 0.91938668489456176758 1.3368120193481445312 0.76660525798797607422 1.5049245357513427734 1.3644918203353881836 0.97819048166275024414 0.96238690614700317383 1.0394418239593505859 1.0866019725799560547 0.61564940214157104492 1.5970772504806518555 1.3184297084808349609 1.3495991230010986328 0.83344119787216186523 0.82634007930755615234 1.3670214414596557617 2.2211563587188720703 1.1603934764862060547 1.3418670892715454102 1.6765015125274658203 0.55246883630752563477 0.99128484725952148438 0.85351347923278808594 1.0014222860336303711 0.74313515424728393555 0.6528065800666809082 2.0717895030975341797 2.4030292034149169922 2.1176533699035644531 1.8642050027847290039 1.2360094785690307617 1.3050495386123657227 0.87882471084594726562 0.75554239749908447266 2.4197058677673339844 1.2244360446929931641 1.7735984325408935547 1.2125092744827270508 1.239119410514831543 0.9307772517204284668 1.0711785554885864258 2.2254502773284912109 0.84617650508880615234 1.3515762090682983398 1.9113247394561767578 1.3874433040618896484 2.6520566940307617188 2.2410168647766113281 2.9248926639556884766 2.18328094482421875 1.3459397554397583008 1.420727849006652832 0.89790385961532592773 0.70285063982009887695 1.3053102493286132812 2.0392887592315673828 1.8513743877410888672 1.6475875377655029297 1.4051414728164672852 2.0999617576599121094 0.81972801685333251953 
0.93711018562316894531 0.35853099822998046875 0.93414902687072753906 0.99871730804443359375 1.3165838718414306641 0.89614814519882202148 0.70303416252136230469 0.72927850484848022461 0.86585503816604614258 0.99762457609176635742 1.3922373056411743164 1.5156141519546508789 1.9428920745849609375 3.3262090682983398438 3.1890537738800048828 3.5420854091644287109 2.9026777744293212891 4.245761871337890625 2.6304571628570556641 1.033888697624206543 1.2333632707595825195 1.1110991239547729492 0.92924630641937255859 0.69607239961624145508 1.9144790172576904297 1.6550507545471191406 0.67060071229934692383 1.8479549884796142578 0.73301202058792114258 1.6613727807998657227 1.4235848188400268555 0.93427312374114990234 1.1081644296646118164 1.6998767852783203125 1.6268668174743652344 0.63300001621246337891 0.75456547737121582031 2.4335513114929199219 1.2183463573455810547 1.0471500158309936523 1.9026792049407958984 0.73946219682693481445 1.0232580900192260742 1.3814206123352050781 1.3162198066711425781 0.91060173511505126953 1.0631276369094848633 1.4916696548461914062 1.7531591653823852539 0.48214489221572875977 0.93700766563415527344 1.8903490304946899414 2.3420193195343017578 1.4674504995346069336 1.9925818443298339844 1.2602393627166748047 2.1374063491821289062 1.9855059385299682617 0.64842975139617919922 2.0415554046630859375 2.0038638114929199219 0.89919948577880859375 1.0907264947891235352 1.2700577974319458008 0.98924595117568969727 0.55956053733825683594 0.7750244140625 1.1691762208938598633 1.2261077165603637695 1.4725773334503173828 1.5526179075241088867 1.2791043519973754883 3.6047000885009765625 1.9812531471252441406 0.88619476556777954102 1.3891022205352783203 0.20782935619354248047 0.36570891737937927246 0.49459338188171386719 0.50932288169860839844 0.45687475800514221191 1.4554851055145263672 3.1053931713104248047 2.0069921016693115234 1.965565800666809082 1.2358067035675048828 0.82417398691177368164 
0.62033158540725708008 0.74684202671051025391 1.0454565286636352539 1.453673243522644043 1.2420723438262939453 1.3783619403839111328 0.72352272272109985352 0.9656658172607421875 0.65306037664413452148 0.81288117170333862305 1.4107602834701538086 1.1610102653503417969 1.4599423408508300781 1.2949481010437011719 2.0018508434295654297 1.4657013416290283203 1.9288202524185180664 1.3402894735336303711 2.1480946540832519531 1.0817291736602783203 1.1706836223602294922 2.8200516700744628906 2.6225039958953857422 1.3560053110122680664 1.9334781169891357422 1.3350241184234619141 0.6188424229621887207 1.2416609525680541992 1.2736210823059082031 1.8325517177581787109 1.5294128656387329102 1.3641088008880615234 0.78729116916656494141 2.0620181560516357422 1.5898447036743164062 2.1979651451110839844 0.35539001226425170898 1.8156694173812866211 0.97044479846954345703 0.79117912054061889648 1.0769839286804199219 1.1104574203491210938 2.0185599327087402344 0.94629383087158203125 1.256693720817565918 2.8251001834869384766 1.4422724246978759766 1.5069487094879150391 0.7255757451057434082 0.40744188427925109863 1.4772592782974243164 1.9120388031005859375 1.6399742364883422852 0.77697718143463134766 1.1928119659423828125 2.6390678882598876953 1.6039992570877075195 1.2564867734909057617 0.9670963287353515625 1.0919262170791625977 2.5723636150360107422 1.0863072872161865234 0.88806754350662231445 1.1593151092529296875 1.4626562595367431641 2.5699913501739501953 1.0181461572647094727 1.8832468986511230469 2.1364731788635253906 1.5884343385696411133 1.6936061382293701172 1.468510746955871582 2.4912159442901611328 2.7084116935729980469 1.9873427152633666992 1.5351580381393432617 0.057000000029802322388 0.89135622978210449219 0.31684127449989318848 0.86408501863479614258 0.86422359943389892578 1.6211491823196411133 1.8727141618728637695 1.2245812416076660156 1.2215564250946044922 1.2660000324249267578 1.2660000324249267578 
0.37660118937492370605 0.90331429243087768555 3.3085839748382568359 3.1407935619354248047 2.6741309165954589844 1.5120673179626464844 0.79646360874176025391 1.1571111679077148438 0.89045786857604980469 0.82098972797393798828 0.84264612197875976562 1.1307288408279418945 1.2316101789474487305 1.4448271989822387695 1.3945975303649902344 1.2583159208297729492 0.84288412332534790039 0.91923373937606811523 1.7599936723709106445 1.2596975564956665039 1.3668470382690429688 3.0136842727661132812 1.8220907449722290039 1.8599942922592163086 2.3259322643280029297 1.1578266620635986328 0.78901082277297973633 0.78964972496032714844 1.2691104412078857422 1.4583668708801269531 0.99138182401657104492 1.2832448482513427734 1.4437909126281738281 1.0969842672348022461 1.488627314567565918 1.6631239652633666992 0.997043609619140625 1.5164484977722167969 1.1911106109619140625 1.062723994255065918 1.2099221944808959961 0.91680991649627685547 0.8140990138053894043 1.0115815401077270508 0.99363732337951660156 1.3495393991470336914 1.4540604352951049805 1.5982439517974853516 0.6098658442497253418 0.66102951765060424805 1.1560708284378051758 0.88839483261108398438 0.60799783468246459961 0.47106084227561950684 1.5297439098358154297 2.1122198104858398438 1.4071222543716430664 1.5647747516632080078 0.59371304512023925781 0.67632257938385009766 0.52489697933197021484 3.16120147705078125 1.121262669563293457 1.2070864439010620117 1.2197464704513549805 0.98479157686233520508 0.98790699243545532227 1.5623890161514282227 2.064952850341796875 1.2909263372421264648 2.0930006504058837891 1.930192112922668457 2.9367349147796630859 1.8465056419372558594 0.96523976325988769531 2.8920660018920898438 1.0650693178176879883 1.8612505197525024414 0.37019789218902587891 1.697671055793762207 0.99556213617324829102 1.553447723388671875 1.8078846931457519531 1.191986083984375 0.88478070497512817383 1.1369960308074951172 1.2660000324249267578 
0.52785575389862060547 1.4930781126022338867 2.9270584583282470703 2.9581840038299560547 2.6943001747131347656 3.0680913925170898438 0.85476511716842651367 0.87384521961212158203 0.78392374515533447266 0.67786633968353271484 0.80368721485137939453 0.94480717182159423828 1.3227571249008178711 1.5051898956298828125 2.0603165626525878906 1.2487089633941650391 1.1813453435897827148 0.94146841764450073242 1.4585579633712768555 1.3791352510452270508 1.2103704214096069336 1.2830536365509033203 0.98538005352020263672 2.5517420768737792969 1.0946213006973266602 1.1343439817428588867 1.1065982580184936523 0.66074061393737792969 1.1584531068801879883 1.6421315670013427734 1.3210531473159790039 4.3407025337219238281 2.0303173065185546875 1.2771556377410888672 1.8384315967559814453 1.6158165931701660156 1.7387726306915283203 1.6457678079605102539 1.1086471080780029297 0.83613830804824829102 0.82333642244338989258 0.59306681156158447266 1.3471132516860961914 1.1516995429992675781 0.98055350780487060547 1.6384785175323486328 1.8849059343338012695 0.99215871095657348633 0.63300001621246337891 0.72376024723052978516 0.9720967411994934082 0.44242051243782043457 0.7470843195915222168 0.51732915639877319336 1.2295728921890258789 1.428551793098449707 1.3373005390167236328 1.2259310483932495117 1.0925784111022949219 0.62659817934036254883 0.3865025937557220459 2.186069488525390625 3.0869879722595214844 2.4100668430328369141 1.2301067113876342773 1.7508209943771362305 1.2870817184448242188 1.263165593147277832 1.2439926862716674805 1.1129353046417236328 1.3642190694808959961 1.5367753505706787109 2.9079275131225585938 1.3259874582290649414 0.99677109718322753906 1.0679887533187866211 1.0761697292327880859 1.6537785530090332031 1.2628449201583862305 3.0189216136932373047 0.40265130996704101562 2.8889064788818359375 1.8647762537002563477 1.1214566230773925781 0.99828004837036132812 1.2045331001281738281 1.2660000324249267578 
0.54230797290802001953 1.9948525428771972656 2.7578878402709960938 3.6631617546081542969 3.2673361301422119141 3.4445462226867675781 1.4526350498199462891 1.1441791057586669922 0.91593921184539794922 0.95563679933547973633 0.89649271965026855469 0.79462540149688720703 0.9656219482421875 1.5156141519546508789 2.5426225662231445312 1.7694984674453735352 1.9592772722244262695 1.6009554862976074219 3.0025491714477539062 2.4763016700744628906 2.0436789989471435547 1.1099213361740112305 0.98896580934524536133 1.1527403593063354492 0.98210871219635009766 1.7851898670196533203 0.35336536169052124023 0.89943510293960571289 1.8577032089233398438 1.5381287336349487305 1.2706673145294189453 2.1129441261291503906 2.6902699470520019531 1.4580135345458984375 1.462199091911315918 1.34759521484375 2.3986692428588867188 1.8047606945037841797 0.75416225194931030273 1.6829735040664672852 0.87370008230209350586 0.72707426548004150391 0.16625687479972839355 0.56845498085021972656 1.3005338907241821289 1.3188039064407348633 1.0046967267990112305 0.45949375629425048828 0.63300001621246337891 0.88312196731567382812 0.96574240922927856445 1.56543731689453125 1.2134575843811035156 0.63300001621246337891 0.64435738325119018555 0.98885804414749145508 1.2699812650680541992 1.3817220926284790039 0.37557089328765869141 0.69371390342712402344 0.50956606864929199219 1.8671904802322387695 2.7807412147521972656 2.81195831298828125 3.0524296760559082031 2.0347554683685302734 1.4208338260650634766 0.96127569675445556641 0.3671480715274810791 1.7327005863189697266 1.7469956874847412109 1.2290339469909667969 2.5644791126251220703 1.9761725664138793945 2.0716450214385986328 0.89192950725555419922 1.7256097793579101562 1.2468661069869995117 1.9150907993316650391 2.5979123115539550781 1.0765163898468017578 1.1958301067352294922 2.5032830238342285156 2.6659352779388427734 1.9419434070587158203 1.3877021074295043945 0.76171553134918212891 
0.54840195178985595703 1.7470363378524780273 3.2856552600860595703 2.9581840038299560547 2.6943001747131347656 4.7131819725036621094 1.8821655511856079102 1.378916621208190918 1.0281847715377807617 0.91314435005187988281 0.46958911418914794922 0.91958713531494140625 1.2517751455307006836 1.7448202371597290039 2.2258017063140869141 1.9867491722106933594 2.0028831958770751953 1.4836486577987670898 3.4898209571838378906 3.8856229782104492188 1.6074633598327636719 0.92595171928405761719 1.2043663263320922852 1.1729959249496459961 1.6567301750183105469 5.3895101547241210938 2.4062638282775878906 4.0150370597839355469 2.0887708663940429688 1.096117854118347168 1.7075408697128295898 1.4288606643676757812 0.37367007136344909668 1.7253652811050415039 1.690062403678894043 1.1397954225540161133 1.5583428144454956055 0.47143054008483886719 1.2102202177047729492 1.5272235870361328125 1.0404417514801025391 0.98991101980209350586 0.67808765172958374023 1.5559420585632324219 1.8551933765411376953 1.7000129222869873047 1.5832575559616088867 0.54565024375915527344 0.62113910913467407227 1.0432555675506591797 0.97165513038635253906 0.59334146976470947266 0.56359750032424926758 2.0074388980865478516 1.7382477521896362305 0.72799968719482421875 0.82960325479507446289 0.85035312175750732422 1.3344217538833618164 0.51181405782699584961 0.76532542705535888672 1.2166686058044433594 2.0835521221160888672 2.3785266876220703125 4.3002038002014160156 2.2763247489929199219 1.7423424720764160156 1.3680282831192016602 1.3632919788360595703 1.524477839469909668 1.0791012048721313477 1.1770548820495605469 1.975616455078125 2.2072963714599609375 2.0703096389770507812 0.83987218141555786133 0.80065178871154785156 0.58999454975128173828 1.4979821443557739258 1.7061402797698974609 3.699520111083984375 2.1718857288360595703 0.61150127649307250977 1.2862765789031982422 2.9441764354705810547 3.504940032958984375 1.2660000324249267578 
1.8713347911834716797 3.3585066795349121094 2.8286218643188476562 3.4357607364654541016 3.0765733718872070312 3.1009960174560546875 2.5997402667999267578 1.1911789178848266602 1.1124144792556762695 0.95424890518188476562 0.74447584152221679688 0.64627134799957275391 1.2604726552963256836 1.2891156673431396484 1.7028630971908569336 1.1642571687698364258 2.1490843296051025391 1.4374256134033203125 4.5186676979064941406 1.9657700061798095703 1.45230865478515625 1.1221892833709716797 2.3630456924438476562 0.88291579484939575195 1.5197449922561645508 3.2872138023376464844 1.7616156339645385742 4.0632190704345703125 2.4958300590515136719 1.9489992856979370117 1.6945134401321411133 1.4914419651031494141 0.26610875129699707031 1.0434037446975708008 1.2033612728118896484 0.96079325675964355469 0.93642514944076538086 1.258023381233215332 1.0995179414749145508 0.62570077180862426758 2.8700029850006103516 0.47677999734878540039 1.6038626432418823242 1.4340031147003173828 2.4821588993072509766 1.4737901687622070312 1.1593793630599975586 0.63300001621246337891 1.1153665781021118164 1.9204421043395996094 1.612341761589050293 1.0190100669860839844 2.3792016506195068359 2.7838618755340576172 1.5159004926681518555 1.0885983705520629883 1.0297825336456298828 1.0047066211700439453 0.62852168083190917969 1.0866119861602783203 0.86615031957626342773 0.69585680961608886719 2.2220110893249511719 3.6856901645660400391 2.7592136859893798828 2.7458701133728027344 3.4256541728973388672 1.4380234479904174805 0.33615663647651672363 0.23202595114707946777 0.51910412311553955078 1.3532062768936157227 1.2346338033676147461 1.8136175870895385742 2.0183167457580566406 0.87310940027236938477 1.1800502538681030273 1.0744036436080932617 1.5346953868865966797 1.9634239673614501953 1.9134207963943481445 0.88303297758102416992 1.2294083833694458008 1.4822555780410766602 1.5534943342208862305 1.3390078544616699219 0.67250001430511474609 
2.9560434818267822266 2.5655152797698974609 3.9895765781402587891 3.7885961532592773438 2.8421075344085693359 2.7916581630706787109 2.040740966796875 1.1619493961334228516 0.97222888469696044922 1.2593706846237182617 0.94168961048126220703 0.53697454929351806641 0.98875784873962402344 1.2807559967041015625 1.4005755186080932617 1.7840077877044677734 1.9093877077102661133 1.4785835742950439453 3.545230865478515625 1.489710688591003418 2.2318825721740722656 1.2761565446853637695 3.6250321865081787109 2.2823803424835205078 2.0053279399871826172 2.8801326751708984375 2.5010318756103515625 3.2145712375640869141 0.90979033708572387695 1.0381188392639160156 0.93928241729736328125 1.2784622907638549805 0.60880720615386962891 0.63102751970291137695 0.29463613033294677734 0.14302606880664825439 1.504094243049621582 0.78603291511535644531 1.5997849702835083008 0.82431715726852416992 0.96960079669952392578 0.21600300073623657227 1.357319951057434082 1.3214113712310791016 1.4695134162902832031 1.8617202043533325195 2.7117245197296142578 0.7120196223258972168 1.3267264366149902344 1.0723241567611694336 1.1369515657424926758 2.0917184352874755859 2.6133751869201660156 2.5308659076690673828 1.3867616653442382812 0.88670581579208374023 1.2188923358917236328 1.0161951780319213867 1.1353745460510253906 1.3786813020706176758 0.79662173986434936523 1.7733480930328369141 1.608699798583984375 2.4193062782287597656 1.8725174665451049805 3.5311477184295654297 1.1618297100067138672 0.95977920293807983398 1.0273463726043701172 0.90959835052490234375 0.4937668144702911377 1.2071290016174316406 1.0841507911682128906 0.85720622539520263672 0.77662736177444458008 0.50555717945098876953 1.8213771581649780273 0.66372621059417724609 0.97896587848663330078 1.3074463605880737305 0.81909942626953125 1.2060273885726928711 1.238055109977722168 1.0135054588317871094 1.934452056884765625 1.5336707830429077148 0.87486726045608520508 
3.7125058174133300781 4.2928853034973144531 4.9982852935791015625 5.2833528518676757812 4.5383591651916503906 1.9243744611740112305 1.2603032588958740234 0.77962398529052734375 0.99516808986663818359 1.3573579788208007812 1.819515228271484375 2.2409651279449462891 1.2118399143218994141 1.393612980842590332 1.1948552131652832031 1.2511050701141357422 1.7698770761489868164 1.1293022632598876953 0.92312616109848022461 1.7978647947311401367 3.0377588272094726562 3.9484958648681640625 3.1751320362091064453 2.7978854179382324219 0.98594033718109130859 0.54397130012512207031 0.49599185585975646973 0.47912189364433288574 1.4025845527648925781 3.0975971221923828125 1.8705377578735351562 1.0410445928573608398 1.5942890644073486328 1.203765869140625 2.2521562576293945312 0.64488208293914794922 0.83602964878082275391 1.212650299072265625 3.0308287143707275391 2.3410427570343017578 0.89971894025802612305 0.86148279905319213867 1.0695855617523193359 0.74945527315139770508 1.6953842639923095703 2.4300594329833984375 1.8307905197143554688 0.98945856094360351562 1.3158173561096191406 1.2762560844421386719 1.5068403482437133789 1.6801856756210327148 2.3744595050811767578 2.2736184597015380859 1.2387590408325195312 1.0707657337188720703 1.2936476469039916992 1.8176747560501098633 0.93593388795852661133 0.75402349233627319336 1.522440791130065918 1.1351027488708496094 2.2385127544403076172 1.1841727495193481445 1.9204266071319580078 1.5307593345642089844 0.92648208141326904297 1.4309822320938110352 0.69327455759048461914 0.88237923383712768555 1.2114404439926147461 0.33856251835823059082 0.91702085733413696289 0.78529447317123413086 1.0929826498031616211 1.0003430843353271484 0.96776419878005981445 0.62847274541854858398 0.46588405966758728027 0.44901645183563232422 0.54942870140075683594 1.7370051145553588867 0.9973990321159362793 1.3744542598724365234 1.4856832027435302734 1.4133917093276977539 1.4565689563751220703 
4.1772541999816894531 2.9844670295715332031 5.5684208869934082031 4.9982852935791015625 5.1644606590270996094 1.572790980339050293 0.79629629850387573242 0.95673024654388427734 0.95724880695343017578 0.92446511983871459961 2.1400051116943359375 2.3987417221069335938 1.3693734407424926758 0.92886614799499511719 0.88970947265625 0.76571792364120483398 1.3195612430572509766 0.97927296161651611328 1.5698463916778564453 3.53421783447265625 2.7866575717926025391 3.3122544288635253906 2.8882420063018798828 1.9738059043884277344 1.9146375656127929688 0.78756701946258544922 0.82562667131423950195 0.21370993554592132568 1.521035313606262207 1.4396013021469116211 1.3889737129211425781 0.63343662023544311523 0.28825932741165161133 1.7752025127410888672 2.7444987297058105469 0.881591796875 0.99320495128631591797 1.2856111526489257812 1.3003615140914916992 1.382168889045715332 0.63251656293869018555 0.38516086339950561523 1.0355852842330932617 0.68007487058639526367 1.1352026462554931641 1.1703208684921264648 0.98725515604019165039 0.96643280982971191406 1.7572512626647949219 1.8376302719116210938 2.0353345870971679688 2.2695646286010742188 1.2348991632461547852 0.86510229110717773438 0.31683334708213806152 0.91553795337677001953 0.3722947537899017334 0.90828901529312133789 0.79946035146713256836 0.93793100118637084961 0.35009750723838806152 1.869649052619934082 1.0035544633865356445 0.74415457248687744141 1.9002019166946411133 1.3431535959243774414 1.2028787136077880859 1.0212584733963012695 0.81975090503692626953 2.3723752498626708984 0.23645281791687011719 0.41779249906539916992 0.91333037614822387695 0.76014959812164306641 0.8415037989616394043 0.9524936676025390625 0.37690213322639465332 0.38173288106918334961 0.90451103448867797852 1.2938987016677856445 1.3606585264205932617 1.5141814947128295898 1.4876835346221923828 2.0172290802001953125 2.2093422412872314453 1.5983302593231201172 0.45431801676750183105 
3.327007293701171875 4.018581390380859375 4.9982852935791015625 5.2833528518676757812 3.6278598308563232422 1.3970998525619506836 1.2719331979751586914 0.76795470714569091797 0.99605047702789306641 3.5230319499969482422 4.5402326583862304688 2.5558688640594482422 1.4792455434799194336 0.83355379104614257812 1.1715166568756103516 1.5795195102691650391 0.97188717126846313477 1.2513016462326049805 2.7922198772430419922 2.7844731807708740234 2.2578408718109130859 1.9977066516876220703 1.6853808164596557617 1.5388703346252441406 1.5247414112091064453 1.7964975833892822266 0.91696208715438842773 0.52840131521224975586 0.11468706279993057251 0.81529504060745239258 1.0310518741607666016 1.2475078105926513672 0.83151191473007202148 2.2917361259460449219 2.2820820808410644531 2.6409893035888671875 1.2534308433532714844 1.4594846963882446289 1.2543356418609619141 0.90275663137435913086 0.56629836559295654297 2.2018291950225830078 2.7152917385101318359 1.0872517824172973633 0.67009872198104858398 0.95119184255599975586 0.80578726530075073242 1.0549509525299072266 1.0517137050628662109 1.349945068359375 1.9677894115447998047 1.5520536899566650391 0.91620838642120361328 0.78802651166915893555 0.72062534093856811523 1.0893634557723999023 1.1914120912551879883 1.1165595054626464844 0.90384972095489501953 0.85801863670349121094 0.9316654205322265625 0.52761059999465942383 0.92541855573654174805 0.95429056882858276367 0.59241777658462524414 0.55511993169784545898 0.91927355527877807617 0.93003749847412109375 1.5349013805389404297 1.3081853389739990234 1.2051744461059570312 2.2994313240051269531 0.57232069969177246094 1.7427325248718261719 0.28553175926208496094 1.6436866521835327148 0.60457861423492431641 0.95945119857788085938 0.79245346784591674805 1.8413815498352050781 4.4173245429992675781 2.8163304328918457031 1.8771131038665771484 2.2603464126586914062 3.2126588821411132812 0.9957370758056640625 0.92358773946762084961 
3.3380587100982666016 4.6404633522033691406 5.2105989456176757812 5.2736186981201171875 3.1243622303009033203 2.1437573432922363281 0.82786703109741210938 0.99068921804428100586 2.6123013496398925781 4.9874019622802734375 3.62003326416015625 1.148793339729309082 0.8920910954475402832 0.54115128517150878906 0.4885596930980682373 1.5391368865966796875 0.89998406171798706055 1.6789778470993041992 3.0647175312042236328 2.8422601222991943359 2.6271164417266845703 1.4708409309387207031 1.0674562454223632812 1.1310689449310302734 0.74645388126373291016 1.0753216743469238281 0.35945880413055419922 0.48792418837547302246 0.14518749713897705078 1.0776183605194091797 1.0046857595443725586 0.79553210735321044922 0.58069515228271484375 1.3590012788772583008 1.742577672004699707 0.58600622415542602539 0.050999999046325683594 0.70963931083679199219 1.0817831754684448242 0.49385151267051696777 0.10655708611011505127 1.168697357177734375 1.9122319221496582031 0.87890422344207763672 0.95994400978088378906 1.0185083150863647461 1.5158023834228515625 1.0072076320648193359 0.93061941862106323242 0.85050743818283081055 0.92855989933013916016 1.2936275005340576172 0.87245041131973266602 0.98304390907287597656 0.81924039125442504883 0.97062653303146362305 0.53644102811813354492 0.74982905387878417969 1.0362608432769775391 0.70525276660919189453 0.81657469272613525391 0.59534877538681030273 0.60737067461013793945 1.5531592369079589844 0.48667824268341064453 0.57865196466445922852 0.90222299098968505859 1.11612701416015625 1.8848325014114379883 0.55892902612686157227 0.98389911651611328125 0.40695244073867797852 0.0099999997764825820923 0.0099999997764825820923 2.1379704475402832031 2.1932115554809570312 1.0620430707931518555 0.8238951563835144043 0.3883896172046661377 0.94196933507919311523 0.89424717426300048828 1.6003614664077758789 1.7505621910095214844 2.362819671630859375 3.0637023448944091797 1.7379939556121826172 0.42501825094223022461 
1.3358714580535888672 3.3651113510131835938 4.3226428031921386719 5.0471014976501464844 1.5887455940246582031 1.3022861480712890625 0.82884466648101806641 1.3685352802276611328 3.439632415771484375 5.1205163002014160156 3.8074007034301757812 1.6535718441009521484 0.74428641796112060547 0.8500601649284362793 1.1373279094696044922 1.3283133506774902344 0.96077656745910644531 1.2822080850601196289 1.7809337377548217773 1.654727935791015625 2.383533477783203125 0.97156643867492675781 0.96613323688507080078 0.57021462917327880859 0.65999317169189453125 1.4886635541915893555 1.1020176410675048828 1.112762451171875 1.249416351318359375 1.2321088314056396484 1.0155478715896606445 0.83586919307708740234 0.62507414817810058594 0.88244467973709106445 1.4093778133392333984 0.3868942558765411377 0.97257012128829956055 0.56177788972854614258 0.60905098915100097656 0.071254439651966094971 0.13397978246212005615 1.0015344619750976562 0.93148833513259887695 1.3892374038696289062 1.1682435274124145508 1.1355003118515014648 1.0878727436065673828 0.87583971023559570312 1.0024712085723876953 0.92131781578063964844 0.94717675447463989258 1.0188107490539550781 0.85839521884918212891 1.2969099283218383789 1.0997388362884521484 0.79131901264190673828 0.90584677457809448242 0.93469071388244628906 0.79412555694580078125 0.82530182600021362305 0.63296687602996826172 0.55323398113250732422 0.32664501667022705078 1.0452723503112792969 1.0210253000259399414 1.4554461240768432617 1.594721674919128418 0.95121103525161743164 1.5060472488403320312 2.9610311985015869141 0.048937499523162841797 0.0099999997764825820923 0.0099999997764825820923 0.0099999997764825820923 0.35740131139755249023 2.5409517288208007812 1.1340858936309814453 0.75927722454071044922 1.1257457733154296875 0.90929591655731201172 0.6861546635627746582 1.1876066923141479492 1.7506651878356933594 3.1072978973388671875 2.3376889228820800781 1.0422483682632446289 0.77251696586608886719 
2.0276196002960205078 2.2143039703369140625 2.7834844589233398438 2.0359864234924316406 1.3480685949325561523 1.0055638551712036133 0.89372324943542480469 1.6538733243942260742 2.91408538818359375 3.0913622379302978516 2.9010639190673828125 0.61318600177764892578 0.68407636880874633789 1.1666836738586425781 0.58261990547180175781 0.93899303674697875977 0.94160503149032592773 1.2158555984497070312 2.1245586872100830078 2.110565185546875 2.2612497806549072266 0.75039637088775634766 0.82259654998779296875 1.5142372846603393555 0.97858768701553344727 1.0360490083694458008 0.48535811901092529297 0.76680898666381835938 0.37575000524520874023 0.68715637922286987305 0.32945549488067626953 0.63546317815780639648 0.59446614980697631836 1.4053277969360351562 0.89702975749969482422 1.3867043256759643555 0.70726287364959716797 1.3309639692306518555 0.10224959999322891235 0.74117761850357055664 0.67368781566619873047 1.1868886947631835938 1.3385162353515625 1.9847161769866943359 1.1832748651504516602 1.20742034912109375 1.2457418441772460938 1.4134906530380249023 1.1358321905136108398 0.87341296672821044922 1.0587584972381591797 0.91554743051528930664 0.96446597576141357422 1.0516567230224609375 1.130288243293762207 0.88944423198699951172 0.72229266166687011719 0.93648409843444824219 0.99544173479080200195 0.92086166143417358398 0.71916437149047851562 1.7292234897613525391 2.5930352210998535156 1.7744013071060180664 1.2233724594116210938 2.021831512451171875 1.1102023124694824219 1.0007263422012329102 3.8378386497497558594 1.1745618581771850586 0.060114499181509017944 0.0099999997764825820923 0.0099999997764825820923 0.0099999997764825820923 0.0099999997764825820923 1.5342926979064941406 1.131809234619140625 1.2032717466354370117 0.57443714141845703125 0.78525030612945556641 1.1961243152618408203 1.7171398401260375977 0.94352608919143676758 1.5684072971343994141 1.5142208337783813477 0.61152893304824829102 0.57319176197052001953 
3.4573509693145751953 3.3085839748382568359 3.1734418869018554688 1.2387796640396118164 0.89234399795532226562 0.49391183257102966309 0.67992478609085083008 2.9052147865295410156 1.5358204841613769531 2.476680755615234375 0.99096763134002685547 0.51229977607727050781 1.2713797092437744141 0.78685683012008666992 0.82954400777816772461 1.0363661050796508789 1.2869455814361572266 1.0510463714599609375 1.26160430908203125 0.81690967082977294922 1.0244460105895996094 1.1633702516555786133 0.9387881159782409668 1.3845795392990112305 0.22495862841606140137 0.044153846800327301025 0.072999998927116394043 1.6285616159439086914 1.1320612430572509766 1.5378321409225463867 0.19824999570846557617 0.046999998390674591064 0.04928571358323097229 0.046999998390674591064 0.1909649968147277832 0.62712419033050537109 1.1083222627639770508 0.56804949045181274414 0.58893585205078125 0.51466566324234008789 0.37013909220695495605 0.75675547122955322266 2.4417521953582763672 1.7371443510055541992 1.1233372688293457031 1.0724717378616333008 1.1502777338027954102 0.98544406890869140625 1.0831766128540039062 1.0912072658538818359 1.1481134891510009766 1.2152687311172485352 1.1569563150405883789 0.78014892339706420898 0.77232348918914794922 0.79887616634368896484 0.28494662046432495117 0.59242761135101318359 0.57311874628067016602 0.59378314018249511719 0.9142786860466003418 2.287349700927734375 1.5038226842880249023 0.91828012466430664062 1.316131591796875 1.8382521867752075195 1.1823652982711791992 0.82017254829406738281 0.47546300292015075684 0.49415931105613708496 0.69364678859710693359 0.038580249994993209839 0.0099999997764825820923 0.010874999687075614929 0.0099999997764825820923 0.61052584648132324219 0.92561125755310058594 0.54615879058837890625 1.2684280872344970703 1.5719667673110961914 0.56843543052673339844 0.88487744331359863281 0.64911794662475585938 0.61648154258728027344 0.8389326930046081543 0.85562521219253540039 0.59417748451232910156 
3.5556306838989257812 2.6678509712219238281 2.3295924663543701172 1.3149713277816772461 0.73313874006271362305 0.60111570358276367188 2.2740871906280517578 1.7136992216110229492 1.3593538999557495117 0.7049433588981628418 0.64871805906295776367 0.7692699432373046875 1.108424067497253418 1.0219520330429077148 1.1793434619903564453 0.74323385953903198242 1.328477025032043457 1.0427895784378051758 0.89503151178359985352 1.6719846725463867188 1.1751142740249633789 0.54608476161956787109 1.4183686971664428711 1.2008953094482421875 0.44590967893600463867 0.14561125636100769043 0.35728132724761962891 0.77250856161117553711 0.25788700580596923828 1.7180273532867431641 0.86935055255889892578 0.1033491864800453186 0.051062498241662979126 0.15911111235618591309 0.24558973312377929688 0.2605221867561340332 1.1489713191986083984 2.0276651382446289062 1.6404703855514526367 0.52036648988723754883 0.60506391525268554688 0.023916667327284812927 1.2916182279586791992 1.2641302347183227539 0.98676675558090209961 0.92996752262115478516 1.1061201095581054688 1.1263812780380249023 1.1594254970550537109 0.58077961206436157227 0.94988930225372314453 0.56590265035629272461 1.1803871393203735352 0.33307868242263793945 0.33206808567047119141 0.37458142638206481934 0.42429488897323608398 0.57619315385818481445 0.30888345837593078613 1.059406280517578125 0.9938176274299621582 1.5457141399383544922 1.4389216899871826172 0.92166864871978759766 1.2643997669219970703 1.5066138505935668945 1.0766770839691162109 0.84473812580108642578 0.45929664373397827148 0.5114066004753112793 0.9721634984016418457 0.92323362827301025391 0.17775918543338775635 0.087961874902248382568 0.040812499821186065674 0.053249999880790710449 0.35740131139755249023 0.048937499523162841797 0.70480263233184814453 1.1757222414016723633 0.65348082780838012695 0.35539001226425170898 0.35539001226425170898 0.35539001226425170898 0.479381561279296875 0.87330543994903564453 1.0808942317962646484 
2.2300417423248291016 2.3514850139617919922 1.7784134149551391602 0.76882016658782958984 0.8153317570686340332 0.93586981296539306641 1.9365285634994506836 1.7457616329193115234 0.60497581958770751953 1.024082183837890625 0.59670811891555786133 0.8043613433837890625 1.618450164794921875 1.449382781982421875 0.78019171953201293945 0.59530204534530639648 1.4693605899810791016 0.6743882298469543457 0.23743125796318054199 0.42514550685882568359 0.88524705171585083008 1.0475999116897583008 0.76789510250091552734 1.553206324577331543 0.81413596868515014648 1.0253276824951171875 1.0827666521072387695 0.94677394628524780273 0.046999998390674591064 0.96903318166732788086 1.178267359733581543 0.71582877635955810547 0.89689284563064575195 0.050555553287267684937 0.126009330153465271 0.01231249980628490448 0.0099999997764825820923 0.25007387995719909668 0.53136044740676879883 0.76902616024017333984 0.78148412704467773438 0.53790199756622314453 1.2337121963500976562 1.1265213489532470703 1.4919208288192749023 0.97008758783340454102 1.0846014022827148438 1.0584334135055541992 0.77132004499435424805 0.61058908700942993164 0.61910474300384521484 0.31828522682189941406 0.42293858528137207031 0.44305017590522766113 0.65059864521026611328 1.0160248279571533203 0.90407192707061767578 1.0007023811340332031 0.80598276853561401367 0.823207855224609375 0.76749813556671142578 1.1187396049499511719 1.2214554548263549805 1.4584165811538696289 1.4871567487716674805 1.0735493898391723633 0.99213045835494995117 1.4608155488967895508 0.81855255365371704102 0.77165395021438598633 0.97315227985382080078 2.2388036251068115234 0.59551006555557250977 0.76769298315048217773 0.13588993251323699951 0.049125000834465026855 0.0099999997764825820923 0.0099999997764825820923 0.35740131139755249023 1.9935375452041625977 0.80998903512954711914 0.35539001226425170898 0.35539001226425170898 0.4004954993724822998 0.84388929605484008789 0.92853283882141113281 2.0604648590087890625 
3.5084207057952880859 1.8044764995574951172 1.1147570610046386719 0.70248186588287353516 0.94160234928131103516 2.4878838062286376953 1.2487461566925048828 1.3697973489761352539 1.2288061380386352539 0.70540016889572143555 0.7448609471321105957 0.8667647242546081543 0.57101595401763916016 0.7924365997314453125 0.7192020416259765625 1.2043968439102172852 1.1990575790405273438 1.0427341461181640625 0.98340386152267456055 2.0965125560760498047 1.129591822624206543 0.80192387104034423828 0.37239050865173339844 2.7063395977020263672 2.0246639251708984375 1.9320034980773925781 1.9804502725601196289 1.0365433692932128906 1.3385977745056152344 0.80188733339309692383 0.83010387420654296875 0.5367889404296875 1.2779828310012817383 0.71957308053970336914 0.7523651123046875 0.0099999997764825820923 0.14666733145713806152 0.30872321128845214844 0.3701381981372833252 0.11491699516773223877 0.5326480865478515625 0.47981712222099304199 1.1606681346893310547 1.2296897172927856445 1.0160949230194091797 0.83393532037734985352 0.81328600645065307617 0.42211809754371643066 0.91890805959701538086 0.9299036860466003418 1.6848237514495849609 0.90650141239166259766 1.5047433376312255859 1.6028665304183959961 0.97291994094848632812 1.5274584293365478516 1.5567781925201416016 0.93067854642868041992 1.0711251497268676758 0.99898850917816162109 1.159671783447265625 1.0535935163497924805 0.97977370023727416992 1.2397375106811523438 1.720950007438659668 1.5662208795547485352 1.3272095918655395508 1.3559296131134033203 1.288982391357421875 1.2088720798492431641 1.3595013618469238281 0.93545168638229370117 0.77167928218841552734 0.69882339239120483398 0.71791553497314453125 0.22013007104396820068 0.0099999997764825820923 0.52175027132034301758 0.17117074131965637207 1.2220048904418945312 0.84535878896713256836 0.35539001226425170898 0.35539001226425170898 1.5282865762710571289 1.0820547342300415039 2.7380807399749755859 3.8827664852142333984 
2.1783657073974609375 1.3822878599166870117 0.75726175308227539062 0.99637591838836669922 1.9120829105377197266 0.84138262271881103516 0.30966898798942565918 0.96623814105987548828 0.81873017549514770508 0.22173231840133666992 0.71962183713912963867 0.85174298286437988281 1.0025221109390258789 1.0083556175231933594 0.77039253711700439453 1.0791679620742797852 0.89101696014404296875 1.0362000465393066406 1.2404838800430297852 1.1843117475509643555 1.4591020345687866211 0.7758108973503112793 0.67959350347518920898 1.6491451263427734375 1.1000831127166748047 0.89303833246231079102 1.416056513786315918 1.9909609556198120117 1.5881781578063964844 1.4377211332321166992 0.5305239558219909668 0.17300000786781311035 0.25671333074569702148 0.30983334779739379883 1.8496263027191162109 0.32771742343902587891 0.51633751392364501953 0.29851093888282775879 0.4169476926326751709 0.69153136014938354492 0.36044836044311523438 0.81471276283264160156 0.70610582828521728516 1.2207449674606323242 0.62636053562164306641 0.91800385713577270508 1.0951100587844848633 2.3787968158721923828 0.93878966569900512695 1.606103062629699707 1.5402065515518188477 0.9286893010139465332 2.1671664714813232422 2.3787424564361572266 2.0573823451995849609 2.3682780265808105469 1.7026200294494628906 1.119501948356628418 0.76914972066879272461 0.85014742612838745117 1.2697560787200927734 1.1092593669891357422 1.0392458438873291016 0.88597905635833740234 1.262093663215637207 2.1842904090881347656 3.975078582763671875 2.0673878192901611328 1.6971423625946044922 1.4800486564636230469 1.5652211904525756836 1.1927400827407836914 0.80393147468566894531 0.77172017097473144531 0.21579587459564208984 0.662384033203125 0.98068666458129882812 0.86997067928314208984 0.62618166208267211914 1.2320959568023681641 1.1370165348052978516 0.35539001226425170898 0.57657963037490844727 1.1189187765121459961 1.2204240560531616211 1.9362375736236572266 1.8986227512359619141 
1.3714799880981445312 1.1005358695983886719 0.70203626155853271484 1.4880203008651733398 1.7634735107421875 1.23154449462890625 0.69241261482238769531 0.51276993751525878906 1.023295283317565918 0.79971134662628173828 0.98426133394241333008 0.86706221103668212891 1.2100737094879150391 0.91201543807983398438 1.4425133466720581055 0.91607236862182617188 2.0021715164184570312 1.7148811817169189453 0.86950588226318359375 1.2081835269927978516 1.0280267000198364258 0.14809267222881317139 1.7376687526702880859 1.2001312971115112305 0.24923555552959442139 1.7867188453674316406 0.47664776444435119629 0.28012335300445556641 0.039555557072162628174 0.035499997437000274658 0.64196175336837768555 0.7845325469970703125 0.053857143968343734741 2.8550920486450195312 3.0029959678649902344 0.28224059939384460449 0.16731999814510345459 0.31945276260375976562 0.049562498927116394043 0.30267775058746337891 0.4219646751880645752 0.5970986485481262207 1.0401674509048461914 1.0418977737426757812 1.0190056562423706055 1.1386889219284057617 0.91385680437088012695 0.97044175863265991211 1.0401729345321655273 1.1934112310409545898 0.95943820476531982422 0.86164438724517822266 1.8853110074996948242 2.5570933818817138672 4.1618504524230957031 4.9869937896728515625 2.7645115852355957031 1.899210810661315918 0.74683332443237304688 0.67335325479507446289 2.003173828125 0.84354519844055175781 0.78868782520294189453 0.96032148599624633789 1.0189765691757202148 2.4475014209747314453 1.9228672981262207031 1.4884266853332519531 0.88085138797760009766 1.8379667997360229492 1.1171884536743164062 0.94585907459259033203 0.96057641506195068359 1.1374742984771728516 0.3082275092601776123 0.49492356181144714355 0.69010847806930541992 1.3423010110855102539 1.1428281068801879883 0.93926262855529785156 1.0627199411392211914 2.0135023593902587891 1.8253340721130371094 0.91059523820877075195 1.1435066461563110352 1.5122241973876953125 2.0506219863891601562 
0.96682465076446533203 1.2485901117324829102 0.95888572931289672852 0.84942549467086791992 1.0012128353118896484 1.2996889352798461914 1.0539385080337524414 0.86184239387512207031 1.0328099727630615234 1.1314142942428588867 1.3937641382217407227 1.9927066564559936523 1.6486943960189819336 0.89106523990631103516 0.92773717641830444336 1.3383889198303222656 1.1147987842559814453 1.0327054262161254883 0.95175081491470336914 0.90766602754592895508 0.74839067459106445312 0.050124999135732650757 0.052124999463558197021 0.21828788518905639648 0.61399590969085693359 0.75444531440734863281 0.62315714359283447266 1.0692659616470336914 0.65855818986892700195 0.44974291324615478516 0.68027973175048828125 0.11404569447040557861 0.046687498688697814941 0.44783300161361694336 1.4392055273056030273 0.44533836841583251953 0.057000000029802322388 0.047899998724460601807 0.7847086787223815918 1.2197587490081787109 0.7610867619514465332 1.1368818283081054688 0.94591534137725830078 1.1387073993682861328 1.0451052188873291016 1.7481313943862915039 1.0384474992752075195 1.2869867086410522461 1.7677778005599975586 0.92826664447784423828 0.89992642402648925781 1.0450686216354370117 1.0479111671447753906 1.7103471755981445312 3.6129810810089111328 4.6204295158386230469 3.9048895835876464844 2.8674271106719970703 1.3715488910675048828 1.3689074516296386719 1.197589874267578125 0.76550304889678955078 0.77036947011947631836 0.97947746515274047852 1.0099408626556396484 2.3193492889404296875 3.1292366981506347656 1.0319643020629882812 1.2428197860717773438 1.8002220392227172852 1.3672299385070800781 1.0514277219772338867 1.3045710325241088867 1.4664881229400634766 0.61597877740859985352 1.0484277009963989258 1.2213550806045532227 1.9516090154647827148 2.4524750709533691406 0.56968337297439575195 2.4280340671539306641 2.2015509605407714844 1.1117635965347290039 1.25331878662109375 2.4218523502349853516 1.2727563381195068359 1.877282261848449707 
1.1228995323181152344 1.2183010578155517578 1.0560338497161865234 2.0716547966003417969 0.99885833263397216797 0.92040383815765380859 0.92106276750564575195 0.88613206148147583008 1.0064853429794311523 1.0418858528137207031 0.84642380475997924805 1.1283173561096191406 2.2930231094360351562 0.84683120250701904297 0.88286644220352172852 1.8876818418502807617 1.3652894496917724609 1.9133689403533935547 0.95090663433074951172 0.93963426351547241211 0.64017671346664428711 0.50330561399459838867 0.95394980907440185547 0.4918899834156036377 1.6488146781921386719 0.4086100161075592041 1.1752252578735351562 0.78233039379119873047 1.0749766826629638672 1.1702109575271606445 0.79794180393218994141 0.71578991413116455078 0.49048081040382385254 0.051923077553510665894 0.055800002068281173706 0.10347375273704528809 0.24675099551677703857 0.18444749712944030762 0.3481305539608001709 0.76577383279800415039 1.0816969871520996094 0.96029150485992431641 1.0041832923889160156 2.2936928272247314453 2.5737814903259277344 1.4013690948486328125 2.7526373863220214844 1.9753749370574951172 0.86019676923751831055 1.0329927206039428711 0.35539001226425170898 0.48917713761329650879 0.35539001226425170898 0.35539001226425170898 1.0035033226013183594 1.6725639104843139648 1.8919543027877807617 1.1942387819290161133 1.2938189506530761719 1.2679690122604370117 0.97211939096450805664 1.2344715595245361328 1.2800610065460205078 1.0383118391036987305 1.6001740694046020508 2.1162729263305664062 2.988559722900390625 1.9634153842926025391 1.1477990150451660156 1.2554421424865722656 1.1272661685943603516 0.74085116386413574219 1.5940721035003662109 0.99699866771697998047 0.52130514383316040039 0.90620535612106323242 1.143410801887512207 1.9090715646743774414 2.3931005001068115234 1.708804011344909668 0.98990255594253540039 1.3723683357238769531 1.3508350849151611328 1.9088250398635864258 2.6948907375335693359 2.8474171161651611328 2.3616755008697509766 
1.0072523355484008789 0.84026110172271728516 1.8397268056869506836 2.4249157905578613281 1.292248845100402832 0.92635565996170043945 0.80274534225463867188 0.86754745244979858398 2.0829930305480957031 1.192692875862121582 0.46832501888275146484 0.87709510326385498047 0.86083680391311645508 1.4996769428253173828 1.1991977691650390625 2.1574199199676513672 1.6924226284027099609 1.2282483577728271484 0.82725942134857177734 0.26315361261367797852 0.80146515369415283203 1.2652465105056762695 1.8227972984313964844 0.78753888607025146484 0.60004210472106933594 3.4321074485778808594 1.1411404609680175781 0.77252733707427978516 0.60967880487442016602 0.85284090042114257812 0.84866863489151000977 0.13095939159393310547 0.049666665494441986084 0.81637090444564819336 0.045600000768899917603 0.21451233327388763428 0.8972371220588684082 0.65359312295913696289 1.3705537319183349609 0.95542377233505249023 1.4254356622695922852 0.98824292421340942383 4.07306671142578125 3.65686798095703125 4.3885550498962402344 4.3251705169677734375 5.2742714881896972656 2.5894923210144042969 1.5575745105743408203 1.3090175390243530273 0.35539001226425170898 0.35539001226425170898 0.35539001226425170898 0.35539001226425170898 1.2326072454452514648 2.1466169357299804688 2.2575521469116210938 1.6451343297958374023 1.326901555061340332 1.0945916175842285156 1.0274817943572998047 1.0459623336791992188 0.97345441579818725586 0.97792780399322509766 1.8199483156204223633 4.4299149513244628906 4.7939372062683105469 2.3462402820587158203 1.3862357139587402344 1.1967992782592773438 0.98940694332122802734 0.63514274358749389648 0.95256334543228149414 1.6569544076919555664 0.69342702627182006836 1.2639133930206298828 1.01068115234375 1.5499898195266723633 2.187976837158203125 4.6928820610046386719 4.38007354736328125 1.0261780023574829102 1.7576034069061279297 1.7546343803405761719 1.9658679962158203125 2.6576623916625976562 1.9063705205917358398 
0.91452544927597045898 1.13179779052734375 3.2924990653991699219 2.39200592041015625 1.5483083724975585938 0.92251038551330566406 1.1053881645202636719 0.67751020193099975586 0.50657373666763305664 0.88816344738006591797 0.77350753545761108398 0.83065664768218994141 0.90838503837585449219 0.96641576290130615234 0.66645568609237670898 0.050999999046325683594 1.7090154886245727539 0.58911561965942382812 0.16546875238418579102 1.0467265844345092773 0.84208559989929199219 0.050999999046325683594 0.8470866084098815918 0.4658146202564239502 1.1483132839202880859 0.51643568277359008789 0.42541325092315673828 0.78379189968109130859 1.008515477180480957 1.286719202995300293 2.0379238128662109375 1.4085490703582763672 0.58443564176559448242 0.26048165559768676758 2.5187885761260986328 1.3133394718170166016 0.6148516535758972168 0.85601586103439331055 1.2348070144653320312 0.32084125280380249023 0.54585224390029907227 1.6151574850082397461 3.7741417884826660156 4.1627173423767089844 5.1044421195983886719 4.5419383049011230469 5.5684208869934082031 3.1867959499359130859 2.6349647045135498047 1.1308802366256713867 0.35539001226425170898 0.35539001226425170898 0.35539001226425170898 0.35539001226425170898 1.5444338321685791016 1.4743443727493286133 2.6333405971527099609 2.1190655231475830078 1.4762765169143676758 1.0092643499374389648 1.4374783039093017578 1.1932623386383056641 1.0178036689758300781 2.3807632923126220703 1.7430685758590698242 3.5530745983123779297 3.5436017513275146484 3.1119258403778076172 2.28308868408203125 0.99374359846115112305 1.3255510330200195312 0.90441000461578369141 1.1883851289749145508 1.3734213113784790039 1.4420090913772583008 2.2256767749786376953 1.6490331888198852539 2.4445013999938964844 5.4081254005432128906 5.10870361328125 4.4427595138549804688 1.9081755876541137695 1.0748342275619506836 2.4838819503784179688 1.4925969839096069336 0.91409963369369506836 0.35539001226425170898 
1.1005820035934448242 2.4699828624725341797 2.5350077152252197266 1.8860617876052856445 0.81398493051528930664 0.89255213737487792969 1.271105647087097168 0.63479214906692504883 0.68252491950988769531 0.94855529069900512695 1.0010944604873657227 0.92311769723892211914 1.6099395751953125 1.4347372055053710938 1.917710423469543457 1.5156280994415283203 0.26026844978332519531 0.77770990133285522461 1.5479154586791992188 0.34405601024627685547 0.27041631937026977539 0.55612999200820922852 1.0918571949005126953 1.1918125152587890625 1.2660000324249267578 1.1597201824188232422 0.62857842445373535156 1.3071575164794921875 1.7619988918304443359 2.0889842510223388672 1.3900510072708129883 1.2725975513458251953 0.63639801740646362305 0.8328011631965637207 1.3684068918228149414 1.566189885139465332 1.4565138816833496094 0.63300001621246337891 0.67181879281997680664 0.64797067642211914062 0.76000124216079711914 1.1211445331573486328 1.0002797842025756836 1.0839408636093139648 4.8870215415954589844 5.5684208869934082031 5.5684208869934082031 1.8159241676330566406 0.7338549494743347168 0.73509639501571655273 0.35539001226425170898 0.35539001226425170898 0.35539001226425170898 1.3151199817657470703 1.4291394948959350586 2.7969543933868408203 1.510514378547668457 1.9368001222610473633 1.691395878791809082 1.4881315231323242188 1.9725519418716430664 1.2297927141189575195 1.3137917518615722656 1.2399239540100097656 1.263241887092590332 1.9550622701644897461 2.2636220455169677734 1.8968864679336547852 0.96259391307830810547 0.76279431581497192383 0.46177732944488525391 1.2510446310043334961 1.04572296142578125 1.5568016767501831055 1.4821282625198364258 1.8109519481658935547 1.1015821695327758789 2.4035234451293945312 4.8724637031555175781 4.3466563224792480469 2.5779993534088134766 2.0004308223724365234 3.4671919345855712891 3.2308676242828369141 2.4012937545776367188 1.3273551464080810547 2.4341380596160888672 
1.2919735908508300781 2.6761083602905273438 1.8637049198150634766 2.0550374984741210938 1.0059608221054077148 0.86983120441436767578 1.0242992639541625977 0.79939115047454833984 0.50977438688278198242 0.81046891212463378906 1.1915869712829589844 1.1839205026626586914 1.5026195049285888672 2.0517690181732177734 1.4081703424453735352 1.4997704029083251953 1.5005835294723510742 0.68174660205841064453 2.2504277229309082031 1.2553037405014038086 1.2660000324249267578 1.2660000324249267578 1.2660000324249267578 1.2660000324249267578 0.64966666698455810547 0.77878272533416748047 1.065631866455078125 1.9496338367462158203 1.4465017318725585938 0.84821677207946777344 1.007633209228515625 0.95214152336120605469 0.75439423322677612305 0.75248575210571289062 1.6462070941925048828 1.6490099430084228516 1.2709100246429443359 0.63300001621246337891 0.63300001621246337891 0.63300001621246337891 1.1714644432067871094 1.0027897357940673828 0.9092426300048828125 2.1871972084045410156 4.8626604080200195312 3.5766272544860839844 4.9938058853149414062 3.7066240310668945312 0.35539001226425170898 0.35539001226425170898 0.35539001226425170898 0.35539001226425170898 0.35539001226425170898 0.35539001226425170898 1.0855038166046142578 1.3530666828155517578 1.6126877069473266602 1.7817087173461914062 1.0016710758209228516 1.420130610466003418 1.9141242504119873047 3.1028337478637695312 0.89588046073913574219 1.6231185197830200195 1.3765354156494140625 1.152142643928527832 1.4052090644836425781 1.1782714128494262695 0.75522607564926147461 1.9635534286499023438 1.1600366830825805664 1.9493433237075805664 1.9622834920883178711 1.9148781299591064453 2.8483021259307861328 2.5103762149810791016 1.4922254085540771484 1.6597222089767456055 4.7848501205444335938 1.7841004133224487305 2.4171597957611083984 3.660449981689453125 4.1295375823974609375 4.488437652587890625 3.6501431465148925781 5.4602923393249511719 4.2352342605590820312 
1.6921869516372680664 2.0166642665863037109 1.3072938919067382812 1.2232178449630737305 1.2401441335678100586 1.695441126823425293 0.96304625272750854492 1.1765284538269042969 1.2230570316314697266 1.1176930665969848633 1.557368159294128418 0.90700697898864746094 1.4713979959487915039 1.1978244781494140625 1.3583241701126098633 1.7019205093383789062 0.73668754100799560547 1.2660000324249267578 1.2660000324249267578 1.2660000324249267578 1.2660000324249267578 1.2660000324249267578 0.80889302492141723633 0.77346915006637573242 1.0407626628875732422 0.97378712892532348633 1.4640201330184936523 1.8210238218307495117 1.3265787363052368164 0.84780365228652954102 1.5686882734298706055 0.71243298053741455078 1.3751028776168823242 0.95814114809036254883 1.9359078407287597656 0.62559074163436889648 0.689533233642578125 0.61669999361038208008 0.63300001621246337891 0.7290808558464050293 1.2368589639663696289 1.1053119897842407227 1.9598413705825805664 2.1777997016906738281 3.0209066867828369141 3.1144914627075195312 5.5684208869934082031 3.3150370121002197266 0.35539001226425170898 0.35539001226425170898 0.35539001226425170898 0.35539001226425170898 0.35539001226425170898 0.35539001226425170898 1.0556557178497314453 1.1591285467147827148 2.2765319347381591797 2.3506743907928466797 2.2357912063598632812 1.9765882492065429688 1.3183549642562866211 1.4554384946823120117 1.6870274543762207031 1.9383298158645629883 0.84751039743423461914 0.91788983345031738281 1.0320835113525390625 1.094778895378112793 0.70738703012466430664 1.5144090652465820312 0.99303114414215087891 2.1596102714538574219 3.1301779747009277344 1.8884512186050415039 2.1083860397338867188 1.7053660154342651367 0.664516448974609375 1.7626066207885742188 1.7438211441040039062 1.7257714271545410156 2.0388484001159667969 3.4304769039154052734 5.1075024604797363281 4.6911749839782714844 4.7640557289123535156 5.0701565742492675781 3.8027207851409912109 
1.9583692550659179688 1.3650946617126464844 1.1932276487350463867 1.735752105712890625 1.6877405643463134766 1.8951673507690429688 1.5826702117919921875 1.6054304838180541992 1.3402371406555175781 1.8125150203704833984 1.9542151689529418945 1.8133084774017333984 1.4536259174346923828 1.5683556795120239258 1.0661804676055908203 0.89038324356079101562 1.2660000324249267578 1.2660000324249267578 1.2660000324249267578 1.2441372871398925781 0.99302726984024047852 1.0685696601867675781 1.1564451456069946289 2.1464123725891113281 3.7125887870788574219 4.7963614463806152344 3.3680613040924072266 3.0718228816986083984 1.6792123317718505859 2.9775273799896240234 2.9583897590637207031 0.83361828327178955078 0.81210190057754516602 0.971401214599609375 1.1334656476974487305 1.3594886064529418945 0.81233525276184082031 0.71658003330230712891 0.85159993171691894531 1.0472598075866699219 1.1685565710067749023 1.3626707792282104492 2.0403580665588378906 1.7489236593246459961 1.9433064460754394531 1.1065156459808349609 1.2784439325332641602 0.91519176959991455078 0.35539001226425170898 0.91922712326049804688 2.0791270732879638672 0.35539001226425170898 0.55409461259841918945 0.55943238735198974609 1.1280140876770019531 1.6907722949981689453 1.0531454086303710938 2.665557861328125 1.5327161550521850586 1.3258059024810791016 2.5551545619964599609 1.5337234735488891602 1.1507707834243774414 1.0984483957290649414 1.3275668621063232422 1.1380115747451782227 0.85384649038314819336 1.104941248893737793 0.552387237548828125 0.61528736352920532227 1.2629243135452270508 2.0365769863128662109 1.9310947656631469727 1.4982804059982299805 1.3877277374267578125 0.74409896135330200195 0.35539001226425170898 0.72146517038345336914 2.7434570789337158203 1.7683134078979492188 2.2755832672119140625 4.5190525054931640625 4.3793916702270507812 4.1607680320739746094 4.1307878494262695312 5.3702101707458496094 4.92723846435546875 
1.7323768138885498047 3.3744287490844726562 1.5351085662841796875 2.0384728908538818359 2.1598103046417236328 1.4701300859451293945 1.7981450557708740234 1.9785021543502807617 1.7639944553375244141 0.98025900125503540039 1.479703068733215332 2.0399432182312011719 0.94701325893402099609 0.64424252510070800781 0.4558283686637878418 1.1918125152587890625 1.2660000324249267578 1.4876408576965332031 1.1892853975296020508 0.87071877717971801758 1.1341975927352905273 0.94019526243209838867 0.27641651034355163574 1.3796868324279785156 4.2730970382690429688 2.720485687255859375 2.5667695999145507812 3.6051537990570068359 2.6617963314056396484 4.8455519676208496094 1.4210282564163208008 0.43368327617645263672 1.4560394287109375 1.2106337547302246094 0.80039435625076293945 0.99111771583557128906 0.75437843799591064453 0.712985992431640625 1.2966463565826416016 1.6621533632278442383 1.7202612161636352539 2.4421350955963134766 2.9307734966278076172 2.3965475559234619141 2.5295269489288330078 1.0470434427261352539 0.90952271223068237305 0.51154565811157226562 0.69964849948883056641 4.2204308509826660156 3.2652704715728759766 2.1168482303619384766 1.4507241249084472656 0.92423510551452636719 1.0409626960754394531 1.1680699586868286133 1.9446960687637329102 2.0015649795532226562 1.2410490512847900391 0.80456399917602539062 1.2875642776489257812 1.0001096725463867188 1.1850810050964355469 1.522439122200012207 2.5550446510314941406 1.6043201684951782227 2.1540629863739013672 1.2239798307418823242 1.1856763362884521484 0.76689141988754272461 1.0789519548416137695 2.2207522392272949219 2.8003623485565185547 3.7998883724212646484 3.4237282276153564453 1.7156370878219604492 2.3111135959625244141 1.8177970647811889648 3.9247255325317382812 3.8031330108642578125 1.3177971839904785156 2.346736907958984375 3.0291712284088134766 2.4663174152374267578 2.9724965095520019531 3.6767637729644775391 1.9505807161331176758 
2.9488286972045898438 5.1577472686767578125 3.0968201160430908203 1.9702650308609008789 1.8902437686920166016 1.5373989343643188477 1.3479279279708862305 1.9898157119750976562 1.2158253192901611328 0.59423857927322387695 1.4362683296203613281 1.2221379280090332031 0.57852590084075927734 0.2555179893970489502 1.231000065803527832 1.2660000324249267578 1.2660000324249267578 1.2660000324249267578 1.0373532772064208984 0.95947700738906860352 0.86200976371765136719 0.85237997770309448242 0.71920853853225708008 1.5670049190521240234 1.8792676925659179688 2.0282950401306152344 2.4157762527465820312 1.7628247737884521484 1.4384889602661132812 1.9468209743499755859 1.5740325450897216797 1.4531978368759155273 0.97332948446273803711 0.89388382434844970703 1.0643198490142822266 1.0618172883987426758 0.67417752742767333984 1.0322145223617553711 1.6563280820846557617 2.3073663711547851562 2.6887521743774414062 3.1569371223449707031 4.079746246337890625 2.3944485187530517578 1.4183738231658935547 0.78901678323745727539 0.65882337093353271484 0.51154565811157226562 2.2029263973236083984 1.4939507246017456055 1.5461198091506958008 1.6000524759292602539 2.8051738739013671875 1.2149577140808105469 1.4715700149536132812 2.4274382591247558594 3.6345257759094238281 2.7935090065002441406 0.93305063247680664062 1.1433707475662231445 1.1321060657501220703 1.1627422571182250977 1.5393707752227783203 1.8093210458755493164 2.1705996990203857422 1.9024885892868041992 2.7916262149810791016 1.4198042154312133789 1.376198887825012207 0.48820012807846069336 1.5380469560623168945 2.1599383354187011719 1.9352905750274658203 2.5852642059326171875 4.9405355453491210938 5.3895101547241210938 4.7514133453369140625 3.7005281448364257812 3.8235590457916259766 3.0167164802551269531 2.3202068805694580078 1.7589664459228515625 1.399529576301574707 0.681468963623046875 1.1100060939788818359 1.3695999383926391602 1.3981235027313232422 
1.9817554950714111328 2.6128809452056884766 2.6890516281127929688 2.7359735965728759766 2.0301761627197265625 1.8821042776107788086 0.96874266862869262695 1.8254026174545288086 1.2806060314178466797 0.91529494524002075195 0.69108879566192626953 0.81576669216156005859 0.43823075294494628906 0.36087501049041748047 0.35441666841506958008 1.2660000324249267578 1.2660000324249267578 1.1566902399063110352 1.3540914058685302734 1.3886879682540893555 0.87786960601806640625 1.0246359109878540039 1.1007822751998901367 0.9428424835205078125 1.8880877494812011719 2.4484243392944335938 2.4504752159118652344 3.0868384838104248047 1.0490239858627319336 3.3508818149566650391 2.7761995792388916016 1.820021510124206543 0.85755747556686401367 0.85618996620178222656 1.3878685235977172852 1.1973913908004760742 1.2513787746429443359 1.6109118461608886719 1.8522508144378662109 2.7724277973175048828 1.5958334207534790039 1.4779596328735351562 1.3321834802627563477 1.0136585235595703125 0.86433213949203491211 0.88559138774871826172 0.66454029083251953125 0.65819835662841796875 2.3537585735321044922 1.8015342950820922852 2.5391244888305664062 0.83146607875823974609 0.78546601533889770508 0.82034909725189208984 1.9733387231826782227 3.2530331611633300781 3.7161500453948974609 2.3535678386688232422 0.94566506147384643555 0.88374340534210205078 1.0615251064300537109 1.022552490234375 2.1066362857818603516 1.6265660524368286133 1.8476299047470092773 1.313132166862487793 1.4545526504516601562 1.2902642488479614258 1.1459782123565673828 0.5437247157096862793 1.1203173398971557617 1.725342869758605957 2.5033946037292480469 2.2483122348785400391 3.6609287261962890625 3.7872409820556640625 2.1198978424072265625 1.455102086067199707 1.8408814668655395508 3.0899825096130371094 1.4506326913833618164 0.77924311161041259766 1.1068439483642578125 1.2404930591583251953 1.098743438720703125 1.6361038684844970703 1.9530349969863891602 
2.6053996086120605469 2.0138745307922363281 2.1250207424163818359 2.1398694515228271484 2.2595095634460449219 1.4626995325088500977 0.63218438625335693359 0.58684206008911132812 0.8730525970458984375 1.4385082721710205078 0.3147691190242767334 0.52234017848968505859 0.1095487549901008606 0.069857142865657806396 0.669368743896484375 1.2660000324249267578 1.075596928596496582 1.3628747463226318359 1.1809115409851074219 1.5263736248016357422 0.77936071157455444336 1.7174307107925415039 1.0259157419204711914 0.90891534090042114258 1.7779778242111206055 1.9376260042190551758 2.4032511711120605469 2.6616098880767822266 4.7368860244750976562 3.1990091800689697266 3.6148016452789306641 4.22319793701171875 1.5130025148391723633 1.6363114118576049805 1.1239893436431884766 1.2833180427551269531 2.80657958984375 2.3193099498748779297 1.3576302528381347656 1.0821688175201416016 0.90427029132843017578 0.66486513614654541016 0.56170678138732910156 0.82889652252197265625 0.9263299107551574707 0.87257748842239379883 0.74147015810012817383 1.7011703252792358398 3.9942126274108886719 3.3127844333648681641 1.6087990999221801758 0.6960805058479309082 0.63300001621246337891 0.63300001621246337891 0.69189220666885375977 0.81874513626098632812 0.97579872608184814453 1.0393123626708984375 1.2303519248962402344 0.85564261674880981445 1.0923306941986083984 1.573350071907043457 2.150867462158203125 1.82939910888671875 2.0216357707977294922 1.9813219308853149414 1.8151136636734008789 1.2274309396743774414 0.82060998678207397461 0.44253712892532348633 1.0973780155181884766 1.0517052412033081055 1.2017104625701904297 1.4716233015060424805 1.7674354314804077148 2.9089934825897216797 4.0698919296264648438 1.8336954116821289062 1.1561226844787597656 0.98706734180450439453 0.98653471469879150391 1.1575722694396972656 1.1443892717361450195 1.1633208990097045898 1.0089879035949707031 1.9977058172225952148 3.1887221336364746094 
2.6048023700714111328 2.2191007137298583984 2.3757789134979248047 1.5209249258041381836 0.76629561185836791992 1.491682887077331543 0.84754961729049682617 0.5611941218376159668 0.2659072577953338623 0.600543975830078125 0.98583227396011352539 0.27578875422477722168 0.74917763471603393555 1.1670833826065063477 1.2657700777053833008 1.141377568244934082 1.5756186246871948242 2.4701092243194580078 2.0204443931579589844 2.9908134937286376953 2.0782771110534667969 1.7792564630508422852 0.98939442634582519531 0.80766844749450683594 1.8555654287338256836 1.9624537229537963867 1.6865694522857666016 2.5657758712768554688 2.9328610897064208984 0.63300001621246337891 1.8187808990478515625 3.5971913337707519531 0.62150663137435913086 1.6441084146499633789 1.6899607181549072266 1.4311466217041015625 1.8453003168106079102 1.1762105226516723633 1.1064537763595581055 0.67368662357330322266 0.35539001226425170898 0.35539001226425170898 0.48431006073951721191 0.83819139003753662109 0.88313603401184082031 0.85695290565490722656 0.85281646251678466797 0.95997244119644165039 1.601443171501159668 3.610774993896484375 0.87384784221649169922 0.65003550052642822266 0.63300001621246337891 0.63300001621246337891 0.63300001621246337891 0.76876097917556762695 0.83304888010025024414 0.86460864543914794922 0.99992978572845458984 0.88590651750564575195 1.0956856012344360352 1.6385332345962524414 1.225888371467590332 2.5159115791320800781 1.6713329553604125977 2.0586848258972167969 1.7375763654708862305 1.6679254770278930664 1.2962796688079833984 0.65057516098022460938 0.98518222570419311523 1.1057229042053222656 2.0402619838714599609 4.0345249176025390625 3.8526301383972167969 3.8279166221618652344 3.13848876953125 2.4794516563415527344 2.0197362899780273438 1.0981273651123046875 1.156360626220703125 1.5673351287841796875 2.1708805561065673828 2.1232571601867675781 1.0762590169906616211 3.0369238853454589844 3.46877288818359375 
2.6544983386993408203 2.0415251255035400391 3.1223227977752685547 1.3573830127716064453 1.5666893720626831055 0.94261717796325683594 0.37241899967193603516 0.053083334118127822876 0.15008562803268432617 1.9791543483734130859 0.048124998807907104492 0.124678000807762146 0.10049999505281448364 0.45508334040641784668 0.91581249237060546875 0.90672159194946289062 0.83112353086471557617 0.97438037395477294922 0.66000968217849731445 0.3126685023307800293 0.83679616451263427734 0.58090204000473022461 1.2030447721481323242 1.0453106164932250977 2.3481912612915039062 1.8248853683471679688 2.3671905994415283203 1.9567563533782958984 1.2078523635864257812 0.63300001621246337891 0.84079974889755249023 0.75543498992919921875 0.61429142951965332031 1.7135517597198486328 1.2660000324249267578 1.0284743309020996094 1.1346160173416137695 1.2239921092987060547 0.75569707155227661133 0.35539001226425170898 0.35539001226425170898 0.35539001226425170898 0.66408807039260864258 0.91416400671005249023 0.87891763448715209961 0.88430839776992797852 0.69080370664596557617 0.99908626079559326172 0.88637721538543701172 0.88495779037475585938 0.88082510232925415039 0.72756415605545043945 0.63300001621246337891 0.63300001621246337891 0.65003550052642822266 0.85862493515014648438 0.79111659526824951172 0.86974239349365234375 0.99752545356750488281 1.0198178291320800781 1.2568233013153076172 1.9869025945663452148 1.6413326263427734375 4.1088361740112304688 2.6516242027282714844 1.1569069623947143555 1.303422093391418457 1.5978413820266723633 1.9089049100875854492 0.7886212468147277832 1.0788353681564331055 1.4043629169464111328 1.4471621513366699219 3.9352207183837890625 3.3081099987030029297 3.8957798480987548828 1.2861222028732299805 1.4112743139266967773 1.6157903671264648438 1.296551823616027832 1.2960027456283569336 1.2475719451904296875 2.4732065200805664062 2.8511528968811035156 4.4242029190063476562 4.8679904937744140625 2.2770638465881347656 
2.6575753688812255859 2.4645109176635742188 2.9710109233856201172 2.6976728439331054688 2.0235104560852050781 1.031554102897644043 0.097598463296890258789 2.8574171066284179688 3.9328889846801757812 1.8191916942596435547 1.6656898260116577148 0.58936583995819091797 0.79449999332427978516 1.0399999618530273438 1.2660000324249267578 1.6762658357620239258 1.3279576301574707031 1.3376463651657104492 0.69874757528305053711 0.34154617786407470703 0.95804232358932495117 1.1228374242782592773 1.1953896284103393555 1.1738259792327880859 1.8489031791687011719 1.474846959114074707 2.2465219497680664062 2.1092433929443359375 0.95553278923034667969 0.65003550052642822266 1.0653001070022583008 0.47283795475959777832 0.67557621002197265625 1.0330536365509033203 1.256702423095703125 1.02851104736328125 1.0342093706130981445 0.73533618450164794922 0.35539001226425170898 0.35539001226425170898 0.35539001226425170898 0.38895446062088012695 0.73677623271942138672 0.86908352375030517578 0.96054989099502563477 0.81672620773315429688 0.9491888880729675293 0.9996941685676574707 0.94543439149856567383 0.86515390872955322266 0.87471091747283935547 0.85263001918792724609 0.72450077533721923828 0.63300001621246337891 0.7533092498779296875 0.89427381753921508789 0.92054736614227294922 0.82960021495819091797 0.92537856101989746094 0.87306994199752807617 1.7585616111755371094 1.0590720176696777344 2.1026723384857177734 2.5304901599884033203 1.6214400529861450195 1.0473157167434692383 1.9714850187301635742 0.95409578084945678711 1.2340613603591918945 1.1463881731033325195 2.5928163528442382812 2.0551800727844238281 2.2942113876342773438 2.4583261013031005859 1.6373994350433349609 1.3936971426010131836 0.98912531137466430664 2.1972367763519287109 1.3419196605682373047 2.0873713493347167969 1.8255219459533691406 2.2007632255554199219 3.0839593410491943359 3.0827357769012451172 5.4602923393249511719 4.1042985916137695312 2.459808349609375 
2.4571778774261474609 4.3766713142395019531 3.3186831474304199219 3.9994518756866455078 1.2352880239486694336 1.5662059783935546875 0.13730449974536895752 0.65645551681518554688 2.332820892333984375 2.8200283050537109375 1.0192528963088989258 0.96725004911422729492 1.2660000324249267578 1.2660000324249267578 1.2660000324249267578 0.43568933010101318359 0.89419996738433837891 1.6387380361557006836 0.73070776462554931641 1.4006807804107666016 1.1883749961853027344 1.5741258859634399414 1.4570652246475219727 2.4029664993286132812 1.4070134162902832031 2.1502783298492431641 2.0848739147186279297 1.5273796319961547852 0.71641445159912109375 1.0063346624374389648 1.2565765380859375 0.51732915639877319336 0.48813995718955993652 1.2471079826354980469 1.1988515853881835938 1.0188097953796386719 1.0370738506317138672 0.57753098011016845703 0.35539001226425170898 0.50976747274398803711 1.007617950439453125 0.86538636684417724609 0.91544926166534423828 1.0070368051528930664 0.85608208179473876953 0.93408244848251342773 0.85586899518966674805 0.50292450189590454102 0.74275976419448852539 0.82187432050704956055 0.85921281576156616211 0.9243533015251159668 0.95936864614486694336 0.78836178779602050781 0.90049940347671508789 0.94118112325668334961 0.82967662811279296875 1.3014268875122070312 1.5860970020294189453 2.4732275009155273438 1.0843042135238647461 1.171324610710144043 1.4715515375137329102 1.8336939811706542969 1.3208049535751342773 1.1549265384674072266 1.8249508142471313477 1.0519106388092041016 2.9592289924621582031 1.9849836826324462891 3.0782728195190429688 3.7181160449981689453 4.5669951438903808594 3.5893940925598144531 1.2676688432693481445 1.0269243717193603516 2.2519693374633789062 4.126575469970703125 4.9062528610229492188 4.5384125709533691406 2.8025059700012207031 3.0186357498168945312 3.3235259056091308594 3.0375056266784667969 4.0467944145202636719 3.5575706958770751953 3.2278864383697509766 
1.8601675033569335938 2.3266804218292236328 2.0955972671508789062 1.8592010736465454102 1.6388487815856933594 0.96678930521011352539 0.99710327386856079102 1.3095515966415405273 1.5378215312957763672 1.0666664838790893555 0.86613202095031738281 1.1918125152587890625 1.2660000324249267578 1.2660000324249267578 1.2660000324249267578 0.93197691440582275391 1.2161315679550170898 1.2559932470321655273 0.76258641481399536133 1.0269871950149536133 2.0041537284851074219 1.2391772270202636719 1.6410509347915649414 1.9314799308776855469 1.2672550678253173828 1.7204495668411254883 1.7923346757888793945 1.0037562847137451172 0.94729244709014892578 1.1571226119995117188 0.93984138965606689453 0.47692063450813293457 0.63891434669494628906 1.9101899862289428711 1.2737833261489868164 1.1522309780120849609 1.0319534540176391602 0.53033107519149780273 0.35539001226425170898 0.84382688999176025391 0.98068356513977050781 1.0331568717956542969 0.94611543416976928711 0.98633813858032226562 0.90382373332977294922 0.8990052342414855957 0.54602032899856567383 0.75706177949905395508 0.59686505794525146484 0.92829304933547973633 0.88167721033096313477 0.92262631654739379883 0.88879597187042236328 0.85140240192413330078 0.91427844762802124023 1.2434591054916381836 1.0230089426040649414 3.2055101394653320312 4.3724808692932128906 3.5784807205200195312 2.8181850910186767578 1.5859251022338867188 1.809729456901550293 0.94338792562484741211 1.0213587284088134766 1.3305592536926269531 1.1868348121643066406 1.7759852409362792969 4.2467551231384277344 2.2835872173309326172 1.4460178613662719727 3.5300846099853515625 2.3153655529022216797 3.4208469390869140625 1.4041665792465209961 1.1312749385833740234 1.7479567527770996094 4.4881277084350585938 4.6424551010131835938 4.8901681900024414062 2.9219079017639160156 2.8643190860748291016 3.1868982315063476562 3.1372995376586914062 3.7955517768859863281 2.8794665336608886719 2.2190079689025878906 
2.3393390178680419922 2.3054289817810058594 1.3320186138153076172 1.017489314079284668 1.1781105995178222656 1.0335547924041748047 1.3165091276168823242 1.9147601127624511719 1.7151567935943603516 1.7964420318603515625 1.2660000324249267578 1.2660000324249267578 1.2181676626205444336 1.2660000324249267578 1.2660000324249267578 1.3865882158279418945 0.72759699821472167969 1.6801294088363647461 1.2505744695663452148 1.5702005624771118164 1.2907396554946899414 1.1338422298431396484 1.5749638080596923828 0.85344612598419189453 0.92183214426040649414 1.1234856843948364258 1.301251530647277832 1.3926923274993896484 1.5098494291305541992 0.72773110866546630859 1.4556831121444702148 0.7794666290283203125 0.9652500152587890625 1.0150460004806518555 1.0431547164916992188 1.0735752582550048828 1.0373085737228393555 0.81752276420593261719 0.6294384002685546875 0.87993508577346801758 0.82684946060180664062 0.90557086467742919922 0.89463794231414794922 0.99821776151657104492 0.89891356229782104492 0.82385808229446411133 0.74992382526397705078 0.71407818794250488281 0.73040956258773803711 0.83154886960983276367 1.04534912109375 0.92270207405090332031 0.88165611028671264648 1.1270914077758789062 1.0618917942047119141 1.0968014001846313477 2.1396911144256591797 3.66655731201171875 3.7407007217407226562 3.0696225166320800781 4.4282250404357910156 1.5590288639068603516 0.94346082210540771484 0.88324952125549316406 2.2441861629486083984 1.4826924800872802734 1.1753225326538085938 0.90393811464309692383 2.0281617641448974609 2.5184240341186523438 2.7863066196441650391 4.0268721580505371094 2.9648845195770263672 1.3571640253067016602 0.89676827192306518555 1.0584658384323120117 1.1592736244201660156 3.1519477367401123047 4.0251445770263671875 4.8901681900024414062 2.8647983074188232422 3.2786433696746826172 3.1152086257934570312 2.8533980846405029297 2.4158129692077636719 3.3722469806671142578 4.4457807540893554688 
1.3982229232788085938 0.9019539952278137207 0.68664079904556274414 1.1409295797348022461 1.1393387317657470703 1.3616858720779418945 0.98657375574111938477 0.84201472997665405273 1.7099690437316894531 1.1670833826065063477 1.2660000324249267578 1.230488896369934082 0.97632431983947753906 1.2461702823638916016 1.2660000324249267578 0.86760812997817993164 0.96625238656997680664 0.81356161832809448242 0.93571257591247558594 0.91225457191467285156 0.7192961573600769043 1.2540590763092041016 0.95419448614120483398 0.90630370378494262695 1.3089472055435180664 1.994397282600402832 2.6826024055480957031 1.9580800533294677734 0.76996517181396484375 1.0715333223342895508 0.37659919261932373047 1.2660000324249267578 1.2660000324249267578 0.70965468883514404297 0.89178192615509033203 0.97063088417053222656 0.88706189393997192383 1.3385616540908813477 0.90960484743118286133 0.88044017553329467773 0.86450850963592529297 0.91451746225357055664 1.0567195415496826172 0.91957378387451171875 0.95739191770553588867 0.71513974666595458984 0.75631374120712280273 1.1857942342758178711 1.6960905790328979492 3.2445261478424072266 0.96659457683563232422 0.93705564737319946289 0.82157295942306518555 0.9652487635612487793 1.286867976188659668 1.9203906059265136719 1.9057439565658569336 2.3171579837799072266 2.2412025928497314453 1.0866296291351318359 2.5314412117004394531 1.2190953493118286133 1.2259097099304199219 1.08184051513671875 1.5179251432418823242 1.441784977912902832 1.3098073005676269531 0.88385671377182006836 1.3953012228012084961 2.8611581325531005859 4.4935832023620605469 4.74460601806640625 1.0085180997848510742 0.68642061948776245117 0.83029848337173461914 0.80269342660903930664 1.5861465930938720703 2.6941721439361572266 5.105438232421875 4.9206395149230957031 2.1400716304779052734 4.4158735275268554688 4.67418670654296875 3.1434164047241210938 2.5423529148101806641 5.3032441139221191406 4.2860560417175292969 
1.4807633161544799805 1.1513637304306030273 0.49323806166648864746 0.71931213140487670898 1.4754391908645629883 1.0882902145385742188 1.2261347770690917969 1.6133010387420654297 2.1170010566711425781 1.1644166707992553711 1.2660000324249267578 1.2561265230178833008 0.98955780267715454102 1.243473052978515625 1.2660000324249267578 1.4088597297668457031 0.78548181056976318359 0.91036939620971679688 0.93689119815826416016 0.97155833244323730469 1.0689764022827148438 0.95792651176452636719 0.81964933872222900391 1.1507805585861206055 1.0785936117172241211 2.3776497840881347656 2.0577077865600585938 1.374564051628112793 1.1531248092651367188 1.226626276969909668 0.23369237780570983887 0.63800001144409179688 1.3278070688247680664 0.65779006481170654297 1.0552489757537841797 0.63426768779754638672 0.64474451541900634766 0.78669792413711547852 0.87493109703063964844 0.95394408702850341797 0.8551788330078125 0.94986164569854736328 1.2329962253570556641 0.95723545551300048828 1.0053734779357910156 1.0923529863357543945 0.95689564943313598633 0.86277467012405395508 0.80809330940246582031 0.84764111042022705078 0.92881262302398681641 0.94612038135528564453 0.9109846949577331543 0.91179335117340087891 1.8783930540084838867 3.0123450756072998047 1.8417412042617797852 1.9065185785293579102 2.7531094551086425781 2.6175088882446289062 0.96788740158081054688 0.98895180225372314453 1.4739640951156616211 1.646923065185546875 2.4427628517150878906 1.9929932355880737305 1.3289586305618286133 0.85672432184219360352 2.2020273208618164062 4.1777191162109375 4.2361702919006347656 5.3043060302734375 1.232476353645324707 0.87489074468612670898 0.85124033689498901367 0.92676031589508056641 1.2043954133987426758 2.9675571918487548828 5.5124540328979492188 2.6303207874298095703 2.0866549015045166016 4.0412111282348632812 3.7807552814483642578 3.5752427577972412109 3.5122132301330566406 4.6973109245300292969 4.3164081573486328125 
0.71809279918670654297 1.1469604969024658203 0.74233567714691162109 1.1138856410980224609 1.2837121486663818359 0.62742704153060913086 1.1284651756286621094 1.7522984743118286133 0.59287339448928833008 0.55300003290176391602 1.1868749856948852539 0.85716426372528076172 1.184798121452331543 0.66204833984375 1.2523951530456542969 0.90316694974899291992 0.33235752582550048828 1.200656890869140625 2.5622255802154541016 1.831645965576171875 1.0294845104217529297 1.0534378290176391602 0.79528611898422241211 1.1286494731903076172 1.8517484664916992188 1.7568846940994262695 2.4603199958801269531 1.1430661678314208984 0.59705919027328491211 1.1050536632537841797 0.40250000357627868652 0.17386862635612487793 0.53325504064559936523 0.86722868680953979492 0.77272236347198486328 0.45949375629425048828 0.40744188427925109863 0.4421431422233581543 0.72570490837097167969 0.93817353248596191406 0.97115045785903930664 0.93243062496185302734 0.85199618339538574219 0.84207332134246826172 0.91269487142562866211 1.1189653873443603516 0.86141216754913330078 0.98084920644760131836 0.85235893726348876953 1.0162570476531982422 0.98961645364761352539 0.87223726511001586914 0.83261245489120483398 0.91028106212615966797 2.4195020198822021484 5.1773619651794433594 3.8882412910461425781 2.4230027198791503906 3.0302205085754394531 2.1521494388580322266 0.62550538778305053711 1.5592018365859985352 1.4416143894195556641 1.6422747373580932617 0.73913156986236572266 0.93559825420379638672 1.0105665922164916992 1.0681619644165039062 1.8854320049285888672 3.0541112422943115234 3.2257969379425048828 4.4491949081420898438 1.1875216960906982422 0.88462400436401367188 0.87459921836853027344 0.96463990211486816406 1.4011155366897583008 1.9978662729263305664 5.3836221694946289062 4.3035345077514648438 1.4867537021636962891 1.9802111387252807617 2.9762036800384521484 1.7785828113555908203 1.5629684925079345703 1.7466732263565063477 2.7549419403076171875 
1.0340415239334106445 0.86590182781219482422 0.71749466657638549805 0.89313054084777832031 0.95069199800491333008 0.77108657360076904297 1.08116912841796875 0.59307622909545898438 1.1789286136627197266 1.1644166707992553711 1.0443036556243896484 0.96671223640441894531 0.92120701074600219727 1.2676799297332763672 1.8177328109741210938 0.89563101530075073242 0.59182029962539672852 1.208770751953125 2.7301425933837890625 1.7672330141067504883 1.1947207450866699219 1.3065866231918334961 1.1617527008056640625 1.3065804243087768555 1.3863569498062133789 2.0318820476531982422 1.1304937601089477539 1.3090187311172485352 0.25885307788848876953 0.16700001060962677002 0.53325402736663818359 0.58605337142944335938 0.68533432483673095703 1.2051155567169189453 1.0735810995101928711 0.74364197254180908203 0.54624688625335693359 0.61564940214157104492 0.67655920982360839844 1.05889892578125 0.84830868244171142578 0.89995336532592773438 0.81147325038909912109 0.82659423351287841797 0.86414372920989990234 0.84626615047454833984 0.92809450626373291016 1.0226750373840332031 1.0761328935623168945 1.5727944374084472656 1.0382342338562011719 0.83416444063186645508 0.8097057342529296875 0.94326186180114746094 2.6119205951690673828 3.6440510749816894531 4.2804059982299804688 5.2968459129333496094 4.9255313873291015625 2.3406891822814941406 0.35539001226425170898 0.35539001226425170898 0.35539001226425170898 0.35539001226425170898 0.38861563801765441895 0.82121574878692626953 1.0119554996490478516 0.9551900029182434082 1.0296803712844848633 1.5322452783584594727 1.5882308483123779297 1.8581142425537109375 0.86644166707992553711 0.83793717622756958008 0.80749678611755371094 1.260653376579284668 2.8438913822174072266 1.8740178346633911133 3.1283643245697021484 1.9163726568222045898 2.0666565895080566406 2.6065642833709716797 0.91218221187591552734 1.2967282533645629883 1.1495003700256347656 1.0687662363052368164 0.86287122964859008789 
1.0203256607055664062 0.89528232812881469727 0.64797109365463256836 1.3691973686218261719 1.1944174766540527344 0.78367626667022705078 2.1507117748260498047 0.54309862852096557617 3.1124603748321533203 1.2318811416625976562 0.95216965675354003906 1.1746370792388916016 0.38549849390983581543 2.4746186733245849609 1.2660000324249267578 1.7597433328628540039 1.3727723360061645508 1.4624365568161010742 1.6391121149063110352 1.2040371894836425781 1.1106393337249755859 1.0764646530151367188 1.7663941383361816406 1.7189525365829467773 1.5511974096298217773 1.2766860723495483398 0.93007272481918334961 1.4753149747848510742 0.52308827638626098633 0.59290128946304321289 0.63800001144409179688 0.92276585102081298828 1.1434601545333862305 1.2090553045272827148 1.1731956005096435547 0.80850660800933837891 0.54624688625335693359 0.52889627218246459961 0.99606430530548095703 1.1900424957275390625 0.92026174068450927734 0.84362143278121948242 0.83508205413818359375 0.79531973600387573242 0.96308290958404541016 1.0690419673919677734 0.94121503829956054688 1.0921217203140258789 0.9627100825309753418 1.0042436122894287109 1.1598148345947265625 0.95187556743621826172 1.19690704345703125 0.91119265556335449219 1.5382835865020751953 2.7488729953765869141 3.0321071147918701172 2.7013249397277832031 1.2251245975494384766 0.58090925216674804688 0.6892757415771484375 0.76038777828216552734 0.95683377981185913086 0.46408000588417053223 0.81151181459426879883 0.9014110565185546875 1.0175179243087768555 1.0781209468841552734 1.1556490659713745117 0.92769354581832885742 1.00464630126953125 0.94116222858428955078 0.77620142698287963867 0.882442474365234375 1.0552140474319458008 1.6285617351531982422 1.918910980224609375 1.705638885498046875 2.6725792884826660156 3.2085583209991455078 2.4998426437377929688 0.88744974136352539062 0.48085963726043701172 0.74336135387420654297 0.98942303657531738281 0.85032355785369873047 1.1292785406112670898 
1.2431116104125976562 1.6546212434768676758 1.0475118160247802734 1.1865153312683105469 0.7704588770866394043 1.3836935758590698242 1.7943630218505859375 0.78372633457183837891 0.56639134883880615234 0.68544948101043701172 0.94868874549865722656 1.1999564170837402344 0.73442763090133666992 0.72855263948440551758 1.2660000324249267578 2.07268524169921875 1.5743297338485717773 2.7900452613830566406 1.7310707569122314453 1.3241505622863769531 1.1176773309707641602 1.2673317193984985352 2.3216838836669921875 2.0980246067047119141 1.605978846549987793 0.83244013786315917969 0.3908081352710723877 0.030500000342726707458 0.038211874663829803467 0.0099999997764825820923 0.0099999997764825820923 1.9406889677047729492 0.94438070058822631836 1.2983242273330688477 1.0941931009292602539 0.9459813237190246582 0.47410315275192260742 0.66855794191360473633 1.7131460905075073242 2.0377762317657470703 1.6102732419967651367 1.1117156744003295898 0.83112823963165283203 0.82862693071365356445 0.87491655349731445312 2.1737484931945800781 1.7974590063095092773 0.87189340591430664062 0.73399770259857177734 0.90590441226959228516 0.88970553874969482422 1.0880801677703857422 1.1799615621566772461 1.0898921489715576172 0.84214204549789428711 0.93923199176788330078 0.86916422843933105469 1.4594409465789794922 0.35539001226425170898 0.96484041213989257812 0.61700308322906494141 0.35539001226425170898 0.99720025062561035156 0.91767448186874389648 0.98616170883178710938 1.0443681478500366211 0.97245430946350097656 1.0945111513137817383 1.0492079257965087891 0.96248281002044677734 0.88527876138687133789 1.1813372373580932617 0.81711339950561523438 0.81573194265365600586 1.4549551010131835938 1.8412457704544067383 1.1094318628311157227 2.2014417648315429688 3.1838519573211669922 3.0341560840606689453 3.2792038917541503906 1.5586197376251220703 0.35539001226425170898 0.38178288936614990234 1.0788117647171020508 1.1590237617492675781 1.1624248027801513672 
0.80408334732055664062 0.909465789794921875 1.4685361385345458984 1.2388781309127807617 0.80225402116775512695 2.7053430080413818359 1.3795284032821655273 0.231478080153465271 0.63038372993469238281 0.2238419950008392334 1.3909293413162231445 0.61811792850494384766 0.038062501698732376099 0.075473003089427947998 1.2246870994567871094 0.93936908245086669922 0.35539001226425170898 1.8945068120956420898 1.8113781213760375977 1.3072519302368164062 1.334201812744140625 0.97328937053680419922 2.6978702545166015625 1.8212480545043945312 1.1725724935531616211 0.44901901483535766602 0.043249998241662979126 0.044687498360872268677 0.10315418988466262817 0.0099999997764825820923 0.0099999997764825820923 1.5751013755798339844 0.87288224697113037109 0.92389601469039916992 1.0971605777740478516 1.0905996561050415039 0.97414571046829223633 1.0845426321029663086 2.4244737625122070312 2.1126673221588134766 1.3292635679244995117 1.0638232231140136719 0.96867364645004272461 0.89926034212112426758 0.86584234237670898438 1.6429295539855957031 0.67547708749771118164 0.4850215613842010498 0.40691339969635009766 0.54624688625335693359 0.65408092737197875977 0.96732789278030395508 1.1743073463439941406 0.93564385175704956055 0.7830136418342590332 0.97573679685592651367 1.2078356742858886719 0.76416951417922973633 0.35539001226425170898 0.42473393678665161133 0.35539001226425170898 0.60608005523681640625 1.0030260086059570312 1.1620022058486938477 0.88575607538223266602 0.94830322265625 1.0626184940338134766 0.981418609619140625 1.1558043956756591797 0.78261458873748779297 0.84931778907775878906 0.82127362489700317383 0.82956564426422119141 1.0173325538635253906 1.0624053478240966797 1.0794246196746826172 1.0270106792449951172 2.1409249305725097656 2.8766946792602539062 3.7797458171844482422 3.4177868366241455078 1.2164603471755981445 1.0992147922515869141 0.78507399559020996094 2.4629223346710205078 1.0092874765396118164 0.93688654899597167969 
1.4173047542572021484 1.3873078823089599609 1.6448366641998291016 1.2495101690292358398 1.0607485771179199219 1.6269621849060058594 1.3694845438003540039 0.67980802059173583984 0.62528890371322631836 0.66484826803207397461 0.68996202945709228516 0.82196879386901855469 0.10446883738040924072 0.3460000157356262207 1.236933588981628418 1.0872941017150878906 0.35539001226425170898 1.9635692834854125977 1.5582964420318603516 0.96045053005218505859 1.5424771308898925781 1.2611967325210571289 1.5409271717071533203 1.2082350254058837891 0.84310871362686157227 0.11684674769639968872 0.11651493608951568604 0.48902985453605651855 0.0099999997764825820923 0.0099999997764825820923 0.0099999997764825820923 0.83076810836791992188 0.66414052248001098633 0.95493674278259277344 0.9609279632568359375 1.3600004911422729492 1.2072985172271728516 1.8244442939758300781 1.9394849538803100586 2.6464912891387939453 1.4494369029998779297 0.83139598369598388672 0.94227564334869384766 0.81335330009460449219 0.59575039148330688477 0.50469511747360229492 0.72846424579620361328 0.49419501423835754395 0.64929366111755371094 0.69640386104583740234 0.54624688625335693359 0.9936491847038269043 0.98976868391036987305 0.9801731109619140625 0.97233128547668457031 0.85009443759918212891 0.93848323822021484375 0.35539001226425170898 0.51441752910614013672 0.77884304523468017578 0.54806679487228393555 0.97373032569885253906 1.0244786739349365234 0.86592286825180053711 0.86433488130569458008 1.0115569829940795898 0.94692134857177734375 1.0040802955627441406 0.96709191799163818359 0.78797399997711181641 0.81982886791229248047 0.95267957448959350586 1.116560816764831543 1.2759959697723388672 0.93917459249496459961 0.93567013740539550781 2.0035662651062011719 3.5308909416198730469 3.473785400390625 5.0381717681884765625 3.9965736865997314453 2.7619767189025878906 3.2888820171356201172 2.1019651889801025391 1.8342776298522949219 1.6643728017807006836 2.1898391246795654297 
1.7849084138870239258 1.8869763612747192383 1.423140406608581543 1.047171473503112793 0.97616922855377197266 1.0890538692474365234 0.7688248753547668457 0.3062954246997833252 1.5163725614547729492 0.54737490415573120117 1.4637628793716430664 0.83907067775726318359 0.82847923040390014648 1.7041581869125366211 1.2660000324249267578 2.8794078826904296875 3.4034214019775390625 1.6751743555068969727 2.5264713764190673828 1.4017679691314697266 1.9090206623077392578 0.95173895359039306641 1.2650814056396484375 1.4687235355377197266 0.43955951929092407227 0.10694400221109390259 0.059562500566244125366 0.027562500908970832825 0.0099999997764825820923 0.0099999997764825820923 0.0099999997764825820923 0.0099999997764825820923 0.51429325342178344727 0.68634182214736938477 1.232219696044921875 0.9280617833137512207 1.5359855890274047852 2.3210752010345458984 1.2716534137725830078 2.6070797443389892578 0.9116160273551940918 0.89476925134658813477 0.84310364723205566406 0.72647893428802490234 0.49419501423835754395 0.54624688625335693359 0.47684440016746520996 0.60146272182464599609 0.79893082380294799805 1.0194952487945556641 0.97910803556442260742 1.0304092168807983398 1.0159403085708618164 1.1156036853790283203 0.84141278266906738281 0.81357574462890625 0.83086371421813964844 0.39837214350700378418 0.6564400792121887207 1.0274857282638549805 0.9651476740837097168 0.81442165374755859375 0.97388005256652832031 1.0799183845520019531 0.90954726934432983398 0.9826475977897644043 0.89170348644256591797 0.8795273900032043457 1.0316735506057739258 1.2422821521759033203 1.2467111349105834961 1.0109654664993286133 1.0729919672012329102 0.95536112785339355469 0.86484193801879882812 1.096528172492980957 0.98908561468124389648 1.2058831453323364258 4.3309221267700195312 5.1610627174377441406 3.3637022972106933594 1.4788594245910644531 4.2770094871520996094 2.3046679496765136719 1.492575526237487793 1.3760981559753417969 2.2273783683776855469 
0.57286697626113891602 1.2145398855209350586 0.7719447016716003418 0.33027374744415283203 0.29272237420082092285 0.95700359344482421875 0.81761831045150756836 0.096583336591720581055 0.81697058677673339844 0.89518189430236816406 1.2890758514404296875 0.51439499855041503906 1.2415672540664672852 0.98460423946380615234 0.85039484500885009766 1.6644854545593261719 1.7053339481353759766 1.4446107149124145508 1.9862579107284545898 2.1232221126556396484 2.0237989425659179688 0.82298648357391357422 1.2093577384948730469 1.18527984619140625 0.68739098310470581055 0.065399378538131713867 0.090911686420440673828 0.36490130424499511719 0.01893750019371509552 0.071363627910614013672 0.41406300663948059082 0.0099999997764825820923 0.74374014139175415039 1.156618952751159668 0.86822408437728881836 0.91103732585906982422 0.98195296525955200195 1.2890909910202026367 0.88954722881317138672 1.0528692007064819336 0.91913735866546630859 0.94828778505325317383 0.92323350906372070312 0.95421749353408813477 0.81028658151626586914 0.75035649538040161133 0.69054359197616577148 0.80618715286254882812 0.83945077657699584961 2.1522264480590820312 1.3318555355072021484 1.0141763687133789062 1.1701076030731201172 1.0259264707565307617 0.67273557186126708984 0.81137686967849731445 0.86491703987121582031 0.89918649196624755859 1.0008056163787841797 0.94553905725479125977 0.83046376705169677734 0.75723725557327270508 1.1238591670989990234 1.0933862924575805664 0.79957425594329833984 1.1888344287872314453 1.1847304105758666992 0.91772103309631347656 0.88755148649215698242 1.1098467111587524414 1.0249686241149902344 1.0925210714340209961 1.0263992547988891602 0.89566516876220703125 0.91937404870986938477 1.1177161931991577148 0.98684632778167724609 0.93186157941818237305 3.6088662147521972656 3.9245870113372802734 1.7466213703155517578 1.0832744836807250977 3.1410083770751953125 1.7255692481994628906 1.0829708576202392578 1.5332146883010864258 0.96302473545074462891 
0.77799975872039794922 0.99941015243530273438 1.368839263916015625 0.72912687063217163086 1.7517867088317871094 1.1264768838882446289 0.42366668581962585449 0.056125000119209289551 0.745899200439453125 0.37121093273162841797 0.59716230630874633789 0.3178888857364654541 1.1898125410079956055 0.48235714435577392578 0.62866669893264770508 2.5702462196350097656 1.0268054008483886719 0.67069613933563232422 3.1394426822662353516 2.1443347930908203125 3.0096068382263183594 1.4628828763961791992 1.2840608358383178711 1.1274296045303344727 0.73557972908020019531 0.65844774246215820312 0.49754181504249572754 0.16413587331771850586 0.5313981175422668457 0.36388763785362243652 0.14450049400329589844 0.35971379280090332031 0.0099999997764825820923 0.89187163114547729492 0.85766822099685668945 1.0148780345916748047 1.0219540596008300781 1.8777494430541992188 0.9210326075553894043 1.4915889501571655273 2.2796559333801269531 0.80445581674575805664 0.91608059406280517578 0.85628294944763183594 0.90417051315307617188 0.82342159748077392578 0.82596802711486816406 0.82117092609405517578 1.1598429679870605469 1.1049693822860717773 0.79180890321731567383 1.6605000495910644531 1.0504913330078125 0.82273352146148681641 0.47959846258163452148 0.4435971379280090332 0.92706912755966186523 0.94617402553558349609 0.96721237897872924805 0.88261586427688598633 0.56497788429260253906 1.2461667060852050781 1.2973985671997070312 0.97836846113204956055 1.0446858406066894531 0.8039455413818359375 0.8905894160270690918 1.1906969547271728516 0.76100170612335205078 1.0233607292175292969 0.87735188007354736328 0.92314553260803222656 0.84963679313659667969 1.3421370983123779297 1.1426348686218261719 1.4789490699768066406 1.1639171838760375977 0.96416556835174560547 1.0528631210327148438 0.7795365452766418457 0.55842065811157226562 0.78289121389389038086 1.2488093376159667969 0.91491812467575073242 1.0459177494049072266 0.99864459037780761719 0.98466002941131591797 
1.3081740140914916992 1.5563093423843383789 0.84938949346542358398 0.50412338972091674805 1.6194489002227783203 0.7880007624626159668 0.50740003585815429688 1.3247436285018920898 0.9734751582145690918 0.94763368368148803711 0.92147803306579589844 0.20622375607490539551 1.2660000324249267578 1.0221999883651733398 0.62234872579574584961 0.70485675334930419922 1.3272435665130615234 2.3530306816101074219 3.6301817893981933594 2.3312611579895019531 2.1720221042633056641 1.2874819040298461914 1.77159881591796875 1.8502790927886962891 1.2751469612121582031 0.75179588794708251953 1.432043910026550293 0.5656483769416809082 0.82966899871826171875 0.17064625024795532227 0.15510980784893035889 0.91735708713531494141 0.0099999997764825820923 0.58459448814392089844 0.63602274656295776367 1.3755983114242553711 0.87090629339218139648 1.1019273996353149414 1.1563820838928222656 1.1251281499862670898 1.4591395854949951172 0.94625037908554077148 0.8824901580810546875 0.93972975015640258789 0.80369901657104492188 0.80115532875061035156 0.86763405799865722656 0.82417482137680053711 1.3080630302429199219 1.4559695720672607422 1.8232575654983520508 1.199381709098815918 1.4141896963119506836 0.71773880720138549805 0.62005800008773803711 0.67761999368667602539 0.81973242759704589844 0.89889061450958251953 0.99243313074111938477 0.88926649093627929688 0.92795544862747192383 1.0152248144149780273 0.94781029224395751953 1.5227657556533813477 1.5984979867935180664 2.0734772682189941406 1.7876038551330566406 0.90061187744140625 1.2708661556243896484 0.89306592941284179688 0.85293495655059814453 1.0848509073257446289 0.94019776582717895508 1.1367871761322021484 1.411693572998046875 1.6225244998931884766 1.3942664861679077148 0.9570185542106628418 1.0025846958160400391 1.1317911148071289062 0.86003375053405761719 1.7879779338836669922 0.88782083988189697266 1.2917324304580688477 0.9568150639533996582 1.0306298732757568359 1.0253442525863647461 
0.57261854410171508789 1.3961151838302612305 1.0673803091049194336 0.61403244733810424805 0.82058155536651611328 1.2916966676712036133 1.398712158203125 1.2829440832138061523 1.6501756906509399414 1.0964206457138061523 0.8356202244758605957 1.18556976318359375 1.2660000324249267578 1.2397873401641845703 1.2882206439971923828 0.55582213401794433594 1.2410364151000976562 2.0935351848602294922 2.5586593151092529297 2.7827742099761962891 2.6890306472778320312 3.2685985565185546875 2.8746869564056396484 2.2071166038513183594 1.5039604902267456055 0.80481117963790893555 1.6256186962127685547 0.49037238955497741699 0.9260603785514831543 0.97996491193771362305 0.29756689071655273438 0.40522843599319458008 0.70480263233184814453 0.6714013218879699707 1.0110849142074584961 0.65354049205780029297 1.4926856756210327148 1.1433737277984619141 1.2487152814865112305 1.4666129350662231445 1.2118861675262451172 1.3782525062561035156 1.0230215787887573242 0.95528274774551391602 0.87157833576202392578 0.84553498029708862305 0.83024924993515014648 0.83054292201995849609 0.82475626468658447266 1.5553927421569824219 2.620189666748046875 0.87395083904266357422 1.1279343366622924805 0.41194644570350646973 0.57995212078094482422 0.95222383737564086914 1.0214293003082275391 0.96437734365463256836 0.97816944122314453125 0.90374845266342163086 0.38977614045143127441 0.54926258325576782227 0.39285433292388916016 1.0281175374984741211 1.4219232797622680664 1.2265816926956176758 1.071457982063293457 0.88502752780914306641 1.6533631086349487305 1.3881456851959228516 0.92109149694442749023 1.2651848793029785156 0.70998615026473999023 0.9513848423957824707 1.5047726631164550781 1.3553599119186401367 0.96258890628814697266 0.88097774982452392578 0.85875260829925537109 1.1836650371551513672 1.136896967887878418 0.95887905359268188477 1.4618079662322998047 2.3335828781127929688 0.95739740133285522461 2.0015034675598144531 1.0033254623413085938 
0.47569569945335388184 0.5812174677848815918 0.95065462589263916016 0.51935505867004394531 0.76394408941268920898 1.3824380636215209961 0.7885945439338684082 0.82198446989059448242 1.425251007080078125 1.5129163265228271484 0.93473100662231445312 0.23925444483757019043 1.2660000324249267578 1.1310765743255615234 1.1378188133239746094 1.2703487873077392578 1.404639124870300293 2.0530493259429931641 2.5259661674499511719 2.6843748092651367188 1.4595315456390380859 3.2302262783050537109 2.6088135242462158203 2.16852569580078125 1.4987642765045166016 0.86794734001159667969 0.58075994253158569336 0.26050600409507751465 0.81928390264511108398 1.0806899070739746094 0.280292510986328125 0.84286791086196899414 0.6714013218879699707 1.2660000324249267578 1.2528750896453857422 1.2372806072235107422 0.81851518154144287109 1.1177703142166137695 1.1839464902877807617 1.3644993305206298828 1.095788121223449707 1.2790825366973876953 1.1799864768981933594 0.9484698176383972168 0.90356332063674926758 0.87698674201965332031 0.94664800167083740234 0.92909419536590576172 0.96716189384460449219 0.88303554058074951172 1.4933321475982666016 0.78477215766906738281 0.55219930410385131836 0.42479252815246582031 0.47684440016746520996 0.61279565095901489258 0.99586319923400878906 1.179549098014831543 1.3458030223846435547 1.0723165273666381836 0.66377717256546020508 0.29004275798797607422 0.53663522005081176758 0.57906556129455566406 1.0203813314437866211 1.1092121601104736328 0.65836828947067260742 0.66867250204086303711 0.95328307151794433594 1.0702902078628540039 0.86501193046569824219 1.1353565454483032227 0.7513268589973449707 1.1673107147216796875 1.4727092981338500977 1.5014150142669677734 0.96251344680786132812 1.1871796846389770508 1.3390096426010131836 1.0084532499313354492 0.90518665313720703125 1.0082708597183227539 1.9760160446166992188 1.4782891273498535156 1.3509812355041503906 2.1509807109832763672 0.93059653043746948242 
0.55724817514419555664 0.60576742887496948242 1.0592548847198486328 0.8479747772216796875 0.95559316873550415039 1.2169156074523925781 1.1750471591949462891 1.7513086795806884766 1.1482726335525512695 0.84128576517105102539 1.1655259132385253906 0.85815352201461791992 1.5645118951797485352 1.2660000324249267578 1.5420922040939331055 0.52012503147125244141 1.3466538190841674805 2.2274370193481445312 2.5895376205444335938 3.1790854930877685547 1.2037301063537597656 2.3341827392578125 2.2115283012390136719 2.7017219066619873047 1.086192011833190918 0.81184822320938110352 0.62130343914031982422 0.21324531733989715576 1.1379034519195556641 0.77377521991729736328 0.65476393699645996094 1.2176258563995361328 1.0005939006805419922 0.89106249809265136719 1.2660000324249267578 1.2660000324249267578 0.75056517124176025391 1.2079379558563232422 1.1286522150039672852 1.032090306282043457 1.6015093326568603516 1.0342347621917724609 0.89396536350250244141 0.90974408388137817383 0.84274315834045410156 1.1966646909713745117 1.1058819293975830078 1.0107136964797973633 1.0252830982208251953 1.0404553413391113281 0.91348439455032348633 0.95334935188293457031 0.43356600403785705566 0.4421431422233581543 0.43810901045799255371 0.62876462936401367188 0.9954770207405090332 1.2231202125549316406 1.1297760009765625 0.92090255022048950195 1.3015465736389160156 0.87113815546035766602 0.74991548061370849609 0.37835076451301574707 0.77926266193389892578 0.94263041019439697266 1.3172388076782226562 1.8008029460906982422 0.93016248941421508789 0.90382605791091918945 0.97246503829956054688 0.87942081689834594727 0.93463081121444702148 0.63300001621246337891 1.1790013313293457031 1.0366923809051513672 1.0293618440628051758 1.0431753396987915039 0.92551779747009277344 0.8674475550651550293 0.88535124063491821289 0.87907952070236206055 0.92402917146682739258 0.85944849252700805664 0.86073327064514160156 0.82088857889175415039 0.78177046775817871094 
1.7238534688949584961 0.41026055812835693359 1.0500770807266235352 0.61934489011764526367 1.1141500473022460938 1.3756136894226074219 1.0656000375747680664 1.4482374191284179688 1.2290894985198974609 0.99979799985885620117 1.0979218482971191406 0.48292574286460876465 1.8709425926208496094 1.2499555349349975586 1.1665606498718261719 1.5061255693435668945 0.83405333757400512695 2.5015773773193359375 2.2148191928863525391 2.5386350154876708984 1.632962346076965332 1.3729128837585449219 1.0040209293365478516 1.6574083566665649414 0.59026128053665161133 0.74835366010665893555 0.33094885945320129395 0.40469795465469360352 2.0557548999786376953 1.9271777868270874023 1.0323569774627685547 1.1476217508316040039 1.3184549808502197266 0.78368532657623291016 0.85960483551025390625 1.1416534185409545898 0.94820135831832885742 0.98183351755142211914 1.1339890956878662109 1.476604461669921875 1.0301722288131713867 1.6058063507080078125 0.94557279348373413086 1.1376969814300537109 1.3227543830871582031 1.3180203437805175781 1.6533081531524658203 1.2284793853759765625 1.3351280689239501953 1.2624305486679077148 0.83830398321151733398 1.1440855264663696289 0.44064539670944213867 0.35539001226425170898 0.80199772119522094727 1.0871111154556274414 1.1285010576248168945 1.2660000324249267578 0.77489167451858520508 0.86179578304290771484 0.86912804841995239258 0.97899097204208374023 0.67434406280517578125 0.52491927146911621094 0.73149394989013671875 1.192210078239440918 1.2016991376876831055 3.0131039619445800781 0.82913386821746826172 0.95952618122100830078 1.0007604360580444336 0.92740720510482788086 0.69398438930511474609 0.76493299007415771484 0.92191100120544433594 1.2818824052810668945 1.0152730941772460938 0.96040654182434082031 0.81488835811614990234 0.82346194982528686523 0.89398527145385742188 0.81620371341705322266 0.81614297628402709961 0.84256279468536376953 0.85505259037017822266 0.83792436122894287109 0.83912348747253417969 
0.98323029279708862305 1.1206668615341186523 1.0762268304824829102 0.50427389144897460938 0.69690161943435668945 0.50151813030242919922 0.81111425161361694336 1.1643285751342773438 1.7421537637710571289 1.020549774169921875 1.2339253425598144531 1.1740499734878540039 1.4129964113235473633 1.3371673822402954102 0.97731631994247436523 1.9706734418869018555 0.70452469587326049805 1.474932551383972168 2.1040668487548828125 1.2208253145217895508 1.718867182731628418 0.38802644610404968262 0.47516164183616638184 0.93466353416442871094 1.0549762248992919922 1.0730779170989990234 0.72250413894653320312 0.90686249732971191406 2.6925332546234130859 1.9611862897872924805 1.2728513479232788086 1.3017727136611938477 0.98998928070068359375 0.93544983863830566406 1.3265136480331420898 0.49509227275848388672 0.92423546314239501953 0.93419778347015380859 1.1374616622924804688 1.1710667610168457031 1.4227669239044189453 1.2121765613555908203 1.1947395801544189453 1.140729069709777832 1.1479525566101074219 0.98773014545440673828 1.2264027595520019531 1.0514780282974243164 1.0112460851669311523 1.0155327320098876953 0.98208481073379516602 0.93246603012084960938 0.47466224431991577148 0.69842004776000976562 1.1919243335723876953 1.2660000324249267578 1.2423125505447387695 1.2221819162368774414 0.95580470561981201172 1.0449941158294677734 0.87476062774658203125 0.58929342031478881836 0.98487585783004760742 0.96771001815795898438 0.7442696690559387207 1.1229650974273681641 0.88703942298889160156 0.8619677424430847168 0.8786799311637878418 0.89265775680541992188 0.74803048372268676758 0.8108832240104675293 0.87531626224517822266 0.97079795598983764648 1.2067034244537353516 1.1398886442184448242 0.89551371335983276367 0.89701622724533081055 0.81651675701141357422 0.83122098445892333984 0.87332016229629516602 0.84019368886947631836 0.85936987400054931641 0.9346014857292175293 0.87455755472183227539 1.0193490982055664062 0.93401503562927246094 
0.86469686031341552734 1.0785123109817504883 1.2074601650238037109 0.55451351404190063477 0.82543474435806274414 0.35539001226425170898 1.1441472768783569336 1.7369760274887084961 0.92521452903747558594 1.1687517166137695312 1.1331441402435302734 1.0186941623687744141 1.1503008604049682617 1.5343260765075683594 1.2070920467376708984 1.2660000324249267578 1.7884461879730224609 1.6927843093872070312 1.1456704139709472656 1.8202930688858032227 1.1267178058624267578 0.35539001226425170898 0.53908163309097290039 0.94159793853759765625 1.0743958950042724609 0.68693685531616210938 1.0418794155120849609 1.0970345735549926758 1.1898698806762695312 1.3152345418930053711 0.78454756736755371094 0.72971338033676147461 1.140946507453918457 0.88324981927871704102 0.54187798500061035156 0.46144258975982666016 0.78662270307540893555 0.66326302289962768555 1.0491554737091064453 1.1125621795654296875 1.2281689643859863281 1.027270197868347168 0.96168267726898193359 0.97323632240295410156 1.0967397689819335938 1.1665886640548706055 0.93998181819915771484 0.91711330413818359375 0.94545012712478637695 0.90143883228302001953 0.79874700307846069336 1.1109904050827026367 1.0372285842895507812 1.1922547817230224609 1.1947474479675292969 0.89516305923461914062 0.90120053291320800781 0.96403902769088745117 1.1229752302169799805 1.1529276371002197266 0.80795347690582275391 0.84054714441299438477 0.94093775749206542969 0.82468044757843017578 0.89812362194061279297 0.8722006678581237793 0.91144829988479614258 0.9750970005989074707 0.97340953350067138672 0.61181479692459106445 0.38115170598030090332 0.8625863194465637207 0.72452265024185180664 1.0642969608306884766 1.2901536226272583008 0.98642390966415405273 0.98381507396697998047 0.85453808307647705078 0.84914761781692504883 0.84264749288558959961 0.90336620807647705078 0.90813326835632324219 0.90651631355285644531 1.1005175113677978516 1.0474579334259033203 1.0386148691177368164 0.69166678190231323242 
1.7519173622131347656 1.7622635364532470703 0.95405590534210205078 1.2228496074676513672 0.52500420808792114258 0.55408608913421630859 0.41503602266311645508 0.5266678929328918457 0.35539001226425170898 0.55876392126083374023 1.0358740091323852539 1.2472089529037475586 1.7441843748092651367 1.5524415969848632812 1.1542083024978637695 1.4741147756576538086 1.4024039506912231445 1.2459739446640014648 1.3507018089294433594 0.85808026790618896484 1.1208533048629760742 0.91911166906356811523 0.71853595972061157227 0.90137976408004760742 0.88424187898635864258 0.93075978755950927734 0.88937771320343017578 1.1063567399978637695 1.8066574335098266602 1.1308606863021850586 0.81468552350997924805 0.76467567682266235352 1.2689960002899169922 1.0974286794662475586 0.44726300239562988281 0.35539001226425170898 0.82559823989868164062 0.73501187562942504883 1.2265620231628417969 1.1432936191558837891 1.0552169084548950195 0.99548900127410888672 0.94544291496276855469 0.90917444229125976562 0.95760840177536010742 0.93883943557739257812 0.97175693511962890625 1.0241003036499023438 0.90460735559463500977 1.0291433334350585938 1.0283013582229614258 1.0347635746002197266 1.0529440641403198242 0.95870643854141235352 0.86186379194259643555 0.95121335983276367188 0.91005384922027587891 0.6965071558952331543 0.89660531282424926758 0.95281487703323364258 0.78261482715606689453 0.79527080059051513672 0.7770245671272277832 0.81151127815246582031 0.88313174247741699219 0.88087475299835205078 0.84519696235656738281 0.85650908946990966797 0.67687851190567016602 0.5478776097297668457 0.99270528554916381836 0.92266106605529785156 1.2007950544357299805 1.0479364395141601562 1.2757028341293334961 0.9855365753173828125 1.0327153205871582031 1.0084452629089355469 1.0419706106185913086 1.3932790756225585938 1.2926026582717895508 1.1929198503494262695 1.0239897966384887695 1.0126382112503051758 0.9384524226188659668 0.83605432510375976562 0.6555430293083190918 
0.39813977479934692383 0.756122589111328125 1.1245059967041015625 1.0612795352935791016 0.78286230564117431641 0.83139467239379882812 0.70349478721618652344 0.76531141996383666992 0.93488425016403198242 1.896048426628112793 1.3205264806747436523 1.0736602544784545898 1.3064383268356323242 1.0558333396911621094 1.2314007282257080078 1.3572155237197875977 2.0337131023406982422 0.39433664083480834961 0.76528191566467285156 2.0189313888549804688 2.9806776046752929688 0.6026274561882019043 1.0930558443069458008 0.89305746555328369141 1.1915278434753417969 0.97925066947937011719 0.90789997577667236328 1.0917019844055175781 1.3085484504699707031 0.69480985403060913086 0.66118842363357543945 1.2329658269882202148 0.81537979841232299805 1.0469969511032104492 0.76975750923156738281 0.35539001226425170898 0.77400076389312744141 0.89577591419219970703 1.0086587667465209961 0.95263963937759399414 0.91196435689926147461 0.90988570451736450195 0.91271519660949707031 0.8201357722282409668 0.86935138702392578125 0.85534459352493286133 1.0555379390716552734 1.0387440919876098633 1.2397476434707641602 0.98109483718872070312 0.93465155363082885742 0.86487025022506713867 0.79663878679275512695 0.78442454338073730469 0.78699636459350585938 0.77537971735000610352 0.77001339197158813477 0.38115170598030090332 0.71865677833557128906 0.6699377894401550293 0.76555782556533813477 0.85822254419326782227 0.8143532872200012207 0.83806180953979492188 0.83999466896057128906 0.80968254804611206055 0.81299680471420288086 0.85299026966094970703 0.60310858488082885742 0.54717868566513061523 0.77616769075393676758 0.50996011495590209961 1.170657038688659668 1.5131055116653442383 1.1575553417205810547 1.0905433893203735352 1.1364382505416870117 1.1323541402816772461 1.1540939807891845703 1.3241938352584838867 1.2524466514587402344 1.2075383663177490234 1.1735749244689941406 0.94062042236328125 0.94048035144805908203 0.79462802410125732422 0.79032152891159057617 
1.6186277866363525391 0.89938408136367797852 1.5420181751251220703 1.0819573402404785156 0.9787871241569519043 0.79959589242935180664 1.0377588272094726562 1.0228346586227416992 0.91476750373840332031 0.98099076747894287109 1.1953177452087402344 1.2581487894058227539 1.4254586696624755859 0.79500001668930053711 1.7314000129699707031 1.0098130702972412109 0.84011185169219970703 0.80732285976409912109 1.9409562349319458008 1.520932316780090332 1.0695667266845703125 2.1204514503479003906 2.420551300048828125 0.86253637075424194336 1.6258442401885986328 1.8601480722427368164 1.5992434024810791016 0.95524781942367553711 1.0739616155624389648 0.84335893392562866211 1.1432291269302368164 2.9996483325958251953 1.4133920669555664062 0.47594732046127319336 0.4421431422233581543 0.35539001226425170898 0.85532367229461669922 1.1317644119262695312 1.0227912664413452148 1.0680425167083740234 0.85836011171340942383 0.85660392045974731445 0.64831674098968505859 0.78888648748397827148 0.8681233525276184082 0.97045588493347167969 1.2054851055145263672 1.0347613096237182617 1.10567474365234375 1.0637328624725341797 0.94584417343139648438 0.85482543706893920898 0.77247101068496704102 0.79294610023498535156 0.79777538776397705078 0.58269888162612915039 0.38196381926536560059 0.38537263870239257812 0.70495504140853881836 0.35539001226425170898 0.60934293270111083984 0.83576971292495727539 0.85453039407730102539 0.85477519035339355469 0.84521830081939697266 0.86071574687957763672 0.85050433874130249023 0.84038835763931274414 0.65806698799133300781 0.57222539186477661133 0.46916732192039489746 0.38115170598030090332 1.4445427656173706055 1.3812475204467773438 0.856693267822265625 1.1045780181884765625 1.2648063898086547852 1.2323710918426513672 1.6596113443374633789 1.2634029388427734375 1.2422252893447875977 1.1813052892684936523 1.1020331382751464844 1.1274245977401733398 0.93076848983764648438 0.79625076055526733398 0.65650451183319091797 
1.2073254585266113281 1.0724605321884155273 0.92774331569671630859 0.5181071162223815918 0.72797238826751708984 1.7438845634460449219 2.9240565299987792969 1.2293310165405273438 1.118844151496887207 1.4946038722991943359 1.0252486467361450195 1.1990562677383422852 1.2819687128067016602 1.0380743741989135742 1.3780035972595214844 1.752577662467956543 1.2735680341720581055 1.1050677299499511719 1.7807662487030029297 1.7168209552764892578 1.6590851545333862305 1.8282018899917602539 1.3172565698623657227 1.130354762077331543 1.1605492830276489258 1.0253014564514160156 0.72313910722732543945 0.94779944419860839844 1.1785397529602050781 1.0133744478225708008 0.89324384927749633789 1.1334306001663208008 0.86830121278762817383 0.42479252815246582031 0.37274062633514404297 0.35539001226425170898 0.31519982218742370605 1.3694442510604858398 1.1936843395233154297 0.9335486292839050293 0.96492815017700195312 0.78482586145401000977 0.7810688018798828125 0.80238366127014160156 0.90706920623779296875 1.1793847084045410156 1.1951429843902587891 0.91834849119186401367 1.0290472507476806641 1.0294185876846313477 0.99749833345413208008 0.92874950170516967773 0.91175663471221923828 0.81406480073928833008 0.82167834043502807617 0.4421431422233581543 0.37274062633514404297 0.46740713715553283691 0.6628462672233581543 0.35539001226425170898 0.41194644570350646973 0.85408413410186767578 0.88954204320907592773 0.8862711787223815918 0.99139964580535888672 0.81157106161117553711 0.84671187400817871094 0.47948271036148071289 0.35539001226425170898 0.8597443699836730957 0.7634989619255065918 0.94807654619216918945 1.2011363506317138672 1.0261304378509521484 0.96180391311645507812 1.0444951057434082031 1.1375792026519775391 1.1393948793411254883 1.1706601381301879883 1.1496503353118896484 1.0985025167465209961 1.0715373754501342773 1.0222902297973632812 0.99711000919342041016 1.1166374683380126953 0.83161962032318115234 0.88321453332901000977 
1.4931672811508178711 1.2467499971389770508 1.0484941005706787109 0.49887964129447937012 0.75394743680953979492 2.6679797172546386719 3.7857978343963623047 1.0872734785079956055 0.9178562164306640625 2.1284089088439941406 1.6245350837707519531 4.4770722389221191406 1.7449555397033691406 1.2510151863098144531 1.1693232059478759766 1.5158238410949707031 2.4781754016876220703 1.7128667831420898438 2.1975643634796142578 2.3246667385101318359 1.9417504072189331055 1.2660000324249267578 1.3843643665313720703 1.7266288995742797852 1.8059154748916625977 2.2311365604400634766 0.75527918338775634766 1.830617070198059082 2.1525168418884277344 1.7570688724517822266 1.9820642471313476562 3.3785300254821777344 2.7041637897491455078 3.64459228515625 1.4773157835006713867 1.2921614646911621094 1.086181640625 1.4052350521087646484 1.3443366289138793945 1.1430760622024536133 0.88852524757385253906 0.86322736740112304688 0.94664758443832397461 0.85234093666076660156 0.92079961299896240234 1.0202200412750244141 1.206097722053527832 0.88966524600982666016 0.83168262243270874023 0.91935724020004272461 1.0208166837692260742 1.1114674806594848633 0.81489276885986328125 0.83223283290863037109 0.6709918975830078125 0.45618364214897155762 0.35539001226425170898 0.38589307665824890137 0.38537263870239257812 0.35539001226425170898 0.35539001226425170898 0.83236908912658691406 0.83009165525436401367 0.84522020816802978516 0.93335485458374023438 0.88104659318923950195 0.64064085483551025391 0.35539001226425170898 0.52533209323883056641 0.69637542963027954102 0.85282063484191894531 0.88460367918014526367 1.0427747964859008789 1.1524319648742675781 0.91813415288925170898 2.0061795711517333984 0.95339071750640869141 1.0433795452117919922 0.99445676803588867188 1.051859736442565918 1.0078834295272827148 0.99545896053314208984 0.91063416004180908203 0.94783455133438110352 0.95915633440017700195 0.83722913265228271484 0.82508349418640136719 
1.2635059356689453125 0.63510268926620483398 0.78034120798110961914 0.90720146894454956055 1.785540461540222168 2.5920252799987792969 1.6666698455810546875 0.96973288059234619141 1.201702117919921875 2.0138447284698486328 2.1535120010375976562 2.8629355430603027344 1.2932400703430175781 1.1521737575531005859 0.86760812997817993164 1.2658562660217285156 1.5545544624328613281 1.074091792106628418 1.1719746589660644531 2.0022985935211181641 2.0652766227722167969 1.1813580989837646484 1.8392220735549926758 2.0331254005432128906 1.8958442211151123047 1.0510618686676025391 1.3943419456481933594 1.4432849884033203125 1.4181996583938598633 2.0946292877197265625 2.2705817222595214844 5.5684208869934082031 4.1289196014404296875 4.5506558418273925781 1.9754225015640258789 1.3498543500900268555 0.81179040670394897461 1.3397295475006103516 1.892939448356628418 1.0140321254730224609 0.8368962407112121582 0.81610095500946044922 1.0862829685211181641 0.8783251643180847168 0.79153621196746826172 0.81307518482208251953 0.90099847316741943359 0.93764984607696533203 0.9826443791389465332 1.4002143144607543945 0.70918762683868408203 0.95435923337936401367 0.97081106901168823242 0.92079555988311767578 0.82943785190582275391 1.0822376012802124023 0.66218775510787963867 0.86164498329162597656 0.43888819217681884766 0.41975870728492736816 0.64661175012588500977 0.81112891435623168945 0.89442640542984008789 1.2029536962509155273 0.94616484642028808594 0.83405840396881103516 0.55904871225357055664 0.35539001226425170898 0.43291264772415161133 0.8036047816276550293 1.0784986019134521484 1.2418416738510131836 1.034418940544128418 0.99197435379028320312 0.65566915273666381836 1.4402927160263061523 1.638730168342590332 0.98173731565475463867 0.9363619685173034668 1.0070492029190063477 1.1492400169372558594 0.91282349824905395508 1.045651555061340332 0.95510691404342651367 0.83789718151092529297 0.87996852397918701172 0.83232402801513671875 
3.1059129238128662109 0.35539001226425170898 0.35539001226425170898 0.56895697116851806641 1.2785015106201171875 1.8278336524963378906 1.5181008577346801758 1.3435091972351074219 2.307346343994140625 1.6294120550155639648 2.4407761096954345703 2.3290147781372070312 2.6439077854156494141 1.2674279212951660156 1.363270878791809082 1.2660000324249267578 1.3578113317489624023 1.1203566789627075195 1.176372528076171875 1.1776140928268432617 1.2360357046127319336 1.6685317754745483398 2.7307515144348144531 1.2286620140075683594 2.3137412071228027344 2.0468122959136962891 1.8892576694488525391 1.1580764055252075195 2.5131652355194091797 2.126384735107421875 3.0895743370056152344 5.1214599609375 5.5684208869934082031 4.8295278549194335938 4.1312747001647949219 1.0524159669876098633 1.1222453117370605469 2.1747903823852539062 1.2735364437103271484 1.4528783559799194336 1.212177276611328125 0.98267722129821777344 0.86079180240631103516 1.0277984142303466797 0.76121741533279418945 0.80678910017013549805 0.85211074352264404297 0.91072517633438110352 1.2479174137115478516 0.95417940616607666016 0.43830496072769165039 0.9704729914665222168 0.81164163351058959961 0.87182122468948364258 0.89768278598785400391 0.86457592248916625977 0.70894134044647216797 1.2551219463348388672 0.41191151738166809082 0.53915566205978393555 0.50861591100692749023 0.82339555025100708008 0.83411121368408203125 0.83695280551910400391 0.74049663543701171875 0.35539001226425170898 0.35539001226425170898 0.51757681369781494141 0.4845943748950958252 0.85035926103591918945 0.94448685646057128906 1.3834385871887207031 1.0855414867401123047 1.0609762668609619141 0.65125554800033569336 0.010874999687075614929 1.3649789094924926758 0.98326969146728515625 0.85991942882537841797 0.78482586145401000977 1.0007462501525878906 0.98086243867874145508 0.95577788352966308594 0.98345178365707397461 0.88729131221771240234 0.75382888317108154297 0.69902801513671875 
3.1333315372467041016 0.35539001226425170898 0.35539001226425170898 0.7376950383186340332 1.2990194559097290039 2.1269781589508056641 1.7244509458541870117 2.9919915199279785156 3.1901562213897705078 1.8479012250900268555 1.859900355339050293 1.4029594659805297852 1.5349013805389404297 1.7921621799468994141 1.0971635580062866211 1.1629222631454467773 2.0073399543762207031 2.0207149982452392578 1.7813818454742431641 1.2584451436996459961 1.3355412483215332031 3.1869845390319824219 2.1565408706665039062 2.4567759037017822266 1.2567783594131469727 2.4804182052612304688 1.0789346694946289062 1.4836056232452392578 0.81213968992233276367 1.8077219724655151367 2.1779520511627197266 4.6953263282775878906 5.4513807296752929688 3.8115327358245849609 3.7245659828186035156 0.85054558515548706055 1.3180485963821411133 2.3399646282196044922 1.7608852386474609375 1.0031538009643554688 0.88632857799530029297 0.97488689422607421875 0.9275531768798828125 0.92218500375747680664 0.79268729686737060547 0.87536478042602539062 0.62947010993957519531 0.72576069831848144531 0.35539001226425170898 0.58843135833740234375 0.43025225400924682617 0.82065433263778686523 0.97819107770919799805 0.86080402135848999023 0.78273373842239379883 0.78552770614624023438 0.83419793844223022461 0.715579986572265625 0.71661353111267089844 0.85313761234283447266 0.82758039236068725586 0.82955598831176757812 0.8219578862190246582 0.82049268484115600586 0.62955272197723388672 0.60716760158538818359 0.53728634119033813477 0.83604288101196289062 0.95313602685928344727 1.1545869112014770508 1.5581742525100708008 1.3257063627243041992 1.1430206298828125 1.0952438116073608398 0.56939023733139038086 1.1271717548370361328 1.6412439346313476562 0.96858179569244384766 0.78121495246887207031 0.80088335275650024414 0.88130038976669311523 0.91299068927764892578 0.88895839452743530273 0.93335324525833129883 0.64685064554214477539 0.38117295503616333008 0.45843675732612609863 
2.4840123653411865234 0.35539001226425170898 0.35539001226425170898 0.67639803886413574219 1.7491281032562255859 2.2873339653015136719 1.5043281316757202148 2.7504572868347167969 1.830305933952331543 0.62012588977813720703 0.98249250650405883789 1.2660000324249267578 1.256702423095703125 1.2991088628768920898 1.3350799083709716797 1.2660000324249267578 1.2389258146286010742 1.3132526874542236328 1.2664917707443237305 1.3359661102294921875 0.87166774272918701172 2.1696615219116210938 2.3538057804107666016 1.1562317609786987305 0.83924388885498046875 1.1281360387802124023 1.2234582901000976562 1.824513554573059082 1.8032376766204833984 3.5208640098571777344 1.2627524137496948242 4.6875023841857910156 4.8342685699462890625 3.8585765361785888672 1.4227545261383056641 0.93115812540054321289 2.2062370777130126953 1.8326814174652099609 1.4485858678817749023 1.2897864580154418945 1.0302278995513916016 0.84086078405380249023 1.099728703498840332 1.1619372367858886719 0.80101877450942993164 0.63928747177124023438 0.41787046194076538086 0.35539001226425170898 0.35539001226425170898 0.38756489753723144531 0.45147627592086791992 0.84302574396133422852 0.83584505319595336914 0.86449539661407470703 0.86257368326187133789 0.92449039220809936523 0.87759798765182495117 0.85169899463653564453 1.0537101030349731445 0.8516266942024230957 0.81059736013412475586 0.81870502233505249023 0.82782983779907226562 0.89259368181228637695 0.89572691917419433594 0.87437736988067626953 0.95357239246368408203 0.91048473119735717773 1.2080705165863037109 1.1179114580154418945 1.1584010124206542969 1.1806060075759887695 1.1534997224807739258 0.81822752952575683594 0.088500000536441802979 1.927974700927734375 1.0033131837844848633 1.0892002582550048828 0.84153205156326293945 0.87506723403930664062 0.85659480094909667969 0.7791048884391784668 0.87034207582473754883 0.8431606292724609375 0.8336315155029296875 0.82169288396835327148 0.56798052787780761719 
0.35539001226425170898 0.35539001226425170898 0.35539001226425170898 0.77704638242721557617 2.0594499111175537109 1.8627928495407104492 1.1938998699188232422 2.0334782600402832031 2.1594665050506591797 0.58304250240325927734 1.0011572837829589844 1.2660000324249267578 1.8627640008926391602 1.4386172294616699219 1.1916199922561645508 1.2660000324249267578 1.0402911901473999023 0.870395660400390625 2.4043216705322265625 3.8500964641571044922 2.0165636539459228516 3.1673874855041503906 2.5738956928253173828 2.3043718338012695312 0.88827311992645263672 1.192412257194519043 1.7253798246383666992 1.5800750255584716797 1.6891397237777709961 1.5708004236221313477 1.0840916633605957031 4.4510493278503417969 4.9801220893859863281 3.4312536716461181641 2.2872948646545410156 0.63842511177062988281 0.82995551824569702148 1.0289962291717529297 1.896100163459777832 1.6205993890762329102 0.90923398733139038086 0.98891460895538330078 1.096482396125793457 0.85535925626754760742 1.4461658000946044922 0.35539001226425170898 0.35539001226425170898 0.35539001226425170898 0.35539001226425170898 0.35539001226425170898 0.41973975300788879395 0.82437884807586669922 0.83678740262985229492 0.83742427825927734375 1.0145262479782104492 0.80468738079071044922 0.89720654487609863281 0.82382827997207641602 1.4261777400970458984 0.82582801580429077148 0.82582801580429077148 0.92174226045608520508 0.89116227626800537109 0.82582801580429077148 0.91081863641738891602 0.87999200820922851562 1.1636414527893066406 0.83520460128784179688 1.2304677963256835938 1.1864798069000244141 1.3858103752136230469 1.3505599498748779297 0.93904286623001098633 0.32862499356269836426 0.087875001132488250732 1.4223388433456420898 1.3509100675582885742 0.90218412876129150391 1.0678137540817260742 0.62819486856460571289 0.60303401947021484375 0.52758973836898803711 0.63896936178207397461 0.9008547663688659668 0.83180499076843261719 0.83242249488830566406 0.35539001226425170898 
