ncols        87
nrows        107
xllcorner    508536.404131802963
yllcorner    5265618.997906560078
cellsize     120.000000000000
NODATA_value -9999
0.0053280000574886798859 0.0053280000574886798859 0.0053280000574886798859 0.0053280000574886798859 0.0053280000574886798859 0.0053280000574886798859 0.0053280000574886798859 0.0053280000574886798859 0.0053280000574886798859 0.0053280000574886798859 0.0053280000574886798859 0.0053280000574886798859 0.0053280000574886798859 0.0053280000574886798859 0.0053280000574886798859 0.0053280000574886798859 0.0053280000574886798859 0.0053280000574886798859 0.0053280000574886798859 0.0053280000574886798859 0.0053280000574886798859 0.0053280000574886798859 0.0053280000574886798859 0.0053280000574886798859 0.0053280000574886798859 0.0053280000574886798859 0.0053280000574886798859 0.0053280000574886798859 0.0053280000574886798859 0.0053280000574886798859 0.0053280000574886798859 0.0053280000574886798859 0.0053280000574886798859 0.0053280000574886798859 0.0053280000574886798859 0.0053280000574886798859 0.0053280000574886798859 0.0053280000574886798859 0.0053280000574886798859 0.0053280000574886798859 0.0053280000574886798859 0.0053280000574886798859 0.0053280000574886798859 0.0053280000574886798859 0.0053280000574886798859 0.0053280000574886798859 0.0053280000574886798859 0.0053280000574886798859 0.0053280000574886798859 0.0053280000574886798859 0.0053280000574886798859 0.0053280000574886798859 0.0053280000574886798859 0.0053280000574886798859 0.0053280000574886798859 0.0053280000574886798859 0.0053280000574886798859 0.0053280000574886798859 0.0053280000574886798859 0.0053280000574886798859 0.0053280000574886798859 0.0053280000574886798859 0.0053280000574886798859 0.0053280000574886798859 0.0053280000574886798859 0.0053280000574886798859 0.040719501674175262451 0.44978219270706176758 1.5203173160552978516 1.7352361679077148438 1.4034142494201660156 3.1124463081359863281 2.1961789131164550781 4.3162136077880859375 1.8150969743728637695 1.3213419914245605469 2.6255769729614257812 2.1382539272308349609 2.0530791282653808594 3.2949123382568359375 4.3459305763244628906 2.503673553466796875 3.8209962844848632812 2.6245357990264892578 2.5883536338806152344 2.9305372238159179688 3.3694722652435302734 
0.0053280000574886798859 0.0053280000574886798859 0.0053280000574886798859 0.0053280000574886798859 0.0053280000574886798859 0.0053280000574886798859 0.0053280000574886798859 0.0053280000574886798859 0.0053280000574886798859 0.0053280000574886798859 0.0053280000574886798859 0.0053280000574886798859 0.0053280000574886798859 0.0053280000574886798859 0.0053280000574886798859 0.0053280000574886798859 0.0053280000574886798859 0.0053280000574886798859 0.0053280000574886798859 0.0053280000574886798859 0.0053280000574886798859 0.0053280000574886798859 0.0053280000574886798859 0.0053280000574886798859 0.0053280000574886798859 0.0053280000574886798859 0.0053280000574886798859 0.0053280000574886798859 0.0053280000574886798859 0.0053280000574886798859 0.0053280000574886798859 0.0053280000574886798859 0.0053280000574886798859 0.0053280000574886798859 0.0053280000574886798859 0.0053280000574886798859 0.0053280000574886798859 0.0053280000574886798859 0.0053280000574886798859 0.0053280000574886798859 0.0053280000574886798859 0.0053280000574886798859 0.0053280000574886798859 0.0053280000574886798859 0.0053280000574886798859 0.0053280000574886798859 0.0053280000574886798859 0.0053280000574886798859 0.0053280000574886798859 0.0053280000574886798859 0.0053280000574886798859 0.0053280000574886798859 0.0053280000574886798859 0.0053280000574886798859 0.0053280000574886798859 0.0053280000574886798859 0.0053280000574886798859 0.0053280000574886798859 0.0053280000574886798859 0.0053280000574886798859 0.0053280000574886798859 0.059744998812675476074 0.059744998812675476074 0.0053280000574886798859 0.0053280000574886798859 0.064079500734806060791 1.3498542308807373047 0.98094820976257324219 1.6529067754745483398 1.2638704776763916016 3.5755414962768554688 3.2759592533111572266 4.0152606964111328125 3.5018668174743652344 4.646221160888671875 2.0134716033935546875 2.3342936038970947266 3.7578895092010498047 4.3942232131958007812 5.0479178428649902344 2.693218231201171875 2.4584875106811523438 2.41428375244140625 3.7775692939758300781 1.760295867919921875 2.8034937381744384766 2.0925836563110351562 
0.0053280000574886798859 0.0053280000574886798859 0.0053280000574886798859 0.0053280000574886798859 0.0053280000574886798859 0.0053280000574886798859 0.0053280000574886798859 0.0053280000574886798859 0.0053280000574886798859 0.0053280000574886798859 0.0053280000574886798859 0.0053280000574886798859 0.0053280000574886798859 0.0053280000574886798859 0.0053280000574886798859 0.0053280000574886798859 0.0053280000574886798859 0.0053280000574886798859 0.0053280000574886798859 0.0053280000574886798859 0.0053280000574886798859 0.0053280000574886798859 0.0053280000574886798859 0.0053280000574886798859 0.0053280000574886798859 0.0053280000574886798859 0.0053280000574886798859 0.0053280000574886798859 0.0053280000574886798859 0.0053280000574886798859 0.0053280000574886798859 0.0053280000574886798859 0.0053280000574886798859 0.0053280000574886798859 0.0053280000574886798859 0.0053280000574886798859 0.0053280000574886798859 0.0053280000574886798859 0.0053280000574886798859 0.0053280000574886798859 0.0053280000574886798859 0.0053280000574886798859 0.0053280000574886798859 0.0053280000574886798859 0.0053280000574886798859 0.0053280000574886798859 0.0053280000574886798859 0.0053280000574886798859 0.0053280000574886798859 0.0053280000574886798859 0.0053280000574886798859 0.0053280000574886798859 0.0053280000574886798859 0.0053280000574886798859 0.0053280000574886798859 0.0053280000574886798859 0.0053280000574886798859 0.0053280000574886798859 0.020941499620676040649 0.56247842311859130859 0.79873538017272949219 0.2448914945125579834 0.041759502142667770386 0.0069324998185038566589 0.037149231880903244019 0.40113690495491027832 2.0563313961029052734 1.91030120849609375 1.1116014719009399414 1.3228775262832641602 3.8577821254730224609 4.466888427734375 5.0076537132263183594 5.007427215576171875 3.950714111328125 1.7747521400451660156 1.4905599355697631836 3.8465189933776855469 2.7498569488525390625 4.4949560165405273438 2.32784271240234375 3.5145089626312255859 4.2870955467224121094 3.7961106300354003906 3.3060700893402099609 1.1377692222595214844 0.011745999567210674286 
0.0053280000574886798859 0.0053280000574886798859 0.0053280000574886798859 0.0053280000574886798859 0.0053280000574886798859 0.0053280000574886798859 0.0053280000574886798859 0.0053280000574886798859 0.0053280000574886798859 0.0053280000574886798859 0.0053280000574886798859 0.0053280000574886798859 0.0053280000574886798859 0.0053280000574886798859 0.0053280000574886798859 0.0053280000574886798859 0.0053280000574886798859 0.0053280000574886798859 0.0053280000574886798859 0.0053280000574886798859 0.0053280000574886798859 0.0053280000574886798859 0.0053280000574886798859 0.0053280000574886798859 0.0053280000574886798859 0.0053280000574886798859 0.0053280000574886798859 0.0053280000574886798859 0.0053280000574886798859 0.0053280000574886798859 0.0053280000574886798859 0.0053280000574886798859 0.0053280000574886798859 0.0053280000574886798859 0.0053280000574886798859 0.010532500222325325012 0.0053280000574886798859 0.0053280000574886798859 0.0053280000574886798859 0.0053280000574886798859 0.0053280000574886798859 0.0053280000574886798859 0.0053280000574886798859 0.0053280000574886798859 0.0053280000574886798859 0.0053280000574886798859 0.0053280000574886798859 0.0053280000574886798859 0.0053280000574886798859 0.0053280000574886798859 0.0053280000574886798859 0.0053280000574886798859 0.0053280000574886798859 0.0053280000574886798859 0.0053280000574886798859 0.0053280000574886798859 0.0053280000574886798859 0.026146000251173973083 0.081195004284381866455 2.5658445358276367188 2.0619130134582519531 0.047267749905586242676 0.46933087706565856934 0.6191374659538269043 0.26463198661804199219 0.3233153223991394043 2.0964274406433105469 2.308086395263671875 1.402825474739074707 2.4237396717071533203 1.9082865715026855469 4.2865772247314453125 4.8269381523132324219 4.2856378555297851562 3.6245985031127929688 2.7838788032531738281 2.9933245182037353516 3.6054563522338867188 3.4304330348968505859 3.1538178920745849609 3.4675576686859130859 3.95159912109375 3.0442423820495605469 4.2321834564208984375 3.1105120182037353516 0.18571625649929046631 0.75705254077911376953 
0.0053280000574886798859 0.0053280000574886798859 0.0053280000574886798859 0.0053280000574886798859 0.0053280000574886798859 0.0053280000574886798859 0.0053280000574886798859 0.0053280000574886798859 0.0053280000574886798859 0.0053280000574886798859 0.0053280000574886798859 0.0053280000574886798859 0.0053280000574886798859 0.0053280000574886798859 0.0053280000574886798859 0.0053280000574886798859 0.0053280000574886798859 0.0053280000574886798859 0.0053280000574886798859 0.0053280000574886798859 0.0053280000574886798859 0.0053280000574886798859 0.0053280000574886798859 0.0053280000574886798859 0.0053280000574886798859 0.0053280000574886798859 0.0053280000574886798859 0.0053280000574886798859 0.0053280000574886798859 0.0053280000574886798859 0.0053280000574886798859 0.0053280000574886798859 0.0053280000574886798859 0.23806831240653991699 1.7835595607757568359 2.1742198467254638672 0.04336399957537651062 0.0053280000574886798859 0.0053280000574886798859 0.0053280000574886798859 0.0053280000574886798859 0.0053280000574886798859 0.0053280000574886798859 0.0053280000574886798859 0.0053280000574886798859 0.0053280000574886798859 0.0053280000574886798859 0.0053280000574886798859 0.0053280000574886798859 0.0053280000574886798859 0.0053280000574886798859 0.0053280000574886798859 0.0053280000574886798859 0.0053280000574886798859 0.0053280000574886798859 0.020941499620676040649 0.04646225273609161377 0.089456498622894287109 0.35350701212882995605 1.1850402355194091797 0.068087503314018249512 0.11265975236892700195 0.22577357292175292969 1.449622035026550293 0.82678747177124023438 0.80344396829605102539 1.739636540412902832 3.1045050621032714844 1.9215575456619262695 2.6039195060729980469 1.6797460317611694336 3.1731979846954345703 3.5050156116485595703 2.8137326240539550781 3.6247987747192382812 4.4665303230285644531 4.1759862899780273438 3.7358775138854980469 2.9906573295593261719 2.9132254123687744141 1.8093110322952270508 4.4665203094482421875 4.2193655967712402344 3.8057882785797119141 1.3715935945510864258 0.41926842927932739258 0.75116878747940063477 
0.0053280000574886798859 0.0053280000574886798859 0.0053280000574886798859 0.0053280000574886798859 0.0053280000574886798859 0.0053280000574886798859 0.0053280000574886798859 0.0053280000574886798859 0.0053280000574886798859 0.0053280000574886798859 0.0053280000574886798859 0.0053280000574886798859 0.0053280000574886798859 0.0053280000574886798859 0.0053280000574886798859 0.0053280000574886798859 0.0053280000574886798859 0.0053280000574886798859 0.0053280000574886798859 0.0053280000574886798859 0.0053280000574886798859 0.0053280000574886798859 0.0053280000574886798859 0.0053280000574886798859 0.0053280000574886798859 0.0053280000574886798859 0.0053280000574886798859 0.0053280000574886798859 0.0053280000574886798859 0.0053280000574886798859 0.0053280000574886798859 0.036554999649524688721 0.82119208574295043945 1.8942453861236572266 0.97174966335296630859 1.2993586063385009766 0.056816753000020980835 0.0053280000574886798859 0.0053280000574886798859 0.0053280000574886798859 0.0053280000574886798859 0.0053280000574886798859 0.0053280000574886798859 0.0053280000574886798859 0.0053280000574886798859 0.0053280000574886798859 0.0053280000574886798859 0.0053280000574886798859 0.0053280000574886798859 0.0053280000574886798859 0.0053280000574886798859 0.0053280000574886798859 0.010532500222325325012 0.19069556891918182373 0.63276159763336181641 1.031766057014465332 1.7822052240371704102 1.503373265266418457 1.3504623174667358398 1.9330763816833496094 1.3677661418914794922 1.4214569330215454102 1.0059581995010375977 2.8099825382232666016 1.0907814502716064453 0.87599998712539672852 2.3295085430145263672 2.9671344757080078125 1.9047821760177612305 1.7004613876342773438 2.392810821533203125 4.3760547637939453125 5.3669385910034179688 4.4660372734069824219 3.5650517940521240234 4.6791782379150390625 4.2118630409240722656 3.1464114189147949219 2.5989689826965332031 2.8155391216278076172 4.7466955184936523438 5.3672871589660644531 3.5925679206848144531 1.4180414676666259766 0.41136956214904785156 0.019271001219749450684 0.079700000584125518799 
0.0053280000574886798859 0.0053280000574886798859 0.0053280000574886798859 0.0053280000574886798859 0.0053280000574886798859 0.0053280000574886798859 0.0053280000574886798859 0.0053280000574886798859 0.0053280000574886798859 0.0053280000574886798859 0.0053280000574886798859 0.0053280000574886798859 0.0053280000574886798859 0.0053280000574886798859 0.0053280000574886798859 0.0053280000574886798859 0.0053280000574886798859 0.0053280000574886798859 0.0053280000574886798859 0.0053280000574886798859 0.0053280000574886798859 0.0053280000574886798859 0.0053280000574886798859 0.0053280000574886798859 0.0053280000574886798859 0.0053280000574886798859 0.0053280000574886798859 0.0053280000574886798859 0.036554999649524688721 0.053382001817226409912 0.053872250020503997803 1.632538914680480957 2.0960750579833984375 1.3832187652587890625 0.44141870737075805664 0.64859855175018310547 0.15059350430965423584 0.0053280000574886798859 0.0053280000574886798859 0.0053280000574886798859 0.0053280000574886798859 0.0053280000574886798859 0.0053280000574886798859 0.0053280000574886798859 0.0053280000574886798859 0.0053280000574886798859 0.0053280000574886798859 0.0053280000574886798859 0.0053280000574886798859 0.0053280000574886798859 0.010532500222325325012 0.24015280604362487793 0.75332248210906982422 1.1894609928131103516 2.3843290805816650391 2.4883947372436523438 3.1241495609283447266 2.7000205516815185547 3.6074025630950927734 3.1659865379333496094 1.9354865550994873047 2.3619835376739501953 1.4142855405807495117 3.1166973114013671875 1.3314079046249389648 1.3822290897369384766 3.1123325824737548828 3.0664529800415039062 2.5682408809661865234 1.5859971046447753906 2.0880994796752929688 2.9641842842102050781 4.1057729721069335938 4.1352815628051757812 3.7706677913665771484 4.8523640632629394531 4.2866282463073730469 2.7337753772735595703 2.9054923057556152344 3.93569183349609375 4.8268609046936035156 5.1873464584350585938 3.82659149169921875 3.1368045806884765625 3.3684802055358886719 1.9460003376007080078 1.4206844568252563477 
0.0053280000574886798859 0.0053280000574886798859 0.0053280000574886798859 0.0053280000574886798859 0.0053280000574886798859 0.0053280000574886798859 0.0053280000574886798859 0.0053280000574886798859 0.0053280000574886798859 0.0053280000574886798859 0.0053280000574886798859 0.0053280000574886798859 0.0053280000574886798859 0.0053280000574886798859 0.0053280000574886798859 0.0053280000574886798859 0.0053280000574886798859 0.0053280000574886798859 0.0053280000574886798859 0.0053280000574886798859 0.0053280000574886798859 0.0053280000574886798859 0.0053280000574886798859 0.0053280000574886798859 0.0053280000574886798859 0.0053280000574886798859 0.21057419478893280029 0.58402639627456665039 0.25060451030731201172 0.71117454767227172852 1.0210376977920532227 0.69531118869781494141 0.2435970008373260498 1.2636433839797973633 1.0025440454483032227 0.026146000251173973083 0.0053280000574886798859 0.0053280000574886798859 0.0053280000574886798859 0.0053280000574886798859 0.0053280000574886798859 0.0053280000574886798859 0.0053280000574886798859 0.0053280000574886798859 0.0053280000574886798859 0.0053280000574886798859 0.0053280000574886798859 0.0053280000574886798859 0.0053280000574886798859 0.035514999181032180786 0.44755518436431884766 1.3679980039596557617 0.76048803329467773438 1.9936772584915161133 1.8498190641403198242 2.992427825927734375 2.8057484626770019531 2.8360276222229003906 3.8162109851837158203 4.6908817291259765625 1.9961262941360473633 2.7732636928558349609 2.1822702884674072266 2.8755409717559814453 1.3843135833740234375 1.0958884954452514648 3.1490015983581542969 3.3766684532165527344 2.3186438083648681641 0.93373125791549682617 2.7833740711212158203 3.5051860809326171875 3.9252605438232421875 4.038257598876953125 2.3671298027038574219 3.3086576461791992188 4.8269810676574707031 2.9369940757751464844 2.8865096569061279297 4.2307496070861816406 4.4979786872863769531 4.6731696128845214844 3.9343211650848388672 4.2355418205261230469 4.4371671676635742188 4.6879329681396484375 5.3677520751953125 
0.0053280000574886798859 0.0053280000574886798859 0.0053280000574886798859 0.0053280000574886798859 0.0053280000574886798859 0.0053280000574886798859 0.0053280000574886798859 0.0053280000574886798859 0.0053280000574886798859 0.0053280000574886798859 0.0053280000574886798859 0.0053280000574886798859 0.0053280000574886798859 0.0053280000574886798859 0.0053280000574886798859 0.0053280000574886798859 0.0053280000574886798859 0.0053280000574886798859 0.0053280000574886798859 0.0053280000574886798859 0.0053280000574886798859 0.0053280000574886798859 0.0053280000574886798859 0.026146000251173973083 0.046968501061201095581 1.5319041013717651367 2.5665657520294189453 1.7705384492874145508 0.048981249332427978516 2.5372381210327148438 0.40787357091903686523 0.82850605249404907227 1.3315160274505615234 0.97956627607345581055 0.41562750935554504395 0.0053280000574886798859 0.0053280000574886798859 0.0053280000574886798859 0.0053280000574886798859 0.0053280000574886798859 0.0053280000574886798859 0.0053280000574886798859 0.0053280000574886798859 0.0053280000574886798859 0.0053280000574886798859 0.0053280000574886798859 0.0053280000574886798859 0.010532500222325325012 0.23491625487804412842 0.24847826361656188965 0.055753752589225769043 1.9416197538375854492 1.692975163459777832 1.7420464754104614258 1.4426698684692382812 2.2458088397979736328 2.8750660419464111328 2.9101154804229736328 3.2986297607421875 5.0471940040588378906 1.7124078273773193359 2.5249705314636230469 3.5370111465454101562 3.0270419120788574219 1.1614010334014892578 0.961368560791015625 3.1454923152923583984 3.4800822734832763672 3.3476998805999755859 2.0531380176544189453 3.7625637054443359375 2.8141269683837890625 3.6190419197082519531 2.9477090835571289062 2.1342930793762207031 2.4567613601684570312 4.2551217079162597656 2.9386677742004394531 2.9096541404724121094 2.9132840633392333984 3.2698354721069335938 3.5313000679016113281 4.5077581405639648438 3.7696726322174072266 1.5656993389129638672 1.9608095884323120117 2.7501406669616699219 
0.0053280000574886798859 0.0053280000574886798859 0.0053280000574886798859 0.0053280000574886798859 0.0053280000574886798859 0.0053280000574886798859 0.0053280000574886798859 0.0053280000574886798859 0.0053280000574886798859 0.0053280000574886798859 0.0053280000574886798859 0.0053280000574886798859 0.0053280000574886798859 0.0053280000574886798859 0.0053280000574886798859 0.0053280000574886798859 0.0053280000574886798859 0.0053280000574886798859 0.0053280000574886798859 0.0053280000574886798859 0.0053280000574886798859 0.015737000852823257446 0.62236350774765014648 0.65614169836044311523 1.8544750213623046875 1.2061986923217773438 2.5111498832702636719 2.2449350357055664062 1.3642227649688720703 0.20481082797050476074 0.24734774231910705566 1.7241418361663818359 0.5726782679557800293 0.41533750295639038086 0.010532500222325325012 0.0053280000574886798859 0.0053280000574886798859 0.0053280000574886798859 0.0053280000574886798859 0.0053280000574886798859 0.0053280000574886798859 0.0053280000574886798859 0.0053280000574886798859 0.0053280000574886798859 0.0053280000574886798859 0.0053280000574886798859 0.020941499620676040649 0.4312763214111328125 2.2912535667419433594 1.3863883018493652344 1.8757092952728271484 2.5814979076385498047 3.1091601848602294922 3.27507781982421875 2.85211181640625 2.8469159603118896484 2.6202292442321777344 3.0435075759887695312 3.3977208137512207031 3.7870306968688964844 2.5575034618377685547 2.1509160995483398438 2.9702548980712890625 3.3262984752655029297 3.6641509532928466797 1.2297495603561401367 3.1169183254241943359 3.5635623931884765625 3.0186960697174072266 1.8072911500930786133 2.9535906314849853516 3.5150995254516601562 3.5649077892303466797 1.9949877262115478516 1.5200046300888061523 3.8562071323394775391 2.9082393646240234375 1.7952413558959960938 2.4936642646789550781 1.905099034309387207 2.3162715435028076172 1.8158862590789794922 3.4892916679382324219 3.7581226825714111328 0.0053280000574886798859 0.67562019824981689453 5.3665132522583007812 
0.0053280000574886798859 0.0053280000574886798859 0.0053280000574886798859 0.0053280000574886798859 0.0053280000574886798859 0.0053280000574886798859 0.0053280000574886798859 0.0053280000574886798859 0.0053280000574886798859 0.0053280000574886798859 0.0053280000574886798859 0.0053280000574886798859 0.0053280000574886798859 0.0053280000574886798859 0.0053280000574886798859 0.0053280000574886798859 0.0053280000574886798859 0.0053280000574886798859 0.0053280000574886798859 0.015737000852823257446 0.054736752063035964966 1.6014577150344848633 2.3563435077667236328 2.8343753814697265625 1.8070632219314575195 2.7629954814910888672 3.1426198482513427734 1.8090819120407104492 1.8148888349533081055 0.82649439573287963867 0.60059058666229248047 2.5028584003448486328 0.43298399448394775391 0.031284499913454055786 0.0053280000574886798859 0.0053280000574886798859 0.0053280000574886798859 0.0053280000574886798859 0.0053280000574886798859 0.0053280000574886798859 0.0053280000574886798859 0.0053280000574886798859 0.0053280000574886798859 0.0053280000574886798859 0.0053280000574886798859 0.015737000852823257446 0.061497751623392105103 1.1764770746231079102 1.7173907756805419922 3.1127727031707763672 2.0697553157806396484 2.1349918842315673828 3.0482850074768066406 3.5867810249328613281 3.5299408435821533203 2.6397235393524169922 2.7904565334320068359 2.8985476493835449219 3.258213043212890625 3.4476909637451171875 2.4447324275970458984 0.74563252925872802734 3.9250497817993164062 4.0648870468139648438 4.7540102005004882812 1.0328394174575805664 2.9472224712371826172 3.0985887050628662109 2.2775678634643554688 3.1362142562866210938 2.3709354400634765625 4.1671662330627441406 4.3271756172180175781 2.9175784587860107422 1.8983870744705200195 2.008083343505859375 2.459346771240234375 1.2020527124404907227 3.4161880016326904297 3.3472506999969482422 2.6863541603088378906 2.0308415889739990234 0.85400176048278808594 2.0732557773590087891 0.16021643579006195068 1.3059812784194946289 4.812103271484375 
0.0053280000574886798859 0.0053280000574886798859 0.0053280000574886798859 0.0053280000574886798859 0.0053280000574886798859 0.0053280000574886798859 0.0053280000574886798859 0.0053280000574886798859 0.0053280000574886798859 0.0053280000574886798859 0.0053280000574886798859 0.0053280000574886798859 0.0053280000574886798859 0.0053280000574886798859 0.0053280000574886798859 0.0053280000574886798859 0.0053280000574886798859 0.0053280000574886798859 0.0053280000574886798859 0.060471251606941223145 0.64487659931182861328 2.3806378841400146484 2.5715496540069580078 2.1809189319610595703 1.8067117929458618164 3.0621745586395263672 3.0025701522827148438 3.1175172328948974609 1.9989773035049438477 0.98428237438201904297 2.1506071090698242188 0.63373291492462158203 0.23127850890159606934 0.010532500222325325012 0.0053280000574886798859 0.0053280000574886798859 0.0053280000574886798859 0.0053280000574886798859 0.0053280000574886798859 0.0053280000574886798859 0.0053280000574886798859 0.0053280000574886798859 0.0053280000574886798859 0.0053280000574886798859 0.035998750478029251099 0.057797253131866455078 0.72996175289154052734 1.855494379997253418 2.8592309951782226562 2.8005652427673339844 2.0535490512847900391 3.3363041877746582031 2.9304063320159912109 3.0237526893615722656 3.2193334102630615234 2.8439643383026123047 2.7792804241180419922 2.7185220718383789062 3.7630474567413330078 3.0683221817016601562 1.1133209466934204102 0.064199998974800109863 3.1494660377502441406 2.9772951602935791016 2.6409082412719726562 1.1440178155899047852 3.19510650634765625 3.1456592082977294922 2.5814802646636962891 3.2572479248046875 1.5750643014907836914 3.1050074100494384766 3.0963797569274902344 2.8943459987640380859 1.6367686986923217773 1.9746816158294677734 1.0067610740661621094 1.3179137706756591797 1.8717603683471679688 3.7516357898712158203 2.7497982978820800781 2.4982347488403320312 1.1029436588287353516 1.1690267324447631836 0.33078473806381225586 0.47007268667221069336 3.4714033603668212891 
0.0053280000574886798859 0.0053280000574886798859 0.0053280000574886798859 0.0053280000574886798859 0.0053280000574886798859 0.0053280000574886798859 0.0053280000574886798859 0.0053280000574886798859 0.0053280000574886798859 0.0053280000574886798859 0.0053280000574886798859 0.0053280000574886798859 0.0053280000574886798859 0.0053280000574886798859 0.0053280000574886798859 0.0053280000574886798859 0.0053280000574886798859 0.0053280000574886798859 0.015737000852823257446 0.070155501365661621094 1.63640594482421875 1.0305907726287841797 2.0624821186065673828 2.1975905895233154297 1.4858909845352172852 2.9396347999572753906 2.7608404159545898438 3.1495287418365478516 0.85293900966644287109 0.90607053041458129883 1.0244314670562744141 0.82310271263122558594 0.22138275206089019775 0.0053280000574886798859 0.0053280000574886798859 0.0053280000574886798859 0.0053280000574886798859 0.0053280000574886798859 0.0053280000574886798859 0.0053280000574886798859 0.0053280000574886798859 0.0053280000574886798859 0.0053280000574886798859 0.038159500807523727417 0.056394249200820922852 1.4002077579498291016 2.4291107654571533203 3.0499198436737060547 3.0692398548126220703 4.4640722274780273438 4.1586260795593261719 4.3266096115112304688 2.8457119464874267578 3.0571668148040771484 3.2462232112884521484 3.0668113231658935547 3.3007190227508544922 3.0191369056701660156 3.6451058387756347656 3.2391338348388671875 1.2725275754928588867 0.058000002056360244751 2.6968846321105957031 2.5433597564697265625 1.2215113639831542969 2.0288722515106201172 3.6478550434112548828 3.5703063011169433594 3.2651250362396240234 1.30156707763671875 2.4821145534515380859 2.1403372287750244141 1.4599430561065673828 1.9494127035140991211 2.0724565982818603516 2.6262261867523193359 1.2987424135208129883 3.2092483043670654297 1.9155929088592529297 2.9455366134643554688 2.7751660346984863281 2.7007083892822265625 2.0043070316314697266 2.1954157352447509766 1.5673135519027709961 2.2694261074066162109 0.68752902746200561523 
0.0053280000574886798859 0.0053280000574886798859 0.0053280000574886798859 0.0053280000574886798859 0.0053280000574886798859 0.0053280000574886798859 0.0053280000574886798859 0.0053280000574886798859 0.0053280000574886798859 0.0053280000574886798859 0.0053280000574886798859 0.0053280000574886798859 0.0053280000574886798859 0.0053280000574886798859 0.0053280000574886798859 0.0053280000574886798859 0.0053280000574886798859 0.0053280000574886798859 0.050572250038385391235 1.3994505405426025391 2.9544739723205566406 1.9765625 2.9119369983673095703 2.5552423000335693359 2.0364642143249511719 2.70282745361328125 2.9976391792297363281 2.5806014537811279297 1.7074058055877685547 1.8031622171401977539 2.0016543865203857422 1.5930697917938232422 0.064949497580528259277 0.0053280000574886798859 0.0053280000574886798859 0.0053280000574886798859 0.0053280000574886798859 0.0053280000574886798859 0.0053280000574886798859 0.0053280000574886798859 0.0053280000574886798859 0.0053280000574886798859 0.05263050273060798645 0.44733735918998718262 1.5519895553588867188 3.1294414997100830078 3.1424629688262939453 3.0784876346588134766 4.2467913627624511719 4.0563197135925292969 3.8774044513702392578 4.1063070297241210938 3.4675881862640380859 2.8681788444519042969 3.0431067943572998047 3.0347621440887451172 3.6040706634521484375 3.2899858951568603516 3.283565521240234375 3.2767989635467529297 1.3192694187164306641 0.075632497668266296387 3.0899569988250732422 2.1605639457702636719 3.4257597923278808594 3.6191997528076171875 3.2884805202484130859 3.1884424686431884766 3.0363616943359375 1.7782937288284301758 2.4348752498626708984 2.7979609966278076172 3.1167304515838623047 3.6910655498504638672 3.7892873287200927734 3.4263889789581298828 2.3097898960113525391 2.2417240142822265625 1.7674736976623535156 4.5951318740844726562 3.2764387130737304688 2.3131148815155029297 1.3709166049957275391 2.5841100215911865234 0.5446560978889465332 2.3079347610473632812 3.0014989376068115234 
0.0053280000574886798859 0.0053280000574886798859 0.0053280000574886798859 0.0053280000574886798859 0.0053280000574886798859 0.0053280000574886798859 0.0053280000574886798859 0.0053280000574886798859 0.0053280000574886798859 0.0053280000574886798859 0.0053280000574886798859 0.0053280000574886798859 0.0053280000574886798859 0.0053280000574886798859 0.0053280000574886798859 0.0053280000574886798859 0.0053280000574886798859 0.0053280000574886798859 0.10138550400733947754 2.9650657176971435547 3.1521782875061035156 1.9476120471954345703 3.0478951930999755859 2.8118262290954589844 1.9429643154144287109 2.2858593463897705078 2.6738576889038085938 1.4493906497955322266 2.2060971260070800781 2.1336605548858642578 1.7121194601058959961 0.83716624975204467773 0.0053280000574886798859 0.0053280000574886798859 0.0053280000574886798859 0.0053280000574886798859 0.0053280000574886798859 0.0053280000574886798859 0.0053280000574886798859 0.0053280000574886798859 0.010532500222325325012 0.10658480972051620483 1.8614344596862792969 2.6423764228820800781 3.0025484561920166016 3.1346604824066162109 3.148319244384765625 3.2304618358612060547 3.5042977333068847656 3.1439163684844970703 3.957324981689453125 3.4503343105316162109 2.8308565616607666016 2.6626789569854736328 2.9474370479583740234 3.0343842506408691406 3.3875663280487060547 3.3305885791778564453 3.893718719482421875 2.7250201702117919922 0.78096765279769897461 0.077765002846717834473 1.454442143440246582 4.0856833457946777344 4.0080122947692871094 3.15604400634765625 3.1416218280792236328 3.2312896251678466797 2.9511694908142089844 1.8693344593048095703 1.4121938943862915039 2.7887852191925048828 3.2842066287994384766 4.6876873970031738281 5.0069074630737304688 3.4732024669647216797 1.5223393440246582031 1.9644042253494262695 2.7555010318756103516 4.0649232864379882812 3.3622498512268066406 2.7313640117645263672 2.2717030048370361328 2.1970477104187011719 1.8372460603713989258 3.0500147342681884766 4.2589001655578613281 
0.0053280000574886798859 0.0053280000574886798859 0.0053280000574886798859 0.0053280000574886798859 0.0053280000574886798859 0.0053280000574886798859 0.0053280000574886798859 0.0053280000574886798859 0.0053280000574886798859 0.0053280000574886798859 0.0053280000574886798859 0.0053280000574886798859 0.0053280000574886798859 0.0053280000574886798859 0.0053280000574886798859 0.0053280000574886798859 0.0053280000574886798859 0.0053280000574886798859 0.79614865779876708984 3.1311733722686767578 3.13751983642578125 1.5140570402145385742 1.4126046895980834961 1.5398488044738769531 1.1516844034194946289 1.3372495174407958984 1.3756759166717529297 2.3519890308380126953 3.8996555805206298828 1.9971865415573120117 1.1314704418182373047 0.029244251549243927002 0.0053280000574886798859 0.0053280000574886798859 0.0053280000574886798859 0.0053280000574886798859 0.0053280000574886798859 0.0053280000574886798859 0.0085370000451803207397 0.046071249991655349731 0.241880759596824646 1.2692300081253051758 3.2952418327331542969 2.9077475070953369141 2.4575803279876708984 3.0950446128845214844 3.4981694221496582031 4.4667792320251464844 3.6129069328308105469 3.0592753887176513672 2.8477809429168701172 0.57852178812026977539 0.5837351679801940918 0.19714875519275665283 1.7553670406341552734 3.0328826904296875 3.2777802944183349609 3.5953586101531982422 2.95395660400390625 1.210061192512512207 0.24882362782955169678 1.5789659023284912109 3.93881988525390625 2.6527488231658935547 4.4659900665283203125 2.9635741710662841797 3.1204142570495605469 3.6408140659332275391 1.3301674127578735352 1.7584177255630493164 2.2619960308074951172 0.982555389404296875 1.1147965192794799805 4.1018667221069335938 4.1980948448181152344 2.3263010978698730469 3.0352268218994140625 2.8996024131774902344 2.0026013851165771484 3.6803042888641357422 2.9320406913757324219 1.7798115015029907227 1.3548853397369384766 1.8418838977813720703 1.8864014148712158203 3.1963520050048828125 4.255847930908203125 
0.0053280000574886798859 0.0053280000574886798859 0.0053280000574886798859 0.0053280000574886798859 0.0053280000574886798859 0.0053280000574886798859 0.0053280000574886798859 0.0053280000574886798859 0.0053280000574886798859 0.0053280000574886798859 0.0053280000574886798859 0.0053280000574886798859 0.0053280000574886798859 0.0053280000574886798859 0.0053280000574886798859 0.0053280000574886798859 0.0053280000574886798859 0.026146000251173973083 1.016765594482421875 1.7879377603530883789 1.9983384609222412109 1.5446760654449462891 0.60942566394805908203 0.07599499821662902832 0.22383856773376464844 0.25221544504165649414 0.77016550302505493164 1.7169251441955566406 1.8708308935165405273 1.1154830455780029297 0.2426910102367401123 0.0053280000574886798859 0.0053280000574886798859 0.0053280000574886798859 0.0053280000574886798859 0.020941499620676040649 0.019510500133037567139 0.23031856119632720947 0.77450805902481079102 1.0969893932342529297 1.5889425277709960938 1.5075531005859375 2.6812860965728759766 0.55213016271591186523 1.7276794910430908203 2.6155667304992675781 1.6553037166595458984 2.5529711246490478516 4.3077864646911621094 3.1507337093353271484 3.0161273479461669922 0.1991243213415145874 0.0053280000574886798859 0.0053280000574886798859 0.74040108919143676758 1.1114218235015869141 2.7859206199645996094 4.4650487899780273438 3.5242028236389160156 2.4722139835357666016 4.0949468612670898438 1.4219216108322143555 4.8549256324768066406 3.9744825363159179688 4.6463236808776855469 3.0258569717407226562 3.6007781028747558594 3.3174898624420166016 1.6281540393829345703 2.0257437229156494141 2.3145096302032470703 1.4178669452667236328 2.1022512912750244141 4.0939359664916992188 4.446750640869140625 3.1480367183685302734 1.2962315082550048828 2.1608889102935791016 3.6765947341918945312 3.6623437404632568359 3.1094686985015869141 0.98188877105712890625 0.1526654362678527832 0.26877588033676147461 2.0672421455383300781 3.9148502349853515625 2.6490511894226074219 
0.0053280000574886798859 0.0053280000574886798859 0.0053280000574886798859 0.0053280000574886798859 0.0053280000574886798859 0.0053280000574886798859 0.0053280000574886798859 0.0053280000574886798859 0.0053280000574886798859 0.0053280000574886798859 0.0053280000574886798859 0.0053280000574886798859 0.0053280000574886798859 0.0053280000574886798859 0.0053280000574886798859 0.0053280000574886798859 0.0053280000574886798859 0.23591001331806182861 2.1403708457946777344 2.3833003044128417969 3.1417932510375976562 1.8657349348068237305 0.52873069047927856445 0.37601962685585021973 1.4080184698104858398 0.83310818672180175781 0.58392810821533203125 3.1828901767730712891 0.82605510950088500977 0.98659753799438476562 0.19559349119663238525 0.0053280000574886798859 0.0053280000574886798859 0.0053280000574886798859 0.0053280000574886798859 0.031035751104354858398 0.064729250967502593994 2.1529293060302734375 3.2067120075225830078 2.7442286014556884766 1.8620070219039916992 0.040963999927043914795 1.356182098388671875 0.96609741449356079102 3.4231030941009521484 0.0053280000574886798859 0.0053280000574886798859 1.3531706333160400391 3.1349155902862548828 1.866442561149597168 2.8031277656555175781 0.0053280000574886798859 0.0053280000574886798859 0.0053280000574886798859 1.3176475763320922852 2.9480226039886474609 3.8582952022552490234 2.1185290813446044922 2.7921655178070068359 1.5136770009994506836 1.8986203670501708984 3.2104589939117431641 4.8294310569763183594 4.1659259796142578125 5.1042656898498535156 3.3883213996887207031 3.0782382488250732422 3.0774533748626708984 1.9949997663497924805 0.062482222914695739746 2.1614797115325927734 2.0697028636932373047 2.4842045307159423828 2.7670416831970214844 2.6819527149200439453 2.5102393627166748047 1.6685794591903686523 2.9829199314117431641 3.2905757427215576172 3.4005913734436035156 3.1118607521057128906 2.2594690322875976562 0.72855275869369506836 0.97793763875961303711 2.8355357646942138672 3.4378263950347900391 1.7823417186737060547 
0.0053280000574886798859 0.0053280000574886798859 0.0053280000574886798859 0.0053280000574886798859 0.0053280000574886798859 0.0053280000574886798859 0.0053280000574886798859 0.0053280000574886798859 0.0053280000574886798859 0.0053280000574886798859 0.0053280000574886798859 0.0053280000574886798859 0.0053280000574886798859 0.0053280000574886798859 0.0053280000574886798859 0.0053280000574886798859 0.0094924997538328170776 0.81769657135009765625 2.9277920722961425781 2.9598069190979003906 3.1529383659362792969 2.3668515682220458984 1.1646959781646728516 1.0966054201126098633 1.6814371347427368164 1.5601273775100708008 1.6398570537567138672 2.7834911346435546875 2.4391577243804931641 2.2512273788452148438 0.23860949277877807617 0.010532500222325325012 0.010532500222325325012 0.0053280000574886798859 0.040588252246379852295 0.071332499384880065918 1.5926966667175292969 2.7854006290435791016 2.7534749507904052734 1.6789488792419433594 2.6181542873382568359 0.2203900068998336792 0.33279687166213989258 1.1339597702026367188 2.8094248771667480469 0.0053280000574886798859 0.0053280000574886798859 0.010030750185251235962 1.2441655397415161133 1.5883980989456176758 1.2061651945114135742 1.3154376745223999023 0.80418795347213745117 0.050450000911951065063 0.77909755706787109375 2.0624341964721679688 2.7822918891906738281 1.8197412490844726562 0.99983716011047363281 1.883031010627746582 4.4252476692199707031 4.5422821044921875 4.1866965293884277344 2.9444453716278076172 3.3392546176910400391 3.0988743305206298828 3.8326621055603027344 2.9628381729125976562 2.6995306015014648438 0.76891273260116577148 0.062340002506971359253 0.31476032733917236328 2.5249538421630859375 1.6485097408294677734 2.3066170215606689453 2.1302766799926757812 2.1096205711364746094 3.1095907688140869141 3.869964599609375 2.4557559490203857422 2.2717764377593994141 1.3338009119033813477 1.1888864040374755859 1.6866047382354736328 3.2250573635101318359 2.0862371921539306641 0.26196125149726867676 
0.0053280000574886798859 0.0053280000574886798859 0.0053280000574886798859 0.0053280000574886798859 0.0053280000574886798859 0.0053280000574886798859 0.0053280000574886798859 0.0053280000574886798859 0.0053280000574886798859 0.0053280000574886798859 0.0053280000574886798859 0.0053280000574886798859 0.0053280000574886798859 0.0053280000574886798859 0.0053280000574886798859 0.0053280000574886798859 0.021986000239849090576 1.9086052179336547852 2.5729591846466064453 2.569019317626953125 2.571491241455078125 1.4139361381530761719 2.1113097667694091797 1.4151906967163085938 0.63895267248153686523 1.9027872085571289062 1.0740119218826293945 1.5768781900405883789 3.2460629940032958984 1.7886992692947387695 0.42788299918174743652 0.11699450016021728516 0.057373002171516418457 0.061519499868154525757 0.67569613456726074219 0.64534127712249755859 2.9417684078216552734 3.1273961067199707031 2.5540907382965087891 0.41695061326026916504 1.2087676525115966797 0.037865750491619110107 0.0099762501195073127747 0.77665030956268310547 0.7309195399284362793 0.010532500222325325012 1.0928556919097900391 0.019271001219749450684 2.3396792411804199219 2.8404974937438964844 2.1655738353729248047 1.5124039649963378906 1.6843124628067016602 0.64778798818588256836 0.59772348403930664062 1.642998814582824707 2.3808932304382324219 2.5703132152557373047 2.2893540859222412109 3.1826472282409667969 3.0591747760772705078 2.5522582530975341797 3.0303587913513183594 3.1423122882843017578 3.1472322940826416016 3.1364748477935791016 4.131671905517578125 4.1100835800170898438 4.1889338493347167969 3.6550981998443603516 2.0512909889221191406 0.58199274539947509766 0.69361531734466552734 1.3291319608688354492 1.9693526029586791992 1.3061809539794921875 0.99338072538375854492 2.4626674652099609375 4.6775369644165039062 2.6477053165435791016 1.0055288076400756836 0.81119829416275024414 0.79052644968032836914 2.2211833000183105469 2.2766573429107666016 0.98495918512344360352 0.57793277502059936523 
0.0053280000574886798859 0.0053280000574886798859 0.0053280000574886798859 0.0053280000574886798859 0.0053280000574886798859 0.0053280000574886798859 0.0053280000574886798859 0.0053280000574886798859 0.0053280000574886798859 0.0053280000574886798859 0.0053280000574886798859 0.0053280000574886798859 0.0053280000574886798859 0.0053280000574886798859 0.0053280000574886798859 0.0053280000574886798859 0.44499948620796203613 2.5930147171020507812 2.6808276176452636719 2.6699514389038085938 2.0017337799072265625 2.3986263275146484375 2.8447549343109130859 1.5531564950942993164 1.0670213699340820312 2.0710866451263427734 3.2459528446197509766 2.4530339241027832031 3.3515768051147460938 1.3379435539245605469 0.87599998712539672852 0.87599998712539672852 0.36702674627304077148 0.55617767572402954102 2.1232657432556152344 2.6654527187347412109 2.6724388599395751953 3.1272914409637451172 3.1319093704223632812 0.39853069186210632324 2.1399073600769042969 0.027019251137971878052 0.0053280000574886798859 0.019327249377965927124 0.028569249436259269714 0.022425500676035881042 0.24059274792671203613 0.32892587780952453613 2.6818840503692626953 2.6371495723724365234 1.9818538427352905273 2.7681956291198730469 1.2556095123291015625 1.3859016895294189453 1.0275983810424804688 0.18731699883937835693 1.2025204896926879883 2.2111315727233886719 3.6396439075469970703 3.3338956832885742188 1.8809006214141845703 2.9587984085083007812 3.1396272182464599609 3.1307373046875 3.4569833278656005859 4.6837244033813476562 5.0070781707763671875 5.0068726539611816406 3.1619176864624023438 2.7406365871429443359 1.3537647724151611328 1.0760157108306884766 1.6220541000366210938 1.4236196279525756836 0.67358124256134033203 2.0785415172576904297 2.1192865371704101562 3.5308315753936767578 3.5708079338073730469 2.3989474773406982422 0.19584724307060241699 0.55108040571212768555 1.6019757986068725586 2.6603491306304931641 1.6329891681671142578 1.8137098550796508789 1.332739710807800293 
0.0053280000574886798859 0.0053280000574886798859 0.0053280000574886798859 0.0053280000574886798859 0.0053280000574886798859 0.0053280000574886798859 0.0053280000574886798859 0.0053280000574886798859 0.0053280000574886798859 0.0053280000574886798859 0.0053280000574886798859 0.0053280000574886798859 0.0053280000574886798859 0.0053280000574886798859 0.010532500222325325012 0.43379950523376464844 2.6753072738647460938 3.1282300949096679688 3.0621726512908935547 3.0639312267303466797 2.8484940528869628906 2.6968648433685302734 2.1807656288146972656 1.9914621114730834961 2.1670134067535400391 2.7514574527740478516 1.0864815711975097656 4.0399365425109863281 1.0040639638900756836 0.67473787069320678711 0.77646249532699584961 1.6080182790756225586 0.2683715522289276123 0.048568751662969589233 2.3423132896423339844 3.0422909259796142578 2.4424777030944824219 3.0808901786804199219 3.1937351226806640625 2.4237513542175292969 2.5303962230682373047 0.033217500895261764526 0.0099762501195073127747 0.33084824681282043457 0.0053280000574886798859 0.015737000852823257446 0.36299124360084533691 1.3414641618728637695 2.4871654510498046875 1.9124547243118286133 1.0702397823333740234 2.9165663719177246094 2.7919244766235351562 2.1273429393768310547 1.0807321071624755859 1.5339981317520141602 2.4447138309478759766 2.9509332180023193359 2.9521219730377197266 3.7456424236297607422 3.1896691322326660156 3.1427679061889648438 2.9304063320159912109 3.0984089374542236328 3.6919591426849365234 3.2689685821533203125 3.6877841949462890625 3.2918243408203125 3.4459612369537353516 2.8566761016845703125 2.9080510139465332031 2.6130149364471435547 0.82249116897583007812 0.96703684329986572266 1.5455396175384521484 2.2082941532135009766 1.797603607177734375 1.8641511201858520508 1.6670002937316894531 1.1931916475296020508 0.24488650262355804443 0.042841002345085144043 1.2547924518585205078 1.7690026760101318359 1.4535897970199584961 1.8696941137313842773 1.9186489582061767578 
0.0053280000574886798859 0.0053280000574886798859 0.0053280000574886798859 0.0053280000574886798859 0.0053280000574886798859 0.0053280000574886798859 0.0053280000574886798859 0.0053280000574886798859 0.0053280000574886798859 0.0053280000574886798859 0.0053280000574886798859 0.0053280000574886798859 0.0053280000574886798859 0.12977549433708190918 0.15371799468994140625 0.27791050076484680176 2.3346333503723144531 3.0177395343780517578 3.1301591396331787109 3.1464335918426513672 2.8196530342102050781 3.0685117244720458984 1.9805994033813476562 2.5451061725616455078 2.9519531726837158203 0.88990193605422973633 0.97751224040985107422 2.3631470203399658203 2.6917748451232910156 2.6611390113830566406 0.06996250152587890625 1.3081895112991333008 1.5130585432052612305 0.97524088621139526367 2.3744616508483886719 3.0467214584350585938 1.8619812726974487305 2.1694362163543701172 3.2549269199371337891 3.1117029190063476562 2.5145123004913330078 1.5353567600250244141 2.5151140689849853516 1.8496285676956176758 2.1095488071441650391 2.4440867900848388672 1.1012580394744873047 1.8552123308181762695 1.7785078287124633789 2.5159773826599121094 2.7952909469604492188 2.4665882587432861328 1.9838396310806274414 1.1413426399230957031 0.87808912992477416992 2.2221610546112060547 2.2780973911285400391 2.4676313400268554688 3.1193773746490478516 3.99860382080078125 3.6241090297698974609 3.6995198726654052734 1.64196014404296875 1.3546108007431030273 4.898044586181640625 3.4407327175140380859 2.7881915569305419922 2.8012018203735351562 2.8065149784088134766 2.8040440082550048828 2.6673107147216796875 0.058112502098083496094 0.045846156775951385498 1.5491968393325805664 2.0309851169586181641 1.7508366107940673828 2.4247660636901855469 3.4197957515716552734 2.8617181777954101562 2.5010874271392822266 2.7211170196533203125 1.9451619386672973633 1.3058210611343383789 2.7248139381408691406 1.5914090871810913086 1.7689135074615478516 0.061100002378225326538 
0.0053280000574886798859 0.0053280000574886798859 0.0053280000574886798859 0.0053280000574886798859 0.0053280000574886798859 0.0053280000574886798859 0.0053280000574886798859 0.0053280000574886798859 0.0053280000574886798859 0.0053280000574886798859 0.0053280000574886798859 0.0053280000574886798859 0.17898799479007720947 0.78409850597381591797 2.4659616947174072266 1.3637256622314453125 1.2361971139907836914 3.0510108470916748047 3.1283266544342041016 3.1377649307250976562 3.1441640853881835938 2.758941650390625 1.6501798629760742188 1.3188406229019165039 2.8951818943023681641 1.2464969158172607422 0.52414935827255249023 2.2484004497528076172 2.7846271991729736328 3.4762210845947265625 0.71526771783828735352 2.5364997386932373047 1.5945622920989990234 2.0471193790435791016 1.4655385017395019531 1.5083991289138793945 3.8960866928100585938 2.1772146224975585938 1.1288095712661743164 1.4652390480041503906 1.3931165933609008789 1.2522859573364257812 0.97295373678207397461 2.2065172195434570312 2.7173891067504882812 2.2617011070251464844 1.0189634561538696289 0.9327837824821472168 2.4893653392791748047 2.4887638092041015625 2.4334843158721923828 2.6365263462066650391 2.6112575531005859375 1.7070277929306030273 2.7195553779602050781 2.8820946216583251953 2.6469373703002929688 3.0401663780212402344 3.8858296871185302734 3.5654139518737792969 3.7744057178497314453 2.4188854694366455078 3.5991163253784179688 1.5416043996810913086 2.865657806396484375 3.2647838592529296875 3.1066188812255859375 2.736461639404296875 1.8484673500061035156 2.1540884971618652344 2.6375875473022460938 2.3616383075714111328 1.9647049903869628906 1.8250894546508789062 2.0401415824890136719 1.6940251588821411133 2.0962615013122558594 2.2449009418487548828 3.1021823883056640625 3.0453269481658935547 2.8004009723663330078 2.6276793479919433594 0.74686968326568603516 3.0773932933807373047 1.9220855236053466797 1.5934158563613891602 0.079700000584125518799 
0.0053280000574886798859 0.0053280000574886798859 0.0053280000574886798859 0.0053280000574886798859 0.0053280000574886798859 0.16099444031715393066 1.2497916221618652344 1.5456206798553466797 0.51853770017623901367 0.010532500222325325012 0.0053280000574886798859 0.015737000852823257446 0.61848849058151245117 2.7457354068756103516 3.1346716880798339844 2.8565356731414794922 2.8640923500061035156 2.9973812103271484375 3.1255395412445068359 3.0635931491851806641 3.1460928916931152344 1.8024952411651611328 2.1778833866119384766 2.5842020511627197266 2.9554989337921142578 0.62634813785552978516 2.4356145858764648438 1.2152843475341796875 3.0657296180725097656 3.7195103168487548828 2.0517446994781494141 3.4784386157989501953 3.0242486000061035156 3.0719878673553466797 3.1624147891998291016 3.3076078891754150391 3.4253559112548828125 3.8183183670043945312 2.8841633796691894531 1.8305426836013793945 2.0526652336120605469 1.2815612554550170898 1.9304510354995727539 2.313629150390625 2.3246014118194580078 1.0742071866989135742 0.63743227720260620117 1.4106301069259643555 2.4661340713500976562 2.4724509716033935547 2.627532958984375 3.5434346199035644531 3.8146066665649414062 1.5909764766693115234 3.0311434268951416016 3.0697505474090576172 3.0779085159301757812 3.1280922889709472656 4.29988861083984375 4.2863945960998535156 3.9007327556610107422 1.4642676115036010742 1.8391819000244140625 1.3871972560882568359 2.6643393039703369141 1.8751983642578125 0.57719188928604125977 1.4360846281051635742 0.32169058918952941895 1.281111598014831543 1.0720427036285400391 1.5064760446548461914 1.3179841041564941406 1.9219230413436889648 2.4009754657745361328 1.1800963878631591797 1.63364410400390625 2.6283617019653320312 3.1029794216156005859 3.0804712772369384766 2.7202677726745605469 1.5851668119430541992 0.7573248744010925293 2.6674840450286865234 2.71953582763671875 2.4104962348937988281 0.079700000584125518799 
0.0053280000574886798859 0.0053280000574886798859 0.0053280000574886798859 0.014697000384330749512 0.79992061853408813477 2.2388467788696289062 1.6379848718643188477 3.6940813064575195312 3.309356689453125 0.40529301762580871582 0.020941499620676040649 0.24901849031448364258 0.32530251145362854004 2.737934112548828125 3.1378383636474609375 3.1387226581573486328 3.1334323883056640625 3.1396427154541015625 2.7410025596618652344 2.7367486953735351562 1.4163776636123657227 2.0976233482360839844 1.1261737346649169922 1.5202417373657226562 1.9116189479827880859 1.1364825963973999023 3.2065279483795166016 2.4198744297027587891 4.0979323387145996094 4.4992365837097167969 4.137714385986328125 2.3465316295623779297 1.2094278335571289062 2.0391170978546142578 1.4565016031265258789 2.6811108589172363281 2.6583611965179443359 1.9791101217269897461 2.3902444839477539062 2.6362807750701904297 2.1109435558319091797 1.3988958597183227539 2.6403439044952392578 2.1071655750274658203 2.1148030757904052734 0.37511482834815979004 1.4248447418212890625 2.6628620624542236328 2.4349224567413330078 2.5141289234161376953 2.8295972347259521484 3.0568468570709228516 3.3632674217224121094 2.7943291664123535156 2.9831109046936035156 3.107440948486328125 4.4205780029296875 3.4570596218109130859 4.3424425125122070312 4.2864527702331542969 3.4148056507110595703 2.37154388427734375 3.1086919307708740234 0.93810850381851196289 3.0938763618469238281 3.0638825893402099609 2.1659066677093505859 2.7066569328308105469 2.5311331748962402344 2.5935008525848388672 2.2987549304962158203 1.9854893684387207031 2.6795034408569335938 1.6593124866485595703 1.7514355182647705078 1.6555261611938476562 0.77549499273300170898 2.2473196983337402344 3.1344294548034667969 2.9748482704162597656 2.7714235782623291016 1.2845729589462280273 2.0400242805480957031 2.8782432079315185547 2.5964801311492919922 2.6120634078979492188 0.079700000584125518799 
0.015737000852823257446 0.22759419679641723633 1.1622642278671264648 2.2543427944183349609 2.6587975025177001953 1.2639880180358886719 2.4073910713195800781 3.2936663627624511719 1.6854597330093383789 1.5239485502243041992 0.37138599157333374023 0.53151249885559082031 0.075079999864101409912 2.8025000095367431641 2.9346251487731933594 3.0127580165863037109 3.0751981735229492188 2.1841487884521484375 1.03098297119140625 1.5988092422485351562 0.65536075830459594727 2.5287828445434570312 0.62080270051956176758 0.80388522148132324219 0.81229138374328613281 0.82069826126098632812 2.2090897560119628906 3.4530942440032958984 3.74524688720703125 4.2210745811462402344 3.5946254730224609375 2.1491911411285400391 0.99955582618713378906 2.3401687145233154297 2.4959630966186523438 2.7350566387176513672 0.71595644950866699219 2.4028046131134033203 0.62536847591400146484 1.3705886602401733398 0.43996062874794006348 1.7968689203262329102 2.2065598964691162109 2.2267382144927978516 2.9903452396392822266 0.3863849937915802002 1.4924281835556030273 2.7727549076080322266 2.7063362598419189453 2.6528480052947998047 2.8886966705322265625 3.0863695144653320312 2.9748845100402832031 3.0363717079162597656 3.0945050716400146484 2.7732176780700683594 3.0793373584747314453 2.6466555595397949219 4.0772223472595214844 3.6437466144561767578 3.1383030414581298828 3.0723769664764404297 2.9062373638153076172 0.76442044973373413086 1.0901392698287963867 1.5815362930297851562 1.504744410514831543 1.89322662353515625 1.9084990024566650391 1.8256139755249023438 1.4681717157363891602 1.8451212644577026367 1.6780619621276855469 1.5534420013427734375 1.8181283473968505859 1.4531829357147216797 0.87599998712539672852 1.6173549890518188477 3.1136670112609863281 2.6939539909362792969 3.0219204425811767578 0.43700706958770751953 2.1817548274993896484 1.3843799829483032227 1.6612620353698730469 1.7388865947723388672 0.077765002846717834473 
2.5377590656280517578 2.9089200496673583984 2.8884370326995849609 2.8420093059539794922 1.4964752197265625 2.3863742351531982422 1.6372863054275512695 2.8962049484252929688 1.541961669921875 2.8014597892761230469 0.19252149760723114014 0.72836250066757202148 1.2147459983825683594 2.8562719821929931641 2.3745698928833007812 1.8262575864791870117 1.0280643701553344727 0.84507161378860473633 1.5619642734527587891 2.4174234867095947266 0.49280843138694763184 1.3621954917907714844 0.18908131122589111328 1.5057073831558227539 1.3356701135635375977 1.4615559577941894531 1.7839004993438720703 3.7457346916198730469 3.2186868190765380859 1.0662971735000610352 2.1661863327026367188 0.87849414348602294922 2.5128371715545654297 2.9161813259124755859 3.1075587272644042969 1.3510283231735229492 1.3292049169540405273 1.9919937849044799805 0.82295072078704833984 1.0851218700408935547 0.19135212898254394531 1.9765325784683227539 2.3456082344055175781 2.4222505092620849609 2.8291814327239990234 2.3225028514862060547 0.48591443896293640137 0.7619228363037109375 2.8069334030151367188 2.2210431098937988281 1.8504263162612915039 2.3642077445983886719 2.7130403518676757812 3.0481221675872802734 3.9325063228607177734 3.1673328876495361328 3.5858936309814453125 3.4270982742309570312 4.1415538787841796875 2.9661302566528320312 3.1123681068420410156 3.0331363677978515625 1.7626372575759887695 2.1134433746337890625 1.7831391096115112305 2.8663818836212158203 1.9493107795715332031 1.3897606134414672852 2.2552437782287597656 1.5631624460220336914 2.7370710372924804688 1.892535090446472168 2.8252358436584472656 1.5114505290985107422 1.3141020536422729492 0.82948380708694458008 0.87599998712539672852 2.9982504844665527344 2.7652907371520996094 2.8462631702423095703 2.8720529079437255859 0.8173440098762512207 0.22614750266075134277 0.037256248295307159424 0.52206081151962280273 1.4640743732452392578 0.75600975751876831055 
3.0748844146728515625 2.5261716842651367188 1.9390933513641357422 2.4300568103790283203 1.3591367006301879883 2.0562622547149658203 1.9494397640228271484 2.8988244533538818359 2.7719087600708007812 2.1392805576324462891 0.031350500881671905518 0.25838750600814819336 1.4000757932662963867 1.6546969413757324219 1.6748116016387939453 0.44783270359039306641 0.2255398184061050415 0.07196000218391418457 1.0603865385055541992 2.2091512680053710938 0.67072862386703491211 3.1414067745208740234 2.0853548049926757812 1.3068574666976928711 1.121989130973815918 2.7018537521362304688 3.0252459049224853516 2.7927505970001220703 3.0573260784149169922 2.424510955810546875 1.979831695556640625 0.82110577821731567383 3.40988922119140625 3.1390492916107177734 2.9181416034698486328 0.41758635640144348145 0.080175004899501800537 0.076575003564357757568 0.59500926733016967773 1.9169113636016845703 0.039532750844955444336 2.5356283187866210938 2.2579102516174316406 2.6026606559753417969 2.7421364784240722656 3.1009130477905273438 0.19643232226371765137 1.6350437402725219727 2.6495296955108642578 2.237743377685546875 2.1657381057739257812 2.1100094318389892578 2.5168309211730957031 3.3527429103851318359 3.4689328670501708984 2.9408121109008789062 3.2179632186889648438 3.7978992462158203125 4.2584233283996582031 4.4666433334350585938 3.0140612125396728516 2.8953833580017089844 2.3612728118896484375 2.0342555046081542969 2.2302908897399902344 2.6894102096557617188 1.4327290058135986328 2.7725648880004882812 3.0909531116485595703 1.7072283029556274414 1.5556985139846801758 1.8309344053268432617 2.9056327342987060547 3.0808300971984863281 1.5596342086791992188 1.8801838159561157227 2.6831386089324951172 2.7882511615753173828 2.6433610916137695312 2.6092698574066162109 2.4666206836700439453 0.88034844398498535156 0.027081249281764030457 0.044837500900030136108 0.89349269866943359375 0.87868738174438476562 1.6831207275390625 
2.6128199100494384766 2.1087510585784912109 1.5522578954696655273 1.9640440940856933594 2.264812469482421875 2.3450868129730224609 2.6943304538726806641 2.7869808673858642578 3.54924774169921875 1.795745849609375 0.22062399983406066895 0.070843003690242767334 1.096682429313659668 1.5471363067626953125 1.3721581697463989258 0.60583829879760742188 0.53299570083618164062 0.07196000218391418457 1.4765188694000244141 2.1127965450286865234 2.8116459846496582031 3.1250503063201904297 1.5911160707473754883 1.7244849205017089844 2.0551025867462158203 1.9434702396392822266 2.7752573490142822266 3.3207056522369384766 3.0613610744476318359 2.8521819114685058594 1.7624880075454711914 1.5684679746627807617 1.990731358528137207 2.6073048114776611328 1.7538491487503051758 2.2052900791168212891 0.071193754673004150391 0.056125000119209289551 1.9038611650466918945 2.2380506992340087891 0.68758726119995117188 2.4958989620208740234 2.8005588054656982422 2.4293832778930664062 2.8256752490997314453 0.91471171379089355469 0.83881920576095581055 3.1115882396697998047 2.4747576713562011719 1.8594049215316772461 1.1535271406173706055 2.1060814857482910156 2.4121260643005371094 2.8135073184967041016 1.7467417716979980469 3.0985357761383056641 3.0660383701324462891 3.4220817089080810547 4.2743391990661621094 4.5309123992919921875 3.0886301994323730469 1.3749523162841796875 0.81601065397262573242 1.2996808290481567383 2.3601994514465332031 1.8460687398910522461 1.599781036376953125 2.3987052440643310547 3.115276336669921875 2.4166421890258789062 0.0053280000574886798859 0.0053280000574886798859 1.9363058805465698242 3.08489990234375 1.892230987548828125 2.7359380722045898438 2.6214284896850585938 2.2382204532623291016 2.3002927303314208984 2.5894331932067871094 2.2816443443298339844 0.55485624074935913086 0.018681250512599945068 0.075225003063678741455 0.076600000262260437012 0.51330524682998657227 0.8342539668083190918 
1.9442805051803588867 1.6015696525573730469 1.7268691062927246094 1.1811017990112304688 1.9935916662216186523 2.1523108482360839844 2.3406164646148681641 5.2214097976684570312 3.3217153549194335938 0.82678747177124023438 0.55163222551345825195 2.2883930206298828125 2.0408029556274414062 1.6210272312164306641 1.2392896413803100586 0.22563856840133666992 0.26253348588943481445 0.33668744564056396484 1.1027970314025878906 2.3224472999572753906 3.1361372470855712891 3.0352110862731933594 0.60760569572448730469 1.2223591804504394531 2.7148251533508300781 2.5163450241088867188 3.2315304279327392578 3.9068477153778076172 2.7716362476348876953 1.5596766471862792969 0.70442235469818115234 2.4589488506317138672 2.2139332294464111328 2.9566967487335205078 2.8525526523590087891 1.5781307220458984375 0.41777744889259338379 1.7283427715301513672 3.02288818359375 1.661342620849609375 0.39925187826156616211 1.8337408304214477539 2.5290584564208984375 2.5162177085876464844 2.7252430915832519531 1.5317465066909790039 0.22918199002742767334 1.2678887844085693359 1.6809533834457397461 0.63556200265884399414 1.1115380525588989258 1.3422979116439819336 2.1416647434234619141 2.9266605377197265625 2.2949657440185546875 3.2433533668518066406 2.7125201225280761719 3.5624570846557617188 3.2732284069061279297 4.6470770835876464844 3.6707589626312255859 3.1247205734252929688 2.1135983467102050781 1.4011193513870239258 1.8386371135711669922 2.4801731109619140625 2.1536767482757568359 2.8880994319915771484 3.0242550373077392578 3.0371747016906738281 0.53538483381271362305 0.77458655834197998047 2.9013955593109130859 2.8137907981872558594 2.7883877754211425781 3.5975172519683837891 1.6715109348297119141 2.1646196842193603516 2.56122589111328125 2.4143617153167724609 2.2394313812255859375 2.2347180843353271484 1.9376579523086547852 1.9518715143203735352 1.858105778694152832 2.4303388595581054688 1.2414722442626953125 
2.8548271656036376953 2.2451343536376953125 2.1524789333343505859 2.2453038692474365234 2.4653446674346923828 2.03853607177734375 3.7843801975250244141 4.5034923553466796875 1.3567208051681518555 0.91711556911468505859 1.5998741388320922852 1.9794991016387939453 1.6220819950103759766 0.40270218253135681152 1.7568660974502563477 0.26253348588943481445 0.62981551885604858398 0.82830601930618286133 1.2433407306671142578 1.4583899974822998047 2.1801357269287109375 3.0400407314300537109 2.2429172992706298828 0.97569167613983154297 1.3428186178207397461 3.0800862312316894531 3.2588253021240234375 3.5374934673309326172 3.3439087867736816406 1.4169543981552124023 0.86445212364196777344 2.9069738388061523438 2.6922347545623779297 1.8826932907104492188 2.6966125965118408203 3.1119825839996337891 3.0575251579284667969 3.1380841732025146484 2.9774420261383056641 1.2189772129058837891 0.53599083423614501953 2.2115714550018310547 2.3319256305694580078 2.4988055229187011719 3.1624214649200439453 3.1487298011779785156 1.3694171905517578125 0.79318833351135253906 0.96456998586654663086 0.72153002023696899414 1.6590516567230224609 0.62689882516860961914 2.6488153934478759766 2.6110117435455322266 2.5283336639404296875 3.0388636589050292969 2.6964917182922363281 4.3397960662841796875 4.1997570991516113281 4.1060962677001953125 3.0611872673034667969 3.1238408088684082031 3.0491275787353515625 2.8721346855163574219 2.7651877403259277344 2.8614454269409179688 2.7154011726379394531 3.0994479656219482422 3.1042673587799072266 3.0905609130859375 0.96529388427734375 1.4322962760925292969 2.8519525527954101562 2.6726064682006835938 2.9172956943511962891 2.2884094715118408203 2.3709530830383300781 2.2818198204040527344 1.9248545169830322266 1.8778492212295532227 1.8564888238906860352 2.5547316074371337891 2.5574259757995605469 2.5190687179565429688 2.5944015979766845703 2.01129913330078125 2.7379384040832519531 
2.2439165115356445312 1.3579474687576293945 2.3004391193389892578 2.50719451904296875 3.7509360313415527344 2.2710051536560058594 1.2890503406524658203 0.6769250035285949707 1.927722930908203125 1.5890241861343383789 1.7910614013671875 3.32295989990234375 1.034035801887512207 1.2920048236846923828 2.5280854701995849609 0.07196000218391418457 0.52211529016494750977 1.1511757373809814453 1.0928595066070556641 0.1724649965763092041 2.2940471172332763672 2.6938672065734863281 3.0603251457214355469 1.7575324773788452148 2.8613038063049316406 2.8298923969268798828 4.1267719268798828125 2.7587521076202392578 1.6744906902313232422 1.3879170417785644531 1.80452728271484375 3.3335883617401123047 3.1688027381896972656 2.9533984661102294922 2.1303911209106445312 3.2336266040802001953 3.0319702625274658203 3.339298248291015625 4.1586408615112304688 2.3281271457672119141 2.1537756919860839844 3.0165247917175292969 2.8516523838043212891 2.6880099773406982422 2.8160212039947509766 3.3385934829711914062 2.6268942356109619141 2.3536765575408935547 1.5132606029510498047 0.86795026063919067383 0.93002247810363769531 1.3006055355072021484 2.0724732875823974609 2.6444869041442871094 2.7673156261444091797 3.1195113658905029297 2.7131769657135009766 4.5024180412292480469 4.4061713218688964844 3.0609812736511230469 3.0834944248199462891 3.1100561618804931641 3.0914783477783203125 2.4509904384613037109 1.3253134489059448242 0.84626609086990356445 2.0121614933013916016 2.8075635433197021484 3.0166778564453125 3.0961487293243408203 0.78051328659057617188 0.89404648542404174805 1.9413524866104125977 2.9055955410003662109 2.8796930313110351562 1.3724122047424316406 3.0835232734680175781 3.0990517139434814453 0.40809461474418640137 0.07196000218391418457 0.07196000218391418457 2.0456192493438720703 2.0529575347900390625 2.5681180953979492188 2.4332463741302490234 1.1723015308380126953 1.6099132299423217773 
2.1193742752075195312 2.3957319259643554688 1.1141879558563232422 3.1415052413940429688 2.3033306598663330078 1.3127591609954833984 2.1409690380096435547 2.7435965538024902344 2.1593174934387207031 3.1482803821563720703 3.1395425796508789062 2.9824852943420410156 1.2670912742614746094 2.4200356006622314453 1.7638760805130004883 0.07196000218391418457 1.8208848237991333008 1.522236943244934082 0.46513450145721435547 1.9957318305969238281 2.8031189441680908203 2.7422733306884765625 2.6699168682098388672 1.9502789974212646484 2.4091482162475585938 1.6195137500762939453 2.1828846931457519531 1.5685172080993652344 3.0577149391174316406 1.1643995046615600586 2.7491917610168457031 3.5951478481292724609 2.9041702747344970703 3.051334381103515625 3.290233612060546875 2.8303685188293457031 2.2065017223358154297 2.9943232536315917969 2.0471501350402832031 4.1984033584594726562 3.590724945068359375 2.8760712146759033203 2.3721938133239746094 2.9130291938781738281 3.2832279205322265625 4.6762685775756835938 1.9736325740814208984 1.6262652873992919922 1.6346727609634399414 0.95120781660079956055 1.0119169950485229492 1.4206579923629760742 0.94661730527877807617 1.9877846240997314453 3.7940430641174316406 3.3817269802093505859 3.3852734565734863281 3.5421762466430664062 4.8868360519409179688 3.5213434696197509766 3.0815801620483398438 3.11579132080078125 2.4312024116516113281 1.8234220743179321289 0.56846565008163452148 1.640023350715637207 2.1601665019989013672 2.8293688297271728516 3.0349290370941162109 3.0350854396820068359 1.2888299226760864258 0.5729923248291015625 2.4580795764923095703 2.7299683094024658203 1.5738921165466308594 2.8133568763732910156 2.2357351779937744141 3.0253887176513671875 1.3562008142471313477 0.07196000218391418457 0.07196000218391418457 1.3733134269714355469 0.87128627300262451172 2.3094618320465087891 1.8235793113708496094 1.0571297407150268555 2.0461623668670654297 
2.2168033123016357422 1.2980070114135742188 0.47352051734924316406 3.623363494873046875 3.5060670375823974609 1.2572815418243408203 2.1999800205230712891 1.6803719997406005859 2.2954020500183105469 3.0819520950317382812 3.1320385932922363281 2.8089513778686523438 2.8374762535095214844 2.4666721820831298828 2.2447781562805175781 1.9689977169036865234 2.8931441307067871094 1.720546722412109375 2.4997129440307617188 1.8569856882095336914 2.6124477386474609375 2.0865390300750732422 2.9780783653259277344 2.7361357212066650391 2.2233221530914306641 1.5085402727127075195 2.4840958118438720703 1.7557077407836914062 3.1023869514465332031 1.2139433622360229492 2.909122467041015625 3.2010166645050048828 3.6833865642547607422 3.2885119915008544922 3.517063140869140625 3.8695483207702636719 3.7446439266204833984 3.6698026657104492188 3.2647936344146728516 1.0736013650894165039 1.4378980398178100586 2.4355792999267578125 2.9183449745178222656 2.4894809722900390625 1.9032346010208129883 3.8445317745208740234 2.0293927192687988281 3.3630249500274658203 1.9415607452392578125 0.7561473846435546875 1.5716794729232788086 1.6442868709564208984 2.4407520294189453125 2.6885290145874023438 3.0555586814880371094 3.2351725101470947266 3.0154116153717041016 3.9258027076721191406 4.5435771942138671875 4.6463217735290527344 3.1170003414154052734 3.1137738227844238281 2.9111845493316650391 2.6825761795043945312 2.9134640693664550781 1.8991857767105102539 1.6825444698333740234 2.844776153564453125 3.0420374870300292969 2.9884817600250244141 3.079135894775390625 0.39545330405235290527 0.59028679132461547852 0.58934497833251953125 1.1065583229064941406 2.6076233386993408203 1.0833686590194702148 0.48351600766181945801 1.0697342157363891602 0.46166700124740600586 0.4162120521068572998 1.3290896415710449219 2.1148240566253662109 1.9205911159515380859 1.8104741573333740234 0.89381015300750732422 0.65412425994873046875 
2.5422563552856445312 2.4022524356842041016 1.6656148433685302734 4.6697688102722167969 3.0803611278533935547 1.2572515010833740234 2.67333221435546875 1.5824027061462402344 1.3784034252166748047 3.0685136318206787109 3.1108043193817138672 2.8178160190582275391 2.7442622184753417969 2.7197523117065429688 2.5771636962890625 2.7207627296447753906 2.9482080936431884766 1.7027441263198852539 2.0115525722503662109 0.3736374974250793457 1.1739479303359985352 3.1762914657592773438 2.3394246101379394531 1.674422144889831543 2.0958540439605712891 2.7029855251312255859 2.9229915142059326172 2.9359164237976074219 2.2040655612945556641 0.819011688232421875 1.3577835559844970703 1.9502866268157958984 1.7313162088394165039 3.0774135589599609375 2.0797970294952392578 2.6345422267913818359 3.0818295478820800781 3.8728976249694824219 1.5053098201751708984 2.8558068275451660156 2.9195477962493896484 2.8609507083892822266 1.6830619573593139648 1.8241683244705200195 1.3277508020401000977 2.4339416027069091797 1.8876538276672363281 2.1115500926971435547 2.5950684547424316406 1.7654136419296264648 2.3498032093048095703 1.7630366086959838867 2.0901734828948974609 2.4351398944854736328 4.4173460006713867188 3.9553403854370117188 3.7381834983825683594 3.5435588359832763672 4.75527191162109375 3.9257047176361083984 3.45592498779296875 3.0038583278656005859 2.5087337493896484375 2.8105247020721435547 2.2284426689147949219 2.1730077266693115234 2.8838744163513183594 3.0396182537078857422 2.6680860519409179688 1.5746086835861206055 2.3402388095855712891 0.0053280000574886798859 0.0053280000574886798859 1.0375874042510986328 2.6798262596130371094 0.99601423740386962891 0.72204554080963134766 0.31846386194229125977 1.2275416851043701172 1.4808275699615478516 0.9313742518424987793 2.2077240943908691406 2.6737651824951171875 1.491007685661315918 0.55470252037048339844 0.22894944250583648682 2.3092234134674072266 
1.6241784095764160156 2.4066841602325439453 1.6527858972549438477 4.2875981330871582031 2.1409971714019775391 2.3005530834197998047 3.4109151363372802734 1.5130292177200317383 2.3604984283447265625 3.1369466781616210938 2.9017724990844726562 2.5498166084289550781 3.0224642753601074219 3.0620057582855224609 2.4573180675506591797 2.6270940303802490234 2.2938616275787353516 0.96513402462005615234 0.95736992359161376953 0.07196000218391418457 0.07196000218391418457 3.033847808837890625 3.0447347164154052734 3.0857183933258056641 3.1237573623657226562 2.9076995849609375 3.2866246700286865234 3.1393074989318847656 1.4938156604766845703 1.0078657865524291992 2.3374006748199462891 2.1082899570465087891 1.9909409284591674805 2.9673781394958496094 1.6538689136505126953 2.705322265625 3.8734178543090820312 3.8961739540100097656 1.3595185279846191406 3.3756644725799560547 4.15718841552734375 3.0781955718994140625 3.6372902393341064453 3.1400721073150634766 3.6470661163330078125 3.64441680908203125 2.2268235683441162109 0.073737502098083496094 2.3635632991790771484 2.8274021148681640625 2.751194000244140625 2.2309167385101318359 2.7465970516204833984 3.0098598003387451172 2.9695763587951660156 3.2900092601776123047 4.0347642898559570312 4.8834714889526367188 4.7735986709594726562 4.0900011062622070312 4.2879662513732910156 1.6413407325744628906 1.1541817188262939453 2.5029122829437255859 3.0283830165863037109 2.3643558025360107422 2.9072124958038330078 3.0084316730499267578 2.0518066883087158203 0.99710750579833984375 2.5917160511016845703 0.88640093803405761719 1.5368120670318603516 3.2152440547943115234 2.6000778675079345703 3.1076676845550537109 1.8263912200927734375 0.62400341033935546875 1.6050462722778320312 1.8168685436248779297 2.1088106632232666016 2.3017182350158691406 1.7477515935897827148 0.60911947488784790039 0.60911947488784790039 1.2266147136688232422 2.8130116462707519531 
2.0786256790161132812 2.1459534168243408203 4.374988555908203125 3.2691199779510498047 3.249851226806640625 2.8826920986175537109 2.134464263916015625 1.0145660638809204102 2.5584218502044677734 3.1059446334838867188 3.0120241641998291016 2.8926236629486083984 2.885120391845703125 2.9384388923645019531 2.5300571918487548828 2.2320957183837890625 0.87005889415740966797 0.57412129640579223633 0.33668744564056396484 0.07196000218391418457 1.0287020206451416016 3.0068721771240234375 3.0397057533264160156 3.1011266708374023438 3.130344390869140625 3.2269122600555419922 3.5027320384979248047 3.423397064208984375 0.068206250667572021484 1.6542880535125732422 3.0320761203765869141 2.5595610141754150391 1.9945864677429199219 1.5323145389556884766 1.5630913972854614258 3.5360448360443115234 3.1405389308929443359 2.9560873508453369141 3.7289960384368896484 3.4395124912261962891 3.0033385753631591797 3.9131646156311035156 3.8879485130310058594 2.8530178070068359375 2.5397067070007324219 3.3954484462738037109 1.5278475284576416016 0.070637501776218414307 4.7506780624389648438 2.5662124156951904297 1.6752669811248779297 0.92993360757827758789 2.8458547592163085938 2.8904669284820556641 3.2443773746490478516 4.7615427970886230469 5.3636674880981445312 4.98482513427734375 3.9259438514709472656 5.0025601387023925781 3.5542001724243164062 0.83544850349426269531 1.1729938983917236328 1.0059883594512939453 1.3395363092422485352 2.5484144687652587891 2.9758670330047607422 2.6727421283721923828 2.468616485595703125 0.26355326175689697266 2.1439106464385986328 2.48813629150390625 3.1291213035583496094 3.0187599658966064453 2.3557207584381103516 2.3258326053619384766 1.1917988061904907227 0.53160619735717773438 1.9681661128997802734 1.7602044343948364258 1.9520326852798461914 1.9531913995742797852 2.0626513957977294922 0.82158297300338745117 0.34640350937843322754 2.4116110801696777344 3.1554980278015136719 
1.6665192842483520508 4.6112332344055175781 4.0315279960632324219 3.0026006698608398438 3.4360206127166748047 2.9622867107391357422 2.4316091537475585938 1.4489601850509643555 2.5253164768218994141 2.8280186653137207031 2.6492416858673095703 2.4158852100372314453 2.5896494388580322266 2.4108724594116210938 2.4101498126983642578 1.8088120222091674805 0.45263436436653137207 0.07196000218391418457 0.07196000218391418457 0.2841415107250213623 2.0801768302917480469 2.7477438449859619141 3.1012680530548095703 3.1169133186340332031 3.1787769794464111328 3.5842630863189697266 2.6393134593963623047 2.8400499820709228516 1.6762566566467285156 2.1193380355834960938 3.0406632423400878906 2.8811602592468261719 3.213123321533203125 2.7955393791198730469 2.8107128143310546875 2.4018473625183105469 3.7990355491638183594 1.3896930217742919922 4.3722987174987792969 3.0974979400634765625 3.1144926548004150391 3.4002726078033447266 2.9565000534057617188 2.8794968128204345703 2.9525201320648193359 2.7714428901672363281 0.59541988372802734375 2.1245462894439697266 2.0008063316345214844 0.53155249357223510742 1.4019237756729125977 2.3049814701080322266 3.1849040985107421875 3.7703404426574707031 3.6844632625579833984 3.7636606693267822266 5.3670568466186523438 4.4063005447387695312 3.551746368408203125 3.9081745147705078125 3.1923847198486328125 2.2836520671844482422 2.1103279590606689453 1.2502633333206176758 1.5070703029632568359 2.0680825710296630859 1.8080765008926391602 1.6882501840591430664 1.4976925849914550781 0.48021018505096435547 1.66631317138671875 1.7800791263580322266 3.0532867908477783203 2.3887081146240234375 3.501590728759765625 1.5883593559265136719 0.54557591676712036133 0.98584270477294921875 0.79842901229858398438 1.3490908145904541016 1.8641189336776733398 2.2762348651885986328 1.4619953632354736328 0.44066399335861206055 0.51694351434707641602 2.7351324558258056641 3.1554980278015136719 
2.7477560043334960938 4.1469974517822265625 3.1290769577026367188 3.1146950721740722656 3.8756136894226074219 3.3226673603057861328 3.2248411178588867188 1.3733921051025390625 2.7072443962097167969 2.9992921352386474609 2.9403302669525146484 2.6743054389953613281 2.4108724594116210938 2.6448595523834228516 2.0391404628753662109 0.26253348588943481445 1.5246293544769287109 0.45316213369369506836 0.47038486599922180176 2.5438547134399414062 3.055576324462890625 3.0567770004272460938 3.056293487548828125 3.2898213863372802734 3.5465388298034667969 3.1506099700927734375 1.8356014490127563477 5.2277631759643554688 2.5067121982574462891 2.59117889404296875 2.7979836463928222656 2.4198186397552490234 2.5546185970306396484 1.5531698465347290039 1.8589935302734375 2.7402081489562988281 1.6701483726501464844 3.0101311206817626953 3.1994585990905761719 2.7878966331481933594 3.0027911663055419922 2.9553847312927246094 2.0881357192993164062 2.2847092151641845703 3.1514284610748291016 3.3004655838012695312 2.0597243309020996094 3.3122019767761230469 0.0053280000574886798859 0.0053280000574886798859 0.46009212732315063477 1.6945225000381469727 2.6323821544647216797 2.544330596923828125 2.7210538387298583984 3.6513693332672119141 4.6465606689453125 4.4068365097045898438 3.6082224845886230469 3.457386016845703125 3.3550937175750732422 2.9334840774536132812 2.8620526790618896484 1.7389212846755981445 1.7444251775741577148 2.6943316459655761719 2.3287248611450195312 0.61984515190124511719 2.7435591220855712891 3.0803904533386230469 2.8585748672485351562 2.9074010848999023438 1.8108283281326293945 2.6489768028259277344 2.2386426925659179688 1.0532721281051635742 2.0644464492797851562 2.4215526580810546875 1.6638152599334716797 1.3931670188903808594 1.9102194309234619141 2.5750253200531005859 1.7262365818023681641 0.82158297300338745117 0.76716601848602294922 1.2859505414962768555 3.1410245895385742188 
3.4090316295623779297 3.9257042407989501953 3.3813469409942626953 3.0902118682861328125 3.3383414745330810547 3.2753319740295410156 4.2683587074279785156 2.7570507526397705078 2.3316276073455810547 2.7905910015106201172 2.8349230289459228516 2.7596619129180908203 2.5765027999877929688 2.7088341712951660156 1.9196939468383789062 1.1228125095367431641 1.6635830402374267578 0.71545243263244628906 0.83204478025436401367 3.7833540439605712891 3.0981030464172363281 3.0625834465026855469 3.1007349491119384766 3.136928558349609375 3.0667803287506103516 2.3880059719085693359 1.6301420927047729492 2.4603445529937744141 1.5511351823806762695 2.7502658367156982422 2.3581984043121337891 4.5264177322387695312 3.5223593711853027344 1.199286341667175293 1.2338683605194091797 0.083395503461360931396 1.4844214916229248047 2.2068369388580322266 2.6806759834289550781 1.9065849781036376953 2.735301971435546875 2.6736180782318115234 1.5097951889038085938 2.2010598182678222656 3.6669886112213134766 3.0670936107635498047 1.0080636739730834961 2.3362476825714111328 0.84768474102020263672 2.2586374282836914062 0.26877588033676147461 0.52459943294525146484 2.4909923076629638672 2.4672024250030517578 2.7076945304870605469 3.0276904106140136719 5.1273484230041503906 5.3679819107055664062 4.3666639328002929688 2.0035483837127685547 2.1764476299285888672 2.0847055912017822266 1.5602718591690063477 2.7795727252960205078 2.0672662258148193359 0.83643138408660888672 1.5727928876876831055 1.9740058183670043945 3.1829648017883300781 2.9575479030609130859 2.8015086650848388672 2.9694356918334960938 2.3907573223114013672 1.5169450044631958008 1.4749268293380737305 2.3408639430999755859 1.962706446647644043 1.9359622001647949219 1.8741092681884765625 2.5702595710754394531 2.7784721851348876953 1.8830544948577880859 2.1985812187194824219 1.88492584228515625 0.24069400131702423096 2.4351933002471923828 3.1554980278015136719 
3.6251537799835205078 2.5599429607391357422 3.0705411434173583984 3.0897893905639648438 3.1203265190124511719 3.7076244354248046875 3.5446145534515380859 4.0360960960388183594 3.1278746128082275391 3.0859653949737548828 2.9428210258483886719 2.9121453762054443359 2.7383811473846435547 2.1681210994720458984 2.1627967357635498047 1.8098461627960205078 2.3639848232269287109 1.137768864631652832 2.4846603870391845703 3.8942980766296386719 3.0271396636962890625 3.1286256313323974609 3.0495657920837402344 3.1897852420806884766 2.7351539134979248047 2.5359921455383300781 1.9693903923034667969 1.6010844707489013672 1.2204277515411376953 1.9590930938720703125 1.9005662202835083008 4.5447974205017089844 3.3710451126098632812 2.0226333141326904297 1.2032264471054077148 0.0886000022292137146 0.33473229408264160156 2.5832049846649169922 2.8059256076812744141 2.2815985679626464844 2.5870034694671630859 2.5603480339050292969 2.4074041843414306641 2.2671723365783691406 2.7778437137603759766 1.254422307014465332 1.9495565891265869141 1.2634372711181640625 2.2368693351745605469 0.58188742399215698242 0.40049982070922851562 1.6218317747116088867 2.0677666664123535156 1.7030211687088012695 2.7537505626678466797 3.5096540451049804688 3.39691925048828125 1.5310899019241333008 2.9265308380126953125 2.090930938720703125 3.0582563877105712891 3.2615110874176025391 3.2213430404663085938 2.8209848403930664062 2.1385462284088134766 2.3304226398468017578 2.0354034900665283203 3.0640468597412109375 3.0228350162506103516 2.9217934608459472656 2.8780024051666259766 2.997852325439453125 1.3486874103546142578 1.5745924711227416992 0.87713199853897094727 1.0891603231430053711 0.71496212482452392578 0.71886497735977172852 0.44816893339157104492 1.3719261884689331055 1.186676025390625 2.1066417694091796875 1.7432954311370849609 2.8035111427307128906 1.1204094886779785156 2.5153245925903320312 3.1260201930999755859 
3.9251551628112792969 3.1130652427673339844 3.0549931526184082031 2.9029858112335205078 3.0030438899993896484 2.9603512287139892578 4.2310557365417480469 5.0071883201599121094 3.6286494731903076172 3.1353707313537597656 2.9384567737579345703 3.0463681221008300781 2.9265530109405517578 2.9898972511291503906 2.7114834785461425781 2.9410676956176757812 2.7127954959869384766 2.951526641845703125 2.6962695121765136719 3.2082171440124511719 3.0427374839782714844 2.1317830085754394531 1.6356407403945922852 1.7294744253158569336 2.2144415378570556641 2.9078898429870605469 1.0422586202621459961 2.4942648410797119141 1.7162286043167114258 2.8510754108428955078 3.4508385658264160156 3.5384337902069091797 1.9201103448867797852 1.8574843406677246094 1.5478925704956054688 2.0051426887512207031 0.0053280000574886798859 2.4052290916442871094 3.0408489704132080078 2.2635636329650878906 3.0632913112640380859 2.6563749313354492188 1.1374444961547851562 2.8311908245086669922 2.9791722297668457031 2.3661341667175292969 2.9089460372924804688 2.6916005611419677734 0.72151339054107666016 0.020941499620676040649 2.0526487827301025391 2.4839236736297607422 2.0400779247283935547 0.91926300525665283203 1.7972302436828613281 2.4561614990234375 2.9383547306060791016 3.2056066989898681641 3.6472218036651611328 4.3644886016845703125 2.7284862995147705078 4.1775135993957519531 4.0305552482604980469 3.1792016029357910156 3.1101255416870117188 2.5450284481048583984 4.3384976387023925781 2.9622225761413574219 2.6783347129821777344 2.8900179862976074219 2.8368439674377441406 2.6697010993957519531 1.1171131134033203125 2.4388206005096435547 1.3056639432907104492 1.2288712263107299805 0.062650002539157867432 0.24712924659252166748 0.011524500325322151184 1.902398228645324707 2.52381134033203125 2.5852911472320556641 2.797496795654296875 1.3393570184707641602 2.6294114589691162109 0.87599998712539672852 0.87599998712539672852 
3.0661494731903076172 2.9539916515350341797 2.1725032329559326172 2.2371082305908203125 2.4183990955352783203 2.9095392227172851562 3.4716765880584716797 4.4456496238708496094 3.4854333400726318359 3.1331615447998046875 3.1228442192077636719 3.0318593978881835938 3.0086915493011474609 2.9314398765563964844 2.9421799182891845703 2.9759554862976074219 3.1264882087707519531 3.0932834148406982422 2.8620355129241943359 2.9986615180969238281 2.9717376232147216797 2.0518941879272460938 2.2717592716217041016 1.3822872638702392578 1.9796632528305053711 3.84821319580078125 0.61047375202178955078 1.1496442556381225586 1.6837861537933349609 2.7295866012573242188 4.3799834251403808594 2.7617161273956298828 1.7547196149826049805 0.86567360162734985352 0.93908905982971191406 2.4359714984893798828 1.6782360076904296875 2.939723968505859375 3.0328891277313232422 1.9456021785736083984 1.3787459135055541992 1.1609567403793334961 2.0739297866821289062 2.4389672279357910156 3.0868983268737792969 2.9430415630340576172 2.7033865451812744141 2.2570865154266357422 0.081660665571689605713 0.26512500643730163574 1.8962848186492919922 1.4840301275253295898 0.75802320241928100586 0.040024667978286743164 1.0563455820083618164 2.6719415187835693359 3.1268706321716308594 2.7561750411987304688 3.3562884330749511719 3.9257946014404296875 3.1860387325286865234 1.7778360843658447266 3.8310809135437011719 4.1562037467956542969 3.0992867946624755859 3.6739068031311035156 5.0728063583374023438 3.5780959129333496094 2.7394132614135742188 3.1911289691925048828 2.6530289649963378906 2.7544717788696289062 1.8646547794342041016 2.5326867103576660156 1.4197717905044555664 0.25352150201797485352 0.6483860015869140625 2.2763943672180175781 0.59029877185821533203 1.7415848970413208008 1.399669647216796875 2.2251837253570556641 2.7501993179321289062 2.2200694084167480469 3.1204073429107666016 1.5807375907897949219 0.87599998712539672852 
3.4665837287902832031 2.7942345142364501953 2.3664109706878662109 2.2456073760986328125 2.5007262229919433594 2.2808465957641601562 3.2853302955627441406 3.4565596580505371094 3.4850811958312988281 3.634662628173828125 3.1828019618988037109 3.0973727703094482422 3.0034182071685791016 2.9119088649749755859 2.6874272823333740234 3.0040135383605957031 3.0339441299438476562 3.0842747688293457031 2.9483480453491210938 2.9638953208923339844 3.0203278064727783203 3.4553375244140625 3.9351851940155029297 2.1860117912292480469 3.0453062057495117188 2.9805707931518554688 2.0187470912933349609 2.0428965091705322266 2.1000001430511474609 3.415935516357421875 3.8173696994781494141 0.64932656288146972656 2.9036638736724853516 2.6120505332946777344 2.8018624782562255859 2.9401211738586425781 2.9065902233123779297 3.2109923362731933594 2.8682432174682617188 1.1731590032577514648 1.3763127326965332031 1.5601127147674560547 2.8110997676849365234 2.0788216590881347656 3.0867483615875244141 2.8516850471496582031 3.0438978672027587891 2.2694389820098876953 0.0886000022292137146 0.45205900073051452637 3.1035175323486328125 0.52211821079254150391 1.3652397394180297852 0.053903333842754364014 1.2055468559265136719 2.9260954856872558594 3.0138504505157470703 3.3446483612060546875 4.6465864181518554688 3.6374080181121826172 3.0176153182983398438 2.3216457366943359375 2.1963984966278076172 3.1057806015014648438 4.1698975563049316406 3.5591862201690673828 3.1653127670288085938 3.6479597091674804688 4.5330891609191894531 4.507755279541015625 3.4843411445617675781 2.8933854103088378906 2.3479681015014648438 1.1555392742156982422 2.7718944549560546875 0.79939514398574829102 1.9532268047332763672 2.6346185207366943359 2.1533036231994628906 0.62667250633239746094 0.063772499561309814453 2.060054779052734375 2.6272234916687011719 1.7192925214767456055 2.4128184318542480469 1.5649943351745605469 0.87599998712539672852 
2.8097691535949707031 3.0235829353332519531 2.4684083461761474609 1.6419272422790527344 2.0246055126190185547 1.9311633110046386719 2.7816295623779296875 3.0414853096008300781 3.1291997432708740234 4.2719936370849609375 3.9932942390441894531 3.0454068183898925781 3.0959861278533935547 2.9121453762054443359 2.498584747314453125 2.8275821208953857422 2.775386810302734375 2.9213252067565917969 1.9369980096817016602 2.2498075962066650391 2.5567681789398193359 4.5797057151794433594 4.2374639511108398438 2.6211943626403808594 2.0196654796600341797 1.4073729515075683594 1.5770671367645263672 0.56523489952087402344 1.7097769975662231445 2.8545989990234375 3.1170573234558105469 2.2412831783294677734 0.80281376838684082031 2.521938323974609375 2.1488745212554931641 2.192363739013671875 2.0813539028167724609 2.6387715339660644531 1.502901911735534668 1.5968542098999023438 1.642897486686706543 1.9382115602493286133 0.4371121525764465332 1.8913806676864624023 2.9876241683959960938 2.9832062721252441406 2.0610041618347167969 0.036554999649524688721 0.0886000022292137146 1.4942266941070556641 2.7398848533630371094 2.1968772411346435547 2.8280901908874511719 0.0886000022292137146 0.35586136579513549805 1.8720259666442871094 3.0222525596618652344 2.823093414306640625 3.2050395011901855469 3.9258468151092529297 2.7460653781890869141 2.4810464382171630859 2.1645879745483398438 1.8732776641845703125 1.6143418550491333008 2.7589352130889892578 2.9897472858428955078 2.9185574054718017578 1.8107590675354003906 3.2915027141571044922 3.4150338172912597656 3.0338566303253173828 2.4848825931549072266 2.6653873920440673828 2.3612477779388427734 2.3205661773681640625 2.6164288520812988281 2.907993316650390625 1.2643741369247436523 2.1171486377716064453 0.05212375149130821228 1.680249333381652832 2.1016104221343994141 2.0337653160095214844 2.3393678665161132812 2.4537565708160400391 1.8272327184677124023 
2.7911279201507568359 3.0070760250091552734 1.9581705331802368164 2.2456073760986328125 2.5007262229919433594 0.86963456869125366211 2.7569959163665771484 2.9526386260986328125 3.1115217208862304688 3.9122135639190673828 3.013355255126953125 3.1047747135162353516 2.9795126914978027344 2.7884774208068847656 2.6340157985687255859 2.7541742324829101562 2.7721076011657714844 2.9428503513336181641 1.7291151285171508789 1.1202474832534790039 3.4516782760620117188 3.0640761852264404297 3.0089693069458007812 2.8272812366485595703 1.2232661247253417969 0.22563856840133666992 0.60901540517807006836 0.51749265193939208984 1.7058926820755004883 3.6513609886169433594 2.5452258586883544922 2.9824748039245605469 0.80004262924194335938 2.1447381973266601562 1.3794865608215332031 1.4902931451797485352 2.0217108726501464844 0.23660475015640258789 2.1893002986907958984 0.98440885543823242188 2.8680744171142578125 2.8609783649444580078 2.3521351814270019531 2.516021728515625 2.3450946807861328125 3.0011568069458007812 2.4957396984100341797 0.43232363462448120117 0.38391733169555664062 2.8522577285766601562 1.7717012166976928711 0.076704002916812896729 0.067781999707221984863 1.4224752187728881836 2.1638622283935546875 0.92343556880950927734 1.7094069719314575195 1.7015798091888427734 4.1945595741271972656 3.4207201004028320312 3.2158713340759277344 3.2720580101013183594 2.8701238632202148438 2.3252391815185546875 0.97725242376327514648 2.3805813789367675781 2.6708846092224121094 2.9017353057861328125 2.1520006656646728516 0.25190022587776184082 0.6659946441650390625 3.055408477783203125 2.7200300693511962891 1.912276148796081543 1.217229008674621582 1.6545956134796142578 1.7101049423217773438 1.9714307785034179688 1.8594896793365478516 1.580839991569519043 0.36407044529914855957 0.31129977107048034668 0.60831111669540405273 1.1971532106399536133 0.95398795604705810547 0.83369147777557373047 0.87599998712539672852 
2.7744908332824707031 1.7365583181381225586 2.3370530605316162109 1.8717511892318725586 2.1215593814849853516 2.2014899253845214844 2.4710986614227294922 3.0231256484985351562 3.0441479682922363281 4.1882429122924804688 3.5476372241973876953 2.9266676902770996094 2.9772796630859375 2.9933466911315917969 2.8247790336608886719 3.0375905036926269531 2.6938080787658691406 2.977436065673828125 0.96956783533096313477 2.2702212333679199219 3.1893761157989501953 3.0516004562377929688 2.0452017784118652344 2.611175537109375 1.8807915449142456055 1.874783635139465332 1.4875075817108154297 1.1580797433853149414 2.4679033756256103516 2.7657668590545654297 2.6200184822082519531 2.9172530174255371094 0.42418900132179260254 0.60652518272399902344 1.3765321969985961914 1.9293384552001953125 2.1792817115783691406 0.90514588356018066406 1.3520767688751220703 1.5653327703475952148 1.9849398136138916016 0.75116878747940063477 1.4594221115112304688 2.3411343097686767578 2.3035123348236083984 2.9074749946594238281 1.0656735897064208984 0.0886000022292137146 1.6892142295837402344 2.7430987358093261719 2.2908689975738525391 1.2740341424942016602 1.7571043968200683594 2.4047312736511230469 2.6923785209655761719 2.0386211872100830078 2.8929986953735351562 3.0976934432983398438 3.7979476451873779297 4.6179089546203613281 3.4601244926452636719 3.7137384414672851562 2.1422016620635986328 1.1059522628784179688 2.0900735855102539062 2.1926951408386230469 1.0144300460815429688 2.6572802066802978516 1.4956856966018676758 0.2349662482738494873 0.26765874028205871582 2.4504911899566650391 3.0206613540649414062 2.7628302574157714844 2.1622900962829589844 2.7313363552093505859 2.5837161540985107422 2.6365468502044677734 2.0177512168884277344 0.66518294811248779297 0.3122393190860748291 1.6694543361663818359 2.4864931106567382812 2.6739242076873779297 1.6190248727798461914 1.0153969526290893555 0.4778499901294708252 
2.1096706390380859375 2.3477542400360107422 1.3868023157119750977 1.3876080513000488281 2.2974081039428710938 2.3969244956970214844 2.6773636341094970703 3.0383663177490234375 3.6816077232360839844 4.0901594161987304688 4.6416659355163574219 3.1846222877502441406 3.0382716655731201172 2.994091033935546875 2.9449405670166015625 2.8120944499969482422 2.8200948238372802734 2.9407794475555419922 1.5786237716674804688 1.8433860540390014648 2.1985216140747070312 3.0213623046875 1.0598475933074951172 2.4787497520446777344 2.9390766620635986328 1.2188503742218017578 0.78008019924163818359 1.0650517940521240234 3.3805620670318603516 1.834317326545715332 2.9497671127319335938 3.1770501136779785156 0.88812255859375 1.1514261960983276367 0.4110049903392791748 0.46457704901695251465 1.7527244091033935547 1.2633229494094848633 2.3831844329833984375 2.4124274253845214844 3.2214128971099853516 0.8129787445068359375 2.3070049285888671875 1.7806999683380126953 2.4334971904754638672 2.1169056892395019531 2.1148633956909179688 0.91926562786102294922 2.9836277961730957031 2.8606109619140625 2.6360187530517578125 2.6732611656188964844 2.5393357276916503906 2.5069041252136230469 3.1048567295074462891 3.2997965812683105469 2.9791076183319091797 3.5634553432464599609 5.1272816658020019531 5.3678450584411621094 3.5379488468170166016 3.1503374576568603516 2.9832708835601806641 2.4068610668182373047 2.2125794887542724609 1.6353515386581420898 2.7586779594421386719 2.9216139316558837891 1.7469412088394165039 1.6983346939086914062 0.76685369014739990234 0.27035120129585266113 2.4643840789794921875 1.8865298032760620117 2.3315339088439941406 1.6012684106826782227 1.3475188016891479492 1.9689927101135253906 0.9131304621696472168 0.98760199546813964844 0.7519512176513671875 2.8401036262512207031 2.9994995594024658203 3.0788969993591308594 2.5841517448425292969 2.8615307807922363281 3.1206526756286621094 
1.4545830488204956055 0.96376240253448486328 0.45591437816619873047 0.26393717527389526367 0.78183954954147338867 2.5124888420104980469 2.9899632930755615234 3.7320857048034667969 3.1425607204437255859 3.5590329170227050781 3.0250840187072753906 2.4766736030578613281 3.1036753654479980469 2.9393131732940673828 3.0239017009735107422 2.7821600437164306641 2.8555881977081298828 3.0709874629974365234 3.2672295570373535156 2.7298080921173095703 2.267917633056640625 1.3601891994476318359 2.1249005794525146484 2.4538648128509521484 1.4079788923263549805 0.02824900113046169281 0.58104562759399414062 1.4186906814575195312 2.3840243816375732422 1.902115941047668457 2.8962495326995849609 2.0065617561340332031 1.0747607946395874023 0.76395195722579956055 1.901538848876953125 0.69288915395736694336 1.5838580131530761719 1.9954957962036132812 2.3308312892913818359 2.5581233501434326172 3.0240938663482666016 1.6025539636611938477 1.3968741893768310547 1.2611981630325317383 1.3913300037384033203 2.5380680561065673828 2.7582809925079345703 2.498565673828125 2.9903819561004638672 2.9949855804443359375 2.9238107204437255859 2.8365738391876220703 2.6041777133941650391 2.6325559616088867188 2.9980816841125488281 3.9739937782287597656 2.3688569068908691406 3.2750656604766845703 2.0041017532348632812 2.3446760177612304688 0.44682300090789794922 0.93613362312316894531 1.181088566780090332 0.19223175942897796631 0.67449903488159179688 2.0581243038177490234 2.7434504032135009766 1.0931149721145629883 2.2165732383728027344 1.8115650415420532227 1.5144981145858764648 0.070256248116493225098 0.27840894460678100586 1.6021329164505004883 2.6153993606567382812 2.9707219600677490234 2.2317526340484619141 1.7638309001922607422 0.39171299338340759277 0.2279059290885925293 1.1666616201400756836 2.9373757839202880859 3.1028409004211425781 2.66649627685546875 2.2371480464935302734 2.9166731834411621094 2.8772020339965820312 
1.0349563360214233398 1.8825227022171020508 0.07196000218391418457 0.45591437816619873047 0.37781307101249694824 2.9251275062561035156 3.7476890087127685547 4.5462031364440917969 3.9847431182861328125 4.1776609420776367188 2.1987633705139160156 2.3427371978759765625 2.9489054679870605469 3.1110296249389648438 2.9021117687225341797 0.90351068973541259766 2.5754306316375732422 3.1135039329528808594 2.8912394046783447266 1.7820321321487426758 2.4430596828460693359 1.760224461555480957 2.3699970245361328125 2.7130603790283203125 2.5622055530548095703 0.61882179975509643555 1.4895299673080444336 0.68622171878814697266 1.038735508918762207 1.1161645650863647461 3.6252527236938476562 2.5115272998809814453 1.3823719024658203125 0.99697041511535644531 0.76099723577499389648 2.5303733348846435547 3.0982642173767089844 2.9935650825500488281 4.1763458251953125 1.6345539093017578125 1.3547136783599853516 1.1167340278625488281 1.4099434614181518555 1.550537109375 1.6956888437271118164 3.05261993408203125 3.0970666408538818359 3.0971934795379638672 2.8596735000610351562 2.8098809719085693359 2.7504475116729736328 2.5919878482818603516 3.0207784175872802734 3.12078094482421875 0.93648433685302734375 3.7913372516632080078 2.2031939029693603516 3.4079270362854003906 3.7835581302642822266 4.15862274169921875 1.2930492162704467773 0.32881638407707214355 0.83726209402084350586 0.47519978880882263184 2.1218895912170410156 2.12296295166015625 2.3734896183013916016 0.99893105030059814453 1.047243952751159668 1.177580714225769043 1.0405604839324951172 0.50709253549575805664 0.81582498550415039062 0.97879922389984130859 1.5872632265090942383 1.3162395954132080078 1.0010992288589477539 1.2208750247955322266 0.54975748062133789062 1.4487868547439575195 2.0286126136779785156 2.8687806129455566406 2.9319944381713867188 1.6864784955978393555 2.3990905284881591797 2.4504506587982177734 1.6072845458984375 
1.4843814373016357422 1.1529126167297363281 0.45591437816619873047 0.26393717527389526367 1.4688601493835449219 2.9737074375152587891 3.7521512508392333984 3.6644966602325439453 3.4943552017211914062 1.2404489517211914062 0.79512882232666015625 1.8408631086349487305 2.9136624336242675781 2.7289190292358398438 2.5734429359436035156 2.9081227779388427734 3.1126465797424316406 3.0235221385955810547 2.2541232109069824219 2.4104816913604736328 2.6021895408630371094 2.0135490894317626953 1.5689417123794555664 2.457729339599609375 2.3968904018402099609 2.4082734584808349609 0.64032953977584838867 0.40002787113189697266 0.25999826192855834961 0.65483361482620239258 2.1592156887054443359 3.1808216571807861328 1.6047235727310180664 1.1275285482406616211 1.1654516458511352539 1.9821418523788452148 2.306873321533203125 3.0269770622253417969 3.8418858051300048828 0.56235772371292114258 0.67475676536560058594 2.1708462238311767578 2.3532831668853759766 1.2418015003204345703 2.1566088199615478516 3.2268517017364501953 3.1503145694732666016 3.0990138053894042969 3.0730714797973632812 2.9831447601318359375 2.7352559566497802734 2.9176855087280273438 3.1320769786834716797 3.9020874500274658203 3.1848731040954589844 2.8136949539184570312 3.0370962619781494141 3.1015915870666503906 4.2386689186096191406 2.7748570442199707031 2.0265657901763916016 1.2695991992950439453 1.3337662220001220703 2.563201904296875 0.83542323112487792969 1.9609705209732055664 3.6871631145477294922 1.8785440921783447266 0.82574748992919921875 0.87357109785079956055 2.2186906337738037109 2.1812343597412109375 0.61388486623764038086 0.80276310443878173828 0.43470788002014160156 1.7160069942474365234 2.3133215904235839844 1.3313404321670532227 1.3347785472869873047 0.059962499886751174927 0.41407957673072814941 1.930683135986328125 2.6720843315124511719 1.2362151145935058594 1.4987579584121704102 2.0511233806610107422 0.58800274133682250977 
1.6023378372192382812 0.76327151060104370117 0.37931713461875915527 0.26206088066101074219 2.0424866676330566406 2.6714875698089599609 3.8869168758392333984 4.4671945571899414062 2.4092752933502197266 0.53317040205001831055 1.6527973413467407227 0.85493981838226318359 0.81269031763076782227 0.065997503697872161865 0.96952289342880249023 2.9348647594451904297 3.1260135173797607422 2.8452579975128173828 2.2745692729949951172 2.3637855052947998047 2.3850467205047607422 2.1231703758239746094 2.9460327625274658203 2.8669075965881347656 1.379181981086730957 3.1783537864685058594 1.3634946346282958984 1.1952750682830810547 0.1232687532901763916 1.4874452352523803711 4.0642724037170410156 3.6826004981994628906 1.7484556436538696289 2.1096560955047607422 2.9798398017883300781 1.7505922317504882812 0.058000002056360244751 1.4789253473281860352 3.2706830501556396484 1.6560918092727661133 0.30935531854629516602 1.2525779008865356445 2.6748523712158203125 2.9941072463989257812 3.1127836704254150391 3.0895984172821044922 3.4794554710388183594 3.0967085361480712891 3.1142377853393554688 3.1403181552886962891 3.1248621940612792969 2.97710418701171875 3.1499843597412109375 4.2277774810791015625 3.2929387092590332031 3.0446212291717529297 1.9903029203414916992 2.401363372802734375 3.4920198917388916016 2.6517751216888427734 2.0644714832305908203 1.8158994913101196289 1.275484919548034668 0.93634176254272460938 1.8921725749969482422 2.5683190822601318359 2.1233181953430175781 3.5635654926300048828 1.5514457225799560547 1.4252885580062866211 0.63841319084167480469 0.21097956597805023193 0.0053280000574886798859 0.0053280000574886798859 0.041716001927852630615 1.480663299560546875 2.1696393489837646484 1.9253976345062255859 0.78695923089981079102 1.2043894529342651367 2.7095196247100830078 2.8764071464538574219 2.822284698486328125 1.6813957691192626953 0.78332430124282836914 1.0114234685897827148 1.5989106893539428711 
2.7769286632537841797 1.6459877490997314453 1.0470690727233886719 0.48919212818145751953 2.8867855072021484375 3.0945029258728027344 4.3265233039855957031 3.0826866626739501953 1.7651230096817016602 0.47460570931434631348 1.3375308513641357422 2.3454508781433105469 1.9430767297744750977 2.0535628795623779297 1.2666035890579223633 2.9672200679779052734 3.1053922176361083984 2.9896385669708251953 2.9657888412475585938 2.7786197662353515625 2.3513524532318115234 1.8770490884780883789 1.858103632926940918 1.2028537988662719727 1.7489061355590820312 1.7632874250411987305 0.58082067966461181641 2.56853485107421875 1.2610670328140258789 1.7181192636489868164 4.0325341224670410156 2.9068372249603271484 1.6164281368255615234 2.0852694511413574219 2.6917967796325683594 0.83908283710479736328 0.061876669526100158691 0.78620445728302001953 2.8424770832061767578 0.36018443107604980469 0.40759432315826416016 3.1010749340057373047 3.3196475505828857422 3.2353565692901611328 3.0446767807006835938 3.0631020069122314453 3.0646290779113769531 3.2328155040740966797 3.1048009395599365234 3.1224224567413330078 3.1220960617065429688 4.2285628318786621094 4.2610187530517578125 2.6492817401885986328 1.5345860719680786133 2.6551165580749511719 1.7767194509506225586 3.7603793144226074219 3.1510245800018310547 3.5679557323455810547 1.5633498430252075195 1.5775367021560668945 0.71444565057754516602 2.1435503959655761719 3.7732117176055908203 3.0511820316314697266 2.6143486499786376953 1.9450266361236572266 1.7230130434036254883 0.5204022526741027832 0.010532500222325325012 0.0053280000574886798859 0.0053280000574886798859 0.0053280000574886798859 0.0094924997538328170776 0.31556138396263122559 0.25557544827461242676 1.2102980613708496094 2.8284137248992919922 1.8988207578659057617 1.735958099365234375 3.0364127159118652344 2.7786462306976318359 1.7165470123291015625 2.0673379898071289062 2.2422387599945068359 2.3194289207458496094 
2.5047297477722167969 2.6344203948974609375 2.4107823371887207031 2.7260646820068359375 3.1100554466247558594 3.4791963100433349609 3.9881823062896728516 2.5756442546844482422 2.1777555942535400391 1.6379311084747314453 1.2515468597412109375 1.5818153619766235352 1.9594795703887939453 1.3928281068801879883 2.1281087398529052734 3.783451080322265625 3.1053628921508789062 3.7741365432739257812 2.6376130580902099609 2.6752202510833740234 2.6526632308959960938 1.8885046243667602539 0.97099757194519042969 2.5147917270660400391 2.2710599899291992188 1.9712581634521484375 0.98490434885025024414 1.0755701065063476562 0.27877500653266906738 1.8370758295059204102 1.1100757122039794922 1.5508767366409301758 1.5650918483734130859 2.5473773479461669922 2.313335418701171875 1.0470618009567260742 1.0143792629241943359 1.7391235828399658203 0.13524450361728668213 0.060132503509521484375 1.5564298629760742188 3.0410950183868408203 2.9683682918548583984 2.7228047847747802734 3.1880927085876464844 3.0335962772369384766 3.0061199665069580078 2.9250447750091552734 4.8024587631225585938 3.9583363533020019531 3.0693790912628173828 3.9998631477355957031 4.7243585586547851562 4.8028540611267089844 4.7559480667114257812 2.5070612430572509766 2.1446959972381591797 4.67650604248046875 3.8628919124603271484 3.9153201580047607422 1.9309420585632324219 1.7610583305358886719 2.4647200107574462891 2.8092982769012451172 3.0459642410278320312 2.7580206394195556641 3.4897565841674804688 2.4451580047607421875 1.2071415185928344727 2.4291622638702392578 0.2016744464635848999 0.0053280000574886798859 0.0053280000574886798859 0.0053280000574886798859 0.0053280000574886798859 0.059289000928401947021 0.2534777522087097168 1.3782916069030761719 1.8538472652435302734 2.9558894634246826172 1.5558069944381713867 2.8045716285705566406 3.1002218723297119141 2.8612501621246337891 2.8683578968048095703 1.3649451732635498047 1.5717589855194091797 
2.1129109859466552734 2.1725032329559326172 2.0128841400146484375 3.0372006893157958984 3.814670562744140625 2.7399933338165283203 3.3054454326629638672 2.3431673049926757812 2.4899129867553710938 2.556880950927734375 2.9115743637084960938 1.5999609231948852539 2.5040109157562255859 2.5331492424011230469 3.2051489353179931641 3.454254150390625 2.6880676746368408203 3.0893385410308837891 1.8108475208282470703 3.1316206455230712891 4.2076621055603027344 3.9842391014099121094 2.8977632522583007812 2.8695390224456787109 0.64608103036880493164 0.051292307674884796143 0.07505000382661819458 1.5260286331176757812 0.92626297473907470703 0.71630531549453735352 0.38916569948196411133 0.054900001734495162964 0.056671429425477981567 0.054900001734495162964 0.5729205012321472168 1.0132752656936645508 2.2149903774261474609 1.5688128471374511719 1.139369964599609375 1.8831952810287475586 0.80428957939147949219 0.8043124079704284668 2.2841210365295410156 3.4790246486663818359 4.5192661285400390625 3.0758223533630371094 3.0477480888366699219 3.097015380859375 5.367748260498046875 2.2861962318420410156 1.768399357795715332 3.9770963191986083984 3.7400107383728027344 3.8191471099853515625 3.8244006633758544922 2.7958371639251708984 1.1066211462020874023 2.6128447055816650391 0.31198984384536743164 2.0025556087493896484 3.2980635166168212891 2.5857717990875244141 2.9252490997314453125 3.0994462966918945312 3.0242733955383300781 2.9649152755737304688 4.3091602325439453125 3.026935577392578125 1.3916375637054443359 0.41420891880989074707 1.6183269023895263672 0.18194337189197540283 0.0053280000574886798859 0.0069324998185038566589 0.0053280000574886798859 0.32403025031089782715 0.42860725522041320801 0.23988969624042510986 0.32866737246513366699 1.9936569929122924805 1.5799356698989868164 1.8755223751068115234 1.7494949102401733398 1.5556985139846801758 2.5189692974090576172 2.5371186733245849609 1.562000274658203125 
1.922995448112487793 2.1555728912353515625 2.5980882644653320312 3.6297657489776611328 3.6629824638366699219 3.3829948902130126953 2.3845021724700927734 2.2150576114654541016 1.7356749773025512695 1.5090271234512329102 2.1864006519317626953 0.78103536367416381836 2.8371136188507080078 2.88076019287109375 2.6200149059295654297 2.3445639610290527344 2.4680399894714355469 3.0347504615783691406 2.8929414749145507812 2.7267467975616455078 3.2191781997680664062 1.3459444046020507812 2.0925364494323730469 2.5061361789703369141 0.78679823875427246094 0.057622250169515609741 1.0713263750076293945 3.6166605949401855469 0.75119996070861816406 1.4078459739685058594 1.4613159894943237305 0.24939212203025817871 0.056675001978874206543 0.64527845382690429688 0.23649446666240692139 0.64532756805419921875 0.91905963420867919922 0.9556827545166015625 1.0554338693618774414 1.5810121297836303711 2.0548958778381347656 0.027466665953397750854 2.7222583293914794922 4.9071741104125976562 3.1965029239654541016 3.1184213161468505859 3.0609772205352783203 3.0597977638244628906 4.3397555351257324219 2.0280179977416992188 4.1736454963684082031 1.948603510856628418 1.8888617753982543945 1.005939483642578125 1.1132519245147705078 2.0147113800048828125 0.80527591705322265625 2.5313115119934082031 1.1135596036911010742 4.5110216140747070312 4.3340854644775390625 2.8891963958740234375 2.9298307895660400391 3.0889229774475097656 3.0473835468292236328 2.9214167594909667969 4.8014898300170898438 2.1958296298980712891 1.6762838363647460938 1.7459282875061035156 3.9683825969696044922 2.4213814735412597656 0.23367762565612792969 0.06730350106954574585 0.040962249040603637695 0.015180749818682670593 0.0094924997538328170776 0.010532500222325325012 0.013656999915838241577 1.8785856962203979492 0.924892425537109375 0.0053280000574886798859 0.0053280000574886798859 0.0053280000574886798859 0.78304594755172729492 3.1198832988739013672 3.0886473655700683594 
2.3047804832458496094 2.4587345123291015625 3.1776537895202636719 4.1061010360717773438 3.9490871429443359375 3.730190277099609375 2.7481517791748046875 1.7006342411041259766 1.3491002321243286133 1.5524518489837646484 1.3782155513763427734 1.4188789129257202148 2.6192517280578613281 2.1373302936553955078 1.7267478704452514648 1.3608428239822387695 1.2020781040191650391 1.3522732257843017578 0.020986249670386314392 0.58644145727157592773 2.0958449840545654297 1.0696789026260375977 2.1803898811340332031 1.2597794532775878906 2.7187976837158203125 2.3389921188354492188 2.5179917812347412109 3.7149026393890380859 0.054900001734495162964 4.5627593994140625 3.6579754352569580078 1.235190272331237793 0.97242033481597900391 0.057655557990074157715 0.32639393210411071777 0.0084262499585747718811 0.0053280000574886798859 1.0248825550079345703 1.0311236381530761719 2.2506763935089111328 1.8949807882308959961 0.55873060226440429688 2.8915793895721435547 3.7160561084747314453 2.9123587608337402344 3.1065964698791503906 3.0750343799591064453 3.6261000633239746094 3.1454126834869384766 1.7010055780410766602 1.687315821647644043 0.69576495885848999023 0.6418425440788269043 1.0541820526123046875 2.8193390369415283203 4.1742753982543945312 0.33331412076950073242 4.7323427200317382812 4.0857782363891601562 3.7398302555084228516 1.9759644269943237305 3.0543417930603027344 4.3446364402770996094 2.985965728759765625 2.9461734294891357422 2.9458622932434082031 2.7179656028747558594 2.3763709068298339844 2.568492889404296875 2.2809374332427978516 5.0877943038940429688 2.9442021846771240234 2.2145197391510009766 2.9664015769958496094 0.26067250967025756836 0.048710498958826065063 0.0053280000574886798859 0.0053280000574886798859 0.0094924997538328170776 1.4492821693420410156 0.79634237289428710938 0.0053280000574886798859 0.0053280000574886798859 0.19664424657821655273 1.5884306430816650391 3.1134705543518066406 2.7042040824890136719 
1.8792276382446289062 2.8101382255554199219 3.6410069465637207031 3.9581785202026367188 3.2246575355529785156 1.7910554409027099609 1.9408611059188842773 2.5603313446044921875 2.6013503074645996094 2.3559427261352539062 2.3477916717529296875 2.4507036209106445312 1.2135924100875854492 2.1344492435455322266 1.2149065732955932617 2.0530087947845458984 2.4641144275665283203 2.1526179313659667969 2.4804620742797851562 2.0313153266906738281 1.1347213983535766602 1.1418746709823608398 0.79882067441940307617 1.0840024948120117188 1.3002016544342041016 2.0579926967620849609 2.5526044368743896484 1.786547541618347168 2.6341462135314941406 2.5660903453826904297 2.4264061450958251953 1.7724120616912841797 1.0740677118301391602 0.85760259628295898438 0.028157999739050865173 0.0053280000574886798859 0.52477633953094482422 0.65680742263793945312 0.57905274629592895508 0.31255984306335449219 0.29221370816230773926 1.4857020378112792969 3.3504509925842285156 3.0574901103973388672 3.1009790897369384766 2.7413001060485839844 2.5042371749877929688 1.3344799280166625977 3.1014626026153564453 3.1082642078399658203 2.3181924819946289062 3.1194612979888916016 2.6207370758056640625 2.888584136962890625 4.3052434921264648438 4.3255391120910644531 2.7015957832336425781 3.8028953075408935547 3.9255034923553466797 4.3726658821105957031 2.8477773666381835938 3.3598673343658447266 4.5367784500122070312 3.0144543647766113281 2.7960186004638671875 3.0166108608245849609 2.8873040676116943359 2.8938014507293701172 2.8073184490203857422 2.2143950462341308594 3.5157706737518310547 3.7844862937927246094 2.6532850265502929688 2.4151597023010253906 1.0101292133331298828 0.62931770086288452148 0.0053280000574886798859 0.60499185323715209961 0.58690887689590454102 2.314472198486328125 0.84906798601150512695 0.0053280000574886798859 0.0053280000574886798859 1.573716282844543457 2.9496107101440429688 2.1814739704132080078 1.3698416948318481445 
2.6521131992340087891 3.1427028179168701172 3.9099881649017333984 3.8248233795166015625 2.4045500755310058594 1.6791292428970336914 0.80917572975158691406 1.8639760017395019531 1.0720868110656738281 0.49427932500839233398 2.7751905918121337891 2.2241981029510498047 2.5208592414855957031 3.094432830810546875 1.4032647609710693359 3.1302030086517333984 3.0512642860412597656 2.4497435092926025391 2.7191371917724609375 2.5160329341888427734 2.9161477088928222656 2.3523557186126708984 1.8254761695861816406 2.3797166347503662109 1.4019999504089355469 2.0247969627380371094 1.3781032562255859375 0.9879601597785949707 0.4661934971809387207 1.4405325651168823242 1.0969495773315429688 0.13957999646663665771 0.11093433201313018799 0.21315833926200866699 0.12071199715137481689 0.75649166107177734375 1.3824446201324462891 0.81211495399475097656 0.99110060930252075195 2.3703248500823974609 0.80211728811264038086 1.600926518440246582 2.09918975830078125 2.0620770454406738281 1.1422961950302124023 2.7093532085418701172 3.0531098842620849609 2.5248522758483886719 3.1059229373931884766 2.8561463356018066406 2.3966538906097412109 3.1256589889526367188 2.6908359527587890625 2.5872859954833984375 2.9114589691162109375 2.8177013397216796875 3.02597808837890625 5.1614422798156738281 3.3525979518890380859 1.9942078590393066406 3.2513871192932128906 3.3597283363342285156 3.7914419174194335938 2.3620381355285644531 2.7806496620178222656 2.3189854621887207031 1.2589629888534545898 1.9491090774536132812 2.4591405391693115234 1.1450141668319702148 2.907684326171875 3.6752946376800537109 3.2756254673004150391 2.1415793895721435547 1.1054118871688842773 1.4707731008529663086 1.3343369960784912109 1.2227402925491333008 2.0060205459594726562 1.9083276987075805664 1.1733018159866333008 0.0053280000574886798859 0.33201286196708679199 2.8617296218872070312 3.0212411880493164062 2.7540802955627441406 2.7617688179016113281 
3.2842161655426025391 3.9445085525512695312 3.2073533535003662109 2.8621392250061035156 2.0276496410369873047 1.7913757562637329102 1.9359707832336425781 1.2372189760208129883 1.8064343929290771484 0.80633795261383056641 1.7196435928344726562 2.1455626487731933594 2.2410299777984619141 2.9044506549835205078 2.0084841251373291016 2.9109072685241699219 2.2116582393646240234 2.6546277999877929688 2.341739654541015625 3.0274043083190917969 2.2718632221221923828 0.056328535079956054688 1.5686173439025878906 2.8367633819580078125 0.3753719031810760498 1.4773975610733032227 0.060027692466974258423 0.40465348958969116211 0.042222224175930023193 0.042950000613927841187 0.28059226274490356445 0.52981901168823242188 0.060214288532733917236 0.40206900238990783691 0.041206769645214080811 0.71621596813201904297 0.23987169563770294189 0.60402578115463256836 0.056506250053644180298 0.8099396824836730957 1.0649333000183105469 2.0198907852172851562 3.0586078166961669922 3.0788686275482177734 3.07666778564453125 3.0397636890411376953 3.1231479644775390625 3.1086487770080566406 3.0809233188629150391 3.0339143276214599609 3.1147453784942626953 3.1316690444946289062 2.7436380386352539062 2.3360183238983154297 1.0925772190093994141 0.60326927900314331055 2.2297542095184326172 3.3713841438293457031 2.6570696830749511719 0.33742168545722961426 1.8186937570571899414 3.2800927162170410156 3.2633125782012939453 3.11362457275390625 3.0840783119201660156 2.09622955322265625 2.5895624160766601562 2.2715015411376953125 0.84492272138595581055 1.9410967826843261719 3.0610787868499755859 4.5169458389282226562 3.6271851062774658203 2.8406491279602050781 1.4326965808868408203 1.9466280937194824219 1.2283153533935546875 2.9009757041931152344 3.5680391788482666016 1.6648664474487304688 1.8155004978179931641 1.8660209178924560547 2.7610111236572265625 3.7914516925811767578 4.4872579574584960938 2.906768798828125 2.751743316650390625 
3.7325494289398193359 5.1873574256896972656 3.9083387851715087891 3.4666142463684082031 3.1058192253112792969 2.9670207500457763672 2.9078934192657470703 3.3024995326995849609 3.0791099071502685547 3.1846420764923095703 3.2584948539733886719 2.3498382568359375 3.2305989265441894531 3.6864628791809082031 2.8898923397064208984 1.3409676551818847656 2.6349470615386962891 1.0611566305160522461 1.7435652017593383789 3.1163396835327148438 2.0669779777526855469 0.062881253659725189209 0.058112502098083496094 0.73023247718811035156 0.89764362573623657227 0.39950376749038696289 1.3700380325317382812 0.80299764871597290039 1.1979267597198486328 1.6705547571182250977 0.99729907512664794922 0.29323315620422363281 0.053518749773502349854 1.4148153066635131836 0.72650444507598876953 0.98617422580718994141 0.062650002539157867432 0.054990001022815704346 1.7169187068939208984 2.7228610515594482422 1.9392501115798950195 3.1965136528015136719 3.0824730396270751953 3.0260488986968994141 3.0948467254638671875 2.8080070018768310547 2.9235806465148925781 3.1811800003051757812 2.8017644882202148438 2.2872946262359619141 2.6193785667419433594 3.0963616371154785156 1.8557615280151367188 1.432651519775390625 1.5385816097259521484 0.88946396112442016602 1.5048730373382568359 2.1461150646209716797 1.8103743791580200195 0.91887706518173217773 3.0268156528472900391 2.7044193744659423828 4.00139617919921875 2.9661023616790771484 3.2435190677642822266 2.2900221347808837891 1.907065272331237793 1.3065868616104125977 1.6378716230392456055 2.3900918960571289062 3.7258040904998779297 4.0916771888732910156 2.9720702171325683594 2.9033255577087402344 2.4255237579345703125 2.4690127372741699219 1.6906907558441162109 2.7361173629760742188 2.3955256938934326172 1.1787831783294677734 1.8971465826034545898 2.7543826103210449219 2.8232858180999755859 2.0998976230621337891 2.8274104595184326172 2.2068512439727783203 3.3834834098815917969 
4.3167119026184082031 4.9072170257568359375 2.9723942279815673828 2.6922512054443359375 3.1017510890960693359 3.1201698780059814453 2.2282531261444091797 0.80757135152816772461 3.2654056549072265625 3.908756256103515625 3.4509458541870117188 2.2666423320770263672 2.4407784938812255859 3.5274956226348876953 2.5921494960784912109 0.96789473295211791992 2.2967889308929443359 2.7584650516510009766 3.1286251544952392578 3.113628387451171875 1.3562078475952148438 1.3776214122772216797 2.8975350856781005859 1.5955712795257568359 1.0710883140563964844 1.0563750267028808594 1.8713880777359008789 2.7472941875457763672 4.1725263595581054688 4.0331621170043945312 4.4720754623413085938 1.0260432958602905273 0.44101861119270324707 0.058715384453535079956 0.060100000351667404175 0.30544698238372802734 0.824779510498046875 0.58004397153854370117 0.7096049189567565918 2.0703141689300537109 2.8752932548522949219 3.7320089340209960938 3.0508916378021240234 2.4303419589996337891 2.1584105491638183594 2.8393812179565429688 2.6547281742095947266 2.9116880893707275391 1.0831942558288574219 0.80387932062149047852 0.0053280000574886798859 0.38290801644325256348 0.0053280000574886798859 0.0053280000574886798859 2.3624691963195800781 2.8821549415588378906 2.7990655899047851562 3.0550200939178466797 2.9841942787170410156 3.438007354736328125 3.471233367919921875 4.4730372428894042969 5.3672747611999511719 4.8045949935913085938 2.8813517093658447266 2.4928369522094726562 1.9987465143203735352 0.70047962665557861328 2.8048503398895263672 3.4551777839660644531 4.6151013374328613281 1.596279144287109375 1.1834568977355957031 3.6177079677581787109 1.9347350597381591797 1.5815615653991699219 1.7655457258224487305 2.7299940586090087891 2.5439856052398681641 1.5726319551467895508 1.4347335100173950195 0.85576844215393066406 0.86027669906616210938 2.1014084815979003906 2.4187765121459960938 2.2227406501770019531 1.4944554567337036133 
4.5838303565979003906 3.669673919677734375 2.7856886386871337891 2.5362834930419921875 2.9710798263549804688 3.2443861961364746094 3.0563311576843261719 2.3367502689361572266 1.7592852115631103516 3.0617144107818603516 1.7712877988815307617 0.72864502668380737305 1.5786269903182983398 2.0412335395812988281 1.6270099878311157227 1.0954593420028686523 2.0179646015167236328 3.0036468505859375 3.8749918937683105469 0.67505663633346557617 2.264919281005859375 1.7757959365844726562 2.5417766571044921875 2.4230399131774902344 0.056696001440286636353 0.85208123922348022461 2.63239288330078125 3.0704932212829589844 0.89458698034286499023 1.7753530740737915039 1.3522936105728149414 0.36225309967994689941 0.056966669857501983643 1.3544261455535888672 0.052600000053644180298 0.91241967678070068359 1.8729200363159179688 1.9500917196273803711 1.7098295688629150391 0.78125709295272827148 2.6249871253967285156 3.2725515365600585938 1.1888034343719482422 0.87498021125793457031 0.5499852299690246582 0.93668305873870849609 0.34361049532890319824 2.0819916725158691406 2.6550657749176025391 0.88353824615478515625 0.0053280000574886798859 0.0053280000574886798859 0.0053280000574886798859 0.0053280000574886798859 3.0516316890716552734 2.5694053173065185547 2.4798617362976074219 2.9139628410339355469 3.0094704627990722656 3.0420839786529541016 3.5202116966247558594 4.9490113258361816406 5.36737823486328125 3.3670115470886230469 2.7915933132171630859 1.0073479413986206055 0.60754787921905517578 0.66940128803253173828 2.7157206535339355469 3.6220545768737792969 3.3240921497344970703 0.77627849578857421875 1.0792108774185180664 2.4259076118469238281 2.1605956554412841797 2.4623234272003173828 1.6005778312683105469 2.7775511741638183594 2.3066823482513427734 0.64309829473495483398 0.84145784378051757812 1.1441967487335205078 1.1187118291854858398 2.7945263385772705078 2.7231030464172363281 2.2215688228607177734 1.0591194629669189453 
4.0835824012756347656 3.0205187797546386719 2.1772220134735107422 2.5325949192047119141 2.8854374885559082031 3.1001424789428710938 2.6523244380950927734 2.1546900272369384766 1.4035631418228149414 2.0865068435668945312 2.6615753173828125 1.9427112340927124023 2.10550689697265625 2.2871835231781005859 1.2134156227111816406 0.058000002056360244751 1.4208865165710449219 1.1574198007583618164 0.45598798990249633789 3.2708756923675537109 3.7744195461273193359 0.058000002056360244751 3.1424279212951660156 0.64708089828491210938 1.1386879682540893555 0.89713609218597412109 0.80692458152770996094 2.7301914691925048828 3.2940628528594970703 3.0041284561157226562 2.7118334770202636719 1.753115534782409668 1.1657402515411376953 0.93828642368316650391 3.1445815563201904297 0.75636839866638183594 3.620441436767578125 1.9112384319305419922 1.5886254310607910156 0.014624499715864658356 0.77261102199554443359 2.7053408622741699219 1.3684391975402832031 1.2098760604858398438 0.41761574149131774902 0.77387505769729614258 0.07196000218391418457 1.5993874073028564453 2.4371442794799804688 0.53222376108169555664 0.0053280000574886798859 0.0053280000574886798859 0.0053280000574886798859 0.0053280000574886798859 2.9287941455841064453 2.9403336048126220703 2.4012482166290283203 2.6237499713897705078 2.9598762989044189453 3.0834591388702392578 2.9560751914978027344 5.0684227943420410156 5.3675036430358886719 2.5380082130432128906 2.8474323749542236328 1.5715230703353881836 1.605420231819152832 0.97326302528381347656 2.2224736213684082031 3.9172503948211669922 0.57947897911071777344 0.51163536310195922852 1.7513284683227539062 2.3164427280426025391 2.5523939132690429688 1.4756730794906616211 1.9896795749664306641 2.3145349025726318359 0.21333424746990203857 0.40461492538452148438 0.82286506891250610352 2.5578992366790771484 0.97495305538177490234 2.5153565406799316406 2.9040942192077636719 1.8873941898345947266 0.0053280000574886798859 
4.3720035552978515625 2.4459257125854492188 2.4765074253082275391 2.7305934429168701172 3.1279103755950927734 3.1040935516357421875 2.919795989990234375 2.3964867591857910156 1.7756357192993164062 2.7970826625823974609 3.0839369297027587891 3.1641359329223632812 2.9436945915222167969 2.7387092113494873047 2.2478239536285400391 2.2855484485626220703 0.78979688882827758789 1.8003069162368774414 2.4186289310455322266 0.98492294549942016602 1.2661238908767700195 0.31207600235939025879 0.75870001316070556641 0.82623124122619628906 0.87599998712539672852 4.36959075927734375 1.7668241262435913086 2.8939492702484130859 3.2003073692321777344 3.0624852180480957031 2.8796164989471435547 1.189816594123840332 3.1243894100189208984 3.7013146877288818359 2.5461494922637939453 2.1800401210784912109 2.9416172504425048828 0.0886000022292137146 0.3171673119068145752 0.46296137571334838867 1.209035038948059082 3.0724408626556396484 3.0944232940673828125 3.0472409725189208984 0.56578326225280761719 0.07196000218391418457 0.07196000218391418457 1.1828703880310058594 1.9051913022994995117 2.0612192153930664062 0.0053280000574886798859 0.0053280000574886798859 0.0053280000574886798859 1.8888524770736694336 2.0726380348205566406 1.9883635044097900391 2.9379899501800537109 2.6722354888916015625 2.8639888763427734375 2.9487357139587402344 2.7081513404846191406 3.3124103546142578125 4.2980628013610839844 3.3116886615753173828 3.3362684249877929688 2.6763818264007568359 2.5559396743774414062 2.8173680305480957031 4.2868943214416503906 1.8150594234466552734 1.0151772499084472656 1.5450247526168823242 1.6045131683349609375 1.7780004739761352539 1.3795342445373535156 2.2049012184143066406 2.8824059963226318359 2.2645089626312255859 0.58066642284393310547 0.44758537411689758301 2.2414071559906005859 2.7077894210815429688 1.585723876953125 1.7659796476364135742 2.4058599472045898438 2.2634294033050537109 0.54888176918029785156 
2.9355573654174804688 2.4183127880096435547 2.7390921115875244141 2.8125596046447753906 3.4025797843933105469 3.3481159210205078125 3.7686028480529785156 3.4398472309112548828 0.080176748335361480713 0.71232593059539794922 2.3217041492462158203 2.5837299823760986328 2.8990950584411621094 2.4900491237640380859 1.1777172088623046875 1.4365775585174560547 0.54105025529861450195 1.5548844337463378906 1.2301050424575805664 1.0579979419708251953 0.87599998712539672852 0.87599998712539672852 0.87599998712539672852 0.87599998712539672852 2.0194156169891357422 3.9575684070587158203 3.2612147331237792969 2.6999547481536865234 3.8952994346618652344 3.5886852741241455078 4.1659045219421386719 2.6057505607604980469 2.2226850986480712891 2.5254771709442138672 0.69458979368209838867 2.4458053112030029297 3.5616292953491210938 0.0886000022292137146 0.0886000022292137146 0.0886000022292137146 2.4668760299682617188 3.1033318042755126953 3.1238551139831542969 2.626850128173828125 0.65300500392913818359 0.50962179899215698242 0.17025811970233917236 0.048162858933210372925 0.0053280000574886798859 0.0053280000574886798859 0.0053280000574886798859 0.0053280000574886798859 0.0053280000574886798859 0.0053280000574886798859 2.6897056102752685547 2.9861743450164794922 2.8794894218444824219 2.8013806343078613281 3.0992956161499023438 2.9842712879180908203 2.7982759475708007812 2.0122690200805664062 3.1430852413177490234 2.8673045635223388672 3.1614441871643066406 3.0305607318878173828 2.9408292770385742188 5.0240778923034667969 3.0705647468566894531 1.2611882686614990234 3.0520172119140625 2.7746076583862304688 2.7445161342620849609 2.7823140621185302734 2.3149385452270507812 2.4581999778747558594 2.3364996910095214844 1.4320367574691772461 0.19119043648242950439 2.3559565544128417969 2.407016754150390625 1.7002257108688354492 1.1154919862747192383 0.94999253749847412109 1.8116098642349243164 0.18300887942314147949 1.4225695133209228516 
2.8960967063903808594 2.7423615455627441406 3.0112626552581787109 3.0405046939849853516 3.0350918769836425781 3.0975394248962402344 3.3837723731994628906 2.6215085983276367188 2.6271898746490478516 2.6540358066558837891 2.7033317089080810547 2.3847177028656005859 2.7347879409790039062 2.1124145984649658203 2.2128579616546630859 0.8107891082763671875 0.51986873149871826172 0.87599998712539672852 0.87599998712539672852 0.87599998712539672852 0.87599998712539672852 0.87599998712539672852 1.4393138885498046875 2.3610796928405761719 5.3677163124084472656 2.6946542263031005859 1.8063266277313232422 3.9245972633361816406 5.3675222396850585938 1.8135460615158081055 0.61346280574798583984 1.5462611913681030273 2.6990487575531005859 2.6014921665191650391 2.6335451602935791016 3.4102506637573242188 3.5122959613800048828 0.61306858062744140625 0.0886000022292137146 0.57689714431762695312 3.0172104835510253906 3.0387079715728759766 2.7753529548645019531 1.5965044498443603516 1.0343760251998901367 0.17649812996387481689 0.07196000218391418457 0.23776943981647491455 0.0053280000574886798859 0.0053280000574886798859 0.0053280000574886798859 0.0053280000574886798859 0.0053280000574886798859 0.0053280000574886798859 2.2621579170227050781 3.0517265796661376953 2.6802704334259033203 2.6592671871185302734 2.6776385307312011719 2.7388350963592529297 3.0086207389831542969 2.8114800453186035156 3.0040369033813476562 3.3382291793823242188 3.5632419586181640625 3.5458161830902099609 3.9616327285766601562 4.0406818389892578125 2.2822518348693847656 0.75050663948059082031 3.0875823497772216797 2.7081093788146972656 1.9700788259506225586 2.7918713092803955078 2.715999603271484375 2.8582243919372558594 1.1563330888748168945 1.1812697649002075195 1.181227564811706543 1.8316290378570556641 2.7220010757446289062 1.8168784379959106445 0.4162120521068572998 0.77545380592346191406 0.83386850357055664062 0.4846312403678894043 1.8667650222778320312 
2.7041466236114501953 3.2608473300933837891 3.0246899127960205078 2.8251998424530029297 2.8532352447509765625 2.6833410263061523438 3.3420445919036865234 2.9171292781829833984 3.008457183837890625 2.5160357952117919922 2.8043565750122070312 2.8102324008941650391 2.9289274215698242188 2.5676424503326416016 1.6800668239593505859 0.91530966758728027344 0.87599998712539672852 0.87599998712539672852 0.87599998712539672852 3.3711807727813720703 3.2920727729797363281 3.8122873306274414062 1.7624989748001098633 2.1339888572692871094 1.2246137857437133789 0.32889613509178161621 1.1581356525421142578 2.5367166996002197266 4.0966434478759765625 1.6218549013137817383 0.55713766813278198242 0.44903957843780517578 1.9231593608856201172 3.1110241413116455078 2.8442680835723876953 2.6978313922882080078 1.1864988803863525391 0.2886676490306854248 1.7050542831420898438 2.8732707500457763672 3.0250530242919921875 2.9948439598083496094 2.7405457496643066406 1.9982073307037353516 2.2035920619964599609 1.8388695716857910156 1.1000018119812011719 1.0011856555938720703 0.0053280000574886798859 0.83379697799682617188 1.1251829862594604492 0.0053280000574886798859 0.97275173664093017578 1.373074650764465332 3.0699372291564941406 2.8112101554870605469 3.0485064983367919922 2.2790157794952392578 2.8766589164733886719 2.9524018764495849609 2.4741942882537841797 3.9032909870147705078 5.1862959861755371094 5.1862955093383789062 4.4529218673706054688 3.4698624610900878906 2.7372636795043945312 1.9000251293182373047 1.4679715633392333984 1.3442807197570800781 3.0308389663696289062 2.7522060871124267578 2.7554013729095458984 2.9364233016967773438 2.9311757087707519531 1.3314672708511352539 0.0053280000574886798859 1.1078078746795654297 1.9350214004516601562 1.7040997743606567383 1.9239490032196044922 1.0291624069213867188 0.9811884760856628418 1.1414397954940795898 1.4494000673294067383 0.2782974541187286377 0.63745695352554321289 
2.828937530517578125 1.6340183019638061523 3.1202304363250732422 2.7638897895812988281 2.6986055374145507812 1.8671993017196655273 2.8316438198089599609 2.7569062709808349609 2.838779449462890625 1.1227246522903442383 2.7233705520629882812 2.4618384838104248047 1.3773965835571289062 1.5490415096282958984 1.0592609643936157227 0.82623124122619628906 0.87599998712539672852 1.3776892423629760742 3.1074907779693603516 4.9557919502258300781 4.007968902587890625 1.2005834579467773438 0.55269324779510498047 2.2201850414276123047 1.2120616436004638672 2.2544219493865966797 2.4732642173767089844 1.7053475379943847656 2.0641551017761230469 0.73740786314010620117 0.3921489417552947998 0.38744592666625976562 2.3012273311614990234 3.0111706256866455078 1.9316327571868896484 3.1027607917785644531 1.0940915346145629883 0.58722299337387084961 2.5834853649139404297 2.8222651481628417969 2.8173003196716308594 2.5736782550811767578 2.1463468074798583984 2.5430936813354492188 2.0092873573303222656 3.5259532928466796875 2.9409418106079101562 0.052168499678373336792 0.29085648059844970703 1.1455762386322021484 2.0410697460174560547 1.7098342180252075195 2.1991200447082519531 2.0619695186614990234 2.4547300338745117188 2.73381805419921875 3.1731958389282226562 2.4386615753173828125 2.9994564056396484375 2.7268550395965576172 3.4787578582763671875 4.0574717521667480469 4.0261082649230957031 3.2438192367553710938 2.5370941162109375 2.8896660804748535156 2.7177186012268066406 2.9607989788055419922 2.7774031162261962891 1.857056736946105957 3.0448021888732910156 2.6844947338104248047 2.2361807823181152344 1.2503772974014282227 0.91071599721908569336 1.7369505167007446289 2.1280372142791748047 2.5504207611083984375 1.4080432653427124023 1.3661934137344360352 1.1256347894668579102 1.7054853439331054688 2.06557464599609375 2.3348238468170166016 2.27724456787109375 1.3156441450119018555 2.2061305046081542969 
2.1688230037689208984 0.44999706745147705078 1.9626983404159545898 2.7561070919036865234 2.2804203033447265625 2.6523969173431396484 2.7341430187225341797 2.6862227916717529297 2.8430233001708984375 1.0907102823257446289 1.444705963134765625 1.9118752479553222656 1.2239024639129638672 0.84130400419235229492 1.6246085166931152344 0.87599998712539672852 0.87599998712539672852 0.87599998712539672852 2.7590594291687011719 4.3775959014892578125 4.8269834518432617188 2.4902691841125488281 2.64044952392578125 1.8081728219985961914 2.7329962253570556641 2.7538475990295410156 2.3450846672058105469 2.8495848178863525391 2.9728560447692871094 2.6828629970550537109 1.3708252906799316406 2.7328116893768310547 3.1090166568756103516 3.1217684745788574219 3.0813503265380859375 2.4600656032562255859 0.29787021875381469727 2.0963780879974365234 2.8241355419158935547 2.1586823463439941406 2.4464168548583984375 2.0459156036376953125 1.1971048116683959961 3.1565501689910888672 3.9401555061340332031 1.8031826019287109375 0.47181782126426696777 0.052168499678373336792 0.91037744283676147461 3.0157129764556884766 2.0952360630035400391 1.8248603343963623047 1.9466344118118286133 3.6205458641052246094 3.6521551609039306641 2.0423953533172607422 1.0269507169723510742 1.903411865234375 2.5148329734802246094 2.6630992889404296875 3.3612415790557861328 2.8927667140960693359 3.40512847900390625 2.7906229496002197266 2.6605658531188964844 2.8048408031463623047 2.0399048328399658203 2.7426290512084960938 2.3554019927978515625 1.8530564308166503906 2.9130971431732177734 2.6724998950958251953 2.3823943138122558594 1.4734737873077392578 0.2677535712718963623 0.22563856840133666992 0.68281954526901245117 1.3835283517837524414 1.3565900325775146484 1.2324545383453369141 0.81661057472229003906 2.60272979736328125 3.4077525138854980469 3.5790815353393554688 4.4397296905517578125 4.4138317108154296875 4.179134368896484375 
3.1810314655303955078 1.9637529850006103516 2.3722326755523681641 2.4879496097564697266 2.0536959171295166016 2.8057649135589599609 2.9531147480010986328 0.65391123294830322266 3.8382570743560791016 1.6477411985397338867 0.077466249465942382812 0.22556731104850769043 0.35366463661193847656 0.26648750901222229004 0.26224166154861450195 0.87599998712539672852 0.87599998712539672852 4.2446537017822265625 5.3678917884826660156 3.4004840850830078125 2.5297198295593261719 2.0551624298095703125 4.5048274993896484375 3.3894865512847900391 2.8094844818115234375 2.5554177761077880859 2.5080697536468505859 1.9853681325912475586 1.0010588169097900391 1.8666391372680664062 2.4471237659454345703 1.0523028373718261719 1.912404179573059082 2.3227746486663818359 2.9609858989715576172 2.5322632789611816406 1.35410308837890625 2.8406960964202880859 2.7570471763610839844 2.402942657470703125 2.7250578403472900391 2.7928292751312255859 2.9702513217926025391 3.5239205360412597656 3.1386668682098388672 1.9628967046737670898 0.27431094646453857422 0.82296264171600341797 2.1463208198547363281 1.5912510156631469727 1.1795811653137207031 2.743083953857421875 2.5684902667999267578 2.9512538909912109375 2.3879799842834472656 1.8844524621963500977 1.4868948459625244141 2.3262453079223632812 3.39676666259765625 4.1679406166076660156 3.2432966232299804688 3.3804068565368652344 2.8274810314178466797 2.8810791969299316406 2.7464463710784912109 2.9757437705993652344 2.9345672130584716797 3.022487640380859375 2.8274910449981689453 2.4658620357513427734 3.0641880035400390625 2.7546758651733398438 2.29991912841796875 2.4802165031433105469 1.622119903564453125 1.8435758352279663086 2.4759294986724853516 3.8561444282531738281 3.6338405609130859375 1.7179571390151977539 2.7356214523315429688 3.0437951087951660156 5.1869606971740722656 5.3673686981201171875 5.1864719390869140625 3.7359318733215332031 2.4994025230407714844 
2.3837010860443115234 2.7323813438415527344 2.7125604152679443359 3.0070984363555908203 2.4387559890747070312 2.8866906166076660156 1.6179611682891845703 1.5033214092254638672 3.1487979888916015625 1.456103205680847168 0.64553916454315185547 0.94815683364868164062 0.06730350106954574585 0.072614289820194244385 1.2487657070159912109 0.87599998712539672852 3.0206696987152099609 5.0880613327026367188 2.6504223346710205078 2.7436940670013427734 1.7911152839660644531 1.5930345058441162109 3.4510147571563720703 4.29393768310546875 2.997867584228515625 2.7585604190826416016 2.5895149707794189453 2.1677389144897460938 0.72309654951095581055 1.9979431629180908203 1.6664658784866333008 0.72133821249008178711 2.7278988361358642578 2.8434646129608154297 3.0322425365447998047 2.0585041046142578125 1.4928660392761230469 2.5915360450744628906 2.9531285762786865234 2.3864881992340087891 2.3164706230163574219 1.77093505859375 1.1823993921279907227 2.7477569580078125 3.1349284648895263672 3.1492638587951660156 1.2304509878158569336 1.411890864372253418 0.53214609622955322266 1.0630998611450195312 2.7081835269927978516 0.46002185344696044922 0.0886000022292137146 0.0886000022292137146 0.26419755816459655762 0.40656235814094543457 3.1077604293823242188 3.0694820880889892578 3.1489963531494140625 3.3572840690612792969 3.0843417644500732422 2.643260955810546875 2.6670868396759033203 2.8354866504669189453 2.7159078121185302734 2.7586925029754638672 2.8094098567962646484 2.8329143524169921875 2.6895327568054199219 2.3352668285369873047 3.6011478900909423828 3.2220864295959472656 3.4301178455352783203 3.3401563167572021484 3.0004572868347167969 2.1653082370758056641 1.3921530246734619141 2.8776021003723144531 4.4221539497375488281 4.3695130348205566406 5.0473489761352539062 4.7138547897338867188 5.0069890022277832031 4.9325037002563476562 5.3625555038452148438 2.8290286064147949219 2.3018698692321777344 
2.4959495067596435547 2.6618609428405761719 2.6287302970886230469 3.2646267414093017578 3.1092653274536132812 3.6698238849639892578 2.91762542724609375 1.8615607023239135742 0.83945411443710327148 1.1677026748657226562 3.0999662876129150391 0.63320970535278320312 0.066332504153251647949 0.80964165925979614258 1.0953767299652099609 1.9961975812911987305 2.8715140819549560547 2.4692003726959228516 1.6539996862411499023 1.5322599411010742188 1.9690226316452026367 1.8947359323501586914 3.4648706912994384766 4.0711188316345214844 2.8105967044830322266 2.7479197978973388672 2.8674106597900390625 2.3258249759674072266 2.1698236465454101562 0.0886000022292137146 1.5069394111633300781 0.68083214759826660156 1.9026793241500854492 2.8545565605163574219 2.3175003528594970703 1.9257695674896240234 2.4078373908996582031 3.0469944477081298828 2.1337141990661621094 1.9613858461380004883 0.0053280000574886798859 0.0053280000574886798859 0.78969568014144897461 2.9530851840972900391 3.1469600200653076172 3.1502015590667724609 3.1499848365783691406 3.1098995208740234375 2.7817082405090332031 1.3758559226989746094 3.1368758678436279297 0.2795740664005279541 0.0886000022292137146 0.0886000022292137146 0.0886000022292137146 2.3895177841186523438 3.1561210155487060547 3.1335773468017578125 3.8274617195129394531 4.26801300048828125 3.0849776268005371094 2.4848504066467285156 3.0442306995391845703 2.3675899505615234375 2.8671998977661132812 2.7027878761291503906 2.7180507183074951172 2.553554534912109375 1.930171966552734375 2.4414703845977783203 4.2986464500427246094 4.3475461006164550781 3.3039302825927734375 1.088404536247253418 1.5387301445007324219 1.4473940134048461914 1.8131393194198608398 2.5692002773284912109 3.4834108352661132812 4.5180544853210449219 4.338665008544921875 2.8515596389770507812 2.896770477294921875 3.6597135066986083984 4.1062397956848144531 2.1243364810943603516 2.1067991256713867188 
2.5169479846954345703 2.7047090530395507812 2.2127597332000732422 2.9444484710693359375 1.344473719596862793 3.0629756450653076172 0.72817122936248779297 0.059108335524797439575 0.44875800609588623047 2.0652911663055419922 0.055012501776218414307 0.05738560110330581665 0.059112500399351119995 0.15199166536331176758 0.62461251020431518555 1.3991619348526000977 1.5161713361740112305 0.83948165178298950195 2.7301318645477294922 1.5956552028656005859 1.9511649608612060547 1.2317930459976196289 3.5086922645568847656 3.2269392013549804688 2.6105132102966308594 2.8234724998474121094 2.5991079807281494141 2.8005135059356689453 0.56540626287460327148 0.0886000022292137146 2.0375998020172119141 2.4181163311004638672 1.5758492946624755859 2.4159076213836669922 0.87599998712539672852 2.5387208461761474609 2.7887849807739257812 2.3618657588958740234 1.9415909051895141602 0.0053280000574886798859 0.0053280000574886798859 0.0053280000574886798859 1.5606497526168823242 3.1375749111175537109 2.9328598976135253906 3.1392896175384521484 2.154216766357421875 3.1020841598510742188 3.1280460357666015625 3.135585784912109375 3.1479940414428710938 1.4268105030059814453 0.0886000022292137146 0.0886000022292137146 0.2795740664005279541 3.1513240337371826172 3.1508915424346923828 3.1267354488372802734 3.1133642196655273438 4.3428130149841308594 3.0310409069061279297 2.5427517890930175781 3.0538883209228515625 1.0944066047668457031 2.2735638618469238281 3.0875575542449951172 2.9721744060516357422 2.9015696048736572266 2.3949930667877197266 2.4000272750854492188 3.3617517948150634766 2.9994373321533203125 3.0919196605682373047 1.2519341707229614258 1.8693518638610839844 1.399747014045715332 2.9735684394836425781 3.1317484378814697266 3.2255513668060302734 3.3397538661956787109 3.2994735240936279297 4.4697146415710449219 2.9378390312194824219 2.3773252964019775391 1.0563641786575317383 0.56426614522933959961 2.6972222328186035156 
2.5039484500885009766 2.4751148223876953125 2.2063357830047607422 2.5489695072174072266 2.5618517398834228516 1.7536001205444335938 0.049250461161136627197 0.81033986806869506836 1.2682340145111083984 2.6237874031066894531 1.1460136175155639648 0.39916899800300598145 0.53675830364227294922 0.65102857351303100586 0.87599998712539672852 1.70476531982421875 2.5427007675170898438 2.9891028404235839844 1.8121232986450195312 1.9401385784149169922 2.4071786403656005859 2.9201443195343017578 2.6650891304016113281 2.9948415756225585938 2.7969956398010253906 2.9505865573883056641 2.6759183406829833984 2.6989202499389648438 1.029010772705078125 0.2795740664005279541 2.4198317527770996094 0.76323878765106201172 0.57726621627807617188 1.3725020885467529297 1.013403773307800293 2.5390217304229736328 3.0754783153533935547 1.7402946949005126953 0.0053280000574886798859 0.0053280000574886798859 0.0053280000574886798859 0.20276574790477752686 2.5583133697509765625 3.1357140541076660156 3.1073467731475830078 2.9524281024932861328 3.0086634159088134766 3.5300390720367431641 3.1200337409973144531 3.1482038497924804688 3.1381692886352539062 3.1397242546081542969 0.64598369598388671875 0.0886000022292137146 1.8104116916656494141 3.1139385700225830078 3.1267526149749755859 3.1285655498504638672 4.2074337005615234375 4.0735540390014648438 2.8646883964538574219 3.6314692497253417969 2.807247161865234375 2.520061492919921875 2.8481454849243164062 3.38275146484375 2.8995473384857177734 3.7597365379333496094 3.3124439716339111328 2.9921267032623291016 2.2510521411895751953 2.6298184394836425781 2.7163143157958984375 2.3071036338806152344 2.8102197647094726562 2.8956627845764160156 3.0934691429138183594 2.3181254863739013672 2.9834473133087158203 2.5473506450653076172 2.8464016914367675781 2.9119849205017089844 2.2716922760009765625 2.1657438278198242188 0.18300887942314147949 1.2365748882293701172 2.5749256610870361328 
2.3962249755859375 1.1217592954635620117 1.9458038806915283203 1.2851883172988891602 0.794597625732421875 0.46482348442077636719 0.24494099617004394531 0.75084686279296875 2.3837316036224365234 1.9951630830764770508 1.686751246452331543 0.6753749847412109375 0.87599998712539672852 0.87599998712539672852 0.87599998712539672852 0.75127798318862915039 1.4757025241851806641 2.5022542476654052734 0.79382860660552978516 1.7908676862716674805 3.4726252555847167969 3.0065441131591796875 1.5805487632751464844 2.1478967666625976562 2.9645636081695556641 2.7076418399810791016 2.7317748069763183594 2.0967259407043457031 0.25986263155937194824 2.0607635974884033203 2.4674153327941894531 0.053903333842754364014 0.27088499069213867188 1.9247955083847045898 1.4295661449432373047 2.8102257251739501953 3.0908007621765136719 0.33397918939590454102 0.0053280000574886798859 0.57378065586090087891 2.67592620849609375 3.1387286186218261719 3.1231331825256347656 2.8810377120971679688 3.1380112171173095703 3.1118664741516113281 2.7268018722534179688 0.98536378145217895508 2.1368594169616699219 3.1399316787719726562 3.1508994102478027344 3.1291506290435791016 2.9015610218048095703 2.5708336830139160156 3.1296546459197998047 3.6677591800689697266 3.1351397037506103516 2.8879170417785644531 3.3002741336822509766 2.5617895126342773438 3.1665341854095458984 2.9736869335174560547 2.8952305316925048828 2.7668302059173583984 2.7730417251586914062 2.9857487678527832031 2.7654833793640136719 2.533603668212890625 2.1348743438720703125 2.6943926811218261719 1.8104772567749023438 1.600649714469909668 0.78482729196548461914 1.0544623136520385742 2.9092600345611572266 3.0658116340637207031 2.4831862449645996094 1.1998627185821533203 0.62411528825759887695 0.78126490116119384766 2.3702027797698974609 2.2407855987548828125 2.147899627685546875 2.2034296989440917969 1.4272459745407104492 1.844033360481262207 2.2617022991180419922 
2.7014784812927246094 2.5016062259674072266 1.9584145545959472656 0.97454559803009033203 2.3790671825408935547 1.8252642154693603516 2.8150842189788818359 2.5085017681121826172 2.7980797290802001953 2.3502001762390136719 0.77015793323516845703 0.82623124122619628906 0.87599998712539672852 0.87599998712539672852 0.87599998712539672852 1.2153457403182983398 2.3926389217376708984 1.8238630294799804688 1.4989446401596069336 0.72955441474914550781 2.772708892822265625 3.2479174137115478516 2.5274209976196289062 2.7593457698822021484 2.8473100662231445312 2.8793425559997558594 2.8378674983978271484 1.5130133628845214844 0.93761008977890014648 3.0438706874847412109 1.5852752923965454102 0.05161225050687789917 1.1626332998275756836 1.6910929679870605469 1.0088436603546142578 2.2786879539489746094 3.0896971225738525391 0.77500152587890625 0.0053280000574886798859 2.3160774707794189453 3.1043803691864013672 3.5158483982086181641 3.3943078517913818359 3.096675872802734375 3.1337637901306152344 3.1231622695922851562 0.97751766443252563477 2.5382254123687744141 1.1622011661529541016 3.1279404163360595703 3.0084741115570068359 2.9988698959350585938 3.14117431640625 3.1412384510040283203 3.1224048137664794922 3.9532024860382080078 3.0703310966491699219 1.9155955314636230469 0.92108100652694702148 0.6902624964714050293 2.0459499359130859375 2.8470659255981445312 2.776050567626953125 3.1061761379241943359 2.6971681118011474609 2.7744321823120117188 3.0202503204345703125 2.9287548065185546875 1.2772693634033203125 2.4956014156341552734 2.5016908645629882812 1.2628140449523925781 1.6262581348419189453 1.3722723722457885742 2.9643924236297607422 3.0503978729248046875 2.7214739322662353516 1.0751019716262817383 0.93179601430892944336 0.67498797178268432617 2.14052581787109375 2.4056811332702636719 2.2042348384857177734 2.2176890373229980469 1.5410411357879638672 2.2713606357574462891 2.6580255031585693359 
2.6036398410797119141 1.3966938257217407227 0.91205900907516479492 2.1443090438842773438 2.5723123550415039062 4.069454193115234375 2.9764416217803955078 3.3059754371643066406 2.8740894794464111328 1.3152033090591430664 0.87599998712539672852 0.87599998712539672852 1.4234325885772705078 0.87599998712539672852 0.87599998712539672852 1.5738486051559448242 3.2916073799133300781 2.8268926143646240234 3.1184968948364257812 2.4293134212493896484 1.8597756624221801758 3.0547118186950683594 2.8577814102172851562 4.1453280448913574219 2.96856689453125 2.9257428646087646484 2.9982874393463134766 2.9658877849578857422 2.5875558853149414062 1.7726979255676269531 1.6384127140045166016 0.98531270027160644531 0.6738249659538269043 1.3364434242248535156 2.6903722286224365234 3.3501095771789550781 3.0825054645538330078 1.9182631969451904297 1.1522185802459716797 3.0800039768218994141 3.1474182605743408203 3.1313540935516357422 3.1339120864868164062 3.0900111198425292969 3.1333851814270019531 2.1165206432342529297 2.3343946933746337891 1.3367062807083129883 2.3420875072479248047 3.0066778659820556641 2.0154802799224853516 2.7195992469787597656 3.1289427280426025391 3.0684323310852050781 3.0545732975006103516 3.0657877922058105469 2.5209188461303710938 1.4553481340408325195 1.3224265575408935547 1.4023485183715820312 0.97243833541870117188 2.8071529865264892578 3.1001038551330566406 2.9029924869537353516 2.5970366001129150391 2.9309411048889160156 3.0456392765045166016 2.8997850418090820312 2.8774542808532714844 2.3881008625030517578 1.8851644992828369141 0.97164255380630493164 1.047913670539855957 2.4776363372802734375 3.1203892230987548828 3.0608830451965332031 3.0288739204406738281 1.8190423250198364258 1.5050200223922729492 0.67498797178268432617 1.8209394216537475586 2.1680889129638671875 2.1705567836761474609 2.2968664169311523438 2.6779434680938720703 1.9799227714538574219 1.1338100433349609375 
2.1595499515533447266 3.39583587646484375 1.7286661863327026367 1.6522428989410400391 2.2446553707122802734 2.4716939926147460938 2.6537163257598876953 1.9013972282409667969 1.9785524606704711914 0.80964165925979614258 0.87599998712539672852 1.0380964279174804688 2.5743155479431152344 1.013577580451965332 0.87599998712539672852 0.49508100748062133789 3.6579165458679199219 2.9792628288269042969 3.3215789794921875 3.0104243755340576172 2.4014451503753662109 3.1615650653839111328 4.4904327392578125 3.9059762954711914062 2.9688372611999511719 2.3012053966522216797 2.4185168743133544922 2.7425799369812011719 2.1653432846069335938 2.0601570606231689453 0.41726136207580566406 0.87599998712539672852 0.87599998712539672852 1.8892822265625 3.1376261711120605469 2.8922894001007080078 3.0958945751190185547 2.9695820808410644531 2.6959683895111083984 3.1126260757446289062 3.1108148097991943359 3.0924341678619384766 2.6917808055877685547 3.7321624755859375 3.1090562343597412109 1.7364476919174194336 1.5248411893844604492 2.9259924888610839844 1.6105262041091918945 1.4572086334228515625 3.1031553745269775391 3.1142363548278808594 3.1387028694152832031 3.1154255867004394531 3.3041164875030517578 2.7986972332000732422 1.2900501489639282227 2.2588226795196533203 2.1804866790771484375 1.1677237749099731445 1.9746912717819213867 3.0113291740417480469 3.0232787132263183594 2.6713030338287353516 2.9038848876953125 2.9085848331451416016 3.4713242053985595703 4.4057407379150390625 3.8105292320251464844 2.0430164337158203125 0.93617016077041625977 0.55206203460693359375 2.2677211761474609375 1.9741727113723754883 3.1463403701782226562 3.1420819759368896484 3.0228626728057861328 2.1050150394439697266 0.50187802314758300781 0.66008597612380981445 2.3648357391357421875 0.99446409940719604492 0.83193492889404296875 1.0741578340530395508 1.6274311542510986328 0.25763475894927978516 1.2029539346694946289 
2.7228360176086425781 3.0518574714660644531 1.1914811134338378906 2.3739390373229980469 2.9077284336090087891 3.0236742496490478516 2.9934010505676269531 2.0491280555725097656 1.8086717128753662109 0.80757498741149902344 0.87599998712539672852 1.0439980030059814453 1.9107296466827392578 1.0177615880966186523 0.87599998712539672852 1.9989383220672607422 1.6658111810684204102 3.0961308479309082031 3.0983357429504394531 3.7182257175445556641 4.2663516998291015625 3.6974937915802001953 3.4535412788391113281 3.040523529052734375 3.0572876930236816406 2.5472278594970703125 2.6923053264617919922 2.5135047435760498047 1.9297394752502441406 1.8893182277679443359 0.30547824501991271973 0.44066399335861206055 1.4742020368576049805 1.7526439428329467773 2.6695787906646728516 1.1433768272399902344 1.5513668060302734375 2.5176784992218017578 3.1281840801239013672 3.0892183780670166016 3.1001036167144775391 3.1147105693817138672 3.2293131351470947266 3.6198191642761230469 3.0865156650543212891 3.0668058395385742188 3.0871188640594482422 3.1470088958740234375 3.1402602195739746094 3.1431362628936767578 3.2681028842926025391 3.1203293800354003906 3.1301984786987304688 3.1265575885772705078 3.6769750118255615234 1.9934424161911010742 2.7421877384185791016 2.7098102569580078125 2.3235309123992919922 2.3000967502593994141 2.4838550090789794922 3.0133140087127685547 3.0255067348480224609 2.8559968471527099609 2.5970330238342285156 2.7508840560913085938 3.5531089305877685547 3.9296703338623046875 2.5691595077514648438 1.0488338470458984375 1.1915607452392578125 0.32333987951278686523 2.9131257534027099609 3.1080069541931152344 3.1322021484375 3.1096887588500976562 2.9947457313537597656 2.1998488903045654297 0.14474056661128997803 1.5689737796783447266 2.7047810554504394531 1.2675570249557495117 1.405040740966796875 1.2343227863311767578 1.6167072057723999023 0.78647387027740478516 1.1875047683715820312 
3.6564264297485351562 3.0122494697570800781 1.6749942302703857422 1.0455164909362792969 1.2046359777450561523 2.0430331230163574219 3.042629241943359375 2.3941962718963623047 0.61612850427627563477 0.39503332972526550293 0.77757501602172851562 3.4330966472625732422 4.0542330741882324219 0.95178467035293579102 1.6245733499526977539 1.1102678775787353516 0.011525666341185569763 3.0391051769256591797 2.5036177635192871094 2.7914798259735107422 3.0748510360717773438 3.4100692272186279297 3.4580516815185546875 2.3468303680419921875 2.7669637203216552734 2.7976601123809814453 2.1583051681518554688 2.2539887428283691406 1.2904859781265258789 0.88754433393478393555 0.27741301059722900391 0.58585339784622192383 1.7817263603210449219 2.9163815975189208984 1.7539060115814208984 0.036554999649524688721 0.020941499620676040649 0.031350500881671905518 1.9787923097610473633 3.1134035587310791016 3.0969264507293701172 3.1209166049957275391 3.1360762119293212891 3.1444480419158935547 3.1291201114654541016 3.0464594364166259766 3.1403374671936035156 3.0966229438781738281 3.1419436931610107422 3.093395233154296875 3.6285023689270019531 3.1192553043365478516 3.1418204307556152344 3.1379253864288330078 2.2639491558074951172 0.3917147517204284668 1.4187076091766357422 2.3453345298767089844 2.1725072860717773438 2.080715179443359375 0.31785398721694946289 2.7818048000335693359 2.8173336982727050781 2.1357367038726806641 1.9702887535095214844 4.3527650833129882812 5.006988525390625 4.3550143241882324219 2.4269022941589355469 1.2620071172714233398 1.8758814334869384766 0.95574432611465454102 3.0099360942840576172 3.1104078292846679688 3.1264243125915527344 3.10990142822265625 2.9275348186492919922 2.3674550056457519531 0.23016799986362457275 0.73691970109939575195 4.1101498603820800781 1.9170622825622558594 1.7775518894195556641 2.7224977016448974609 2.8538687229156494141 2.7674505710601806641 2.0749835968017578125 
3.2261414527893066406 3.1219770908355712891 2.3427777290344238281 1.8682459592819213867 0.74036800861358642578 1.304317474365234375 2.6262273788452148438 1.5879384279251098633 0.81734997034072875977 0.80757498741149902344 0.79553121328353881836 3.0900087356567382812 1.5873894691467285156 2.3700528144836425781 1.5595421791076660156 0.69003564119338989258 0.34548974037170410156 3.0334761142730712891 2.4191155433654785156 2.8389415740966796875 3.0452914237976074219 3.1548218727111816406 3.1623547077178955078 2.9704227447509765625 2.8308188915252685547 2.5264019966125488281 1.8672789335250854492 2.9855077266693115234 0.75834608078002929688 0.11416199803352355957 0.52683728933334350586 1.3349076509475708008 1.5453661680221557617 3.0041806697845458984 2.8751235008239746094 1.3262183666229248047 0.06257750093936920166 0.083395503461360931396 1.3795930147171020508 2.9875471591949462891 3.1323461532592773438 3.1249599456787109375 3.1486027240753173828 3.1426296234130859375 3.136646270751953125 2.9780473709106445312 3.1022727489471435547 3.0584826469421386719 3.0512554645538330078 2.8937690258026123047 3.0678682327270507812 3.1352581977844238281 3.1453540325164794922 3.0955533981323242188 2.3059477806091308594 1.5131883621215820312 1.0421099662780761719 0.32885187864303588867 0.57129430770874023438 0.22456149756908416748 0.0053280000574886798859 0.0053280000574886798859 0.0053280000574886798859 0.0053280000574886798859 0.34046605229377746582 3.2988638877868652344 4.1486458778381347656 4.0051641464233398438 2.3827168941497802734 2.97971343994140625 2.8083722591400146484 2.5230648517608642578 3.1281375885009765625 3.13484954833984375 3.1486866474151611328 2.9823143482208251953 2.4985291957855224609 2.6481294631958007812 1.8315981626510620117 2.6506369113922119141 3.2822377681732177734 1.0247650146484375 0.32951676845550537109 2.7952723503112792969 3.0584263801574707031 3.0819005966186523438 3.10843658447265625 
2.5997347831726074219 3.0934774875640869141 1.9673876762390136719 1.1869696378707885742 2.9452841281890869141 1.9322620630264282227 2.4147074222564697266 1.1685366630554199219 0.26870501041412353516 4.6192541122436523438 3.879428863525390625 2.1809248924255371094 2.8999383449554443359 1.9880199432373046875 0.87599998712539672852 1.2511589527130126953 2.5478847026824951172 2.9295759201049804688 2.8300678730010986328 3.0310258865356445312 3.0624876022338867188 3.0650990009307861328 2.7070777416229248047 2.8440139293670654297 2.90828704833984375 2.8536829948425292969 2.9467575550079345703 2.9310982227325439453 0.61190503835678100586 0.1727434992790222168 0.44066399335861206055 1.431121826171875 2.8580119609832763672 3.0244333744049072266 3.0348005294799804688 2.5256061553955078125 0.06257750093936920166 0.057373002171516418457 2.2575778961181640625 3.0242128372192382812 3.0996787548065185547 3.11917877197265625 3.1398792266845703125 3.145416259765625 2.9689021110534667969 2.1253340244293212891 3.0803132057189941406 3.0077512264251708984 3.0797655582427978516 3.0959877967834472656 3.0298318862915039062 3.1243135929107666016 3.0345540046691894531 3.1215188503265380859 2.8879497051239013672 2.0012021064758300781 1.8410984277725219727 2.0599193572998046875 0.97660672664642333984 0.56048673391342163086 1.1553646326065063477 1.1293652057647705078 1.6830731630325317383 1.1821644306182861328 2.6999952793121337891 3.2873125076293945312 3.8517704010009765625 3.5018279552459716797 3.0669598579406738281 3.2459852695465087891 3.091400146484375 3.0963697433471679688 3.1389865875244140625 3.1235218048095703125 3.0793402194976806641 2.8438584804534912109 2.7281637191772460938 2.8527159690856933594 2.5410356521606445312 2.1934361457824707031 2.5099177360534667969 0.87244868278503417969 0.78478276729583740234 1.7266242504119873047 3.1008894443511962891 3.1356496810913085938 3.0837347507476806641 
2.2946798801422119141 1.0885292291641235352 2.6109218597412109375 2.1003971099853515625 2.3334519863128662109 2.7438285350799560547 1.518894195556640625 0.057036001235246658325 0.31215837597846984863 3.4397764205932617188 4.6986489295959472656 1.621480107307434082 0.051395002752542495728 0.048070002347230911255 0.87599998712539672852 1.9082380533218383789 1.3785349130630493164 2.4302687644958496094 2.7853555679321289062 2.9628767967224121094 3.0530157089233398438 2.9937775135040283203 2.5150868892669677734 2.7007820606231689453 2.7004430294036865234 2.8049261569976806641 1.1350914239883422852 0.036827333271503448486 0.013074500486254692078 0.0053280000574886798859 0.0053280000574886798859 1.2004801034927368164 1.9617248773574829102 3.0132944583892822266 3.0553112030029296875 3.0996537208557128906 0.22879274189472198486 1.5330116748809814453 2.7557826042175292969 2.7193124294281005859 2.8390095233917236328 3.0377569198608398438 3.1203336715698242188 3.0858514308929443359 3.0996286869049072266 1.6616396903991699219 2.5581119060516357422 3.1446096897125244141 2.1395831108093261719 2.9463188648223876953 3.0245497226715087891 3.0675857067108154297 2.7375664710998535156 4.5105876922607421875 3.1417036056518554688 3.1030125617980957031 3.1247758865356445312 1.4736993312835693359 0.0053280000574886798859 1.6902368068695068359 0.96475702524185180664 0.0053280000574886798859 2.2695167064666748047 3.3932898044586181641 3.5062191486358642578 2.6675393581390380859 3.2026970386505126953 3.0658695697784423828 3.0948696136474609375 3.113056182861328125 3.1248314380645751953 3.0317685604095458984 3.1471550464630126953 3.1321580410003662109 2.9209706783294677734 2.7992944717407226562 3.0680894851684570312 2.6625351905822753906 2.0901827812194824219 2.1211001873016357422 1.8704845905303955078 2.4582324028015136719 0.0053280000574886798859 0.20077319443225860596 3.062717437744140625 3.0573885440826416016 3.055789947509765625 
2.9290757179260253906 1.5135278701782226562 2.3955974578857421875 1.2306383848190307617 2.1122558116912841797 1.2796038389205932617 4.4107451438903808594 0.91494190692901611328 1.5563505887985229492 0.8865871429443359375 2.2690548896789550781 0.59559988975524902344 0.044556248933076858521 0.77643692493438720703 1.0618315935134887695 1.4252759218215942383 0.0053280000574886798859 2.8000316619873046875 2.8139967918395996094 1.7297375202178955078 2.3659386634826660156 3.083393096923828125 2.4108872413635253906 2.801303863525390625 3.0440397262573242188 0.28115230798721313477 0.050475001335144042969 0.05196874961256980896 0.21781869232654571533 0.0053280000574886798859 0.0053280000574886798859 0.42232626676559448242 1.3750723600387573242 2.9266378879547119141 2.8569478988647460938 3.078243255615234375 2.0877325534820556641 2.9422330856323242188 2.5502388477325439453 2.6947157382965087891 3.0235755443572998047 3.0929546356201171875 3.0692272186279296875 3.0861444473266601562 3.1305515766143798828 2.569210052490234375 1.9585957527160644531 0.98629897832870483398 0.39699199795722961426 0.06257750093936920166 1.5927741527557373047 3.0696549415588378906 2.8514811992645263672 3.5427656173706054688 3.0574092864990234375 3.0856299400329589844 3.0188453197479248047 1.300574183464050293 0.0053280000574886798859 0.19306506216526031494 0.0053280000574886798859 1.3148672580718994141 3.6664059162139892578 4.3785734176635742188 3.3720705509185791016 3.0126450061798095703 3.0948953628540039062 3.1013698577880859375 3.0715260505676269531 3.13720703125 3.1321341991424560547 3.0979974269866943359 3.1090714931488037109 3.0574603080749511719 3.2256095409393310547 4.1819825172424316406 3.6645336151123046875 2.4976532459259033203 2.3897962570190429688 1.5198384523391723633 1.8898937702178955078 1.7905077934265136719 1.1928064823150634766 0.91394102573394775391 1.9755227565765380859 3.1033072471618652344 3.0845727920532226562 
0.79278540611267089844 2.2554011344909667969 1.9914397001266479492 1.7813611030578613281 1.9437369108200073242 1.0539529323577880859 3.8654718399047851562 1.2631233930587768555 1.8835862874984741211 1.1427494287490844727 1.8178973197937011719 1.0869859457015991211 0.25638273358345031738 0.2542000114917755127 1.0257345438003540039 1.4325348138809204102 0.0053280000574886798859 2.7744717597961425781 2.8873157501220703125 2.8930850028991699219 2.8952796459197998047 3.0171451568603515625 2.5514960289001464844 3.0323898792266845703 3.3467931747436523438 0.50723278522491455078 0.24390375614166259766 0.43133679032325744629 0.0053280000574886798859 0.0053280000574886798859 0.0053280000574886798859 0.40694272518157958984 0.60168927907943725586 2.7130777835845947266 3.4025080204010009766 2.5452523231506347656 3.0209186077117919922 2.776401519775390625 2.7260744571685791016 2.4559381008148193359 2.9498338699340820312 2.5176856517791748047 3.0942041873931884766 2.9176492691040039062 1.3711947202682495117 0.77882283926010131836 1.9656101465225219727 0.046964000910520553589 0.84590548276901245117 1.2412320375442504883 0.06257750093936920166 2.8998153209686279297 3.1074016094207763672 3.0964448451995849609 3.6781589984893798828 3.2722687721252441406 2.5062005519866943359 0.0053280000574886798859 0.57389104366302490234 1.919234156608581543 1.1778521537780761719 2.6827962398529052734 3.0761153697967529297 3.2751705646514892578 3.1277763843536376953 3.107578277587890625 3.10767364501953125 3.08992767333984375 3.1011283397674560547 3.1515226364135742188 3.133724212646484375 3.1122150421142578125 3.0928771495819091797 3.0107066631317138672 3.1125030517578125 3.3138241767883300781 2.6143147945404052734 1.5552192926406860352 1.7189245223999023438 0.49892899394035339355 1.4101852178573608398 2.3552339076995849609 1.8693430423736572266 1.8981169462203979492 2.5298967361450195312 2.8394529819488525391 2.6077125072479248047 
1.4542179107666015625 2.7500622272491455078 1.8015040159225463867 2.4501464366912841797 1.5611840486526489258 1.8889216184616088867 1.8130118846893310547 0.57902544736862182617 2.6064345836639404297 1.1776458024978637695 2.6390581130981445312 1.6908029317855834961 2.2124450206756591797 0.82311624288558959961 0.87599998712539672852 0.57448500394821166992 1.5924575328826904297 2.2109396457672119141 2.4662675857543945312 2.9813911914825439453 2.804813385009765625 3.3924901485443115234 3.1069788932800292969 2.7345082759857177734 1.3321864604949951172 0.24054506421089172363 0.064256250858306884766 0.025469250977039337158 0.0053280000574886798859 0.0053280000574886798859 0.0053280000574886798859 0.0053280000574886798859 0.35732337832450866699 1.013287663459777832 2.9822626113891601562 3.0984973907470703125 2.8878164291381835938 2.5640521049499511719 2.9919857978820800781 2.4655520915985107422 3.1040377616882324219 3.1327409744262695312 3.1326241493225097656 2.3586406707763671875 0.046964000910520553589 0.06257750093936920166 0.041759502142667770386 0.8334286808967590332 2.9654946327209472656 3.0802748203277587891 2.9363362789154052734 3.1065163612365722656 2.8921403884887695312 3.0825800895690917969 3.0887801647186279297 3.0885903835296630859 2.7233982086181640625 0.19489631056785583496 1.1465269327163696289 2.9452259540557861328 1.8807774782180786133 2.1210596561431884766 3.0988063812255859375 3.2196853160858154297 3.1191680431365966797 3.1061615943908691406 2.7148494720458984375 2.5030426979064941406 3.0842862129211425781 2.9917080402374267578 3.0382585525512695312 3.10546112060546875 3.100910186767578125 3.1177623271942138672 3.1310765743255615234 3.0623495578765869141 3.0937793254852294922 4.1542429924011230469 1.1619819402694702148 0.37648737430572509766 1.7991338968276977539 3.1651089191436767578 0.8363965153694152832 2.4740073680877685547 2.9078693389892578125 2.9541127681732177734 2.6015877723693847656 
1.3520989418029785156 1.1785345077514648438 0.96755588054656982422 0.58441436290740966797 0.41280817985534667969 2.3423037528991699219 1.5506041049957275391 0.057783335447311401367 0.82064324617385864258 1.1143679618835449219 1.763331294059753418 1.2337713241577148438 1.2882328033447265625 1.8858258724212646484 1.4182536602020263672 1.8816182613372802734 2.6087970733642578125 2.125335693359375 2.7294590473175048828 2.7095894813537597656 2.7277381420135498047 2.2535183429718017578 3.4231750965118408203 2.9655559062957763672 1.0481908321380615234 0.050364252179861068726 0.23682862520217895508 0.018843499943614006042 0.016172749921679496765 0.22081431746482849121 0.21006512641906738281 0.0053280000574886798859 0.018861500546336174011 0.71354317665100097656 2.7210347652435302734 3.5570282936096191406 3.3862247467041015625 2.5903041362762451172 3.3343787193298339844 2.8332207202911376953 2.8934962749481201172 3.1101789474487304688 3.1344606876373291016 3.1123168468475341797 2.5378909111022949219 2.1238820552825927734 1.9468549489974975586 3.1296067237854003906 3.1639394760131835938 2.624561309814453125 2.9430081844329833984 2.2963058948516845703 3.0440468788146972656 2.4669225215911865234 2.1171009540557861328 2.8882937431335449219 3.1060941219329833984 3.11455535888671875 3.0772521495819091797 3.0959451198577880859 2.1205494403839111328 1.1147179603576660156 2.8680548667907714844 3.0718567371368408203 1.7123925685882568359 2.6149544715881347656 3.0016493797302246094 2.9091548919677734375 2.4928071498870849609 3.06774139404296875 3.0470039844512939453 3.0265874862670898438 3.0380289554595947266 3.1078059673309326172 3.1089458465576171875 3.047039031982421875 3.3811168670654296875 4.3407154083251953125 1.9537619352340698242 1.1277174949645996094 2.7601249217987060547 3.96124267578125 1.5193837881088256836 2.6126561164855957031 3.0805160999298095703 2.8935263156890869141 3.0817351341247558594 
2.1306104660034179688 2.7653281688690185547 2.0449852943420410156 1.3070751428604125977 0.75841873884201049805 2.4716608524322509766 0.080122224986553192139 0.061212502419948577881 2.346134185791015625 0.83385503292083740234 1.7552723884582519531 0.2373666614294052124 0.82468122243881225586 0.34814998507499694824 0.4479999840259552002 1.6215730905532836914 1.9962191581726074219 1.5386070013046264648 2.0568001270294189453 2.6949694156646728516 2.3334562778472900391 3.4692783355712890625 3.1104238033294677734 3.9654493331909179688 2.0817167758941650391 0.94866693019866943359 0.56386476755142211914 0.4496904909610748291 1.3683457374572753906 1.2158964872360229492 0.43370127677917480469 0.012590750120580196381 0.0053280000574886798859 0.3617185056209564209 3.66629791259765625 2.8225741386413574219 3.231700897216796875 2.5232102870941162109 3.2393743991851806641 2.8593862056732177734 2.1394076347351074219 3.1273858547210693359 3.1147933006286621094 3.1222631931304931641 3.0968658924102783203 3.0888407230377197266 3.1059377193450927734 3.1700816154479980469 3.0274617671966552734 2.9467005729675292969 3.4785203933715820312 2.9214680194854736328 3.0966598987579345703 2.3242816925048828125 0.78485518693923950195 0.57893550395965576172 3.2824854850769042969 3.9444408416748046875 3.0917179584503173828 3.1283500194549560547 1.3699358701705932617 3.0355744361877441406 3.0072422027587890625 3.1008157730102539062 3.0728268623352050781 3.1338491439819335938 2.726657867431640625 1.9583410024642944336 0.91312605142593383789 3.0820713043212890625 3.1157217025756835938 3.1235072612762451172 3.1074478626251220703 2.9550051689147949219 3.0382001399993896484 2.89684295654296875 3.5963120460510253906 4.8065185546875 3.3701350688934326172 1.5157145261764526367 0.56445848941802978516 1.2936251163482666016 2.5658326148986816406 3.0946214199066162109 3.0743925571441650391 3.0857989788055419922 3.1028301715850830078 
2.1803417205810546875 1.9584517478942871094 4.3645472526550292969 1.3877050876617431641 1.906439661979675293 0.85125112533569335938 0.083513334393501281738 0.95278406143188476562 1.3284155130386352539 1.8195284605026245117 2.7322080135345458984 0.37578865885734558105 0.87599998712539672852 0.71178001165390014648 0.59934604167938232422 2.0703313350677490234 1.4213045835494995117 2.1953732967376708984 1.6105951070785522461 2.6344170570373535156 2.9380977153778076172 2.8251719474792480469 1.9318747520446777344 2.7894067764282226562 2.8090715408325195312 2.2899169921875 1.3220821619033813477 1.3563083410263061523 0.75296789407730102539 0.042510502040386199951 0.23677237331867218018 0.62443202733993530273 0.0053280000574886798859 0.66627544164657592773 1.8197530508041381836 2.2853648662567138672 2.9222521781921386719 3.0620329380035400391 2.7897057533264160156 2.5919909477233886719 2.9166979789733886719 3.0963523387908935547 3.1274960041046142578 3.1064200401306152344 3.1416571140289306641 3.0977900028228759766 3.1096391677856445312 3.1274156570434570312 2.9692943096160888672 2.7489004135131835938 3.7405288219451904297 3.3622291088104248047 2.9578194618225097656 1.9337306022644042969 1.7625935077667236328 1.8382927179336547852 3.7912530899047851562 4.0576615333557128906 2.6911842823028564453 3.1204764842987060547 1.4663872718811035156 3.080333709716796875 3.1097903251647949219 2.9003856182098388672 2.8818156719207763672 2.65789031982421875 2.8473756313323974609 1.4688155651092529297 2.1717216968536376953 3.1100566387176513672 3.1101305484771728516 3.0615563392639160156 3.2406265735626220703 3.0423238277435302734 2.94582366943359375 2.8445882797241210938 2.9466657638549804688 3.3815429210662841797 3.0716152191162109375 2.8367693424224853516 2.3243150711059570312 2.1432602405548095703 2.7101418972015380859 3.4398989677429199219 3.1129777431488037109 3.0836846828460693359 3.0975430011749267578 
1.3648887872695922852 1.3298991918563842773 2.6563692092895507812 1.3511725664138793945 3.0200273990631103516 2.3829803466796875 1.2401397228240966797 1.7210783958435058594 2.6781022548675537109 3.2058408260345458984 2.2365672588348388672 1.1838284730911254883 0.87599998712539672852 1.1566419601440429688 1.2799267768859863281 1.2398928403854370117 2.1384649276733398438 2.5013508796691894531 2.5380036830902099609 2.5170454978942871094 2.3606481552124023438 1.9208633899688720703 2.3477048873901367188 2.6760163307189941406 3.9397118091583251953 2.9209444522857666016 2.3164248466491699219 1.5214035511016845703 1.4795017242431640625 2.2707734107971191406 0.014622750692069530487 0.75219637155532836914 0.013656999915838241577 0.22716049849987030029 1.6891868114471435547 1.5756134986877441406 2.1325068473815917969 3.0554535388946533203 3.0278642177581787109 2.8592252731323242188 3.0213949680328369141 2.9643130302429199219 3.086170196533203125 2.9097073078155517578 3.0987668037414550781 3.0826296806335449219 3.0741846561431884766 3.1330618858337402344 3.1286218166351318359 2.7034924030303955078 2.7289645671844482422 2.7341687679290771484 2.2360055446624755859 0.40094411373138427734 1.3700881004333496094 3.2393414974212646484 3.0473215579986572266 3.8113577365875244141 3.7844157218933105469 2.1064002513885498047 0.20150656998157501221 0.13705193996429443359 0.20151762664318084717 1.8637483119964599609 1.9090369939804077148 1.6027028560638427734 1.7233704328536987305 1.0011211633682250977 2.8260509967803955078 2.9523258209228515625 3.0880501270294189453 2.7556810379028320312 0.98362672328948974609 2.7117211818695068359 2.9035434722900390625 2.9611582756042480469 3.0984873771667480469 3.1567873954772949219 3.6026842594146728516 3.4556720256805419922 3.7332942485809326172 2.9772584438323974609 1.5528724193572998047 0.8114884495735168457 1.5510755777359008789 1.1507329940795898438 2.5800104141235351562 
1.1732159852981567383 2.2689392566680908203 2.8183939456939697266 1.5667573213577270508 2.5409722328186035156 2.8225753307342529297 0.3115456700325012207 2.3404595851898193359 3.1295959949493408203 3.1210305690765380859 3.6734588146209716797 0.64359062910079956055 0.87599998712539672852 1.9865920543670654297 2.5261380672454833984 1.0621762275695800781 2.7244946956634521484 2.3158814907073974609 2.5209221839904785156 2.4812231063842773438 3.3954732418060302734 2.0590004920959472656 2.4922108650207519531 2.6499192714691162109 4.2167186737060546875 2.6100678443908691406 1.1668796539306640625 1.4827212095260620117 1.69708251953125 2.2221903800964355469 0.019271001219749450684 0.43547397851943969727 0.22716049849987030029 0.87599998712539672852 1.1567019224166870117 1.0206010341644287109 1.9723514318466186523 3.0458316802978515625 3.0398516654968261719 2.9586663246154785156 3.0617766380310058594 2.974491119384765625 3.0174574851989746094 3.088626861572265625 3.0842030048370361328 3.1053116321563720703 3.1460714340209960938 3.1050179004669189453 3.0914957523345947266 3.1007168292999267578 2.7378704547882080078 2.9355962276458740234 1.1689395904541015625 0.026146000251173973083 0.041759502142667770386 1.356537938117980957 3.0985653400421142578 2.4888722896575927734 2.0302999019622802734 1.361800074577331543 1.5485930442810058594 1.0897909402847290039 0.96950423717498779297 1.1607837677001953125 1.8349542617797851562 0.89234656095504760742 0.46440079808235168457 0.7974860072135925293 3.2523925304412841797 3.0602898597717285156 3.1104967594146728516 1.9828505516052246094 1.2212141752243041992 2.0409994125366210938 2.5256655216217041016 2.9250376224517822266 3.0952889919281005859 3.0411672592163085938 3.1228315830230712891 3.1029181480407714844 3.1334941387176513672 2.6917140483856201172 2.0171701908111572266 2.7053692340850830078 2.562633514404296875 2.3444104194641113281 3.1282112598419189453 
0.93159967660903930664 0.94495302438735961914 2.8788738250732421875 3.6484062671661376953 2.0648024082183837891 2.9608087539672851562 2.5683984756469726562 1.2108556032180786133 2.7772667407989501953 3.0406868457794189453 1.9565043449401855469 2.3333773612976074219 2.4507305622100830078 0.87599998712539672852 0.81284785270690917969 0.37521249055862426758 1.9817720651626586914 2.6470105648040771484 2.5348403453826904297 2.3832886219024658203 4.0678920745849609375 2.6108586788177490234 2.6614480018615722656 2.4020886421203613281 2.5754210948944091797 1.730664372444152832 1.6569947004318237305 1.1543248891830444336 3.0894920825958251953 1.5042216777801513672 1.7495884895324707031 1.8679040670394897461 1.207378387451171875 0.62405622005462646484 0.87599998712539672852 0.87599998712539672852 1.2399301528930664062 3.0335724353790283203 3.2025439739227294922 3.2380006313323974609 2.8574428558349609375 3.0795023441314697266 3.092159271240234375 3.0824730396270751953 3.0961887836456298828 2.9947631359100341797 3.0705406665802001953 3.0836446285247802734 3.0714745521545410156 3.0701112747192382812 3.0546505451202392578 2.6954984664916992188 0.39902549982070922852 0.031350500881671905518 0.21594880521297454834 1.5949214696884155273 3.2106809616088867188 1.1547336578369140625 2.1140596866607666016 3.0239026546478271484 2.8261077404022216797 2.7863645553588867188 2.5820331573486328125 0.35404381155967712402 1.9070236682891845703 2.2277078628540039062 2.9031062126159667969 2.0135107040405273438 3.1449253559112548828 3.1272070407867431641 3.1146905422210693359 1.962288975715637207 1.7463897466659545898 0.0886000022292137146 1.2617532014846801758 2.9004490375518798828 3.2436838150024414062 3.7540531158447265625 3.1056125164031982422 3.1360430717468261719 3.1250164508819580078 3.1331517696380615234 3.1261734962463378906 3.142322540283203125 3.1396954059600830078 3.1441016197204589844 3.1392674446105957031 
1.6896053552627563477 0.56182324886322021484 0.99709212779998779297 1.1471170186996459961 2.6364750862121582031 2.3227019309997558594 0.66602665185928344727 2.39284515380859375 2.7832996845245361328 3.0011174678802490234 3.4938306808471679688 2.7465336322784423828 1.027188420295715332 1.1489968299865722656 1.797545313835144043 1.7900385856628417969 1.3175017833709716797 2.524631500244140625 2.7024109363555908203 1.6304048299789428711 3.4939019680023193359 1.7267825603485107422 1.0417859554290771484 2.9026408195495605469 2.2924525737762451172 2.0586326122283935547 1.0920847654342651367 1.0213994979858398438 2.2091548442840576172 2.0870051383972167969 3.0909786224365234375 3.04961395263671875 2.9866902828216552734 2.5916821956634521484 1.2627964019775390625 1.3747715950012207031 1.2037289142608642578 2.6923110485076904297 3.3352847099304199219 2.9434156417846679688 3.0927622318267822266 2.859508514404296875 3.0913879871368408203 3.0611131191253662109 2.9717538356781005859 2.9862401485443115234 2.8557181358337402344 3.0042815208435058594 2.9640023708343505859 2.9912571907043457031 2.88352203369140625 3.2052919864654541016 0.39039555191993713379 0.0053280000574886798859 2.072856903076171875 3.3678379058837890625 1.0762566328048706055 0.87599998712539672852 2.2259452342987060547 3.1497616767883300781 3.2828199863433837891 2.7083828449249267578 2.8808643817901611328 0.97872865200042724609 2.8826189041137695312 3.0779576301574707031 2.8115861415863037109 1.7675909996032714844 3.1465551853179931641 3.1016213893890380859 3.1017141342163085938 3.1167163848876953125 2.8640685081481933594 2.1786894798278808594 1.7594430446624755859 2.7461378574371337891 2.5512461662292480469 3.1206085681915283203 3.1523368358612060547 3.1495690345764160156 3.1326808929443359375 3.1478178501129150391 3.1516771316528320312 3.1436002254486083984 3.1340832710266113281 3.1363122463226318359 3.1327455043792724609 
1.7785717248916625977 1.1913876533508300781 2.4981124401092529297 1.6812617778778076172 1.1473767757415771484 0.12977549433708190918 1.900333404541015625 2.7315375804901123047 3.3325979709625244141 4.6465625762939453125 3.6191630363464355469 3.8320412635803222656 1.0904408693313598633 2.456279754638671875 2.6014385223388671875 0.92519831657409667969 1.7304720878601074219 1.1092509031295776367 0.68744426965713500977 1.9212332963943481445 2.6750638484954833984 0.1991243213415145874 0.78228211402893066406 2.1860573291778564453 3.8969583511352539062 3.0224215984344482422 2.3392152786254882812 3.1025705337524414062 1.9594244956970214844 2.5801579952239990234 2.9809641838073730469 2.9892945289611816406 3.0981645584106445312 3.2000753879547119141 1.5639909505844116211 1.0632642507553100586 1.6966392993927001953 2.2961010932922363281 3.2845919132232666016 3.0454208850860595703 2.9366643428802490234 3.0479176044464111328 3.0270867347717285156 3.0524210929870605469 3.0459198951721191406 3.0934178829193115234 3.0161950588226318359 3.0778157711029052734 3.0915999412536621094 3.0836808681488037109 3.2245471477508544922 3.4070224761962890625 0.58063346147537231445 1.6102271080017089844 1.5664937496185302734 0.87599998712539672852 1.1567347049713134766 1.9989389181137084961 3.6193130016326904297 3.1163456439971923828 2.8685681819915771484 1.540991663932800293 3.4986796379089355469 4.1940202713012695312 2.6407346725463867188 2.9625108242034912109 3.1269123554229736328 3.1406347751617431641 3.1282513141632080078 3.1139912605285644531 2.35282135009765625 2.7346942424774169922 2.4824025630950927734 2.9692785739898681641 2.2289559841156005859 3.0539736747741699219 3.1339666843414306641 3.1293158531188964844 3.1477193832397460938 3.14208221435546875 3.1409718990325927734 3.1395623683929443359 3.1282970905303955078 3.1077096462249755859 3.1262969970703125 3.0726652145385742188 3.1297485828399658203 
2.1099667549133300781 2.0301480293273925781 2.0685138702392578125 1.5776392221450805664 1.7520048618316650391 0.0053280000574886798859 1.3641269207000732422 1.5533730983734130859 0.82835400104522705078 4.8597064018249511719 4.3624377250671386719 5.1275186538696289062 2.416011810302734375 2.1599743366241455078 2.7267117500305175781 0.87599998712539672852 2.30034637451171875 1.8345215320587158203 1.1604492664337158203 0.82760334014892578125 3.8797485828399658203 0.0053280000574886798859 1.1771665811538696289 3.1167044639587402344 3.2968015670776367188 2.142276763916015625 2.6739966869354248047 3.2939341068267822266 3.0386364459991455078 2.9995937347412109375 2.5250804424285888672 1.8909018039703369141 3.4537982940673828125 3.4083533287048339844 0.97645014524459838867 0.38633945584297180176 2.0727329254150390625 3.1378154754638671875 3.3419666290283203125 3.0383772850036621094 3.001773834228515625 3.0701019763946533203 3.0945200920104980469 3.6128461360931396484 3.9176108837127685547 3.5989115238189697266 3.5234200954437255859 3.9207441806793212891 3.5316293239593505859 3.9571652412414550781 1.8025166988372802734 1.3512877225875854492 1.7680025100708007812 1.1130127906799316406 1.4363065958023071289 3.0918750762939453125 4.5810608863830566406 4.1470575332641601562 4.650226593017578125 4.7953591346740722656 3.4219319820404052734 3.0884401798248291016 3.1093237400054931641 3.1398446559906005859 3.1444942951202392578 3.1476476192474365234 3.1385753154754638672 3.1149373054504394531 3.0959832668304443359 1.7721687555313110352 0.20115999877452850342 2.6940937042236328125 2.1038799285888671875 3.018589019775390625 2.3258473873138427734 3.1038055419921875 3.1031820774078369141 3.1443800926208496094 3.1445450782775878906 3.1343801021575927734 3.1249473094940185547 3.1310546398162841797 3.1125366687774658203 3.0464966297149658203 3.0858926773071289062 2.6771452426910400391 0.84583401679992675781 
0.60649067163467407227 0.96091163158416748047 1.1019750833511352539 2.0490264892578125 0.96778798103332519531 0.96700805425643920898 0.399089813232421875 0.65725356340408325195 0.0053280000574886798859 1.9656128883361816406 3.5974216461181640625 5.3675332069396972656 2.8458311557769775391 2.3837971687316894531 3.0296044349670410156 2.8306121826171875 2.0566692352294921875 2.2750451564788818359 1.6610524654388427734 3.6328427791595458984 5.0248417854309082031 1.8008469343185424805 1.7491915225982666016 4.3738622665405273438 3.4927506446838378906 3.3786401748657226562 2.9025342464447021484 2.9892950057983398438 2.7891895771026611328 3.0763835906982421875 1.2911978960037231445 2.7983205318450927734 3.2161657810211181641 4.19061279296875 0.38581174612045288086 0.0053280000574886798859 2.3362910747528076172 1.411172032356262207 2.8448290824890136719 3.9179883003234863281 3.2296619415283203125 3.0762605667114257812 3.1232826709747314453 3.1296794414520263672 3.7665362358093261719 3.4049396514892578125 3.1020247936248779297 3.2238438129425048828 3.2559790611267089844 3.8058989048004150391 3.6505191326141357422 4.480915069580078125 4.8032083511352539062 3.9498021602630615234 3.2515339851379394531 3.8220522403717041016 3.4098596572875976562 1.9611574411392211914 3.2712776660919189453 3.9151377677917480469 3.1368169784545898438 3.1489081382751464844 3.1407976150512695312 3.1411881446838378906 3.1274485588073730469 3.1438009738922119141 3.1417591571807861328 3.1426877975463867188 2.1664941310882568359 0.56222575902938842773 2.4644846916198730469 3.08892059326171875 2.5638303756713867188 3.033008575439453125 1.7927587032318115234 2.9595267772674560547 3.0879187583923339844 3.0996935367584228516 3.0955719947814941406 2.9591090679168701172 3.0018301010131835938 3.0132949352264404297 3.0885014533996582031 3.0999100208282470703 3.1074216365814208984 1.3173532485961914062 1.5866342782974243164 
0.88015013933181762695 1.8502573966979980469 3.7792694568634033203 3.0071308612823486328 3.4255621433258056641 1.0348198413848876953 0.18926100432872772217 2.6705553531646728516 2.4892852306365966797 2.2976903915405273438 3.8896231651306152344 3.067005157470703125 3.0264477729797363281 0.67221063375473022461 2.8147604465484619141 2.5481312274932861328 2.4729359149932861328 0.80922704935073852539 2.7503986358642578125 3.7800953388214111328 1.8231561183929443359 2.4823772907257080078 3.0490283966064453125 3.11392974853515625 3.0273211002349853516 3.0813837051391601562 3.1063048839569091797 3.06217193603515625 2.9509532451629638672 1.690877079963684082 1.5510776042938232422 3.2931809425354003906 3.9412083625793457031 2.5383059978485107422 0.4641825556755065918 0.0053280000574886798859 0.90022158622741699219 2.1702251434326171875 3.0897243022918701172 3.2516086101531982422 3.1233003139495849609 3.1173238754272460938 3.1319925785064697266 3.1415348052978515625 3.1093955039978027344 3.1360943317413330078 3.0782055854797363281 3.0768804550170898438 3.0023527145385742188 2.8820364475250244141 3.0922155380249023438 3.1229312419891357422 3.1566717624664306641 3.1478989124298095703 3.1556155681610107422 3.1402456760406494141 3.1410863399505615234 0.20115999877452850342 2.5636029243469238281 2.1616754531860351562 2.5478196144104003906 3.1657779216766357422 3.1654391288757324219 3.1696982383728027344 3.1551923751831054688 3.1449227333068847656 3.1261377334594726562 3.1240010261535644531 1.5675890445709228516 1.3735269308090209961 1.2930027246475219727 1.1803200244903564453 2.7966992855072021484 2.9391021728515625 2.768978118896484375 3.0717897415161132812 3.0644776821136474609 3.0695734024047851562 3.0510706901550292969 2.9821727275848388672 3.0006465911865234375 3.0370447635650634766 3.0535249710083007812 2.3399779796600341797 2.3122313022613525391 2.08051300048828125 2.93181610107421875 
1.5660380125045776367 2.5370249748229980469 3.5205798149108886719 2.9328684806823730469 3.4621019363403320312 3.4645709991455078125 1.5659735202789306641 2.6231391429901123047 3.0975484848022460938 2.7375025749206542969 2.4403297901153564453 3.0214304924011230469 2.4968998432159423828 0.54949802160263061523 1.4322850704193115234 1.021945953369140625 1.5019435882568359375 1.0706231594085693359 2.3239741325378417969 0.9567050933837890625 1.7272858619689941406 1.8306372165679931641 2.5287413597106933594 2.7222867012023925781 2.9410424232482910156 2.7648794651031494141 2.7214858531951904297 2.9608623981475830078 3.2718033790588378906 3.4948518276214599609 2.8823947906494140625 1.5001507997512817383 2.7264413833618164062 0.38107630610466003418 0.031350500881671905518 0.0053280000574886798859 1.2564673423767089844 2.9854481220245361328 3.0678365230560302734 3.0811929702758789062 3.1345741748809814453 3.1293735504150390625 1.9658496379852294922 3.1434102058410644531 3.125537872314453125 3.0993428230285644531 3.0152094364166259766 3.087375640869140625 3.0462801456451416016 3.0524113178253173828 3.0997376441955566406 3.1307659149169921875 3.1440219879150390625 3.1529631614685058594 3.1623528003692626953 1.3738775253295898438 0.20197543501853942871 0.20429669320583343506 2.3859884738922119141 0.0053280000574886798859 1.3848682641983032227 3.1714036464691162109 3.1613576412200927734 3.1610324382781982422 3.1795666217803955078 3.1613028049468994141 3.1353554725646972656 2.9239265918731689453 1.7517330646514892578 0.75503700971603393555 0.3783461153507232666 0.20115999877452850342 2.9551193714141845703 2.9879775047302246094 3.1064400672912597656 3.0729317665100097656 3.0234696865081787109 3.0284795761108398438 2.8551986217498779297 3.0157191753387451172 3.0215861797332763672 3.0464804172515869141 3.0746147632598876953 2.4633939266204833984 2.6957612037658691406 3.30551910400390625 3.3511974811553955078 
1.5624862909317016602 2.9360904693603515625 2.5893495082855224609 0.30507743358612060547 1.8203952312469482422 2.8571381568908691406 2.1291947364807128906 3.1871922016143798828 3.38484954833984375 3.0982682704925537109 2.1414639949798583984 2.215290069580078125 1.0909967422485351562 3.2351648807525634766 1.5497057437896728516 1.1310207843780517578 1.9676316976547241211 1.5329087972640991211 2.6293394565582275391 2.6923766136169433594 2.5249006748199462891 2.5041222572326660156 1.6435453891754150391 2.0037543773651123047 1.855448603630065918 2.4181678295135498047 2.6904153823852539062 2.8145806789398193359 2.7647712230682373047 3.2219638824462890625 3.2421393394470214844 3.3311762809753417969 2.3005015850067138672 0.026146000251173973083 0.010532500222325325012 0.0053280000574886798859 0.21896375715732574463 3.0895392894744873047 3.0190250873565673828 3.1251721382141113281 3.0987532138824462891 3.1393330097198486328 2.9539210796356201172 3.1486494541168212891 3.1070866584777832031 3.0276103019714355469 3.0335056781768798828 2.7244145870208740234 3.0850641727447509766 2.9016788005828857422 2.9016926288604736328 3.1348407268524169922 3.13507843017578125 3.1703782081604003906 2.9669711589813232422 0.031350500881671905518 0.010532500222325325012 0.41887888312339782715 1.5733284950256347656 0.0053280000574886798859 0.40094411373138427734 3.1577539443969726562 3.1457509994506835938 3.1279263496398925781 3.09523773193359375 3.1531231403350830078 3.1452984809875488281 0.78904330730438232422 0.0053280000574886798859 2.3151717185974121094 1.7192990779876708984 2.0645709037780761719 3.0703232288360595703 3.1123902797698974609 3.1133446693420410156 3.0887055397033691406 3.0668032169342041016 3.0651631355285644531 3.1917371749877929688 3.0590589046478271484 3.1914207935333251953 3.0768551826477050781 3.0933926105499267578 3.0979874134063720703 3.0554602146148681641 3.3422052860260009766 3.1237652301788330078 
2.3605566024780273438 2.57642364501953125 2.0552823543548583984 0.30895513296127319336 1.7372246980667114258 2.421146392822265625 1.533511042594909668 3.0764300823211669922 2.3860805034637451172 2.0694587230682373047 0.80899667739868164062 0.45550233125686645508 1.9682493209838867188 1.8041632175445556641 1.8369038105010986328 2.2302381992340087891 2.4469182491302490234 1.4783951044082641602 1.4842582941055297852 0.91781949996948242188 1.9021526575088500977 0.87599998712539672852 1.2281144857406616211 2.0162751674652099609 2.6395599842071533203 2.4728837013244628906 2.3743097782135009766 3.3741168975830078125 2.41574859619140625 3.2691080570220947266 2.9236352443695068359 1.7804272174835205078 1.9441792964935302734 0.37447857856750488281 1.8017075061798095703 1.8676939010620117188 1.6286455392837524414 2.9509291648864746094 2.96112823486328125 3.0369439125061035156 3.1277153491973876953 3.1305253505706787109 2.8454136848449707031 3.1428322792053222656 3.0958316326141357422 3.0702581405639648438 3.030712127685546875 2.9163138866424560547 1.9236965179443359375 3.1080927848815917969 3.101665496826171875 2.9108464717864990234 2.3449006080627441406 2.7742643356323242188 2.1828734874725341797 0.38986295461654663086 0.0053280000574886798859 0.20377457141876220703 0.20429669320583343506 0.0053280000574886798859 0.0053280000574886798859 3.1627457141876220703 3.1387131214141845703 3.1485886573791503906 2.8986668586730957031 3.1292865276336669922 1.9726063013076782227 0.0053280000574886798859 0.97904336452484130859 2.1641955375671386719 3.1198325157165527344 3.0913522243499755859 3.1092321872711181641 3.0325086116790771484 2.5130529403686523438 1.7814840078353881836 3.1034090518951416016 3.5045225620269775391 4.475070953369140625 4.081905364990234375 3.3618667125701904297 3.1074550151824951172 3.1189970970153808594 3.1143207550048828125 3.1057372093200683594 3.1498632431030273438 3.1511487960815429688 
2.7843532562255859375 0.7270539402961730957 1.4001753330230712891 0.82340019941329956055 2.2455365657806396484 2.4291937351226806641 3.0601677894592285156 2.9663193225860595703 3.0102262496948242188 1.5406464338302612305 2.5559253692626953125 2.0963928699493408203 0.39978048205375671387 0.76716601848602294922 0.49508100748062133789 1.0131105184555053711 2.2085485458374023438 1.8502789735794067383 2.9426205158233642578 1.9602025747299194336 1.7975121736526489258 1.8336669206619262695 1.5002120733261108398 1.6356788873672485352 2.7549657821655273438 3.0906085968017578125 2.1337692737579345703 3.4506158828735351562 2.5134608745574951172 2.3313581943511962891 2.3764295578002929688 0.07196000218391418457 1.0333472490310668945 0.84778183698654174805 2.6435914039611816406 2.3370237350463867188 2.3193151950836181641 2.9532475471496582031 2.7618439197540283203 3.0952813625335693359 3.1354155540466308594 3.1405062675476074219 2.8047811985015869141 3.1244556903839111328 3.1324620246887207031 3.1249012947082519531 3.1029322147369384766 3.1089046001434326172 3.1099557876586914062 2.9654083251953125 1.5483604669570922852 2.7016773223876953125 3.0959911346435546875 3.1272993087768554688 3.1411561965942382812 2.8777544498443603516 1.9723486900329589844 3.1647903919219970703 0.5974318385124206543 0.39358061552047729492 1.9684157371520996094 2.7399079799652099609 2.9299244880676269531 2.8526287078857421875 2.6925423145294189453 2.0964682102203369141 1.3815265893936157227 0.0053280000574886798859 0.59408229589462280273 3.1313207149505615234 3.0680623054504394531 3.0341973304748535156 3.0816311836242675781 3.0824670791625976562 1.7201012372970581055 0.030399501323699951172 0.063120253384113311768 3.1038882732391357422 3.1163418292999267578 3.0966217517852783203 3.0509209632873535156 3.1220560073852539062 3.0763802528381347656 3.0984592437744140625 3.1502079963684082031 3.1405417919158935547 3.1617105007171630859 
1.4982397556304931641 0.0053280000574886798859 0.0053280000574886798859 1.566290736198425293 3.1304152011871337891 2.8346686363220214844 2.9436190128326416016 3.1002318859100341797 2.5835242271423339844 1.6643035411834716797 2.6110846996307373047 1.3030431270599365234 0.41123399138450622559 1.2568786144256591797 1.560563206672668457 0.87599998712539672852 1.8308087587356567383 1.6044472455978393555 3.0519032478332519531 1.8541334867477416992 2.0934979915618896484 2.82697296142578125 1.776930689811706543 0.91405463218688964844 2.6062717437744140625 2.5446970462799072266 2.7495732307434082031 3.4814593791961669922 2.2549238204956054688 2.2835357189178466797 2.1124081611633300781 0.39741149544715881348 0.07196000218391418457 0.45041280984878540039 1.0265473127365112305 1.3005832433700561523 2.2587571144104003906 2.6425948143005371094 3.004474639892578125 2.8301055431365966797 2.9227807521820068359 3.0866901874542236328 3.0902364253997802734 3.0741736888885498047 2.5289363861083984375 2.9110746383666992188 2.9258544445037841797 3.1234438419342041016 2.8069922924041748047 1.4978144168853759766 0.59001266956329345703 3.1090204715728759766 2.530361175537109375 3.1292057037353515625 3.1229829788208007812 3.1284847259521484375 2.3545186519622802734 2.1581373214721679688 0.39842981100082397461 1.1639689207077026367 0.97356665134429931641 3.1398971080780029297 3.14896392822265625 3.1340765953063964844 1.5182995796203613281 0.0053280000574886798859 0.0053280000574886798859 0.98671609163284301758 0.98658514022827148438 3.120426177978515625 3.0992825031280517578 3.0163664817810058594 3.0639958381652832031 3.0840010643005371094 1.9346096515655517578 0.0069324998185038566589 1.7339665889739990234 3.1016950607299804688 3.1264913082122802734 3.1393330097198486328 3.1032307147979736328 3.109832763671875 3.1170680522918701172 3.1056125164031982422 3.1182470321655273438 2.7538847923278808594 2.3566982746124267578 
1.4024703502655029297 0.0053280000574886798859 0.0053280000574886798859 1.5973401069641113281 2.9845447540283203125 2.6938626766204833984 2.9679682254791259766 1.9330148696899414062 1.8418295383453369141 1.5504744052886962891 1.6887668371200561523 0.95330691337585449219 0.82574748992919921875 1.7116683721542358398 1.6642868518829345703 0.96676886081695556641 1.3593658208847045898 1.2626341581344604492 1.9493136405944824219 3.0420553684234619141 2.0676653385162353516 2.2423083782196044922 1.5946276187896728516 2.5393466949462890625 3.7001893520355224609 1.4573796987533569336 2.6435692310333251953 3.0813796520233154297 3.0137355327606201172 2.5964870452880859375 2.3995511531829833984 0.87770187854766845703 0.18751461803913116455 1.1026192903518676758 0.27672263979911804199 2.5254967212677001953 2.7031972408294677734 2.5546240806579589844 2.7968440055847167969 3.0979835987091064453 3.1378383636474609375 3.1025516986846923828 3.1269729137420654297 3.1151301860809326172 2.9427073001861572266 2.9094042778015136719 1.766793370246887207 1.9408802986145019531 0.0053280000574886798859 1.377261042594909668 0.39498725533485412598 3.1476857662200927734 3.0843768119812011719 3.1320202350616455078 2.7582788467407226562 2.7432351112365722656 2.9550256729125976562 1.3166621923446655273 2.358249664306640625 3.1029696464538574219 3.1059405803680419922 3.1145246028900146484 3.1290762424468994141 3.1238903999328613281 1.7697646617889404297 1.5795414447784423828 1.1849875450134277344 3.1404066085815429688 2.70489501953125 3.0863943099975585938 2.9659399986267089844 3.0436968803405761719 3.0620777606964111328 3.0637538433074951172 0.81271141767501831055 0.20613743364810943604 2.6795659065246582031 3.1060061454772949219 3.1411769390106201172 3.1376447677612304688 3.1359090805053710938 3.1284873485565185547 3.1386506557464599609 3.1194312572479248047 1.9629375934600830078 0.20164944231510162354 0.78865599632263183594 
1.3071907758712768555 0.0053280000574886798859 0.0053280000574886798859 1.5477962493896484375 2.8302249908447265625 2.6276147365570068359 3.2084436416625976562 2.0878560543060302734 2.2916438579559326172 0.41499060392379760742 1.1171162128448486328 0.87599998712539672852 1.013403773307800293 2.1936728954315185547 1.6567860841751098633 0.87599998712539672852 1.1576621532440185547 1.8971269130706787109 1.0146012306213378906 2.0637469291687011719 2.1237692832946777344 2.0320918560028076172 2.5953810214996337891 3.0386979579925537109 3.2615392208099365234 2.115756988525390625 2.8072104454040527344 2.6034333705902099609 2.6069991588592529297 1.619112849235534668 2.9039692878723144531 0.80489361286163330078 0.65932518243789672852 0.34871730208396911621 1.8918015956878662109 3.3420572280883789062 2.5982313156127929688 2.7479524612426757812 2.9191572666168212891 2.9678723812103271484 3.1048190593719482422 2.9983067512512207031 2.6519103050231933594 3.0512387752532958984 2.546756744384765625 1.7621821165084838867 0.3934459388256072998 0.0053280000574886798859 0.0053280000574886798859 0.19938044250011444092 0.59655874967575073242 3.1339113712310791016 3.1223452091217041016 3.1293408870697021484 3.1159572601318359375 3.115081787109375 3.1250250339508056641 3.1287569999694824219 3.0510203838348388672 3.0917787551879882812 3.1205360889434814453 3.0746660232543945312 3.0989871025085449219 3.1306970119476318359 3.1465458869934082031 3.1357870101928710938 3.1004559993743896484 3.1259291172027587891 3.0664520263671875 3.0974457263946533203 3.0740182399749755859 3.0673325061798095703 3.0491552352905273438 2.066944122314453125 0.059744998812675476074 1.5412267446517944336 3.0696611404418945312 3.0462987422943115234 3.1370868682861328125 3.1268742084503173828 3.1408083438873291016 2.9538781642913818359 3.1209769248962402344 3.1343588829040527344 3.1336634159088134766 3.1355898380279541016 1.5785074234008789062 
0.0053280000574886798859 0.0053280000574886798859 0.0053280000574886798859 1.9350739717483520508 2.7128801345825195312 2.7824399471282958984 3.0392796993255615234 2.7081105709075927734 1.0731428861618041992 0.22299599647521972656 1.2079470157623291016 0.87599998712539672852 0.76088845729827880859 2.5099461078643798828 1.4340436458587646484 0.87599998712539672852 1.3313798904418945312 2.3126914501190185547 2.3959524631500244141 1.5236974954605102539 2.1388099193572998047 2.2312939167022705078 2.4721207618713378906 2.6037642955780029297 3.1103177070617675781 1.7181481122970581055 2.8334445953369140625 2.6185998916625976562 1.4709035158157348633 2.2016777992248535156 3.0755918025970458984 0.96239948272705078125 0.61526095867156982422 0.69774389266967773438 2.5936856269836425781 1.5495859384536743164 2.3186771869659423828 3.0872700214385986328 2.7690899372100830078 2.8555848598480224609 3.1364006996154785156 3.0939338207244873047 2.5470430850982666016 3.1436927318572998047 2.5026504993438720703 0.0053280000574886798859 0.0053280000574886798859 0.0053280000574886798859 0.0053280000574886798859 0.0053280000574886798859 0.39343288540840148926 3.1309473514556884766 3.1255846023559570312 3.1199221611022949219 3.0794987678527832031 3.1163854598999023438 3.1232173442840576172 3.0969920158386230469 2.7193357944488525391 3.0645680427551269531 3.0645680427551269531 3.0530219078063964844 3.0835409164428710938 3.0645680427551269531 3.1355652809143066406 3.1027393341064453125 3.0482866764068603516 3.1297893524169921875 3.0625977516174316406 3.0884165763854980469 3.0250830650329589844 2.9755198955535888672 2.7246687412261962891 0.23340499401092529297 0.015737000852823257446 2.3217902183532714844 2.9455327987670898438 3.1279256343841552734 3.0971016883850097656 1.5594401359558105469 1.5736019611358642578 1.1904190778732299805 1.9750778675079345703 3.1270804405212402344 3.1345243453979492188 3.1391878128051757812 0.0053280000574886798859 
