ncols        19
nrows        23
xllcorner    508536.404131802963
yllcorner    5265348.997906560078
cellsize     570.000000000000
NODATA_value -9999
0.014000000432133674622 0.014000000432133674622 0.014000000432133674622 0.014000000432133674622 0.014000000432133674622 0.014000000432133674622 0.014149584807455539703 0.10391129553318023682 0.014000000432133674622 0.014000000432133674622 0.014000000432133674622 0.014747923240065574646 0.40757575631141662598 0.39472672343254089355 0.87653362751007080078 1.1531255245208740234 1.013112187385559082 0.89737081527709960938 0.63482695817947387695 
0.014000000432133674622 0.014000000432133674622 0.014000000432133674622 0.014000000432133674622 0.071366645395755767822 0.42358720302581787109 0.44654551148414611816 0.2657483220100402832 0.014000000432133674622 0.014149584807455539703 0.65484654903411865234 1.0623211860656738281 0.99200087785720825195 1.159913182258605957 0.73527634143829345703 1.0763088464736938477 1.2223566770553588867 1.0562512874603271484 0.78397732973098754883 
0.014000000432133674622 0.014000000432133674622 0.014000000432133674622 0.053183492273092269897 0.91624754667282104492 1.0699056386947631836 0.47948563098907470703 0.014828255400061607361 0.052366316318511962891 0.53799921274185180664 1.2706252336502075195 1.1344207525253295898 0.92916947603225708008 1.1326261758804321289 0.94726431369781494141 0.84230893850326538086 0.76782858371734619141 1.5553771257400512695 0.93409371376037597656 
0.014000000432133674622 0.014000000432133674622 0.014000000432133674622 0.55592703819274902344 1.7262159585952758789 1.1045551300048828125 0.38698908686637878418 0.43719542026519775391 0.62842148542404174805 0.86144196987152099609 0.98529082536697387695 0.79786908626556396484 1.1455332040786743164 0.95740950107574462891 1.1015777587890625 0.87405604124069213867 0.94215029478073120117 1.6030509471893310547 1.0308268070220947266 
0.014000000432133674622 0.014000000432133674622 0.091989628970623016357 1.2187201976776123047 0.93018376827239990234 0.90891695022583007812 0.8227602839469909668 1.1334698200225830078 1.1795228719711303711 1.2280036211013793945 1.7271660566329956055 1.0408321619033813477 1.0767457485198974609 0.78185772895812988281 1.0177768468856811523 1.5983625650405883789 1.254784703254699707 1.3895978927612304688 1.7633565664291381836 
0.55981945991516113281 1.0952385663986206055 1.7196997404098510742 1.6709063053131103516 0.9746888279914855957 0.84079730510711669922 0.81589150428771972656 0.86988109350204467773 1.8418297767639160156 1.5191862583160400391 2.2810170650482177734 1.1410731077194213867 1.04033660888671875 0.64145749807357788086 0.89443975687026977539 2.3022589683532714844 1.5974678993225097656 1.6074265241622924805 2.5870616436004638672 
1.2617282867431640625 1.561954498291015625 1.6676466464996337891 4.7738504409790039062 1.6393717527389526367 0.92929977178573608398 0.88435232639312744141 0.72721886634826660156 1.0792616605758666992 1.3169482946395874023 3.9225077629089355469 1.8980166912078857422 0.89551484584808349609 1.0363820791244506836 0.80932152271270751953 1.3498406410217285156 2.9749722480773925781 1.973445892333984375 3.2012438774108886719 
1.3907034397125244141 1.0659017562866210938 1.4717037677764892578 3.3539564609527587891 2.6030530929565429688 0.77110457420349121094 1.4573808908462524414 1.4187233448028564453 0.86463570594787597656 0.92335349321365356445 2.384891510009765625 1.343981623649597168 1.1661182641983032227 1.5390260219573974609 1.7845809459686279297 0.99930620193481445312 2.5579037666320800781 2.6995713710784912109 3.3902645111083984375 
0.97449201345443725586 1.0891594886779785156 1.9524326324462890625 4.2447299957275390625 1.4802088737487792969 1.1980437040328979492 1.1510921716690063477 1.4325612783432006836 1.1051377058029174805 1.1990565061569213867 1.1208426952362060547 1.6667395830154418945 1.3871518373489379883 1.2560491561889648438 1.56449127197265625 2.21987152099609375 0.85418784618377685547 1.9380252361297607422 1.0575748682022094727 
2.3002245426177978516 1.6235978603363037109 1.0612949132919311523 1.7503508329391479492 1.7567965984344482422 1.9412050247192382812 1.6626933813095092773 1.5268980264663696289 1.020020604133605957 1.2954921722412109375 1.0113173723220825195 1.2604353427886962891 0.87750756740570068359 2.522907257080078125 1.4784932136535644531 1.8938628435134887695 1.5651320219039916992 1.854024052619934082 1.9471851587295532227 
4.76611328125 1.603909611701965332 1.6526640653610229492 1.5200941562652587891 2.5831594467163085938 1.54956817626953125 1.2438094615936279297 1.4675707817077636719 0.97547268867492675781 1.3275264501571655273 1.4568386077880859375 1.0044854879379272461 1.0794930458068847656 1.7569071054458618164 1.2193655967712402344 1.04988861083984375 1.2106428146362304688 1.7875710725784301758 1.0621038675308227539 
3.0626432895660400391 1.8806617259979248047 1.5077829360961914062 1.1805788278579711914 1.3496040105819702148 0.41110971570014953613 0.34111315011978149414 0.75972104072570800781 0.53307986259460449219 1.1272448301315307617 0.88549441099166870117 0.70273631811141967773 0.75797480344772338867 1.2852332592010498047 1.1564788818359375 0.52993947267532348633 0.92180806398391723633 1.3013952970504760742 0.61730009317398071289 
1.4576209783554077148 1.0592118501663208008 0.99463659524917602539 1.037047266960144043 1.0737398862838745117 1.1417582035064697266 0.50496602058410644531 0.29866132140159606934 0.47791019082069396973 0.98299306631088256836 1.0388561487197875977 2.5684018135070800781 1.2286969423294067383 1.3790235519409179688 1.4400299787521362305 0.7846736907958984375 0.94999831914901733398 1.1226530075073242188 2.0181734561920166016 
1.6093941926956176758 0.92444556951522827148 1.1078685522079467773 1.4187455177307128906 0.90217626094818115234 0.94035863876342773438 0.64772802591323852539 0.58266836404800415039 1.1350694894790649414 4.4711289405822753906 0.75182199478149414062 1.2461159229278564453 1.3001863956451416016 1.9514292478561401367 1.6739916801452636719 1.3122732639312744141 3.1021549701690673828 2.3479666709899902344 2.3631038665771484375 
2.1314454078674316406 1.3791544437408447266 1.3816096782684326172 1.7118442058563232422 1.1613730192184448242 2.7456150054931640625 1.7320287227630615234 1.0071852207183837891 1.9759924411773681641 2.4100263118743896484 1.4224770069122314453 1.4423398971557617188 1.66165924072265625 1.4866486787796020508 1.1885004043579101562 2.74884796142578125 2.7166635990142822266 3.5889885425567626953 4.0371189117431640625 
2.3267099857330322266 0.65270066261291503906 0.74385344982147216797 1.3577044010162353516 1.2942537069320678711 2.1467714309692382812 1.170697331428527832 1.4882220029830932617 0.79525005817413330078 0.77984440326690673828 1.5959277153015136719 1.1274646520614624023 1.1046766042709350586 1.9508309364318847656 1.2401447296142578125 2.6694154739379882812 1.8430696725845336914 2.2734730243682861328 3.6154887676239013672 
1.937853693962097168 1.5163331031799316406 1.6806071996688842773 1.0743569135665893555 1.3302530050277709961 1.5400884151458740234 1.0815215110778808594 1.0232446193695068359 0.76092576980590820312 0.80430012941360473633 1.0107806921005249023 1.1830695867538452148 2.6399469375610351562 1.3451074361801147461 2.5795931816101074219 2.2971401214599609375 3.9730772972106933594 3.8038914203643798828 4.2135677337646484375 
1.0660675764083862305 1.3694748878479003906 0.80982309579849243164 1.5795127153396606445 1.2917641401290893555 1.0997771024703979492 0.70498543977737426758 0.76952528953552246094 1.0020956993103027344 0.99215376377105712891 0.90217697620391845703 2.0597369670867919922 1.7537196874618530273 0.96042925119400024414 1.4773880243301391602 1.1887511014938354492 2.7311663627624511719 1.4402711391448974609 1.4742971658706665039 
1.1974737644195556641 0.59192836284637451172 0.42321339249610900879 1.9910914897918701172 1.4862864017486572266 0.36086490750312805176 0.37539461255073547363 1.1493743658065795898 1.2564160823822021484 0.71677815914154052734 1.0041640996932983398 0.80706226825714111328 0.72018253803253173828 0.93081301450729370117 0.89174234867095947266 0.9509563446044921875 2.7308185100555419922 1.89194488525390625 1.1632838249206542969 
0.97820192575454711914 1.2610857486724853516 1.7729369401931762695 2.1435041427612304688 2.3111517429351806641 0.97543001174926757812 0.90476477146148681641 1.1778482198715209961 1.1022516489028930664 0.90240383148193359375 1.1518992185592651367 0.75905334949493408203 1.0575428009033203125 0.97893172502517700195 1.1322383880615234375 1.0747270584106445312 0.90919482707977294922 1.2794104814529418945 1.0311019420623779297 
1.1677510738372802734 0.95233172178268432617 1.2767083644866943359 1.2791423797607421875 1.2365154027938842773 1.0318408012390136719 1.2580521106719970703 0.76523256301879882812 0.93199270963668823242 0.88363736867904663086 0.92688196897506713867 1.0178016424179077148 0.83525180816650390625 0.80546289682388305664 0.70953869819641113281 0.99979770183563232422 0.93751090764999389648 0.90754979848861694336 0.8376407623291015625 
1.0752806663513183594 2.0506684780120849609 1.8930338621139526367 1.5923936367034912109 1.9362350702285766602 1.5715707540512084961 2.9850604534149169922 1.8856490850448608398 0.96165931224822998047 0.826183319091796875 0.83886235952377319336 0.7234541773796081543 0.62863248586654663086 0.78232616186141967773 0.67559140920639038086 0.94374114274978637695 1.0148034095764160156 0.82622826099395751953 0.69874358177185058594 
1.0984842777252197266 1.9935845136642456055 1.5147335529327392578 1.8034367561340332031 2.1408159732818603516 1.5014173984527587891 3.7861266136169433594 1.9059914350509643555 1.1340057849884033203 0.75549852848052978516 0.54674828052520751953 0.82257372140884399414 0.81006926298141479492 0.81695634126663208008 0.99296581745147705078 0.95995253324508666992 0.82918566465377807617 0.73893433809280395508 0.65398830175399780273 
