ncols        19
nrows        23
xllcorner    508536.404131802963
yllcorner    5265348.997906560078
cellsize     570.000000000000
NODATA_value -9999
0.022560000419616699219 0.022560000419616699219 0.022560000419616699219 0.022560000419616699219 0.022560000419616699219 0.022560000419616699219 0.022679224610328674316 0.47627553343772888184 0.022560000419616699219 0.022560000419616699219 0.022560000419616699219 0.023156121373176574707 1.3812613487243652344 0.9004961848258972168 3.9942660331726074219 2.2092483043670654297 3.8190355300903320312 4.55559539794921875 3.41197967529296875 
0.022560000419616699219 0.022560000419616699219 0.022560000419616699219 0.022560000419616699219 0.027774224057793617249 1.9337129592895507812 1.5904904603958129883 1.5749262571334838867 0.022560000419616699219 0.022679224610328674316 1.6398144960403442383 7.3121480941772460938 7.5630006790161132812 8.0403728485107421875 7.0388197898864746094 3.59734344482421875 7.9703011512756347656 4.1679720878601074219 3.5252854824066162109 
0.022560000419616699219 0.022560000419616699219 0.022560000419616699219 0.026745401322841644287 6.7090401649475097656 10.510446548461914062 3.9176592826843261719 0.022906204685568809509 0.026099806651473045349 3.4844574928283691406 7.1268868446350097656 9.851100921630859375 8.4393815994262695312 7.2929210662841796875 6.7928295135498046875 6.0274915695190429688 5.4977283477783203125 5.8660020828247070312 6.2720694541931152344 
0.022560000419616699219 0.022560000419616699219 0.022560000419616699219 1.5525858402252197266 8.4209804534912109375 5.8128046989440917969 1.9321843385696411133 1.0337469577789306641 4.1378502845764160156 6.615779876708984375 7.3503541946411132812 4.5277776718139648438 3.6689810752868652344 6.6963496208190917969 8.4221220016479492188 7.3260445594787597656 8.4033298492431640625 7.9053087234497070312 8.059505462646484375 
0.022560000419616699219 0.022560000419616699219 0.15988028049468994141 6.89340972900390625 10.488572120666503906 5.3319864273071289062 1.9378859996795654297 8.1923418045043945312 5.39536285400390625 4.180690765380859375 9.8751373291015625 5.3603577613830566406 7.2864980697631835938 11.254583358764648438 9.5753927230834960938 6.0771541595458984375 6.8149237632751464844 7.6131997108459472656 5.8010010719299316406 
3.9467687606811523438 5.8332061767578125 4.2208037376403808594 9.9921159744262695312 7.1620335578918457031 5.6088418960571289062 4.8200345039367675781 5.3365631103515625 6.41493988037109375 8.215908050537109375 11.685992240905761719 11.127383232116699219 6.3061337471008300781 5.774234771728515625 6.8329133987426757812 8.5385675430297851562 11.474303245544433594 7.4610028266906738281 5.2479944229125976562 
7.5707201957702636719 5.447536468505859375 5.3193187713623046875 3.4919078350067138672 8.8347215652465820312 7.1754775047302246094 6.0158562660217285156 7.2577676773071289062 7.2799654006958007812 8.2112941741943359375 6.61930084228515625 11.741448402404785156 4.79767608642578125 9.9830293655395507812 9.251922607421875 10.011220932006835938 9.992034912109375 8.2315387725830078125 5.9896335601806640625 
6.1551680564880371094 5.2753205299377441406 12.808062553405761719 8.5974884033203125 7.1421899795532226562 8.8205785751342773438 8.044376373291015625 6.5621218681335449219 7.2318682670593261719 6.5672159194946289062 7.8923091888427734375 9.6743974685668945312 3.7126901149749755859 10.895304679870605469 10.360669136047363281 6.9970946311950683594 5.5641736984252929688 7.3187799453735351562 8.11617279052734375 
8.5721559524536132812 7.19750213623046875 13.018215179443359375 7.2831454277038574219 10.593941688537597656 7.941715240478515625 8.287357330322265625 6.5186338424682617188 10.741880416870117188 9.1598920822143554688 5.3773694038391113281 9.8067808151245117188 7.0690202713012695312 9.0756273269653320312 11.693277359008789062 9.3678951263427734375 6.423961639404296875 6.7102341651916503906 10.735768318176269531 
10.016888618469238281 9.8115673065185546875 11.205929756164550781 12.540637969970703125 9.0754289627075195312 5.3308582305908203125 7.8759088516235351562 8.6934757232666015625 8.7304639816284179688 11.568572044372558594 2.0334827899932861328 8.3487730026245117188 4.0349345207214355469 8.806339263916015625 8.7953319549560546875 9.9553747177124023438 6.6215715408325195312 8.069583892822265625 4.6622052192687988281 
5.5580821037292480469 8.2286653518676757812 9.0719537734985351562 11.94954681396484375 9.9323101043701171875 5.0308156013488769531 5.6283831596374511719 6.5227198600769042969 4.4059314727783203125 10.425551414489746094 12.644929885864257812 5.7851362228393554688 5.5979342460632324219 6.8929724693298339844 4.1825270652770996094 6.1523098945617675781 5.4981274604797363281 10.840403556823730469 8.7329893112182617188 
9.1715841293334960938 7.4969501495361328125 7.5729475021362304688 10.890267372131347656 9.1581144332885742188 1.7570160627365112305 1.5249783992767333984 2.6288619041442871094 2.9105658531188964844 11.795908927917480469 13.102260589599609375 4.2433648109436035156 4.2814741134643554688 10.775106430053710938 3.4682638645172119141 0.57712399959564208984 5.1247959136962890625 8.51348114013671875 8.334259033203125 
8.7130632400512695312 8.4389142990112304688 8.6195917129516601562 8.113407135009765625 8.2125415802001953125 3.0353434085845947266 1.7554559707641601562 2.4018220901489257812 2.9080646038055419922 12.349261283874511719 13.054189682006835938 8.9248790740966796875 7.1872615814208984375 10.464238166809082031 8.9260234832763671875 6.1833348274230957031 5.5872707366943359375 6.6926593780517578125 11.19641876220703125 
10.490141868591308594 8.8242664337158203125 8.178844451904296875 9.1435003280639648438 8.1123704910278320312 4.7195892333984375 2.3614025115966796875 1.4562784433364868164 9.0605134963989257812 5.0675525665283203125 4.0245652198791503906 6.2063665390014648438 11.409125328063964844 9.1132259368896484375 7.7030205726623535156 8.5100574493408203125 7.6262936592102050781 9.6228656768798828125 6.6756901741027832031 
11.300404548645019531 10.987189292907714844 10.885540962219238281 3.3284013271331787109 2.4349315166473388672 8.2196836471557617188 7.2209644317626953125 3.6581966876983642578 11.6526031494140625 6.7568807601928710938 3.0541238784790039062 8.212177276611328125 11.317995071411132812 10.03696441650390625 9.068721771240234375 9.8580369949340820312 6.8392949104309082031 6.9867339134216308594 5.4876885414123535156 
10.310750007629394531 3.6566503047943115234 3.2068130970001220703 6.4249739646911621094 7.8154664039611816406 12.295002937316894531 2.5583689212799072266 9.8396120071411132812 5.65435028076171875 11.229511260986328125 8.8590784072875976562 5.9801993370056152344 10.967005729675292969 11.800826072692871094 9.1857862472534179688 9.2840242385864257812 8.9201993942260742188 7.3646497726440429688 10.359300613403320312 
8.85007476806640625 10.458958625793457031 3.7141449451446533203 9.5233860015869140625 8.5183057785034179688 11.994824409484863281 5.1475481986999511719 9.1323060989379882812 10.582197189331054688 10.671075820922851562 11.175928115844726562 12.036055564880371094 9.1482744216918945312 12.826236724853515625 8.8978338241577148438 9.3364896774291992188 7.0428800582885742188 8.9261713027954101562 8.5682401657104492188 
8.2649707794189453125 9.8505802154541015625 1.5341191291809082031 4.6234598159790039062 12.222146987915039062 9.506961822509765625 4.0391860008239746094 6.5868930816650390625 12.337690353393554688 12.270291328430175781 11.662473678588867188 10.677395820617675781 4.7447810173034667969 6.7713313102722167969 10.123455047607421875 12.604679107666015625 10.059178352355957031 7.88643646240234375 12.618645668029785156 
6.4682779312133789062 2.8421480655670166016 1.7580636739730834961 10.212225914001464844 11.442996025085449219 2.7561714649200439453 1.2516437768936157227 10.204132080078125 12.332086563110351562 8.8718996047973632812 9.8616657257080078125 10.911825180053710938 7.7831716537475585938 12.305721282958984375 11.966574668884277344 12.798707962036132812 7.9539074897766113281 10.387766838073730469 13.10976409912109375 
5.1990995407104492188 8.84488677978515625 4.3908467292785644531 11.529537200927734375 10.655059814453125 5.402881622314453125 5.882778167724609375 6.4531893730163574219 12.60997772216796875 13.020506858825683594 11.759181976318359375 5.2444930076599121094 7.3130965232849121094 7.5834393501281738281 10.734730720520019531 9.4447307586669921875 12.049029350280761719 10.671080589294433594 11.86350250244140625 
5.2633709907531738281 4.7139048576354980469 10.847904205322265625 11.01922607421875 6.2714171409606933594 11.470052719116210938 9.160564422607421875 5.2715940475463867188 12.543582916259765625 12.3441162109375 10.434133529663085938 8.3094501495361328125 8.0686292648315429688 12.534033775329589844 9.4456653594970703125 11.205669403076171875 13.136995315551757812 12.362153053283691406 7.8193554878234863281 
6.0056524276733398438 11.524094581604003906 8.2908887863159179688 8.0475454330444335938 8.7000169754028320312 9.159336090087890625 6.9036335945129394531 6.9433422088623046875 12.906369209289550781 12.660245895385742188 10.843507766723632812 9.6025562286376953125 5.6553273200988769531 10.865369796752929688 7.2435617446899414062 10.511135101318359375 11.550549507141113281 12.82891082763671875 10.415903091430664062 
4.69576263427734375 10.269104957580566406 5.3863115310668945312 4.9484462738037109375 11.138494491577148438 9.2488908767700195312 6.3566675186157226562 9.5869150161743164062 12.725407600402832031 8.0173254013061523438 4.3342442512512207031 12.898210525512695312 12.415667533874511719 12.778265953063964844 13.071702003479003906 7.8660974502563476562 12.529764175415039062 11.597111701965332031 8.7670793533325195312 
