ncols        19
nrows        23
xllcorner    508536.404131802963
yllcorner    5265348.997906560078
cellsize     570.000000000000
NODATA_value -9999
0.051213998347520828247 0.051213998347520828247 0.051213998347520828247 0.051213998347520828247 0.051213998347520828247 0.051213998347520828247 0.051253847777843475342 0.83666604757308959961 0.051213998347520828247 0.051213998347520828247 0.051213998347520828247 0.051413249224424362183 2.5450036525726318359 3.2356405258178710938 11.245363235473632812 18.5441131591796875 17.813375473022460938 17.642848968505859375 8.1018247604370117188 
0.051213998347520828247 0.051213998347520828247 0.051213998347520828247 0.051213998347520828247 0.05777981877326965332 3.6350693702697753906 3.8944070339202880859 2.9020600318908691406 0.051213998347520828247 0.051253847777843475342 2.4322357177734375 11.255120277404785156 17.348163604736328125 19.5962371826171875 16.279401779174804688 19.929067611694335938 20.9315338134765625 18.686361312866210938 11.953227996826171875 
0.051213998347520828247 0.051213998347520828247 0.051213998347520828247 0.055824220180511474609 12.444247245788574219 19.046503067016601562 9.0269079208374023438 0.05100458487868309021 0.05549611896276473999 6.3998975753784179688 18.554716110229492188 17.956340789794921875 19.39638519287109375 23.354022979736328125 16.79920196533203125 16.59404754638671875 15.194956779479980469 9.8129749298095703125 14.399647712707519531 
0.051213998347520828247 0.051213998347520828247 0.051213998347520828247 2.62641143798828125 15.529278755187988281 9.6679019927978515625 5.6727957725524902344 2.4158945083618164062 8.317474365234375 12.3102264404296875 13.428037643432617188 9.8777856826782226562 13.859302520751953125 22.008258819580078125 16.03281402587890625 17.050935745239257812 18.092733383178710938 9.948459625244140625 18.4662322998046875 
0.051213998347520828247 0.051213998347520828247 0.76086652278900146484 11.785282135009765625 16.903469085693359375 10.996978759765625 13.44385528564453125 14.344024658203125 9.6469364166259765625 4.58623504638671875 13.45471954345703125 10.841032981872558594 22.654108047485351562 24.374814987182617188 20.225084304809570312 10.27634429931640625 14.833753585815429688 9.605998992919921875 6.1217436790466308594 
6.8984637260437011719 10.150423049926757812 10.310441970825195312 17.514974594116210938 11.551006317138671875 12.328001976013183594 17.205896377563476562 13.222581863403320312 10.317420005798339844 9.5802946090698242188 13.368671417236328125 18.86818695068359375 21.655179977416992188 9.7340230941772460938 10.678414344787597656 11.211646080017089844 20.29671478271484375 9.5317716598510742188 7.9488925933837890625 
11.767466545104980469 16.526052474975585938 10.40938568115234375 5.6093592643737792969 14.907796859741210938 15.802394866943359375 14.123456001281738281 13.324545860290527344 11.881806373596191406 11.424151420593261719 8.5558099746704101562 16.357297897338867188 21.511638641357421875 15.751271247863769531 14.851228713989257812 15.572138786315917969 11.621882438659667969 7.7167687416076660156 14.431237220764160156 
13.537576675415039062 18.79497528076171875 17.598741531372070312 11.655579566955566406 12.557627677917480469 17.433879852294921875 14.768614768981933594 16.488405227661132812 16.89026641845703125 15.21076202392578125 11.804708480834960938 18.503175735473632812 23.990865707397460938 14.95465087890625 15.043709754943847656 10.571842193603515625 8.2192134857177734375 12.662389755249023438 13.081106185913085938 
19.915796279907226562 20.210601806640625 14.326834678649902344 7.8160009384155273438 17.930253982543945312 16.574472427368164062 14.884631156921386719 8.0599498748779296875 19.9631805419921875 14.565411567687988281 7.0434327125549316406 15.831204414367675781 18.962179183959960938 15.675588607788085938 17.0201263427734375 11.5237274169921875 10.818047523498535156 18.110612869262695312 25.0251617431640625 
11.509137153625488281 17.909481048583984375 20.711751937866210938 16.17417144775390625 16.841754913330078125 9.22525787353515625 14.04581451416015625 11.290726661682128906 12.889929771423339844 16.351232528686523438 3.7651619911193847656 9.8987569808959960938 18.26184844970703125 14.946999549865722656 16.300401687622070312 14.215682029724121094 10.516222953796386719 15.500931739807128906 27.1188201904296875 
6.3717055320739746094 18.751310348510742188 15.929953575134277344 16.490018844604492188 11.656495094299316406 7.6590600013732910156 11.914210319519042969 12.768841743469238281 10.708668708801269531 14.887148857116699219 15.357399940490722656 18.610103607177734375 11.986688613891601562 12.195500373840332031 12.855804443359375 11.135638236999511719 8.9639072418212890625 17.558963775634765625 12.53212738037109375 
10.968904495239257812 14.295269966125488281 12.253747940063476562 18.401897430419921875 15.265630722045898438 5.4281263351440429688 3.1663630008697509766 5.0598506927490234375 8.062923431396484375 19.959810256958007812 22.731443405151367188 13.693230628967285156 14.23822784423828125 16.872341156005859375 11.053020477294921875 1.1105196475982666016 9.4430074691772460938 13.197400093078613281 13.014832496643066406 
18.38443756103515625 13.704462051391601562 16.021549224853515625 13.392891883850097656 13.178736686706542969 4.6102242469787597656 2.9419035911560058594 3.9354104995727539062 6.6153111457824707031 19.470645904541015625 20.454832077026367188 12.161837577819824219 17.098066329956054688 18.899988174438476562 14.243058204650878906 14.311804771423339844 8.6924276351928710938 11.486882209777832031 15.358721733093261719 
18.04384613037109375 17.0082550048828125 15.842289924621582031 14.486966133117675781 16.515445709228515625 13.138385772705078125 10.192778587341308594 5.7029557228088378906 15.006020545959472656 8.0129213333129882812 6.581268310546875 8.7690210342407226562 20.631254196166992188 18.556970596313476562 14.486011505126953125 11.570016860961914062 10.578885078430175781 10.975750923156738281 8.77811431884765625 
13.989052772521972656 16.169038772583007812 14.547243118286132812 27.679742813110351562 22.115564346313476562 12.452932357788085938 10.64313507080078125 5.7117519378662109375 15.34232330322265625 9.4972467422485351562 6.2599101066589355469 15.344973564147949219 17.233013153076171875 19.918054580688476562 14.843546867370605469 12.764509201049804688 10.429775238037109375 11.049868583679199219 8.4454717636108398438 
12.79669189453125 7.8161268234252929688 4.5118546485900878906 20.618322372436523438 16.550647735595703125 13.363495826721191406 6.78900909423828125 20.10393524169921875 9.8312044143676757812 19.8497772216796875 16.297739028930664062 11.088277816772460938 22.352350234985351562 16.903350830078125 17.309991836547851562 14.147677421569824219 17.891210556030273438 16.798955917358398438 7.7297010421752929688 
12.270664215087890625 16.362712860107421875 28.51578521728515625 15.917466163635253906 18.780763626098632812 15.892113685607910156 15.145218849182128906 19.08209228515625 18.882144927978515625 20.262769699096679688 22.489870071411132812 21.130474090576171875 13.837252616882324219 18.67486572265625 14.322931289672851562 16.765804290771484375 8.9742612838745117188 7.2478375434875488281 6.4639658927917480469 
17.369274139404296875 15.067374229431152344 9.2257986068725585938 16.805072784423828125 17.590106964111328125 14.389311790466308594 9.2140283584594726562 10.649222373962402344 21.037794113159179688 23.500446319580078125 21.528873443603515625 20.090906143188476562 6.1211996078491210938 15.153687477111816406 19.871120452880859375 23.2105865478515625 12.836762428283691406 12.154456138610839844 20.800167083740234375 
13.345134735107421875 6.00785064697265625 6.7345857620239257812 11.428197860717773438 16.389553070068359375 4.8668246269226074219 2.1750428676605224609 18.195156097412109375 19.4551544189453125 16.479066848754882812 20.343214035034179688 20.370065689086914062 14.345051765441894531 21.927083969116210938 21.440279006958007812 23.634866714477539062 13.663419723510742188 15.032968521118164062 19.716869354248046875 
14.377386093139648438 13.994549751281738281 28.140392303466796875 11.018009185791015625 11.051873207092285156 11.600468635559082031 10.234990119934082031 20.226001739501953125 20.68633270263671875 24.201250076293945312 22.430807113647460938 11.627931594848632812 21.286184310913085938 12.991660118103027344 18.7398529052734375 14.590940475463867188 23.093393325805664062 23.056360244750976562 26.644550323486328125 
15.483925819396972656 8.762233734130859375 19.876337051391601562 20.574411392211914062 13.724415779113769531 20.068098068237304688 17.762147903442382812 10.8394622802734375 21.05912017822265625 22.596452713012695312 22.859785079956054688 24.444570541381835938 20.55706787109375 25.97016143798828125 17.440492630004882812 20.101318359375 22.52384185791015625 22.683076858520507812 18.387296676635742188 
12.913275718688964844 15.039499282836914062 17.529064178466796875 17.42728424072265625 17.438917160034179688 17.624401092529296875 11.174510002136230469 10.170232772827148438 22.680742263793945312 23.590051651000976562 18.74893951416015625 19.785070419311523438 12.279856681823730469 23.097269058227539062 14.291853904724121094 16.6552276611328125 20.293382644653320312 21.96640777587890625 21.212770462036132812 
5.6865482330322265625 12.763528823852539062 22.468721389770507812 23.458028793334960938 14.553211212158203125 18.85462188720703125 9.3256425857543945312 13.476179122924804688 23.87995147705078125 16.901361465454101562 9.102935791015625 29.603017807006835938 24.946485519409179688 29.6549072265625 23.807420730590820312 12.649022102355957031 23.135519027709960938 23.791934967041015625 18.450124740600585938 
