ncols        19
nrows        23
xllcorner    508536.404131802963
yllcorner    5265348.997906560078
cellsize     570.000000000000
NODATA_value -9999
0.0099999997764825820923 0.0099999997764825820923 0.0099999997764825820923 0.0099999997764825820923 0.0099999997764825820923 0.0099999997764825820923 0.010102492757141590118 0.099360108375549316406 0.0099999997764825820923 0.0099999997764825820923 0.0099999997764825820923 0.010512464679777622223 0.35702419281005859375 0.32241457700729370117 0.76635086536407470703 0.94295680522918701172 0.85892814397811889648 0.83329755067825317383 0.5855617523193359375 
0.0099999997764825820923 0.0099999997764825820923 0.0099999997764825820923 0.0099999997764825820923 0.05720294266939163208 0.38342434167861938477 0.39060643315315246582 0.24950678646564483643 0.0099999997764825820923 0.010102492757141590118 0.57764488458633422852 1.0510313510894775391 0.96471869945526123047 1.0959211587905883789 0.72162079811096191406 0.95937263965606689453 1.1955605745315551758 0.90034013986587524414 0.6401965022087097168 
0.0099999997764825820923 0.0099999997764825820923 0.0099999997764825820923 0.042113136500120162964 0.87538748979568481445 1.0716922283172607422 0.44164916872978210449 0.010567867197096347809 0.041550807654857635498 0.50959259271621704102 1.1929126977920532227 1.1592911481857299805 0.91989612579345703125 0.9923489689826965332 0.89817625284194946289 0.84135866165161132812 0.74697440862655639648 1.4346752166748046875 0.87261569499969482422 
0.0099999997764825820923 0.0099999997764825820923 0.0099999997764825820923 0.49061432480812072754 1.5709129571914672852 1.0474313497543334961 0.33300152420997619629 0.3723646700382232666 0.59789383411407470703 0.87699639797210693359 1.0148100852966308594 0.7638867497444152832 0.94357359409332275391 0.86279028654098510742 1.0810987949371337891 0.92942523956298828125 0.98393708467483520508 1.5580736398696899414 0.97152799367904663086 
0.0099999997764825820923 0.0099999997764825820923 0.071129716932773590088 1.1452112197875976562 0.99818688631057739258 0.84874689579010009766 0.60958945751190185547 1.107606053352355957 1.0961816310882568359 1.1311327219009399414 1.6961165666580200195 0.9681174159049987793 0.94055157899856567383 0.80673354864120483398 1.0346268415451049805 1.4451963901519775391 1.2070342302322387695 1.3560146093368530273 1.6189877986907958984 
0.55050796270370483398 1.0563807487487792969 1.4645459651947021484 1.5696582794189453125 0.95407652854919433594 0.83238190412521362305 0.76379805803298950195 0.83151781558990478516 1.679295659065246582 1.4927316904067993164 2.2510230541229248047 1.203754425048828125 0.93361574411392211914 0.64811271429061889648 0.90300750732421875 2.1353859901428222656 1.5631707906723022461 1.5312441587448120117 2.2578940391540527344 
1.2386133670806884766 1.3688317537307739258 1.4694777727127075195 4.0101685523986816406 1.5415207147598266602 0.93053472042083740234 0.82489311695098876953 0.76852238178253173828 1.0904253721237182617 1.3212752342224121094 3.4208981990814208984 1.8809896707534790039 0.78921830654144287109 1.087642669677734375 0.88618320226669311523 1.3648331165313720703 2.735393524169921875 1.887860417366027832 2.7239143848419189453 
1.2754201889038085938 0.90396153926849365234 1.5568397045135498047 3.0013394355773925781 2.3194751739501953125 0.82510256767272949219 1.3875601291656494141 1.3449567556381225586 0.92295861244201660156 0.94902998208999633789 2.1832747459411621094 1.3626904487609863281 1.0595898628234863281 1.5575670003890991211 1.7342621088027954102 1.0003154277801513672 2.2403581142425537109 2.3889789581298828125 2.9854409694671630859 
0.96756160259246826172 1.0135433673858642578 2.0075013637542724609 3.7319021224975585938 1.4795416593551635742 1.167912602424621582 1.1961120367050170898 1.3840845823287963867 1.1611500978469848633 1.2358075380325317383 1.07993316650390625 1.6806036233901977539 1.3279832601547241211 1.2525620460510253906 1.6027977466583251953 2.0984487533569335938 0.84590768814086914062 1.6638104915618896484 1.0245585441589355469 
2.2087512016296386719 1.5843942165374755859 1.1345686912536621094 1.8034654855728149414 1.6868412494659423828 1.72853851318359375 1.5918211936950683594 1.5081847906112670898 1.0610132217407226562 1.3845751285552978516 0.79627692699432373047 1.2852931022644042969 0.72671276330947875977 2.329559326171875 1.457987666130065918 1.8217741250991821289 1.4477417469024658203 1.6846841573715209961 1.4731061458587646484 
4.0947146415710449219 1.5123579502105712891 1.5908998250961303711 1.5787085294723510742 2.4272162914276123047 1.4083436727523803711 1.1488826274871826172 1.3242893218994140625 0.86970257759094238281 1.360499262809753418 1.5926200151443481445 0.88732200860977172852 0.99960994720458984375 1.6113280057907104492 1.0265839099884033203 0.97565662860870361328 1.1176159381866455078 1.7290754318237304688 1.0900806188583374023 
2.81203460693359375 1.7446447610855102539 1.4150716066360473633 1.2442986965179443359 1.3684908151626586914 0.38232427835464477539 0.29789325594902038574 0.68904739618301391602 0.51601874828338623047 1.2059580087661743164 1.0062927007675170898 0.68362212181091308594 0.70897203683853149414 1.3782225847244262695 1.0142600536346435547 0.44419246912002563477 0.8580506443977355957 1.2712978124618530273 0.70307946205139160156 
1.4152008295059204102 1.0813773870468139648 0.99424993991851806641 1.0375392436981201172 1.0819122791290283203 1.0135483741760253906 0.44732087850570678711 0.29366165399551391602 0.44784325361251831055 1.1167364120483398438 1.1645934581756591797 2.3793630599975585938 1.1806622743606567383 1.4020533561706542969 1.4265764951705932617 0.78109979629516601562 0.92875057458877563477 1.1000235080718994141 1.9751609563827514648 
1.5958098173141479492 0.95231765508651733398 1.1273365020751953125 1.3909101486206054688 0.91852968931198120117 0.8870061039924621582 0.59205615520477294922 0.50956439971923828125 1.140608668327331543 3.802703857421875 0.70632708072662353516 1.191143035888671875 1.3581645488739013672 1.8488900661468505859 1.5915894508361816406 1.3140763044357299805 2.7495105266571044922 2.2188997268676757812 2.1364424228668212891 
2.0991473197937011719 1.4642164707183837891 1.4412559270858764648 1.2240386009216308594 0.9768759608268737793 2.4982550144195556641 1.6263575553894042969 0.85424625873565673828 1.9458265304565429688 2.1609122753143310547 1.2259383201599121094 1.3937668800354003906 1.6622275114059448242 1.4806902408599853516 1.2136076688766479492 2.5509736537933349609 2.4024553298950195312 3.1671338081359863281 3.5080144405364990234 
2.2383713722229003906 0.65665215253829956055 0.67773813009262084961 1.2061110734939575195 1.1992926597595214844 2.1760179996490478516 0.91557180881500244141 1.411332249641418457 0.77438199520111083984 0.85468822717666625977 1.4669910669326782227 0.97735249996185302734 1.1382470130920410156 1.9164818525314331055 1.2456315755844116211 2.4427866935729980469 1.7413674592971801758 2.1035108566284179688 3.3525519371032714844 
1.8418945074081420898 1.500821232795715332 1.1996463537216186523 1.1057204008102416992 1.2981737852096557617 1.6031688451766967773 0.92257088422775268555 1.0077223777770996094 0.84205263853073120117 0.87108981609344482422 1.0170496702194213867 1.232340693473815918 2.4039733409881591797 1.4386991262435913086 2.3446044921875 2.0724604129791259766 3.4724771976470947266 3.4276633262634277344 3.7747368812561035156 
1.024058222770690918 1.3733248710632324219 0.64668226242065429688 1.3160854578018188477 1.3952505588531494141 1.1404715776443481445 0.64156007766723632812 0.77416479587554931641 1.0870304107666015625 1.0364603996276855469 0.96774953603744506836 1.9099252223968505859 1.581896662712097168 0.92751997709274291992 1.4224718809127807617 1.2222779989242553711 2.5350904464721679688 1.3726836442947387695 1.5072695016860961914 
1.1086446046829223633 0.56143152713775634766 0.3342120051383972168 1.968854069709777832 1.558123469352722168 0.35361614823341369629 0.33013638854026794434 1.1820586919784545898 1.3353525400161743164 0.73739761114120483398 0.97810506820678710938 0.87906193733215332031 0.75400638580322265625 1.0257087945938110352 0.9763272404670715332 1.0480822324752807617 2.4441924095153808594 1.8378309011459350586 1.2879309654235839844 
0.88111978769302368164 1.245432734489440918 1.3109948635101318359 2.1647670269012451172 2.2663817405700683594 0.92672210931777954102 0.87202733755111694336 1.0181577205657958984 1.2047964334487915039 1.0114796161651611328 1.1811012029647827148 0.71293675899505615234 0.93430483341217041016 0.97101992368698120117 1.150843501091003418 1.0962139368057250977 1.0024259090423583984 1.2185852527618408203 1.0190284252166748047 
1.0201853513717651367 0.89703482389450073242 1.3158676624298095703 1.271233677864074707 1.1564309597015380859 1.1147955656051635742 1.2233754396438598633 0.73265290260314941406 1.0603525638580322266 0.99197280406951904297 0.9724490046501159668 0.90450888872146606445 0.81152641773223876953 0.8694546818733215332 0.75720620155334472656 1.0593153238296508789 1.070916295051574707 1.010731816291809082 0.78495824337005615234 
0.99014240503311157227 2.0201928615570068359 1.7365757226943969727 1.4547382593154907227 1.7541707754135131836 1.4980584383010864258 2.6165559291839599609 1.7300256490707397461 1.0582174062728881836 0.92131710052490234375 0.92759180068969726562 0.74766677618026733398 0.60045385360717773438 0.80883705615997314453 0.68692958354949951172 1.035252690315246582 1.0960571765899658203 0.96105223894119262695 0.73447060585021972656 
1.0446786880493164062 1.9418429136276245117 1.2125866413116455078 1.4164464473724365234 2.0825431346893310547 1.4117538928985595703 3.2714712619781494141 1.8179515600204467773 1.1838873624801635742 0.76442754268646240234 0.51588433980941772461 0.86675429344177246094 0.87278723716735839844 0.86006593704223632812 1.1222712993621826172 0.98501497507095336914 0.92440313100814819336 0.79022604227066040039 0.66280442476272583008 
