ncols        87
nrows        107
xllcorner    508536.404131802963
yllcorner    5265618.997906560078
cellsize     120.000000000000
NODATA_value -9999
0.0049999998882412910461 0.0049999998882412910461 0.0049999998882412910461 0.0049999998882412910461 0.0049999998882412910461 0.0049999998882412910461 0.0049999998882412910461 0.0049999998882412910461 0.0049999998882412910461 0.0049999998882412910461 0.0049999998882412910461 0.0049999998882412910461 0.0049999998882412910461 0.0049999998882412910461 0.0049999998882412910461 0.0049999998882412910461 0.0049999998882412910461 0.0049999998882412910461 0.0049999998882412910461 0.0049999998882412910461 0.0049999998882412910461 0.0049999998882412910461 0.0049999998882412910461 0.0049999998882412910461 0.0049999998882412910461 0.0049999998882412910461 0.0049999998882412910461 0.0049999998882412910461 0.0049999998882412910461 0.0049999998882412910461 0.0049999998882412910461 0.0049999998882412910461 0.0049999998882412910461 0.0049999998882412910461 0.0049999998882412910461 0.0049999998882412910461 0.0049999998882412910461 0.0049999998882412910461 0.0049999998882412910461 0.0049999998882412910461 0.0049999998882412910461 0.0049999998882412910461 0.0049999998882412910461 0.0049999998882412910461 0.0049999998882412910461 0.0049999998882412910461 0.0049999998882412910461 0.0049999998882412910461 0.0049999998882412910461 0.0049999998882412910461 0.0049999998882412910461 0.0049999998882412910461 0.0049999998882412910461 0.0049999998882412910461 0.0049999998882412910461 0.0049999998882412910461 0.0049999998882412910461 0.0049999998882412910461 0.0049999998882412910461 0.0049999998882412910461 0.0049999998882412910461 0.0049999998882412910461 0.0049999998882412910461 0.0049999998882412910461 0.0049999998882412910461 0.0049999998882412910461 0.081348381936550140381 0.31584644317626953125 0.23755881190299987793 0.16635824739933013916 0.24168093502521514893 0.27499017119407653809 0.20546099543571472168 0.5608260035514831543 0.33155861496925354004 0.58104801177978515625 0.40980431437492370605 0.20589737594127655029 0.23852936923503875732 0.39839324355125427246 0.51174592971801757812 0.26864725351333618164 0.39219495654106140137 0.29714167118072509766 0.21822255849838256836 0.29018518328666687012 0.28393700718879699707 
0.0049999998882412910461 0.0049999998882412910461 0.0049999998882412910461 0.0049999998882412910461 0.0049999998882412910461 0.0049999998882412910461 0.0049999998882412910461 0.0049999998882412910461 0.0049999998882412910461 0.0049999998882412910461 0.0049999998882412910461 0.0049999998882412910461 0.0049999998882412910461 0.0049999998882412910461 0.0049999998882412910461 0.0049999998882412910461 0.0049999998882412910461 0.0049999998882412910461 0.0049999998882412910461 0.0049999998882412910461 0.0049999998882412910461 0.0049999998882412910461 0.0049999998882412910461 0.0049999998882412910461 0.0049999998882412910461 0.0049999998882412910461 0.0049999998882412910461 0.0049999998882412910461 0.0049999998882412910461 0.0049999998882412910461 0.0049999998882412910461 0.0049999998882412910461 0.0049999998882412910461 0.0049999998882412910461 0.0049999998882412910461 0.0049999998882412910461 0.0049999998882412910461 0.0049999998882412910461 0.0049999998882412910461 0.0049999998882412910461 0.0049999998882412910461 0.0049999998882412910461 0.0049999998882412910461 0.0049999998882412910461 0.0049999998882412910461 0.0049999998882412910461 0.0049999998882412910461 0.0049999998882412910461 0.0049999998882412910461 0.0049999998882412910461 0.0049999998882412910461 0.0049999998882412910461 0.0049999998882412910461 0.0049999998882412910461 0.0049999998882412910461 0.0049999998882412910461 0.0049999998882412910461 0.0049999998882412910461 0.0049999998882412910461 0.0049999998882412910461 0.0049999998882412910461 0.046250000596046447754 0.046250000596046447754 0.0049999998882412910461 0.0049999998882412910461 0.088660880923271179199 0.26103430986404418945 0.15990781784057617188 0.20840212702751159668 0.12112012505531311035 0.39293080568313598633 0.32201799750328063965 0.4158515632152557373 0.34307900071144104004 0.62150210142135620117 0.28816786408424377441 0.28896042704582214355 0.50574648380279541016 0.55904084444046020508 0.57231175899505615234 0.30766525864601135254 0.27598625421524047852 0.19303219020366668701 0.33453819155693054199 0.18586012721061706543 0.3402411341667175293 0.31545025110244750977 
0.0049999998882412910461 0.0049999998882412910461 0.0049999998882412910461 0.0049999998882412910461 0.0049999998882412910461 0.0049999998882412910461 0.0049999998882412910461 0.0049999998882412910461 0.0049999998882412910461 0.0049999998882412910461 0.0049999998882412910461 0.0049999998882412910461 0.0049999998882412910461 0.0049999998882412910461 0.0049999998882412910461 0.0049999998882412910461 0.0049999998882412910461 0.0049999998882412910461 0.0049999998882412910461 0.0049999998882412910461 0.0049999998882412910461 0.0049999998882412910461 0.0049999998882412910461 0.0049999998882412910461 0.0049999998882412910461 0.0049999998882412910461 0.0049999998882412910461 0.0049999998882412910461 0.0049999998882412910461 0.0049999998882412910461 0.0049999998882412910461 0.0049999998882412910461 0.0049999998882412910461 0.0049999998882412910461 0.0049999998882412910461 0.0049999998882412910461 0.0049999998882412910461 0.0049999998882412910461 0.0049999998882412910461 0.0049999998882412910461 0.0049999998882412910461 0.0049999998882412910461 0.0049999998882412910461 0.0049999998882412910461 0.0049999998882412910461 0.0049999998882412910461 0.0049999998882412910461 0.0049999998882412910461 0.0049999998882412910461 0.0049999998882412910461 0.0049999998882412910461 0.0049999998882412910461 0.0049999998882412910461 0.0049999998882412910461 0.0049999998882412910461 0.0049999998882412910461 0.0049999998882412910461 0.0049999998882412910461 0.0087500000372529029846 0.14748674631118774414 0.28877252340316772461 0.10151793807744979858 0.013749999925494194031 0.0054374998435378074646 0.013000000268220901489 0.18835878372192382812 0.19668917357921600342 0.17858462035655975342 0.46325439214706420898 0.12356068938970565796 0.45086875557899475098 0.44452148675918579102 0.68657356500625610352 0.56605750322341918945 0.48188281059265136719 0.22351531684398651123 0.33587512373924255371 0.53760415315628051758 0.30368161201477050781 0.47037398815155029297 0.28651782870292663574 0.28887236118316650391 0.51743721961975097656 0.4186941981315612793 0.34713575243949890137 0.17407131195068359375 0.055858500301837921143 
0.0049999998882412910461 0.0049999998882412910461 0.0049999998882412910461 0.0049999998882412910461 0.0049999998882412910461 0.0049999998882412910461 0.0049999998882412910461 0.0049999998882412910461 0.0049999998882412910461 0.0049999998882412910461 0.0049999998882412910461 0.0049999998882412910461 0.0049999998882412910461 0.0049999998882412910461 0.0049999998882412910461 0.0049999998882412910461 0.0049999998882412910461 0.0049999998882412910461 0.0049999998882412910461 0.0049999998882412910461 0.0049999998882412910461 0.0049999998882412910461 0.0049999998882412910461 0.0049999998882412910461 0.0049999998882412910461 0.0049999998882412910461 0.0049999998882412910461 0.0049999998882412910461 0.0049999998882412910461 0.0049999998882412910461 0.0049999998882412910461 0.0049999998882412910461 0.0049999998882412910461 0.0049999998882412910461 0.0049999998882412910461 0.0062500000931322574615 0.0049999998882412910461 0.0049999998882412910461 0.0049999998882412910461 0.0049999998882412910461 0.0049999998882412910461 0.0049999998882412910461 0.0049999998882412910461 0.0049999998882412910461 0.0049999998882412910461 0.0049999998882412910461 0.0049999998882412910461 0.0049999998882412910461 0.0049999998882412910461 0.0049999998882412910461 0.0049999998882412910461 0.0049999998882412910461 0.0049999998882412910461 0.0049999998882412910461 0.0049999998882412910461 0.0049999998882412910461 0.0049999998882412910461 0.0099999997764825820923 0.277446746826171875 0.24032144248485565186 0.22567836940288543701 0.035089626908302307129 0.24218487739562988281 0.46256250143051147461 0.18000000715255737305 0.6839892268180847168 0.19568394124507904053 0.21827550232410430908 0.1103536263108253479 0.23385962843894958496 0.21482743322849273682 0.49708348512649536133 0.72129869461059570312 0.49756294488906860352 0.43557906150817871094 0.24737806618213653564 0.24738574028015136719 0.29609331488609313965 0.35205337405204772949 0.29988548159599304199 0.4030463099479675293 0.35109487175941467285 0.20079174637794494629 0.44326168298721313477 0.32118424773216247559 0.14084269106388092041 0.13130025565624237061 
0.0049999998882412910461 0.0049999998882412910461 0.0049999998882412910461 0.0049999998882412910461 0.0049999998882412910461 0.0049999998882412910461 0.0049999998882412910461 0.0049999998882412910461 0.0049999998882412910461 0.0049999998882412910461 0.0049999998882412910461 0.0049999998882412910461 0.0049999998882412910461 0.0049999998882412910461 0.0049999998882412910461 0.0049999998882412910461 0.0049999998882412910461 0.0049999998882412910461 0.0049999998882412910461 0.0049999998882412910461 0.0049999998882412910461 0.0049999998882412910461 0.0049999998882412910461 0.0049999998882412910461 0.0049999998882412910461 0.0049999998882412910461 0.0049999998882412910461 0.0049999998882412910461 0.0049999998882412910461 0.0049999998882412910461 0.0049999998882412910461 0.0049999998882412910461 0.0049999998882412910461 0.16007612645626068115 0.23413243889808654785 0.34774318337440490723 0.014187499880790710449 0.0049999998882412910461 0.0049999998882412910461 0.0049999998882412910461 0.0049999998882412910461 0.0049999998882412910461 0.0049999998882412910461 0.0049999998882412910461 0.0049999998882412910461 0.0049999998882412910461 0.0049999998882412910461 0.0049999998882412910461 0.0049999998882412910461 0.0049999998882412910461 0.0049999998882412910461 0.0049999998882412910461 0.0049999998882412910461 0.0049999998882412910461 0.0049999998882412910461 0.0087500000372529029846 0.015437500551342964172 0.25698262453079223633 0.39543446898460388184 0.16480962932109832764 0.10543749481439590454 0.1858097463846206665 0.15536037087440490723 0.50479525327682495117 0.625 0.61000001430511474609 0.24972699582576751709 0.24072025716304779053 0.19539487361907958984 0.29159998893737792969 0.18424999713897705078 0.57068574428558349609 0.4356378018856048584 0.26884743571281433105 0.40121388435363769531 0.45317530632019042969 0.58472287654876708984 0.30870175361633300781 0.27263081073760986328 0.33031931519508361816 0.21719187498092651367 0.52085661888122558594 0.35728600621223449707 0.40851905941963195801 0.18967124819755554199 0.11769318580627441406 0.13652549684047698975 
0.0049999998882412910461 0.0049999998882412910461 0.0049999998882412910461 0.0049999998882412910461 0.0049999998882412910461 0.0049999998882412910461 0.0049999998882412910461 0.0049999998882412910461 0.0049999998882412910461 0.0049999998882412910461 0.0049999998882412910461 0.0049999998882412910461 0.0049999998882412910461 0.0049999998882412910461 0.0049999998882412910461 0.0049999998882412910461 0.0049999998882412910461 0.0049999998882412910461 0.0049999998882412910461 0.0049999998882412910461 0.0049999998882412910461 0.0049999998882412910461 0.0049999998882412910461 0.0049999998882412910461 0.0049999998882412910461 0.0049999998882412910461 0.0049999998882412910461 0.0049999998882412910461 0.0049999998882412910461 0.0049999998882412910461 0.0049999998882412910461 0.012500000186264514923 0.28700044751167297363 0.18443436920642852783 0.10148731619119644165 0.12361993640661239624 0.018562499433755874634 0.0049999998882412910461 0.0049999998882412910461 0.0049999998882412910461 0.0049999998882412910461 0.0049999998882412910461 0.0049999998882412910461 0.0049999998882412910461 0.0049999998882412910461 0.0049999998882412910461 0.0049999998882412910461 0.0049999998882412910461 0.0049999998882412910461 0.0049999998882412910461 0.0049999998882412910461 0.0049999998882412910461 0.0062500000931322574615 0.11854787915945053101 0.12279693782329559326 0.21504956483840942383 0.15539187192916870117 0.11829344183206558228 0.13755588233470916748 0.29096749424934387207 0.24206356704235076904 0.21245750784873962402 0.33040344715118408203 0.21951499581336975098 0.65055525302886962891 0.66500002145767211914 0.20809349417686462402 0.31956893205642700195 0.19311100244522094727 0.24064637720584869385 0.17236737906932830811 0.45835700631141662598 0.54521059989929199219 0.52635413408279418945 0.35019281506538391113 0.5906994938850402832 0.53169047832489013672 0.27590349316596984863 0.49806922674179077148 0.38491207361221313477 0.57926094532012939453 0.73828566074371337891 0.30229938030242919922 0.16590318083763122559 0.37064433097839355469 0.060171000659465789795 0.041999999433755874634 
0.0049999998882412910461 0.0049999998882412910461 0.0049999998882412910461 0.0049999998882412910461 0.0049999998882412910461 0.0049999998882412910461 0.0049999998882412910461 0.0049999998882412910461 0.0049999998882412910461 0.0049999998882412910461 0.0049999998882412910461 0.0049999998882412910461 0.0049999998882412910461 0.0049999998882412910461 0.0049999998882412910461 0.0049999998882412910461 0.0049999998882412910461 0.0049999998882412910461 0.0049999998882412910461 0.0049999998882412910461 0.0049999998882412910461 0.0049999998882412910461 0.0049999998882412910461 0.0049999998882412910461 0.0049999998882412910461 0.0049999998882412910461 0.0049999998882412910461 0.0049999998882412910461 0.012500000186264514923 0.016750000417232513428 0.018437501043081283569 0.17110069096088409424 0.16171762347221374512 0.22358381748199462891 0.057776000350713729858 0.19513806700706481934 0.096250005066394805908 0.0049999998882412910461 0.0049999998882412910461 0.0049999998882412910461 0.0049999998882412910461 0.0049999998882412910461 0.0049999998882412910461 0.0049999998882412910461 0.0049999998882412910461 0.0049999998882412910461 0.0049999998882412910461 0.0049999998882412910461 0.0049999998882412910461 0.0049999998882412910461 0.0062500000931322574615 0.36412125825881958008 0.11522024869918823242 0.12494780868291854858 0.36868518590927124023 0.36949294805526733398 0.23910500109195709229 0.42041730880737304688 0.3734461367130279541 0.3201389312744140625 0.25049257278442382812 0.23931419849395751953 0.18612368404865264893 0.23732990026473999023 0.34526962041854858398 0.62674689292907714844 0.23527149856090545654 0.25230056047439575195 0.17518763244152069092 0.14179749786853790283 0.18531981110572814941 0.27198013663291931152 0.43625098466873168945 0.35492905974388122559 0.37538406252861022949 0.47390732169151306152 0.45268699526786804199 0.36656224727630615234 0.51759678125381469727 0.46877524256706237793 0.49372285604476928711 0.56389153003692626953 0.33206138014793395996 0.23006150126457214355 0.36153587698936462402 0.20133200287818908691 0.10559024661779403687 
0.0049999998882412910461 0.0049999998882412910461 0.0049999998882412910461 0.0049999998882412910461 0.0049999998882412910461 0.0049999998882412910461 0.0049999998882412910461 0.0049999998882412910461 0.0049999998882412910461 0.0049999998882412910461 0.0049999998882412910461 0.0049999998882412910461 0.0049999998882412910461 0.0049999998882412910461 0.0049999998882412910461 0.0049999998882412910461 0.0049999998882412910461 0.0049999998882412910461 0.0049999998882412910461 0.0049999998882412910461 0.0049999998882412910461 0.0049999998882412910461 0.0049999998882412910461 0.0049999998882412910461 0.0049999998882412910461 0.0049999998882412910461 0.10513737797737121582 0.14573293924331665039 0.033306561410427093506 0.074553877115249633789 0.1480538100004196167 0.10236131399869918823 0.24833607673645019531 0.20162019133567810059 0.11698444187641143799 0.0099999997764825820923 0.0049999998882412910461 0.0049999998882412910461 0.0049999998882412910461 0.0049999998882412910461 0.0049999998882412910461 0.0049999998882412910461 0.0049999998882412910461 0.0049999998882412910461 0.0049999998882412910461 0.0049999998882412910461 0.0049999998882412910461 0.0049999998882412910461 0.0049999998882412910461 0.080098375678062438965 0.38498669862747192383 0.14035874605178833008 0.3162142634391784668 0.24195562303066253662 0.65839302539825439453 0.26719674468040466309 0.38499030470848083496 0.27190193533897399902 0.43483424186706542969 0.48202180862426757812 0.20753619074821472168 0.23488350212574005127 0.17068700492382049561 0.32673624157905578613 0.67369562387466430664 0.48449602723121643066 0.20587000250816345215 0.27809900045394897461 0.16624830663204193115 0.081252373754978179932 0.36184850335121154785 0.41052350401878356934 0.3364874422550201416 0.41038656234741210938 0.19106405973434448242 0.37168431282043457031 0.4742119908332824707 0.30670186877250671387 0.49142429232597351074 0.42028793692588806152 0.50433290004730224609 0.43838512897491455078 0.3836752474308013916 0.38759687542915344238 0.53907424211502075195 0.73567259311676025391 0.48824998736381530762 
0.0049999998882412910461 0.0049999998882412910461 0.0049999998882412910461 0.0049999998882412910461 0.0049999998882412910461 0.0049999998882412910461 0.0049999998882412910461 0.0049999998882412910461 0.0049999998882412910461 0.0049999998882412910461 0.0049999998882412910461 0.0049999998882412910461 0.0049999998882412910461 0.0049999998882412910461 0.0049999998882412910461 0.0049999998882412910461 0.0049999998882412910461 0.0049999998882412910461 0.0049999998882412910461 0.0049999998882412910461 0.0049999998882412910461 0.0049999998882412910461 0.0049999998882412910461 0.0099999997764825820923 0.35424190759658813477 0.28541481494903564453 0.31402501463890075684 0.14664018154144287109 0.021999999880790710449 0.28665661811828613281 0.067881502211093902588 0.14767663180828094482 0.13970887660980224609 0.12332969158887863159 0.054206874221563339233 0.0049999998882412910461 0.0049999998882412910461 0.0049999998882412910461 0.0049999998882412910461 0.0049999998882412910461 0.0049999998882412910461 0.0049999998882412910461 0.0049999998882412910461 0.0049999998882412910461 0.0049999998882412910461 0.0049999998882412910461 0.0049999998882412910461 0.0062500000931322574615 0.17167519032955169678 0.24783606827259063721 0.12878587841987609863 0.32194793224334716797 0.27252244949340820312 0.17284099757671356201 0.14654187858104705811 0.23178081214427947998 0.36320018768310546875 0.22496800124645233154 0.32307031750679016113 0.53903031349182128906 0.19917450845241546631 0.28019824624061584473 0.38940909504890441895 0.23142167925834655762 0.60939055681228637695 0.59826129674911499023 0.20123761892318725586 0.32758358120918273926 0.25967574119567871094 0.18466436862945556641 0.3366082608699798584 0.2581373751163482666 0.30213510990142822266 0.2797864377498626709 0.22845862805843353271 0.3914368748664855957 0.40106081962585449219 0.18996049463748931885 0.19448293745517730713 0.21537531912326812744 0.30570423603057861328 0.32501405477523803711 0.42207899689674377441 0.35573175549507141113 0.18567875027656555176 0.16692769527435302734 0.23921175301074981689 
0.0049999998882412910461 0.0049999998882412910461 0.0049999998882412910461 0.0049999998882412910461 0.0049999998882412910461 0.0049999998882412910461 0.0049999998882412910461 0.0049999998882412910461 0.0049999998882412910461 0.0049999998882412910461 0.0049999998882412910461 0.0049999998882412910461 0.0049999998882412910461 0.0049999998882412910461 0.0049999998882412910461 0.0049999998882412910461 0.0049999998882412910461 0.0049999998882412910461 0.0049999998882412910461 0.0049999998882412910461 0.0049999998882412910461 0.0074999998323619365692 0.25628739595413208008 0.57476228475570678711 0.42519283294677734375 0.11675512045621871948 0.19280105829238891602 0.22075799107551574707 0.27575370669364929199 0.10171519219875335693 0.035514686256647109985 0.30445775389671325684 0.15783156454563140869 0.056956876069307327271 0.0062500000931322574615 0.0049999998882412910461 0.0049999998882412910461 0.0049999998882412910461 0.0049999998882412910461 0.0049999998882412910461 0.0049999998882412910461 0.0049999998882412910461 0.0049999998882412910461 0.0049999998882412910461 0.0049999998882412910461 0.0049999998882412910461 0.0087500000372529029846 0.2456127554178237915 0.2084242403507232666 0.25304138660430908203 0.44752424955368041992 0.42021843791007995605 0.23936180770397186279 0.26918780803680419922 0.24213255941867828369 0.38981887698173522949 0.52839541435241699219 0.21037931740283966064 0.32217198610305786133 0.3735510706901550293 0.18633094429969787598 0.32608008384704589844 0.20334017276763916016 0.30984061956405639648 0.38080474734306335449 0.45155438780784606934 0.2216898798942565918 0.28754055500030517578 0.23629045486450195312 0.22693900763988494873 0.18884506821632385254 0.37727761268615722656 0.42993509769439697266 0.39835363626480102539 0.20323450863361358643 0.46065306663513183594 0.31349200010299682617 0.13455650210380554199 0.16653019189834594727 0.18741737306118011475 0.2391971200704574585 0.24501569569110870361 0.41085988283157348633 0.38192787766456604004 0.070477999746799468994 0.14727255702018737793 1.0039999485015869141 
0.0049999998882412910461 0.0049999998882412910461 0.0049999998882412910461 0.0049999998882412910461 0.0049999998882412910461 0.0049999998882412910461 0.0049999998882412910461 0.0049999998882412910461 0.0049999998882412910461 0.0049999998882412910461 0.0049999998882412910461 0.0049999998882412910461 0.0049999998882412910461 0.0049999998882412910461 0.0049999998882412910461 0.0049999998882412910461 0.0049999998882412910461 0.0049999998882412910461 0.0049999998882412910461 0.0074999998323619365692 0.15375925600528717041 0.25995650887489318848 0.30007630586624145508 0.25155156850814819336 0.1239101216197013855 0.17092256247997283936 0.19335636496543884277 0.25999149680137634277 0.24495831131935119629 0.099054500460624694824 0.061606064438819885254 0.21158431470394134521 0.057659998536109924316 0.014000000432133674622 0.0049999998882412910461 0.0049999998882412910461 0.0049999998882412910461 0.0049999998882412910461 0.0049999998882412910461 0.0049999998882412910461 0.0049999998882412910461 0.0049999998882412910461 0.0049999998882412910461 0.0049999998882412910461 0.0049999998882412910461 0.0074999998323619365692 0.22429513931274414062 0.10264718532562255859 0.18420892953872680664 0.26597845554351806641 0.43283963203430175781 0.32007631659507751465 0.24068349599838256836 0.35946550965309143066 0.29051798582077026367 0.50978702306747436523 0.43471294641494750977 0.30287501215934753418 0.22375230491161346436 0.2862021327018737793 0.27222514152526855469 0.15507587790489196777 0.32721400260925292969 0.34190586209297180176 0.45912840962409973145 0.37636163830757141113 0.24916400015354156494 0.25238800048828125 0.2624327242374420166 0.28772562742233276367 0.22343781590461730957 0.39688262343406677246 0.43121179938316345215 0.24173581600189208984 0.23373250663280487061 0.22221125662326812744 0.2235810011625289917 0.11999831348657608032 0.27199906110763549805 0.25855737924575805664 0.39286345243453979492 0.27363324165344238281 0.14008094370365142822 0.21360187232494354248 0.074812747538089752197 0.19028662145137786865 0.41826075315475463867 
0.0049999998882412910461 0.0049999998882412910461 0.0049999998882412910461 0.0049999998882412910461 0.0049999998882412910461 0.0049999998882412910461 0.0049999998882412910461 0.0049999998882412910461 0.0049999998882412910461 0.0049999998882412910461 0.0049999998882412910461 0.0049999998882412910461 0.0049999998882412910461 0.0049999998882412910461 0.0049999998882412910461 0.0049999998882412910461 0.0049999998882412910461 0.0049999998882412910461 0.0049999998882412910461 0.018750000745058059692 0.39827165007591247559 0.15079899132251739502 0.15560211241245269775 0.14909636974334716797 0.12369530647993087769 0.23595654964447021484 0.28261175751686096191 0.23570112884044647217 0.15356574952602386475 0.097417622804641723633 0.22264049947261810303 0.06151693686842918396 0.037790939211845397949 0.0062500000931322574615 0.0049999998882412910461 0.0049999998882412910461 0.0049999998882412910461 0.0049999998882412910461 0.0049999998882412910461 0.0049999998882412910461 0.0049999998882412910461 0.0049999998882412910461 0.0049999998882412910461 0.0049999998882412910461 0.013562500476837158203 0.021937500685453414917 0.2167593836784362793 0.20884574949741363525 0.36190393567085266113 0.47258260846138000488 0.49864682555198669434 0.48113867640495300293 0.24047899246215820312 0.22753818333148956299 0.386821746826171875 0.40281507372856140137 0.43016031384468078613 0.46502012014389038086 0.31092101335525512695 0.24518643319606781006 0.16936124861240386963 0.031374998390674591064 0.53530198335647583008 0.20013888180255889893 0.41915979981422424316 0.58452761173248291016 0.2362336963415145874 0.19231319427490234375 0.28166106343269348145 0.2943572998046875 0.19569537043571472168 0.30746987462043762207 0.33544829487800598145 0.32495868206024169922 0.21141456067562103271 0.14454042911529541016 0.10658656060695648193 0.12436343729496002197 0.17615975439548492432 0.5617961883544921875 0.31381243467330932617 0.26950919628143310547 0.30495205521583557129 0.26486006379127502441 0.13283137977123260498 0.08906444162130355835 0.31938025355339050293 
0.0049999998882412910461 0.0049999998882412910461 0.0049999998882412910461 0.0049999998882412910461 0.0049999998882412910461 0.0049999998882412910461 0.0049999998882412910461 0.0049999998882412910461 0.0049999998882412910461 0.0049999998882412910461 0.0049999998882412910461 0.0049999998882412910461 0.0049999998882412910461 0.0049999998882412910461 0.0049999998882412910461 0.0049999998882412910461 0.0049999998882412910461 0.0049999998882412910461 0.0074999998323619365692 0.098628252744674682617 0.11445299535989761353 0.099811188876628875732 0.23458756506443023682 0.14576219022274017334 0.1893813014030456543 0.29961910843849182129 0.42833599448204040527 0.21896475553512573242 0.13591849803924560547 0.2635784447193145752 0.14651718735694885254 0.081701621413230895996 0.032728437334299087524 0.0049999998882412910461 0.0049999998882412910461 0.0049999998882412910461 0.0049999998882412910461 0.0049999998882412910461 0.0049999998882412910461 0.0049999998882412910461 0.0049999998882412910461 0.0049999998882412910461 0.0049999998882412910461 0.012937500141561031342 0.22567012906074523926 0.18031731247901916504 0.39617276191711425781 0.27762880921363830566 0.23612236976623535156 0.61191171407699584961 0.48904567956924438477 0.43519836664199829102 0.19794474542140960693 0.22475931048393249512 0.29508376121520996094 0.34301874041557312012 0.26774144172668457031 0.26014029979705810547 0.3018595576286315918 0.34976550936698913574 0.20514500141143798828 0.027125000953674316406 0.18849539756774902344 0.49013558030128479004 0.68207693099975585938 0.54084038734436035156 0.30010950565338134766 0.33072033524513244629 0.33388781547546386719 0.27602061629295349121 0.23120537400245666504 0.31567269563674926758 0.21683444082736968994 0.18623006343841552734 0.2302001267671585083 0.23936675488948822021 0.20181544125080108643 0.35167238116264343262 0.16200743615627288818 0.33972793817520141602 0.23560613393783569336 0.45048505067825317383 0.72125160694122314453 0.53391134738922119141 0.40723189711570739746 0.20782981812953948975 0.30234423279762268066 
0.0049999998882412910461 0.0049999998882412910461 0.0049999998882412910461 0.0049999998882412910461 0.0049999998882412910461 0.0049999998882412910461 0.0049999998882412910461 0.0049999998882412910461 0.0049999998882412910461 0.0049999998882412910461 0.0049999998882412910461 0.0049999998882412910461 0.0049999998882412910461 0.0049999998882412910461 0.0049999998882412910461 0.0049999998882412910461 0.0049999998882412910461 0.0049999998882412910461 0.084910877048969268799 0.45763069391250610352 0.18691930174827575684 0.16190806031227111816 0.34519937634468078613 0.30084443092346191406 0.35292398929595947266 0.31577906012535095215 0.28854662179946899414 0.16357992589473724365 0.37913298606872558594 0.49253252148628234863 0.13989749550819396973 0.19431138038635253906 0.047499999403953552246 0.0049999998882412910461 0.0049999998882412910461 0.0049999998882412910461 0.0049999998882412910461 0.0049999998882412910461 0.0049999998882412910461 0.0049999998882412910461 0.0049999998882412910461 0.0049999998882412910461 0.15375925600528717041 0.11423543840646743774 0.19746588170528411865 0.22711050510406494141 0.19810569286346435547 0.24459250271320343018 0.42710438370704650879 0.43778085708618164062 0.38202688097953796387 0.4577178657054901123 0.31448918581008911133 0.43272763490676879883 0.22052443027496337891 0.36331605911254882812 0.3618571162223815918 0.3003291785717010498 0.22325193881988525391 0.23739458620548248291 0.16744744777679443359 0.17294675111770629883 0.30545276403427124023 0.47514733672142028809 0.489505767822265625 0.28880593180656433105 0.24943187832832336426 0.26353183388710021973 0.22381749749183654785 0.20621338486671447754 0.42875269055366516113 0.25686299800872802734 0.25434926152229309082 0.36930161714553833008 0.33727169036865234375 0.3033720552921295166 0.21832412481307983398 0.20170031487941741943 0.22762943804264068604 0.41013613343238830566 0.30295255780220031738 0.61288851499557495117 0.78512424230575561523 0.41625350713729858398 0.45676320791244506836 0.21516349911689758301 0.33570200204849243164 
0.0049999998882412910461 0.0049999998882412910461 0.0049999998882412910461 0.0049999998882412910461 0.0049999998882412910461 0.0049999998882412910461 0.0049999998882412910461 0.0049999998882412910461 0.0049999998882412910461 0.0049999998882412910461 0.0049999998882412910461 0.0049999998882412910461 0.0049999998882412910461 0.0049999998882412910461 0.0049999998882412910461 0.0049999998882412910461 0.0049999998882412910461 0.0049999998882412910461 0.3954918980598449707 0.25715538859367370605 0.1893482506275177002 0.17565506696701049805 0.28855794668197631836 0.26505279541015625 0.29791918396949768066 0.65826141834259033203 0.24225337803363800049 0.21235525608062744141 0.37626031041145324707 0.15177512168884277344 0.18470400571823120117 0.2026996314525604248 0.0049999998882412910461 0.0049999998882412910461 0.0049999998882412910461 0.0049999998882412910461 0.0049999998882412910461 0.0049999998882412910461 0.0049999998882412910461 0.0049999998882412910461 0.0062500000931322574615 0.031068874523043632507 0.34583944082260131836 0.20539055764675140381 0.40990418195724487305 0.21828968822956085205 0.20112331211566925049 0.24992175400257110596 0.33531388640403747559 0.31162798404693603516 0.41178676486015319824 0.39825749397277832031 0.28542542457580566406 0.42523080110549926758 0.23769661784172058105 0.28668299317359924316 0.27229738235473632812 0.25917917490005493164 0.45512735843658447266 0.2828209996223449707 0.19334909319877624512 0.30814352631568908691 0.22471390664577484131 0.45832088589668273926 0.38223105669021606445 0.20434699952602386475 0.21647894382476806641 0.22695393860340118408 0.1996469348669052124 0.23346906900405883789 0.45057508349418640137 0.21429118514060974121 0.2631524503231048584 0.44231143593788146973 0.46916168928146362305 0.38308763504028320312 0.12936650216579437256 0.26236262917518615723 0.27772194147109985352 0.3610159456729888916 0.29566401243209838867 0.51740372180938720703 0.65994763374328613281 0.61853748559951782227 0.48435318470001220703 0.28110849857330322266 0.63982850313186645508 
0.0049999998882412910461 0.0049999998882412910461 0.0049999998882412910461 0.0049999998882412910461 0.0049999998882412910461 0.0049999998882412910461 0.0049999998882412910461 0.0049999998882412910461 0.0049999998882412910461 0.0049999998882412910461 0.0049999998882412910461 0.0049999998882412910461 0.0049999998882412910461 0.0049999998882412910461 0.0049999998882412910461 0.0049999998882412910461 0.0049999998882412910461 0.0049999998882412910461 0.3503049015998840332 0.21481236815452575684 0.1985079348087310791 0.36423149704933166504 0.4448019564151763916 0.33522298932075500488 0.42418769001960754395 0.33729431033134460449 0.13843137025833129883 0.18715794384479522705 0.35067331790924072266 0.15710487961769104004 0.25612398982048034668 0.030437499284744262695 0.0049999998882412910461 0.0049999998882412910461 0.0049999998882412910461 0.0049999998882412910461 0.0049999998882412910461 0.0049999998882412910461 0.0058749997988343238831 0.015499999746680259705 0.17536269128322601318 0.18882106244564056396 0.30602842569351196289 0.34936225414276123047 0.35556885600090026855 0.25329667329788208008 0.31253188848495483398 0.47326761484146118164 0.45880517363548278809 0.34889513254165649414 0.27627786993980407715 0.10994656383991241455 0.10719287395477294922 0.083419933915138244629 0.17059437930583953857 0.35796311497688293457 0.29729393124580383301 0.33009317517280578613 0.21662449836730957031 0.24150025844573974609 0.32562601566314697266 0.26579588651657104492 0.50381702184677124023 0.33447515964508056641 0.53571796417236328125 0.20790858566761016846 0.21561913192272186279 0.37349724769592285156 0.23304818570613861084 0.29428187012672424316 0.49470224976539611816 0.10996387898921966553 0.17509256303310394287 0.34058919548988342285 0.40894988179206848145 0.30798992514610290527 0.25816786289215087891 0.34338706731796264648 0.38156217336654663086 0.40059480071067810059 0.330173492431640625 0.58168631792068481445 0.47718048095703125 0.5492305755615234375 0.35592469573020935059 0.25357913970947265625 0.55352151393890380859 
0.0049999998882412910461 0.0049999998882412910461 0.0049999998882412910461 0.0049999998882412910461 0.0049999998882412910461 0.0049999998882412910461 0.0049999998882412910461 0.0049999998882412910461 0.0049999998882412910461 0.0049999998882412910461 0.0049999998882412910461 0.0049999998882412910461 0.0049999998882412910461 0.0049999998882412910461 0.0049999998882412910461 0.0049999998882412910461 0.0049999998882412910461 0.0099999997764825820923 0.36409851908683776855 0.1379031836986541748 0.14256268739700317383 0.48462340235710144043 0.46729263663291931152 0.59625113010406494141 0.44069138169288635254 0.063851498067378997803 0.086278811097145080566 0.18519742786884307861 0.41092118620872497559 0.11640068888664245605 0.1353534311056137085 0.0049999998882412910461 0.0049999998882412910461 0.0049999998882412910461 0.0049999998882412910461 0.0087500000372529029846 0.076410882174968719482 0.027035813778638839722 0.12085331231355667114 0.20464919507503509521 0.13067030906677246094 0.17607887089252471924 0.33602455258369445801 0.11850806325674057007 0.17280837893486022949 0.30048957467079162598 0.20864425599575042725 0.32249230146408081055 0.47304013371467590332 0.25942587852478027344 0.31327113509178161621 0.079842559993267059326 0.070477999746799468994 0.070477999746799468994 0.19700700044631958008 0.40242391824722290039 0.41263717412948608398 0.4239063262939453125 0.26079505681991577148 0.33805826306343078613 0.41266599297523498535 0.13369461894035339355 0.4841549992561340332 0.35349264740943908691 0.50586163997650146484 0.20348557829856872559 0.28152188658714294434 0.25141218304634094238 0.22359506785869598389 0.46037271618843078613 0.3794384300708770752 0.23601493239402770996 0.20363800227642059326 0.38548356294631958008 0.40428924560546875 0.26083418726921081543 0.32852962613105773926 0.16818536818027496338 0.3021456301212310791 0.31137442588806152344 0.21970357000827789307 0.22403262555599212646 0.16133368015289306641 0.15411862730979919434 0.22086231410503387451 0.35482174158096313477 0.18815775215625762939 
0.0049999998882412910461 0.0049999998882412910461 0.0049999998882412910461 0.0049999998882412910461 0.0049999998882412910461 0.0049999998882412910461 0.0049999998882412910461 0.0049999998882412910461 0.0049999998882412910461 0.0049999998882412910461 0.0049999998882412910461 0.0049999998882412910461 0.0049999998882412910461 0.0049999998882412910461 0.0049999998882412910461 0.0049999998882412910461 0.0049999998882412910461 0.17380020022392272949 0.39069202542304992676 0.16089999675750732422 0.19211661815643310547 0.62046831846237182617 0.74179637432098388672 0.64018601179122924805 0.18159331381320953369 0.15186794102191925049 0.071327187120914459229 0.3195165097713470459 0.30167531967163085938 0.16251718997955322266 0.2129999995231628418 0.0049999998882412910461 0.0049999998882412910461 0.0049999998882412910461 0.0049999998882412910461 0.079848378896713256836 0.63051038980484008789 0.34530818462371826172 0.22415006160736083984 0.34990042448043823242 0.21803131699562072754 0.055176500231027603149 0.16188769042491912842 0.12603244185447692871 0.38678693771362304688 0.070477999746799468994 0.070477999746799468994 0.28108048439025878906 0.33072748780250549316 0.3472308814525604248 0.43151882290840148926 0.070477999746799468994 0.070477999746799468994 0.070477999746799468994 0.17593038082122802734 0.34014999866485595703 0.35784712433815002441 0.29616868495941162109 0.25013580918312072754 0.32787242531776428223 0.24503830075263977051 0.23024608194828033447 0.58160412311553955078 0.39230465888977050781 0.58173757791519165039 0.27175182104110717773 0.20850412547588348389 0.21640612185001373291 0.2898082435131072998 0.50569957494735717773 0.17258743941783905029 0.21463668346405029297 0.22561119496822357178 0.29172986745834350586 0.28053355216979980469 0.21850037574768066406 0.14117637276649475098 0.30428549647331237793 0.31134599447250366211 0.26076507568359375 0.21312943100929260254 0.22510518133640289307 0.24471800029277801514 0.23118737339973449707 0.42054313421249389648 0.30125755071640014648 0.51186323165893554688 
0.0049999998882412910461 0.0049999998882412910461 0.0049999998882412910461 0.0049999998882412910461 0.0049999998882412910461 0.0049999998882412910461 0.0049999998882412910461 0.0049999998882412910461 0.0049999998882412910461 0.0049999998882412910461 0.0049999998882412910461 0.0049999998882412910461 0.0049999998882412910461 0.0049999998882412910461 0.0049999998882412910461 0.0049999998882412910461 0.073848381638526916504 0.45961821079254150391 0.21289493143558502197 0.19392211735248565674 0.18632343411445617676 0.50060862302780151367 0.61151784658432006836 0.3187293708324432373 0.22152030467987060547 0.15355093777179718018 0.27122220396995544434 0.37883463501930236816 0.24937506020069122314 0.28149455785751342773 0.17374999821186065674 0.0062500000931322574615 0.0062500000931322574615 0.0049999998882412910461 0.014875000342726707458 0.21932175755500793457 0.31992727518081665039 0.17901618778705596924 0.19351018965244293213 0.20239637792110443115 0.36434856057167053223 0.074520565569400787354 0.12193137407302856445 0.15743231773376464844 0.38473886251449584961 0.070477999746799468994 0.070477999746799468994 0.063980750739574432373 0.2066510617733001709 0.26582363247871398926 0.23799294233322143555 0.1721881181001663208 0.10306931287050247192 0.1846227496862411499 0.1861056983470916748 0.21053911745548248291 0.26974463462829589844 0.17128968238830566406 0.095580309629440307617 0.2306820601224899292 0.52972507476806640625 0.4255180060863494873 0.42128086090087890625 0.20999106764793395996 0.27070724964141845703 0.19530907273292541504 0.38985067605972290039 0.22683212161064147949 0.1939134448766708374 0.1157568320631980896 0.030099999159574508667 0.12956742942333221436 0.17738226056098937988 0.22228150069713592529 0.29140132665634155273 0.26206362247467041016 0.32741263508796691895 0.42409574985504150391 0.47362294793128967285 0.21672144532203674316 0.22182156145572662354 0.36092767119407653809 0.22368536889553070068 0.45783936977386474609 0.30123344063758850098 0.21504805982112884521 0.13949999213218688965 
0.0049999998882412910461 0.0049999998882412910461 0.0049999998882412910461 0.0049999998882412910461 0.0049999998882412910461 0.0049999998882412910461 0.0049999998882412910461 0.0049999998882412910461 0.0049999998882412910461 0.0049999998882412910461 0.0049999998882412910461 0.0049999998882412910461 0.0049999998882412910461 0.0049999998882412910461 0.0049999998882412910461 0.0049999998882412910461 0.28039351105690002441 0.46105507016181945801 0.18601530790328979492 0.18309244513511657715 0.18722043931484222412 0.17493742704391479492 0.19228968024253845215 0.11822118610143661499 0.12383675575256347656 0.19545243680477142334 0.17610387504100799561 0.13830356299877166748 0.41334161162376403809 0.30743864178657531738 0.30375000834465026855 0.060000002384185791016 0.017500000074505805969 0.020250000059604644775 0.094117060303688049316 0.5611756443977355957 0.27094662189483642578 0.22149930894374847412 0.17779111862182617188 0.19838443398475646973 0.17911550402641296387 0.058018874377012252808 0.06869812309741973877 0.11694568395614624023 0.15605013072490692139 0.086823120713233947754 0.19728706777095794678 0.060171000659465789795 0.58387392759323120117 0.41958257555961608887 0.45128989219665527344 0.1863517463207244873 0.18985413014888763428 0.52291792631149291992 0.23400576412677764893 0.35155445337295532227 0.19662737846374511719 0.2737884521484375 0.13040044903755187988 0.26895791292190551758 0.39359331130981445312 0.44212511181831359863 0.20801855623722076416 0.20245294272899627686 0.20768813788890838623 0.22782178223133087158 0.35993021726608276367 0.43108665943145751953 0.39588093757629394531 0.27646818757057189941 0.18134677410125732422 0.05827541649341583252 0.19143438339233398438 0.24470768868923187256 0.24425037205219268799 0.41843050718307495117 0.40894857048988342285 0.56734365224838256836 0.48279717564582824707 0.23756137490272521973 0.10896869003772735596 0.19696256518363952637 0.19976374506950378418 0.46587887406349182129 0.20942130684852600098 0.24013781547546386719 0.74443775415420532227 
0.0049999998882412910461 0.0049999998882412910461 0.0049999998882412910461 0.0049999998882412910461 0.0049999998882412910461 0.0049999998882412910461 0.0049999998882412910461 0.0049999998882412910461 0.0049999998882412910461 0.0049999998882412910461 0.0049999998882412910461 0.0049999998882412910461 0.0049999998882412910461 0.0049999998882412910461 0.0049999998882412910461 0.0049999998882412910461 0.38397526741027832031 0.35401463508605957031 0.235563620924949646 0.24528107047080993652 0.27261593937873840332 0.2913087010383605957 0.26836737990379333496 0.14982831478118896484 0.17237649857997894287 0.48046326637268066406 0.31524387001991271973 0.16372050344944000244 0.32008630037307739258 0.57393127679824829102 0.66500002145767211914 0.66500002145767211914 0.26587501168251037598 0.072797998785972595215 0.38607674837112426758 0.3301505744457244873 0.36613014340400695801 0.20967093110084533691 0.22630786895751953125 0.19533675909042358398 0.21947106719017028809 0.060516126453876495361 0.070477999746799468994 0.060421001166105270386 0.061578623950481414795 0.057578623294830322266 0.075801938772201538086 0.12326024472713470459 0.41626888513565063477 0.3539454340934753418 0.37647223472595214844 0.24141307175159454346 0.11763656139373779297 0.19913981854915618896 0.2415377497673034668 0.34415313601493835449 0.2018766254186630249 0.15073099732398986816 0.31922537088394165039 0.74026548862457275391 0.51978909969329833984 0.2538617551326751709 0.22088550031185150146 0.2154506295919418335 0.25250732898712158203 0.42761284112930297852 0.56503760814666748047 0.51494199037551879883 0.23880393803119659424 0.24199856817722320557 0.36444836854934692383 0.26268184185028076172 0.26938363909721374512 0.2274764329195022583 0.32118982076644897461 0.25876137614250183105 0.23428869247436523438 0.2724075615406036377 0.34748473763465881348 0.21914269030094146729 0.30595770478248596191 0.23690456151962280273 0.26541781425476074219 0.4732792973518371582 0.49295583367347717285 0.41401031613349914551 0.53922277688980102539 
0.0049999998882412910461 0.0049999998882412910461 0.0049999998882412910461 0.0049999998882412910461 0.0049999998882412910461 0.0049999998882412910461 0.0049999998882412910461 0.0049999998882412910461 0.0049999998882412910461 0.0049999998882412910461 0.0049999998882412910461 0.0049999998882412910461 0.0049999998882412910461 0.0049999998882412910461 0.0062500000931322574615 0.51557999849319458008 0.35768988728523254395 0.20854768157005310059 0.24221418797969818115 0.24476425349712371826 0.36696761846542358398 0.45586112141609191895 0.17645494639873504639 0.4723771214485168457 0.50591081380844116211 0.37484788894653320312 0.12705031037330627441 0.37252643704414367676 0.10646768659353256226 0.39567333459854125977 0.58712500333786010742 0.44531971216201782227 0.1640688776969909668 0.016687501221895217896 0.19480524957180023193 0.2751032412052154541 0.4618924558162689209 0.23617625236511230469 0.26212006807327270508 0.2722746729850769043 0.19606643915176391602 0.059798751026391983032 0.06869812309741973877 0.12166287004947662354 0.070477999746799468994 0.10316824913024902344 0.12204131484031677246 0.16228705644607543945 0.55296593904495239258 0.40657082200050354004 0.32922944426536560059 0.22586424648761749268 0.24702256917953491211 0.18505555391311645508 0.42034989595413208008 0.28739249706268310547 0.20487113296985626221 0.27022662758827209473 0.41742217540740966797 0.38617929816246032715 0.37421786785125732422 0.21587470173835754395 0.19855247437953948975 0.23187518119812011719 0.33246639370918273926 0.23119793832302093506 0.33791029453277587891 0.25071278214454650879 0.27693614363670349121 0.31103551387786865234 0.30278170108795166016 0.30383613705635070801 0.16014091670513153076 0.39016106724739074707 0.14984013140201568604 0.26294350624084472656 0.32500070333480834961 0.23322275280952453613 0.29407718777656555176 0.1162657514214515686 0.16777394711971282959 0.023842375725507736206 0.18514131009578704834 0.39205780625343322754 0.19943468272686004639 0.33233675360679626465 0.41823649406433105469 
0.0049999998882412910461 0.0049999998882412910461 0.0049999998882412910461 0.0049999998882412910461 0.0049999998882412910461 0.0049999998882412910461 0.0049999998882412910461 0.0049999998882412910461 0.0049999998882412910461 0.0049999998882412910461 0.0049999998882412910461 0.0049999998882412910461 0.0049999998882412910461 0.091250002384185791016 0.23269675672054290771 0.41322034597396850586 0.33967387676239013672 0.27662250399589538574 0.20573699474334716797 0.20083418488502502441 0.3807881772518157959 0.27114251255989074707 0.17086468636989593506 0.22246862947940826416 0.39774474501609802246 0.2310238182544708252 0.090150125324726104736 0.20293350517749786377 0.24701856076717376709 0.29102319478988647461 0.070812501013278961182 0.15916632115840911865 0.14343106746673583984 0.3217830657958984375 0.35960274934768676758 0.25935262441635131836 0.20271886885166168213 0.29948794841766357422 0.50026452541351318359 0.21822668612003326416 0.35437670350074768066 0.53542244434356689453 0.55650115013122558594 0.75212317705154418945 0.69824653863906860352 0.43638142943382263184 0.43294057250022888184 0.63826406002044677734 0.61678004264831542969 0.54865384101867675781 0.57398784160614013672 0.32840526103973388672 0.14150574803352355957 0.20625463128089904785 0.22883750498294830322 0.21829918026924133301 0.32187011837959289551 0.18785369396209716797 0.22618174552917480469 0.35795924067497253418 0.27636730670928955078 0.26371949911117553711 0.14225031435489654541 0.15116833150386810303 0.46568968892097473145 0.28479719161987304688 0.28095412254333496094 0.28543993830680847168 0.18613600730895996094 0.18108510971069335938 0.22937437891960144043 0.027625000104308128357 0.020692307502031326294 0.39756625890731811523 0.57272070646286010742 0.66535490751266479492 0.50588136911392211914 0.60564535856246948242 0.29646143317222595215 0.34661912918090820312 0.44689610600471496582 0.46570813655853271484 0.43570813536643981934 0.32276630401611328125 0.34663680195808410645 0.46811789274215698242 0.029249999672174453735 
0.0049999998882412910461 0.0049999998882412910461 0.0049999998882412910461 0.0049999998882412910461 0.0049999998882412910461 0.0049999998882412910461 0.0049999998882412910461 0.0049999998882412910461 0.0049999998882412910461 0.0049999998882412910461 0.0049999998882412910461 0.0049999998882412910461 0.13125000894069671631 0.26129931211471557617 0.43689820170402526855 0.3389154970645904541 0.38478958606719970703 0.25719937682151794434 0.21688668429851531982 0.20064243674278259277 0.20475113391876220703 0.19765712320804595947 0.16652981936931610107 0.17566269636154174805 0.39821588993072509766 0.099684372544288635254 0.048248749226331710815 0.30386075377464294434 0.22923336923122406006 0.31612569093704223633 0.28328886628150939941 0.31016492843627929688 0.12381906062364578247 0.21078406274318695068 0.18660831451416015625 0.23003211617469787598 0.51686960458755493164 0.26135051250457763672 0.16394318640232086182 0.21467712521553039551 0.33764681220054626465 0.74880909919738769531 0.8732464909553527832 0.61774975061416625977 0.44894143939018249512 0.38204869627952575684 0.14722737669944763184 0.31373944878578186035 0.47111156582832336426 0.57097411155700683594 0.48982024192810058594 0.25959101319313049316 0.25183975696563720703 0.26082745194435119629 0.32212293148040771484 0.36906531453132629395 0.46930354833602905273 0.234045371413230896 0.38044491410255432129 0.29582831263542175293 0.38623988628387451172 0.17758837342262268066 0.35139232873916625977 0.12126819789409637451 0.2776896059513092041 0.49085161089897155762 0.23048099875450134277 0.29594299197196960449 0.148980751633644104 0.40658074617385864258 0.34041091799736022949 0.21533142030239105225 0.2891654670238494873 0.25691643357276916504 0.57462143898010253906 0.81709378957748413086 0.63172864913940429688 0.44966620206832885742 0.24275287985801696777 0.28714868426322937012 0.40733119845390319824 0.40983667969703674316 0.31580531597137451172 0.26336967945098876953 0.29459056258201599121 0.12341269105672836304 0.041999999433755874634 
0.0049999998882412910461 0.0049999998882412910461 0.0049999998882412910461 0.0049999998882412910461 0.0049999998882412910461 0.19235944747924804688 0.18373636901378631592 0.22170200943946838379 0.21045887470245361328 0.0062500000931322574615 0.0049999998882412910461 0.0074999998323619365692 0.53009837865829467773 0.33462363481521606445 0.20958162844181060791 0.36735966801643371582 0.35325974225997924805 0.27312862873077392578 0.20966500043869018555 0.24532386660575866699 0.19911281764507293701 0.14652512967586517334 0.16940149664878845215 0.32649481296539306641 0.24443186819553375244 0.13402637839317321777 0.25314787030220031738 0.18477880954742431641 0.36633530259132385254 0.3507773280143737793 0.29078537225723266602 0.32687607407569885254 0.35875532031059265137 0.27554649114608764648 0.37578588724136352539 0.4236666262149810791 0.35662117600440979004 0.33989581465721130371 0.31134518980979919434 0.45981207489967346191 0.6395499110221862793 0.78456270694732666016 0.64896184206008911133 0.5297101140022277832 0.4370307624340057373 0.38242980837821960449 0.2188889235258102417 0.51975899934768676758 0.57601135969161987305 0.58166515827178955078 0.53502708673477172852 0.42592549324035644531 0.40044280886650085449 0.12617930769920349121 0.26197105646133422852 0.25972899794578552246 0.19537699222564697266 0.20470033586025238037 0.42573198676109313965 0.41197562217712402344 0.35064366459846496582 0.21980567276477813721 0.26406079530715942383 0.32357233762741088867 0.22792856395244598389 0.19463700056076049805 0.14860442280769348145 0.23375584185123443604 0.1321112513542175293 0.23823283612728118896 0.19414968788623809814 0.18949885666370391846 0.1320858299732208252 0.19247356057167053223 0.4133968055248260498 0.87762922048568725586 0.71641588211059570312 0.34452474117279052734 0.23233805596828460693 0.25142130255699157715 0.43485319614410400391 0.44333446025848388672 0.30826613306999206543 0.48822006583213806152 0.45406168699264526367 0.33933037519454956055 0.041999999433755874634 
0.0049999998882412910461 0.0049999998882412910461 0.0049999998882412910461 0.075098380446434020996 0.41783940792083740234 0.3890660703182220459 0.33720520138740539551 0.42649701237678527832 0.28234100341796875 0.15243744850158691406 0.0087500000372529029846 0.17625001072883605957 0.83338540792465209961 0.32902699708938598633 0.19378431141376495361 0.21738518774509429932 0.20919212698936462402 0.19753444194793701172 0.20335237681865692139 0.20142568647861480713 0.13517037034034729004 0.42012313008308410645 0.2150646895170211792 0.46776190400123596191 0.25070920586585998535 0.14111481606960296631 0.45629200339317321777 0.22019737958908081055 0.35957506299018859863 0.45936375856399536133 0.40372544527053833008 0.28039848804473876953 0.37342113256454467773 0.30468550324440002441 0.33259451389312744141 0.41317531466484069824 0.30664649605751037598 0.27754124999046325684 0.30225813388824462891 0.28381225466728210449 0.22677069902420043945 0.59057307243347167969 0.49555355310440063477 0.64771354198455810547 0.36400124430656433105 0.13750587403774261475 0.2385559380054473877 0.48711618781089782715 0.60372251272201538086 0.57373851537704467773 0.39657288789749145508 0.47215783596038818359 0.29074013233184814453 0.30163213610649108887 0.30001655220985412598 0.26105764508247375488 0.3928807377815246582 0.38784238696098327637 0.38966009020805358887 0.39297074079513549805 0.31759309768676757812 0.22940325736999511719 0.23944211006164550781 0.10068628191947937012 0.23162668943405151367 0.26179718971252441406 0.33606630563735961914 0.37183460593223571777 0.40650135278701782227 0.44008710980415344238 0.36207014322280883789 0.32230800390243530273 0.35656937956809997559 0.27092701196670532227 0.27585211396217346191 0.76424163579940795898 0.72019678354263305664 0.43867933750152587891 0.20368494093418121338 0.32340520620346069336 0.40905025601387023926 0.33467644453048706055 0.54583609104156494141 0.39827719330787658691 0.40266248583793640137 0.38830101490020751953 0.041999999433755874634 
0.0074999998323619365692 0.16444319486618041992 0.26558539271354675293 0.30908107757568359375 0.25985199213027954102 0.20871655642986297607 0.22888305783271789551 0.35826945304870605469 0.22340475022792816162 0.4840354621410369873 0.39769676327705383301 0.38500002026557922363 0.90377891063690185547 0.3937117457389831543 0.3144575655460357666 0.26332548260688781738 0.23371818661689758301 0.17572693526744842529 0.24118432402610778809 0.16847018897533416748 0.23108600080013275146 0.19604556262493133545 0.20169612765312194824 0.096733875572681427002 0.14777681231498718262 0.079564377665519714355 0.34130811691284179688 0.33206892013549804688 0.38603344559669494629 0.49895918369293212891 0.39891669154167175293 0.26861324906349182129 0.28674274682998657227 0.19478212296962738037 0.23754468560218811035 0.2269830554723739624 0.094342373311519622803 0.29539462924003601074 0.1302735060453414917 0.13169643282890319824 0.04967837408185005188 0.60551100969314575195 0.59892821311950683594 0.56977266073226928711 0.33000555634498596191 0.096419066190719604492 0.14971475303173065186 0.34302550554275512695 0.47446548938751220703 0.50189757347106933594 0.35674506425857543945 0.23812225461006164551 0.32318961620330810547 0.27046874165534973145 0.24449944496154785156 0.40458962321281433105 0.38247022032737731934 0.5378468632698059082 0.44859230518341064453 0.3073857426643371582 0.21694783866405487061 0.25137001276016235352 0.24278119206428527832 0.092756085097789764404 0.096424750983715057373 0.14554125070571899414 0.20020033419132232666 0.1595897376537322998 0.18529446423053741455 0.17403624951839447021 0.30172839760780334473 0.30795422196388244629 0.14865633845329284668 0.25314369797706604004 0.48419395089149475098 0.78995758295059204102 0.66500002145767211914 0.58398967981338500977 0.21309356391429901123 0.3033905029296875 0.28415143489837646484 0.32195514440536499023 0.50926470756530761719 0.40631705522537231445 0.20230494439601898193 0.7444693446159362793 0.30814352631568908691 
0.26033756136894226074 0.23142437636852264404 0.27211856842041015625 0.20511381328105926514 0.25723913311958312988 0.50070720911026000977 0.3744418025016784668 0.38935706019401550293 0.21284838020801544189 0.357318878173828125 0.27019676566123962402 0.54500001668930053711 0.70430952310562133789 0.35573330521583557129 0.56018775701522827148 0.63291215896606445312 0.55846440792083740234 0.61422359943389892578 0.21400369703769683838 0.25689232349395751953 0.13426330685615539551 0.25723692774772644043 0.15384937822818756104 0.25423198938369750977 0.15454493463039398193 0.17870919406414031982 0.16293862462043762207 0.37122556567192077637 0.25979343056678771973 0.15996524691581726074 0.28363248705863952637 0.084766998887062072754 0.26838582754135131836 0.24252088367938995361 0.2493073195219039917 0.24018536508083343506 0.14087881147861480713 0.24201942980289459229 0.071383751928806304932 0.1751194298267364502 0.045446187257766723633 0.65567624568939208984 0.61173772811889648438 0.58605903387069702148 0.40529307723045349121 0.19949269294738769531 0.11979574710130691528 0.17197793722152709961 0.39567080140113830566 0.69054871797561645508 0.75065332651138305664 0.52997195720672607422 0.44631049036979675293 0.25259581208229064941 0.38968443870544433594 0.38720250129699707031 0.48479488492012023926 0.34686523675918579102 0.36889287829399108887 0.23581062257289886475 0.22103458642959594727 0.27874037623405456543 0.18406789004802703857 0.21411620080471038818 0.28451266884803771973 0.20687225461006164551 0.23642966151237487793 0.32353535294532775879 0.39874732494354248047 0.1509323418140411377 0.43919366598129272461 0.31420758366584777832 0.25241753458976745605 0.29664593935012817383 0.50445479154586791992 0.92104625701904296875 0.66500002145767211914 0.22984133660793304443 0.30897223949432373047 0.32595866918563842773 0.36936938762664794922 0.41124895215034484863 0.033221811056137084961 0.016625000163912773132 0.20720937848091125488 0.74712216854095458984 0.48999226093292236328 
0.26379570364952087402 0.32955712080001831055 0.24586412310600280762 0.21185250580310821533 0.25887992978096008301 0.52195018529891967773 0.43845850229263305664 0.33687493205070495605 0.27458238601684570312 0.34323269128799438477 0.011250000447034835815 0.24634838104248046875 0.6502138972282409668 0.32402619719505310059 0.42164161801338195801 0.76363807916641235352 0.87444251775741577148 1.1065740585327148438 0.18259130418300628662 0.36605569720268249512 0.15541662275791168213 0.44266843795776367188 0.20667125284671783447 0.17898611724376678467 0.27049180865287780762 0.42867574095726013184 0.2772223055362701416 0.20878100395202636719 0.22852656245231628418 0.19668869674205780029 0.25382599234580993652 0.086511813104152679443 0.41821768879890441895 0.22415268421173095703 0.23607368767261505127 0.09261487424373626709 0.25524997711181640625 0.23524999618530273438 0.10954787582159042358 0.25524607300758361816 0.10742649435997009277 0.4288113713264465332 0.63666862249374389648 0.50549149513244628906 0.31394851207733154297 0.22579969465732574463 0.080896876752376556396 0.17392031848430633545 0.47538268566131591797 0.59393727779388427734 0.55186033248901367188 0.6285673975944519043 0.54920196533203125 0.33655133843421936035 0.3081684410572052002 0.33650773763656616211 0.37919756770133972168 0.44484007358551025391 0.37199583649635314941 0.40810325741767883301 0.20737993717193603516 0.35353699326515197754 0.29815468192100524902 0.2130540013313293457 0.33587813377380371094 0.3240311741828918457 0.44784459471702575684 0.31722253561019897461 0.24134793877601623535 0.27742457389831542969 0.14539450407028198242 0.2327852398157119751 0.22652769088745117188 0.26293951272964477539 0.45135864615440368652 0.61791408061981201172 0.40894424915313720703 0.39110094308853149414 0.42777469754219055176 0.4361203610897064209 0.56664884090423583984 0.32763361930847167969 0.012374999932944774628 0.021187499165534973145 0.17688006162643432617 0.65520900487899780273 0.79066252708435058594 
0.28904551267623901367 0.41649925708770751953 0.2351935654878616333 0.16669806838035583496 0.34819480776786804199 0.53676718473434448242 0.29597362875938415527 0.32833993434906005859 0.53267276287078857422 0.26451137661933898926 0.14124999940395355225 0.76945716142654418945 0.28506401181221008301 0.48065137863159179688 0.35160174965858459473 0.9647242426872253418 1.0121898651123046875 1.1065740585327148438 0.71858608722686767578 0.45426663756370544434 0.37434500455856323242 0.22879561781883239746 0.15116237103939056396 0.1902716904878616333 0.24971024692058563232 0.18440668284893035889 0.30282357335090637207 0.34981656074523925781 0.18992955982685089111 0.27668854594230651855 0.23591499030590057373 0.17655843496322631836 0.24497175216674804688 0.22247019410133361816 0.16403412818908691406 0.31956529617309570312 0.16037499904632568359 0.061749998480081558228 0.20359450578689575195 0.1892398148775100708 0.085878498852252960205 0.39919701218605041504 0.43609079718589782715 0.61734104156494140625 0.40524837374687194824 0.21635474264621734619 0.21790362894535064697 0.27107974886894226074 0.5738843083381652832 0.65814322233200073242 0.86609822511672973633 0.62524211406707763672 0.59384256601333618164 0.46407032012939453125 0.64189153909683227539 0.24118530750274658203 0.22304370999336242676 0.30792438983917236328 0.40351408720016479492 0.40505507588386535645 0.20928426086902618408 0.13434311747550964355 0.22593769431114196777 0.25418969988822937012 0.17734315991401672363 0.15022207796573638916 0.12869299948215484619 0.20745931565761566162 0.24263343214988708496 0.28778949379920959473 0.070477999746799468994 0.070477999746799468994 0.17966613173484802246 0.23589093983173370361 0.36388847231864929199 0.4361254274845123291 0.47381916642189025879 0.67306983470916748047 0.64061409235000610352 0.49444031715393066406 0.6622225642204284668 0.20364800095558166504 0.010312500409781932831 0.09237499535083770752 0.039875000715255737305 0.3243732750415802002 0.89591526985168457031 
0.57280135154724121094 0.2396278083324432373 0.22662794589996337891 0.3997205197811126709 0.4164854884147644043 0.42976576089859008789 0.37336617708206176758 0.50368088483810424805 0.53586715459823608398 0.625 0.74317020177841186523 0.34748220443725585938 0.30652061104774475098 0.61222171783447265625 0.51744556427001953125 1.0751127004623413086 1.0539094209671020508 1.0566949844360351562 0.79366785287857055664 0.41522714495658874512 0.20093105733394622803 0.27567568421363830566 0.14662086963653564453 0.37167918682098388672 0.30414044857025146484 0.24571812152862548828 0.27280342578887939453 0.37711212038993835449 0.19811344146728515625 0.22066299617290496826 0.10550849884748458862 0.39114373922348022461 0.22426544129848480225 0.27781337499618530273 0.26173880696296691895 0.12520655989646911621 0.062431249767541885376 0.23847487568855285645 0.29041475057601928711 0.18277555704116821289 0.14392638206481933594 0.35610875487327575684 0.54288661479949951172 0.50672167539596557617 0.45538705587387084961 0.31559836864471435547 0.07040862739086151123 0.23603868484497070312 0.75307124853134155273 0.95468032360076904297 0.84608888626098632812 0.82703202962875366211 0.63291120529174804688 0.35459375381469726562 0.52948546409606933594 0.3416722416877746582 0.43984648585319519043 0.3107846379280090332 0.3415737152099609375 0.45670363306999206543 0.31176832318305969238 0.22436493635177612305 0.32304093241691589355 0.27402788400650024414 0.41088464856147766113 0.33372199535369873047 0.17383781075477600098 0.24938280880451202393 0.30483707785606384277 0.28773832321166992188 0.13462136685848236084 0.11866837739944458008 0.37679773569107055664 0.35301056504249572754 0.41454625129699707031 0.28791886568069458008 0.42303711175918579102 0.72120201587677001953 0.32454624772071838379 0.59052938222885131836 0.67254608869552612305 0.57109147310256958008 0.39196518063545227051 0.43456861376762390137 0.57851928472518920898 0.46470168232917785645 0.66753679513931274414 
0.38769131898880004883 0.26823499798774719238 0.17672112584114074707 0.30331832170486450195 0.41973420977592468262 0.39468961954116821289 0.60011982917785644531 0.55729711055755615234 0.59641611576080322266 0.69323259592056274414 0.38804545998573303223 0.16184562444686889648 0.38721686601638793945 0.29023718833923339844 0.40562281012535095215 1.0539094209671020508 0.9382731318473815918 0.90083456039428710938 0.81315577030181884766 0.67021161317825317383 0.49332407116889953613 0.27397212386131286621 0.50180184841156005859 0.26647144556045532227 0.42854043841361999512 0.2551129460334777832 0.30412963032722473145 0.31545960903167724609 0.33600774407386779785 0.14907193183898925781 0.3566093146800994873 0.25323936343193054199 0.24207806587219238281 0.26748588681221008301 0.19728000462055206299 0.22684536874294281006 0.26597306132316589355 0.33104375004768371582 0.26714500784873962402 0.12404125183820724487 0.12807343900203704834 0.61291080713272094727 0.61674892902374267578 0.59553968906402587891 0.41262963414192199707 0.36387437582015991211 0.14092637598514556885 0.1032413095235824585 0.90348124504089355469 0.89315664768218994141 0.73398113250732421875 0.95696794986724853516 0.49788588285446166992 0.54238599538803100586 0.53811120986938476562 0.26267006993293762207 0.3014983832836151123 0.50787061452865600586 0.39912182092666625977 0.3746483922004699707 0.21195800602436065674 0.22869680821895599365 0.25697013735771179199 0.260955810546875 0.40745344758033752441 0.30881991982460021973 0.25609380006790161133 0.23151412606239318848 0.22156225144863128662 0.23672044277191162109 0.12753793597221374512 0.23232519626617431641 0.34951406717300415039 0.39003261923789978027 0.33951765298843383789 0.31831479072570800781 0.22142693400382995605 0.42968699336051940918 0.56007528305053710938 0.69265013933181762695 0.70001000165939331055 0.53349965810775756836 0.54076153039932250977 0.54087126255035400391 0.52778363227844238281 0.53881114721298217773 0.4443480074405670166 
0.25538605451583862305 0.2518883049488067627 0.25225505232810974121 0.49409276247024536133 0.36479294300079345703 0.3778489232063293457 0.32538318634033203125 0.50925004482269287109 0.33061969280242919922 0.28342413902282714844 0.13113300502300262451 0.34449055790901184082 0.18429493904113769531 0.26131719350814819336 0.33342164754867553711 1.1065740585327148438 0.91408240795135498047 0.65752911567687988281 0.74580073356628417969 1.0513772964477539062 0.48777651786804199219 0.34453281760215759277 0.28138089179992675781 0.26236993074417114258 0.32021337747573852539 0.27512693405151367188 0.3678556978702545166 0.25484800338745117188 0.15739862620830535889 0.15241412818431854248 0.32224380970001220703 0.36105200648307800293 0.30574512481689453125 0.28219243884086608887 0.18924124538898468018 0.31400644779205322266 0.22317999601364135742 0.27283236384391784668 0.36438331007957458496 0.17817518115043640137 0.24405169486999511719 0.3103135526180267334 0.26561513543128967285 0.24032130837440490723 0.36166080832481384277 0.32029017806053161621 0.37859836220741271973 0.40403538942337036133 0.7017256617546081543 0.83954960107803344727 0.88146913051605224609 0.80099463462829589844 0.64334100484848022461 0.48184129595756530762 0.41457524895668029785 0.21314556896686553955 0.4591433405876159668 0.41219589114189147949 0.48563498258590698242 0.21832099556922912598 0.2169396132230758667 0.21961519122123718262 0.24681037664413452148 0.16821122169494628906 0.13964958488941192627 0.25803548097610473633 0.1998081505298614502 0.27749601006507873535 0.30437755584716796875 0.23241175711154937744 0.10793624818325042725 0.18449087440967559814 0.57726126909255981445 0.37908563017845153809 0.31608206033706665039 0.33573201298713684082 0.25257700681686401367 0.23953805863857269287 1.0346699953079223633 1.1065740585327148438 1.1065740585327148438 0.62835466861724853516 0.56592845916748046875 0.53195524215698242188 0.59032440185546875 0.73020792007446289062 0.82197654247283935547 
0.33995699882507324219 0.29675555229187011719 0.16706250607967376709 0.27991893887519836426 0.21906362473964691162 0.49339750409126281738 0.43346118927001953125 0.41130405664443969727 0.22728750109672546387 0.20081612467765808105 0.20115031301975250244 0.39400118589401245117 0.29267618060111999512 0.35376706719398498535 0.55260550975799560547 1.1065740585327148438 0.55301272869110107422 0.61047607660293579102 0.93838328123092651367 0.53556883335113525391 0.37984573841094970703 0.43098250031471252441 0.25967112183570861816 0.20272387564182281494 0.28354373574256896973 0.17656087875366210938 0.25851464271545410156 0.19611255824565887451 0.22524912655353546143 0.22119662165641784668 0.19533124566078186035 0.3327051997184753418 0.23029668629169464111 0.2893155515193939209 0.36693149805068969727 0.30472061038017272949 0.19930724799633026123 0.33841249346733093262 0.23285187780857086182 0.40528181195259094238 0.32917225360870361328 0.25710269808769226074 0.2881705164909362793 0.32745775580406188965 0.32267913222312927246 0.46620735526084899902 0.17900507152080535889 0.2663676142692565918 0.7627404332160949707 0.89038300514221191406 0.84254121780395507812 0.66401642560958862305 0.45888656377792358398 0.54770314693450927734 0.32297092676162719727 0.33783105015754699707 0.27776679396629333496 0.32506424188613891602 0.47784459590911865234 0.2949161529541015625 0.20763976871967315674 0.21310436725616455078 0.18635945022106170654 0.24756638705730438232 0.68203616142272949219 0.22944724559783935547 0.21299780905246734619 0.26178431510925292969 0.29523932933807373047 0.26597186923027038574 0.17891193926334381104 0.11211469024419784546 0.36586344242095947266 0.33934798836708068848 0.21074737608432769775 0.21587829291820526123 0.38506600260734558105 0.27186590433120727539 0.61393338441848754883 1.1065740585327148438 1.1065740585327148438 0.87784230709075927734 0.29724955558776855469 0.66255360841751098633 0.76691836118698120117 0.79704016447067260742 0.58954954147338867188 
0.56338983774185180664 0.24379193782806396484 0.34235900640487670898 0.41784012317657470703 0.38426455855369567871 0.68005895614624023438 0.56729948520660400391 0.26998543739318847656 0.21233463287353515625 0.23177605867385864258 0.21942600607872009277 0.40387824177742004395 0.42307800054550170898 0.58875477313995361328 0.60646998882293701172 0.64665627479553222656 0.34808081388473510742 0.54282981157302856445 0.4124463200569152832 0.66663634777069091797 0.39987531304359436035 0.31142649054527282715 0.33980968594551086426 0.277469635009765625 0.28886494040489196777 0.18908530473709106445 0.20244844257831573486 0.15481631457805633545 0.23913706839084625244 0.09942150115966796875 0.23566606640815734863 0.36170625686645507812 0.33859017491340637207 0.2699279487133026123 0.30866318941116333008 0.33774906396865844727 0.43488413095474243164 0.31179800629615783691 0.36671668291091918945 0.1299778670072555542 0.17973093688488006592 0.3259830474853515625 0.3207976222038269043 0.28855350613594055176 0.19896468520164489746 0.4349829256534576416 0.21573463082313537598 0.32535892724990844727 0.62720787525177001953 0.94310849905014038086 0.74768644571304321289 0.4971669316291809082 0.49312049150466918945 0.45224493741989135742 0.35195049643516540527 0.25433236360549926758 0.23869219422340393066 0.46844682097434997559 0.4697704315185546875 0.59358924627304077148 0.21093474328517913818 0.23149417340755462646 0.2235724329948425293 0.2546520531177520752 0.23292656242847442627 0.22700844705104827881 0.33508637547492980957 0.27428036928176879883 0.28994631767272949219 0.33567336201667785645 0.26006326079368591309 0.086801312863826751709 0.096866503357887268066 0.097260311245918273926 0.12827979028224945068 0.25219523906707763672 0.21915312111377716064 0.049270287156105041504 0.75734484195709228516 0.9914976954460144043 1.0224479436874389648 0.75976240634918212891 0.56082165241241455078 0.72745656967163085938 0.6735833287239074707 0.75781852006912231445 0.9350045323371887207 
0.54808765649795532227 0.34942075610160827637 0.26740419864654541016 0.49376526474952697754 0.35102492570877075195 0.62846618890762329102 0.38847237825393676758 0.24279981851577758789 0.25717282295227050781 0.24898087978363037109 0.24372875690460205078 0.39545688033103942871 0.43137407302856445312 0.45675030350685119629 0.51303941011428833008 0.4297046959400177002 0.34691756963729858398 0.61341965198516845703 0.63948768377304077148 1.031880497932434082 0.82917982339859008789 0.54838085174560546875 0.19132468104362487793 0.15884181857109069824 0.21910494565963745117 0.2352933734655380249 0.21929530799388885498 0.21758387982845306396 0.33936443924903869629 0.2206566929817199707 0.22011443972587585449 0.46456867456436157227 0.79153811931610107422 0.49081575870513916016 0.55109554529190063477 0.20532706379890441895 0.25043970346450805664 0.5217368006706237793 0.2107206881046295166 0.29356163740158081055 0.31800043582916259766 0.26304695010185241699 0.19567124545574188232 0.19700349867343902588 0.25399392843246459961 0.20525687932968139648 0.22014312446117401123 0.29044416546821594238 0.41684576869010925293 0.26183030009269714355 0.31454312801361083984 0.41918832063674926758 0.5782642364501953125 0.39422550797462463379 0.3999354243278503418 0.35579037666320800781 0.33961966633796691895 0.2984638214111328125 0.5330861210823059082 0.34471210837364196777 0.28599837422370910645 0.29455408453941345215 0.40917026996612548828 0.21387380361557006836 0.31916606426239013672 0.71072459220886230469 0.35151207447052001953 0.27295982837677001953 0.36779806017875671387 0.68162196874618530273 0.42114281654357910156 0.070477999746799468994 0.070477999746799468994 0.17815050482749938965 0.27825066447257995605 0.23310850560665130615 0.15047699213027954102 0.11907537281513214111 0.27614393830299377441 0.4218730628490447998 0.20202587544918060303 0.54944795370101928711 0.49643498659133911133 0.67416822910308837891 0.43793749809265136719 0.71179807186126708984 0.64875972270965576172 
0.4705454409122467041 0.45446494221687316895 0.18527206778526306152 0.42052313685417175293 0.42925593256950378418 0.556972503662109375 0.41002801060676574707 0.25984075665473937988 0.28444582223892211914 0.21311968564987182617 0.34845793247222900391 0.51509976387023925781 0.28016686439514160156 0.2724603116512298584 0.57425856590270996094 0.49169275164604187012 0.5403995513916015625 0.86675190925598144531 0.88151377439498901367 1.1065740585327148438 1.1065740585327148438 0.52623665332794189453 0.24282500147819519043 0.25279667973518371582 0.2210849374532699585 0.23698325455188751221 0.2313988804817199707 0.2592658698558807373 0.26962107419967651367 0.099402248859405517578 0.190868377685546875 0.49759945273399353027 0.77304691076278686523 0.34713149070739746094 0.56003546714782714844 0.41892462968826293945 0.46279668807983398438 0.4052238166332244873 0.16492375731468200684 0.41640350222587585449 0.34806275367736816406 0.29034373164176940918 0.33821156620979309082 0.33545529842376708984 0.36200574040412902832 0.35127887129783630371 0.3235168159008026123 0.14437499642372131348 0.24958066642284393311 0.23239299654960632324 0.24796861410140991211 0.5345541834831237793 0.43161654472351074219 0.35360917448997497559 0.30967050790786743164 0.29019972681999206543 0.40908864140510559082 0.54693651199340820312 0.57771414518356323242 0.41860416531562805176 0.48004189133644104004 0.26695644855499267578 0.4864762723445892334 0.2678959965705871582 0.29591506719589233398 0.62384390830993652344 0.34659036993980407715 0.28368169069290161133 0.64375311136245727539 0.85708487033843994141 0.40614461898803710938 0.17193925380706787109 0.17087762057781219482 0.30779469013214111328 0.46342012286186218262 0.22839814424514770508 0.3874988257884979248 0.13882468640804290771 0.35538643598556518555 0.44108238816261291504 0.30529600381851196289 0.64251750707626342773 0.62568378448486328125 0.47918751835823059082 0.47918751835823059082 0.58736783266067504883 0.39468273520469665527 
0.57390582561492919922 0.34897518157958984375 0.46376806497573852539 0.25322794914245605469 0.35354980826377868652 0.50316721200942993164 0.2839686274528503418 0.099505878984928131104 0.17563112080097198486 0.22868481278419494629 0.29314762353897094727 0.35157468914985656738 0.35569792985916137695 0.3350677490234375 0.5335890650749206543 0.68074184656143188477 0.90961420536041259766 0.98641300201416015625 1.0566949844360351562 1.1065740585327148438 0.85931622982025146484 0.30846944451332092285 0.22887405753135681152 0.22749893367290496826 0.22090518474578857422 0.23098525404930114746 0.34031775593757629395 0.36628574132919311523 0.15874999761581420898 0.26778483390808105469 0.27178874611854553223 0.43361306190490722656 0.65809834003448486328 0.57308501005172729492 0.62951165437698364258 0.39501881599426269531 0.33119675517082214355 0.29446694254875183105 0.35340917110443115234 0.29147368669509887695 0.28832969069480895996 0.32677376270294189453 0.36649912595748901367 0.36064773797988891602 0.27509769797325134277 0.29667949676513671875 0.11881899833679199219 0.14225000143051147461 0.47246116399765014648 0.37847268581390380859 0.37240481376647949219 0.25797873735427856445 0.37390223145484924316 0.32715594768524169922 0.40235418081283569336 0.45753976702690124512 0.4481804966926574707 0.4968140721321105957 0.38569936156272888184 0.57287985086441040039 0.34112951159477233887 0.20563051104545593262 0.18080137670040130615 0.3551388084888458252 0.16939941048622131348 0.51152831315994262695 0.32260113954544067383 0.4651425480842590332 0.34771576523780822754 0.52313482761383056641 0.55808770656585693359 0.42037212848663330078 0.31582731008529663086 0.49177479743957519531 0.51622635126113891602 0.19110299646854400635 0.23998662829399108887 0.3621641695499420166 0.31046050786972045898 0.44164624810218811035 0.49400043487548828125 0.69009631872177124023 0.55195075273513793945 0.6237500309944152832 0.36222338676452636719 0.37232926487922668457 0.18985998630523681641 
0.42641124129295349121 0.4816735684871673584 0.39824724197387695312 0.21721337735652923584 0.32222351431846618652 0.47301170229911804199 0.28791442513465881348 0.37976300716400146484 0.22366832196712493896 0.38643625378608703613 0.47472792863845825195 0.58701920509338378906 0.50415849685668945312 0.59245020151138305664 0.59369701147079467773 0.65146225690841674805 0.99687087535858154297 1.1065740585327148438 1.1065740585327148438 1.0713078975677490234 0.66642618179321289062 0.432163238525390625 0.23314018547534942627 0.2279163748025894165 0.23358443379402160645 0.30047586560249328613 0.21610975265502929688 0.24993593990802764893 0.30376219749450683594 0.2043701857328414917 0.27523055672645568848 0.30518001317977905273 0.41291502118110656738 0.35741513967514038086 0.4810918271541595459 0.28449088335037231445 0.39264336228370666504 0.30165413022041320801 0.41977673768997192383 0.23371337354183197021 0.25256174802780151367 0.24858298897743225098 0.32187387347221374512 0.32262137532234191895 0.32773530483245849609 0.21540999412536621094 0.080370783805847167969 0.32822778820991516113 0.27040007710456848145 0.14714859426021575928 0.1436465531587600708 0.34856969118118286133 0.28718861937522888184 0.31895819306373596191 0.3202438056468963623 0.41458410024642944336 0.51205343008041381836 0.42054066061973571777 0.29540511965751647949 0.35114189982414245605 0.346588134765625 0.25430440902709960938 0.35098975896835327148 0.36609911918640136719 0.24369825422763824463 0.19783875346183776855 0.14567370712757110596 0.37646323442459106445 0.21552899479866027832 0.3135363161563873291 0.24272625148296356201 0.27658849954605102539 0.27019554376602172852 0.5621477961540222168 0.39580389857292175293 0.20537678897380828857 0.070654921233654022217 0.10020530968904495239 0.23063388466835021973 0.22437538206577301025 0.36979332566261291504 0.43830639123916625977 0.63625043630599975586 0.33500000834465026855 0.67208105325698852539 0.33251100778579711914 0.18985998630523681641 
0.31921982765197753906 0.45573192834854125977 0.22586087882518768311 0.23961424827575683594 0.35209745168685913086 0.54895216226577758789 0.33290806412696838379 0.32157695293426513672 0.24272687733173370361 0.30226781964302062988 0.33001369237899780273 0.44757291674613952637 0.59245020151138305664 0.47847425937652587891 0.69310975074768066406 1.0539094209671020508 0.7651494145393371582 0.99763351678848266602 1.0337148904800415039 0.4452235102653503418 0.26820537447929382324 0.27674320340156555176 0.28068882226943969727 0.26251363754272460938 0.27094644308090209961 0.33935651183128356934 0.4003855586051940918 0.59965854883193969727 0.2978140711784362793 0.30269682407379150391 0.45830613374710083008 0.28344136476516723633 0.31556555628776550293 0.40529236197471618652 0.38962349295616149902 0.37079963088035583496 0.32239481806755065918 0.38763207197189331055 0.23635224997997283936 0.30666574835777282715 0.24194331467151641846 0.19176156818866729736 0.35787513852119445801 0.37623444199562072754 0.29928380250930786133 0.36957639455795288086 0.17907662689685821533 0.39622735977172851562 0.070477999746799468994 0.070477999746799468994 0.1665083765983581543 0.32034611701965332031 0.49924293160438537598 0.53604090213775634766 0.45539987087249755859 0.41709619760513305664 0.47854050993919372559 0.49672916531562805176 0.27456137537956237793 0.30636209249496459961 0.25059875845909118652 0.24868957698345184326 0.32785952091217041016 0.31456407904624938965 0.35016065835952758789 0.27404141426086425781 0.39154127240180969238 0.60207915306091308594 0.33911925554275512695 0.24335774779319763184 0.3936513066291809082 0.43019533157348632812 0.15526306629180908203 0.43777048587799072266 0.67770504951477050781 0.39183050394058227539 0.29073181748390197754 0.2761109471321105957 0.2159321904182434082 0.12484343349933624268 0.20248655974864959717 0.28457048535346984863 0.3885422050952911377 0.6237500309944152832 0.58250004053115844727 0.40528881549835205078 0.20296724140644073486 
0.33571743965148925781 0.37829181551933288574 0.28388398885726928711 0.25130131840705871582 0.27651473879814147949 0.53092676401138305664 0.5848445892333984375 0.19472657144069671631 0.33589813113212585449 0.41663068532943725586 0.37595117092132568359 0.42335945367813110352 0.51539742946624755859 0.44529736042022705078 0.72514587640762329102 0.82919180393218994141 0.76857763528823852539 0.96053040027618408203 0.90157175064086914062 0.41271024942398071289 0.23420982062816619873 0.27015626430511474609 0.23520112037658691406 0.24420793354511260986 0.25621962547302246094 0.27572673559188842773 0.2507546842098236084 0.37903523445129394531 0.19701249897480010986 0.35694876313209533691 0.32404699921607971191 0.43717625737190246582 0.34289073944091796875 0.24498400092124938965 0.29982110857963562012 0.31565487384796142578 0.4247105717658996582 0.35502338409423828125 0.31043782830238342285 0.20436519384384155273 0.20176774263381958008 0.31137257814407348633 0.47728645801544189453 0.28895100951194763184 0.39850199222564697266 0.4109064936637878418 0.17002591490745544434 0.26548242568969726562 0.18523749709129333496 0.23717968165874481201 0.15411862730979919434 0.1390031278133392334 0.45866850018501281738 0.52735984325408935547 0.47965082526206970215 0.44805893301963806152 0.56447440385818481445 0.59349548816680908203 0.40258634090423583984 0.19886466860771179199 0.51325601339340209961 0.29244685173034667969 0.48950937390327453613 0.33638238906860351562 0.2888571321964263916 0.20257125794887542725 0.23890025913715362549 0.47916838526725769043 0.19611249864101409912 0.31646886467933654785 0.44068026542663574219 0.33015617728233337402 0.58205175399780273438 0.47662520408630371094 0.60990869998931884766 0.46610727906227111816 0.29216650128364562988 0.31814408302307128906 0.21536424756050109863 0.17027494311332702637 0.3002942502498626709 0.5413710474967956543 0.47260382771492004395 0.48168188333511352539 0.39698264002799987793 0.45939713716506958008 0.18985998630523681641 
0.40044012665748596191 0.21241737902164459229 0.24167543649673461914 0.24615281820297241211 0.32314994931221008301 0.36418989300727844238 0.37654593586921691895 0.34613555669784545898 0.21287430822849273682 0.24413737654685974121 0.33132144808769226074 0.35754561424255371094 0.44040632247924804688 0.71391874551773071289 0.68140435218811035156 0.74758148193359375 0.63402843475341796875 0.86821353435516357422 0.62161922454833984375 0.34272444248199462891 0.30171987414360046387 0.28945955634117126465 0.26215186715126037598 0.25802099704742431641 0.43147104978561401367 0.43149405717849731445 0.20928093791007995605 0.4189230501651763916 0.20409725606441497803 0.37775155901908874512 0.33124569058418273926 0.40678423643112182617 0.32268425822257995605 0.38182350993156433105 0.38694882392883300781 0.33199998736381530762 0.22203855216503143311 0.54295039176940917969 0.29159963130950927734 0.28437474370002746582 0.41462194919586181641 0.1911976933479309082 0.24216370284557342529 0.31928580999374389648 0.31241744756698608398 0.23182366788387298584 0.24986417591571807861 0.32276999950408935547 0.38723537325859069824 0.10515093803405761719 0.19593892991542816162 0.4099394381046295166 0.50588554143905639648 0.32706969976425170898 0.4504261314868927002 0.38404494524002075195 0.56792336702346801758 0.4711297154426574707 0.20292744040489196777 0.44253134727478027344 0.50663626194000244141 0.26228669285774230957 0.28106629848480224609 0.30474650859832763672 0.24644643068313598633 0.19486553966999053955 0.21513628959655761719 0.28576937317848205566 0.29578986763954162598 0.34599462151527404785 0.36038899421691894531 0.30797138810157775879 0.77137416601181030273 0.43329074978828430176 0.20700283348560333252 0.30534949898719787598 0.061568927019834518433 0.09443553537130355835 0.1187658160924911499 0.12974968552589416504 0.11215218901634216309 0.38114795088768005371 0.70445901155471801758 0.50394761562347412109 0.58048260211944580078 0.35144382715225219727 0.20129674673080444336 
0.3456306755542755127 0.23651713132858276367 0.24941712617874145508 0.33983656764030456543 0.30020618438720703125 0.32545131444931030273 0.35107785463333129883 0.48141437768936157227 0.28491961956024169922 0.19585943222045898438 0.33203324675559997559 0.28239151835441589355 0.34293732047080993652 0.31144511699676513672 0.45301413536071777344 0.34411895275115966797 0.42829975485801696777 0.31427156925201416016 0.48604995012283325195 0.27796787023544311523 0.28598481416702270508 0.59806358814239501953 0.58558666706085205078 0.37011131644248962402 0.43455350399017333984 0.32266199588775634766 0.15881918370723724365 0.28201493620872497559 0.29078373312950134277 0.42675849795341491699 0.42417937517166137695 0.3827362358570098877 0.1971597522497177124 0.45756450295448303223 0.35714113712310791016 0.48089569807052612305 0.070477999746799468994 0.41202107071876525879 0.25690913200378417969 0.20657318830490112305 0.26335942745208740234 0.27391961216926574707 0.42839801311492919922 0.23547857999801635742 0.29385173320770263672 0.61178719997406005859 0.33655181527137756348 0.3465913236141204834 0.18356344103813171387 0.1195133700966835022 0.38264450430870056152 0.47704094648361206055 0.36893674731254577637 0.19731874763965606689 0.28379875421524047852 0.57994472980499267578 0.38064593076705932617 0.35974761843681335449 0.29342532157897949219 0.41869458556175231934 0.65742009878158569336 0.41035744547843933105 0.36854892969131469727 0.31673067808151245117 0.38336855173110961914 0.58170586824417114258 0.3946196138858795166 0.45051398873329162598 0.48178806900978088379 0.37140923738479614258 0.39136725664138793945 0.38137361407279968262 0.642337799072265625 0.59409677982330322266 0.4367129206657409668 0.40849629044532775879 0.030312500894069671631 0.19393745064735412598 0.064793251454830169678 0.20921012759208679199 0.20601250231266021729 0.45331850647926330566 0.43592473864555358887 0.5956096649169921875 0.35386326909065246582 0.66500002145767211914 0.66500002145767211914 
0.23343381285667419434 0.23968613147735595703 0.71017241477966308594 0.67531085014343261719 0.58022803068161010742 0.3560028076171875 0.26473769545555114746 0.53745239973068237305 0.44919419288635253906 0.20264805853366851807 0.20744462311267852783 0.27098956704139709473 0.29095029830932617188 0.33974319696426391602 0.32867318391799926758 0.2934061884880065918 0.20292262732982635498 0.23139587044715881348 0.40698868036270141602 0.3039525151252746582 0.32811507582664489746 0.63866692781448364258 0.4989579617977142334 0.43674290180206298828 0.63398140668869018555 0.36675611138343811035 0.17996455729007720947 0.21983693540096282959 0.29760718345642089844 0.36540469527244567871 0.43034812808036804199 0.33319398760795593262 0.3527247011661529541 0.24708794057369232178 0.33026543259620666504 0.37534555792808532715 0.23077544569969177246 0.35786968469619750977 0.28468143939971923828 0.24975000321865081787 0.27075690031051635742 0.31234961748123168945 0.21535775065422058105 0.25081780552864074707 0.24437287449836730957 0.31835532188415527344 0.34040492773056030273 0.37221288681030273438 0.31020650267601013184 0.31544581055641174316 0.41444492340087890625 0.19851769506931304932 0.13556906580924987793 0.17944549024105072021 0.37954643368721008301 0.47474426031112670898 0.35266968607902526855 0.39806500077247619629 0.27726200222969055176 0.36037158966064453125 0.24936406314373016357 0.76354670524597167969 0.36472055315971374512 0.46509149670600891113 0.35641574859619140625 0.34414088726043701172 0.46171143651008605957 0.45479115843772888184 0.47114112973213195801 0.32583269476890563965 0.46649673581123352051 0.43306899070739746094 0.61099761724472045898 0.41890814900398254395 0.2278779149055480957 0.58462560176849365234 0.2442919313907623291 0.44161006808280944824 0.093563251197338104248 0.36287650465965270996 0.25013056397438049316 0.43203213810920715332 0.41377738118171691895 0.41640314459800720215 0.21683974564075469971 0.52249234914779663086 0.66500002145767211914 
0.27892661094665527344 0.36243674159049987793 0.64116871356964111328 0.64746689796447753906 0.60159552097320556641 0.66369241476058959961 0.29390573501586914062 0.27812337875366210938 0.29058879613876342773 0.29030123353004455566 0.22981731593608856201 0.23287312686443328857 0.32123333215713500977 0.35577887296676635742 0.46458113193511962891 0.30007150769233703613 0.28910532593727111816 0.23765212297439575195 0.34527719020843505859 0.32345381379127502441 0.28946393728256225586 0.35168862342834472656 0.44716256856918334961 0.57479715347290039062 0.38434743881225585938 0.27618381381034851074 0.26490232348442077637 0.19425237178802490234 0.26153174042701721191 0.45808067917823791504 0.48155111074447631836 0.88388669490814208984 0.53708571195602416992 0.32766124606132507324 0.42182761430740356445 0.38170093297958374023 0.41079550981521606445 0.42465269565582275391 0.26565062999725341797 0.19606857001781463623 0.19414718449115753174 0.15497615933418273926 0.35049900412559509277 0.26582583785057067871 0.24485693871974945068 0.38214036822319030762 0.45538488030433654785 0.23934791982173919678 0.33199998736381530762 0.33158186078071594238 0.23759399354457855225 0.095450162887573242188 0.22339518368244171143 0.22303248941898345947 0.34721273183822631836 0.33439332246780395508 0.32229644060134887695 0.39052730798721313477 0.5234896540641784668 0.31574279069900512695 0.21018424630165100098 0.48404020071029663086 0.66254675388336181641 0.60268777608871459961 0.44908130168914794922 0.48617950081825256348 0.31936526298522949219 0.38990432024002075195 0.4391930699348449707 0.42343175411224365234 0.39640989899635314941 0.35908231139183044434 0.63078320026397705078 0.3004213869571685791 0.24481210112571716309 0.22868657112121582031 0.2643146812915802002 0.38161358237266540527 0.28640055656433105469 0.61492264270782470703 0.098160877823829650879 0.61283624172210693359 0.44368025660514831543 0.49624544382095336914 0.35787576436996459961 0.54034417867660522461 0.66500002145767211914 
0.20107369124889373779 0.4871756136417388916 0.61309611797332763672 0.77092629671096801758 0.70211923122406005859 0.73383581638336181641 0.37393337488174438477 0.27157488465309143066 0.22226950526237487793 0.40382963418960571289 0.36510637402534484863 0.20648811757564544678 0.23129788041114807129 0.35754561424255371094 0.55976617336273193359 0.40544849634170532227 0.44850444793701171875 0.37851232290267944336 0.62775778770446777344 0.52528268098831176758 0.46024614572525024414 0.46804398298263549805 0.36269474029541015625 0.27712351083755493164 0.23584087193012237549 0.38034227490425109863 0.11372505873441696167 0.21279825270175933838 0.41956818103790283203 0.34915894269943237305 0.31389105319976806641 0.4805278778076171875 0.55131644010543823242 0.35405337810516357422 0.35031569004058837891 0.35739350318908691406 0.55535066127777099609 0.41966232657432556152 0.18666961789131164551 0.38245573639869689941 0.21059612929821014404 0.18579012155532836914 0.055772498250007629395 0.14880670607089996338 0.30612912774085998535 0.31619587540626525879 0.26569318771362304688 0.16854874789714813232 0.33199998736381530762 0.33776888251304626465 0.29459685087203979492 0.4257316291332244873 0.31769081950187683105 0.33199998736381530762 0.1849015653133392334 0.23213918507099151611 0.3080138862133026123 0.35138988494873046875 0.25271824002265930176 0.3772971034049987793 0.18771974742412567139 0.43124926090240478516 0.59271329641342163086 0.59216231107711791992 0.65103387832641601562 0.46643474698066711426 0.34149876236915588379 0.22968393564224243164 0.12544336915016174316 0.5775057673454284668 0.52786362171173095703 0.29535555839538574219 0.56343400478363037109 0.44499507546424865723 0.44029119610786437988 0.2850144505500793457 0.38857543468475341797 0.29164895415306091309 0.41556215286254882812 0.56284976005554199219 0.22454513609409332275 0.27418157458305358887 0.54754978418350219727 0.56217968463897705078 0.44533357024192810059 0.38207775354385375977 0.27391576766967773438 
0.23488412797451019287 0.45506262779235839844 0.70483887195587158203 0.64746689796447753906 0.60159552097320556641 0.95745927095413208008 0.4265149235725402832 0.32729262113571166992 0.25206938385963439941 0.41309043765068054199 0.23271268606185913086 0.22179663181304931641 0.29150375723838806152 0.3941428065299987793 0.49851018190383911133 0.44780343770980834961 0.45731469988822937012 0.34735012054443359375 0.72828012704849243164 0.82106429338455200195 0.5222021937370300293 0.23943343758583068848 0.28983268141746520996 0.28185355663299560547 0.36519694328308105469 1.0751127004623413086 0.51265794038772583008 0.8126404881477355957 0.47529467940330505371 0.36769512295722961426 0.38973587751388549805 0.39746913313865661621 0.098637253046035766602 0.37843158841133117676 0.41185614466667175293 0.35835167765617370605 0.34950780868530273438 0.10823538154363632202 0.2872740626335144043 0.32848709821701049805 0.25658574700355529785 0.23804537951946258545 0.17547625303268432617 0.3536593317985534668 0.41866406798362731934 0.40805545449256896973 0.43800663948059082031 0.215486869215965271 0.24445432424545288086 0.24849799275398254395 0.27764567732810974121 0.29463970661163330078 0.26661950349807739258 0.44786840677261352539 0.38433474302291870117 0.16326911747455596924 0.19522237777709960938 0.19884118437767028809 0.59615099430084228516 0.28531870245933532715 0.23240099847316741943 0.35263100266456604004 0.50601273775100708008 0.51439684629440307617 0.87371248006820678711 0.4868844449520111084 0.38813006877899169922 0.30887567996978759766 0.33347749710083007812 0.3643493950366973877 0.23890389502048492432 0.28134131431579589844 0.4483318030834197998 0.4739710688591003418 0.43364283442497253418 0.20148137211799621582 0.1988938748836517334 0.15594324469566345215 0.34329780936241149902 0.49035045504570007324 0.79134386777877807617 0.44625958800315856934 0.24163775146007537842 0.40622469782829284668 0.59676587581634521484 0.8334630131721496582 0.66500002145767211914 
0.45441511273384094238 0.70222365856170654297 0.61848008632659912109 0.73098504543304443359 0.66761732101440429688 0.66917568445205688477 0.57074236869812011719 0.28881013393402099609 0.26709899306297302246 0.42373287677764892578 0.33226880431175231934 0.20596493780612945557 0.29498913884162902832 0.30828526616096496582 0.39141750335693359375 0.27256482839584350586 0.4811922609806060791 0.33898311853408813477 0.91869640350341796875 0.54945659637451171875 0.40871244668960571289 0.27050876617431640625 0.50186055898666381836 0.22632119059562683105 0.35185793042182922363 0.69702762365341186523 0.39212125539779663086 0.83113241195678710938 0.54712879657745361328 0.44093224406242370605 0.38140562176704406738 0.34321770071983337402 0.06589587777853012085 0.22148238122463226318 0.26904320716857910156 0.28861087560653686523 0.24603700637817382812 0.27575036883354187012 0.24986223876476287842 0.15909831225872039795 0.60505968332290649414 0.12015600502490997314 0.35425877571105957031 0.34036231040954589844 0.54609376192092895508 0.34719550609588623047 0.36957249045372009277 0.33199998736381530762 0.27212533354759216309 0.43748849630355834961 0.39720144867897033691 0.30259275436401367188 0.52920579910278320312 0.60878133773803710938 0.34941181540489196777 0.25263512134552001953 0.24730993807315826416 0.24659550189971923828 0.31902274489402770996 0.47763648629188537598 0.28092643618583679199 0.30566987395286560059 0.50532841682434082031 0.765079498291015625 0.58563101291656494141 0.58744376897811889648 0.725223541259765625 0.35024914145469665527 0.16676625609397888184 0.057036314159631729126 0.14534799754619598389 0.30511251091957092285 0.29855763912200927734 0.40689262747764587402 0.43230545520782470703 0.21374069154262542725 0.27321249246597290039 0.25723174214363098145 0.34963831305503845215 0.46131852269172668457 0.42134019732475280762 0.21311806142330169678 0.37835943698883056641 0.33825698494911193848 0.35034218430519104004 0.39081907272338867188 0.35350000858306884766 
0.63194000720977783203 0.5565166473388671875 0.82004696130752563477 0.77577877044677734375 0.61265844106674194336 0.60774403810501098633 0.4508018791675567627 0.27555155754089355469 0.33363586664199829102 0.45128414034843444824 0.40737950801849365234 0.25323045253753662109 0.2536468207836151123 0.30832207202911376953 0.32920119166374206543 0.40116769075393676758 0.44171375036239624023 0.34369775652885437012 0.73316192626953125 0.35269019007682800293 0.49684044718742370605 0.30764818191528320312 0.74014687538146972656 0.50428175926208496094 0.52240145206451416016 0.64617025852203369141 0.51679754257202148438 0.72911041975021362305 0.32340025901794433594 0.26865676045417785645 0.34037786722183227539 0.34446924924850463867 0.1398573070764541626 0.22520326077938079834 0.071813002228736877441 0.045270200818777084351 0.41423499584197998047 0.25940698385238647461 0.35979020595550537109 0.22657275199890136719 0.29401499032974243164 0.058236416429281234741 0.31578457355499267578 0.30363458395004272461 0.35257875919342041016 0.41753092408180236816 0.61049538850784301758 0.20023550093173980713 0.31810531020164489746 0.26351508498191833496 0.27227795124053955078 0.47244593501091003418 0.58274251222610473633 0.55922746658325195312 0.36134129762649536133 0.23772791028022766113 0.28804248571395874023 0.36373943090438842773 0.55949139595031738281 0.62268221378326416016 0.34614345431327819824 0.48346093297004699707 0.42924591898918151855 0.56700235605239868164 0.4449749290943145752 0.729373931884765625 0.35976544022560119629 0.30987882614135742188 0.22996374964714050293 0.23011562228202819824 0.2407649308443069458 0.38423836231231689453 0.27462062239646911621 0.20612119138240814209 0.189787253737449646 0.13432931900024414062 0.41583931446075439453 0.16791012883186340332 0.21644075214862823486 0.28605329990386962891 0.18559500575065612793 0.29469895362854003906 0.2899087369441986084 0.2520981132984161377 0.45565843582153320312 0.34997218847274780273 0.21470874547958374023 
0.76715129613876342773 0.86760151386260986328 0.99978542327880859375 1.0531797409057617188 0.91329139471054077148 0.41940581798553466797 0.32910567522048950195 0.3444919884204864502 0.52310192584991455078 0.42973917722702026367 0.46481987833976745605 0.50946044921875 0.31552523374557495117 0.32649976015090942383 0.28422713279724121094 0.2963981330394744873 0.40944913029670715332 0.27512949705123901367 0.24169600009918212891 0.4064216315746307373 0.65818864107131958008 0.81413519382476806641 0.68118607997894287109 0.6151707768440246582 0.23480093479156494141 0.11396238207817077637 0.14808288216590881348 0.21552437543869018555 0.34948432445526123047 0.65351188182830810547 0.43919706344604492188 0.32630962133407592773 0.34192836284637451172 0.50379765033721923828 0.49482744932174682617 0.22658163309097290039 0.2944291532039642334 0.30324468016624450684 0.67350882291793823242 0.59029889106750488281 0.33969300985336303711 0.19937212765216827393 0.25291067361831665039 0.17999885976314544678 0.3680000007152557373 0.5386345982551574707 0.4148833155632019043 0.2608471214771270752 0.31656476855278015137 0.31014844775199890137 0.35958212614059448242 0.39008033275604248047 0.53501641750335693359 0.51310658454895019531 0.29860225319862365723 0.38934099674224853516 0.38691452145576477051 0.46565949916839599609 0.29215338826179504395 0.19113099575042724609 0.31704789400100708008 0.26222875714302062988 0.5299396514892578125 0.24462901055812835693 0.39042001962661743164 0.34167587757110595703 0.37900787591934204102 0.37226495146751403809 0.19645099341869354248 0.26125544309616088867 0.3217671811580657959 0.17768749594688415527 0.35372412204742431641 0.18170362710952758789 0.25413057208061218262 0.26244831085205078125 0.34762057662010192871 0.15328274667263031006 0.11167337745428085327 0.16025300323963165283 0.13938599824905395508 0.40723529458045959473 0.28100275993347167969 0.36630645394325256348 0.45671889185905456543 0.32696387171745300293 0.32827898859977722168 
0.85260874032974243164 0.62640690803527832031 1.1065740585327148438 0.99978542327880859375 1.0309180021286010742 0.36922907829284667969 0.27485725283622741699 0.50376433134078979492 0.47035101056098937988 0.37396019697189331055 0.4730891883373260498 0.52133786678314208984 0.31980562210083007812 0.22388124465942382812 0.22222174704074859619 0.16965393722057342529 0.31184881925582885742 0.23940637707710266113 0.36539426445960998535 0.74347209930419921875 0.61169600486755371094 0.69584536552429199219 0.63067954778671264648 0.44569200277328491211 0.43489035964012145996 0.17801962792873382568 0.19803625345230102539 0.065374501049518585205 0.33143731951713562012 0.32128542661666870117 0.43772143125534057617 0.27652844786643981934 0.14034037292003631592 0.54610973596572875977 0.72957277297973632812 0.25335344672203063965 0.24307288229465484619 0.30284398794174194336 0.46382719278335571289 0.47920900583267211914 0.32062384486198425293 0.12538999319076538086 0.23977687954902648926 0.16513438522815704346 0.25990176200866699219 0.30659523606300354004 0.24187593162059783936 0.23798531293869018555 0.41231825947761535645 0.42744681239128112793 0.47116544842720031738 0.50548243522644042969 0.29668319225311279297 0.2152229994535446167 0.16650000214576721191 0.45356220006942749023 0.24200466275215148926 0.25534150004386901855 0.32073366641998291016 0.38765498995780944824 0.11689686030149459839 0.39321887493133544922 0.22773765027523040771 0.17546610534191131592 0.42158749699592590332 0.30839261412620544434 0.31701394915580749512 0.24900281429290771484 0.38273996114730834961 0.49162364006042480469 0.10200075060129165649 0.097796313464641571045 0.19666007161140441895 0.17588387429714202881 0.19273681938648223877 0.21532493829727172852 0.10308700054883956909 0.11510937660932540894 0.33387038111686706543 0.2938403785228729248 0.30987757444381713867 0.34586393833160400391 0.35033237934112548828 0.57543402910232543945 0.48783704638481140137 0.36227625608444213867 0.11904825270175933838 
0.70148384571075439453 0.81805121898651123047 0.99978542327880859375 1.0531797409057617188 0.74630171060562133789 0.32957404851913452148 0.41723638772964477539 0.33085957169532775879 0.37134355306625366211 0.7335999608039855957 0.92262065410614013672 0.54433065652847290039 0.3389390110969543457 0.20584163069725036621 0.27759873867034912109 0.37025824189186096191 0.24161413311958312988 0.29615163803100585938 0.60218226909637451172 0.60976976156234741211 0.50180655717849731445 0.43890044093132019043 0.56851434707641601562 0.41774070262908935547 0.34288492798805236816 0.39607730507850646973 0.20540657639503479004 0.16409838199615478516 0.046119064092636108398 0.26004442572593688965 0.42128893733024597168 0.48281407356262207031 0.24561993777751922607 0.5070775151252746582 0.6206519007682800293 0.5497735142707824707 0.28961968421936035156 0.34830400347709655762 0.46603277325630187988 0.34661307930946350098 0.13115194439888000488 0.48445099592208862305 0.59273409843444824219 0.29369422793388366699 0.20586468279361724854 0.2617797553539276123 0.19612510502338409424 0.2574557960033416748 0.2614726722240447998 0.32180419564247131348 0.44458350539207458496 0.36357328295707702637 0.22747375071048736572 0.33476600050926208496 0.28526031970977783203 0.3545869290828704834 0.28291091322898864746 0.31329101324081420898 0.39798584580421447754 0.31558459997177124023 0.23037925362586975098 0.14214409887790679932 0.21110551059246063232 0.23249675333499908447 0.13994343578815460205 0.19687694311141967773 0.36515837907791137695 0.47871488332748413086 0.69259840250015258789 0.56248313188552856445 0.31618019938468933105 0.48343932628631591797 0.14173218607902526855 0.36609625816345214844 0.1040042489767074585 0.39619863033294677734 0.1670551300048828125 0.21829369664192199707 0.22547063231468200684 0.39892938733100891113 0.88725125789642333984 0.58835077285766601562 0.42250299453735351562 0.66452437639236450195 0.67148804664611816406 0.23198144137859344482 0.21640074253082275391 
0.70595335960388183594 0.93686264753341674805 1.0436513423919677734 1.0495355129241943359 0.66494166851043701172 0.48181179165840148926 0.30740213394165039062 0.44105857610702514648 0.61997824907302856445 1.0017203092575073242 0.77726328372955322266 0.24255412817001342773 0.26005113124847412109 0.17066086828708648682 0.13508237898349761963 0.362640380859375 0.22252261638641357422 0.38505706191062927246 0.66445326805114746094 0.61988568305969238281 0.57338243722915649414 0.32746681571006774902 0.28463843464851379395 0.28558105230331420898 0.2440903782844543457 0.36289113759994506836 0.10355044156312942505 0.13245649635791778564 0.076687499880790710449 0.56998735666275024414 0.51010674238204956055 0.38259536027908325195 0.15423120558261871338 0.50732111930847167969 0.46213763952255249023 0.15006911754608154297 0.027125000953674316406 0.16883316636085510254 0.45850312709808349609 0.25232926011085510254 0.037269584834575653076 0.26350900530815124512 0.4262987673282623291 0.23493358492851257324 0.22808174788951873779 0.25059354305267333984 0.43617558479309082031 0.24533988535404205322 0.22769175469875335693 0.20334406197071075439 0.22831118106842041016 0.29893228411674499512 0.20905132591724395752 0.42025801539421081543 0.27207455039024353027 0.26205405592918395996 0.13703912496566772461 0.18927545845508575439 0.34625685214996337891 0.24616393446922302246 0.20619332790374755859 0.15382993221282958984 0.14925391972064971924 0.32868158817291259766 0.15808694064617156982 0.24462449550628662109 0.46441432833671569824 0.42652595043182373047 0.50741660594940185547 0.29222899675369262695 0.24548412859439849854 0.086227752268314361572 0.0049999998882412910461 0.0049999998882412910461 0.44102776050567626953 0.47849839925765991211 0.24106806516647338867 0.20283225178718566895 0.10234218835830688477 0.21648293733596801758 0.21730856597423553467 0.36875429749488830566 0.3995208740234375 0.62601304054260253906 0.65362519025802612305 0.36795696616172790527 0.11266975104808807373 
0.37485131621360778809 0.69926184415817260742 0.88032233715057373047 1.0118825435638427734 0.36846917867660522461 0.32506874203681945801 0.37673351168632507324 0.4006131291389465332 0.73397886753082275391 1.0283572673797607422 0.78205484151840209961 0.36570224165916442871 0.18447656929492950439 0.26417699456214904785 0.25732687115669250488 0.31246238946914672852 0.2393153756856918335 0.30650207400321960449 0.42580398917198181152 0.41539043188095092773 0.54763013124465942383 0.29778906702995300293 0.2360506206750869751 0.1836433708667755127 0.16930037736892700195 0.33613494038581848145 0.23838484287261962891 0.26731377840042114258 0.52241891622543334961 0.63645249605178833008 0.36194688081741333008 0.25138571858406066895 0.18252849578857421875 0.34518823027610778809 0.3293736875057220459 0.10007759928703308105 0.20809566974639892578 0.17017693817615509033 0.28943875432014465332 0.052446123212575912476 0.046341110020875930786 0.24415850639343261719 0.25229340791702270508 0.36380699276924133301 0.28714641928672790527 0.27909511327743530273 0.26799321174621582031 0.24562428891658782959 0.24918577075004577637 0.22358299791812896729 0.2373440861701965332 0.38591161370277404785 0.39050173759460449219 0.31875821948051452637 0.26762032508850097656 0.19740723073482513428 0.21696940064430236816 0.32428944110870361328 0.3605340123176574707 0.39670160412788391113 0.16384589672088623047 0.14986187219619750977 0.088762111961841583252 0.27038884162902832031 0.3240616917610168457 0.40116417407989501953 0.42333611845970153809 0.27524164319038391113 0.3342355191707611084 0.75956064462661743164 0.025437498465180397034 0.0049999998882412910461 0.0049999998882412910461 0.0049999998882412910461 0.073848381638526916504 0.51829063892364501953 0.23946769535541534424 0.1786728203296661377 0.25875511765480041504 0.21895305812358856201 0.16950519382953643799 0.2831395566463470459 0.39687898755073547363 0.64435273408889770508 0.5508931279182434082 0.25006237626075744629 0.19336624443531036377 
0.4519729912281036377 0.49511894583702087402 0.60985732078552246094 0.46101838350296020508 0.33090749382972717285 0.33393514156341552734 0.37823119759559631348 0.37599924206733703613 0.63050538301467895508 0.64815765619277954102 0.59872764348983764648 0.17490762472152709961 0.17308975756168365479 0.26068225502967834473 0.15604825317859649658 0.33517113327980041504 0.23598593473434448242 0.39420980215072631836 0.48427861928939819336 0.47495293617248535156 0.50572848320007324219 0.20879618823528289795 0.18582224845886230469 0.34202399849891662598 0.23860618472099304199 0.24592299759387969971 0.12920887768268585205 0.18509699404239654541 0.19775000214576721191 0.36861649155616760254 0.13404612243175506592 0.16332900524139404297 0.15208037197589874268 0.39614439010620117188 0.22014100849628448486 0.30090552568435668945 0.16695062816143035889 0.32623887062072753906 0.045310199260711669922 0.16232176125049591064 0.17316719889640808105 0.29063451290130615234 0.31802773475646972656 0.44805288314819335938 0.29774463176727294922 0.29283186793327331543 0.29963162541389465332 0.32870826125144958496 0.46489638090133666992 0.30959054827690124512 0.26237204670906066895 0.35717037320137023926 0.45259130001068115234 0.42122659087181091309 0.48217040300369262695 0.22313387691974639893 0.26480999588966369629 0.41981172561645507812 0.34901988506317138672 0.3561846315860748291 0.1798022538423538208 0.37739476561546325684 0.56784963607788085938 0.40852013230323791504 0.29616618156433105469 0.46398708224296569824 0.31007474660873413086 0.30725374817848205566 0.78070944547653198242 0.26300993561744689941 0.016386749222874641418 0.0049999998882412910461 0.0049999998882412910461 0.0049999998882412910461 0.0049999998882412910461 0.35133102536201477051 0.23968482017517089844 0.26678320765495300293 0.16472262144088745117 0.1896209418773651123 0.27763062715530395508 0.38577535748481750488 0.235460624098777771 0.36055350303649902344 0.34532836079597473145 0.14452794194221496582 0.14847250282764434814 
0.73960298299789428711 0.71017241477966308594 0.67463707923889160156 0.29842850565910339355 0.36825487017631530762 0.24961231648921966553 0.27451586723327636719 0.62968921661376953125 0.35672461986541748047 0.55084049701690673828 0.2504214942455291748 0.14249350130558013916 0.29517093300819396973 0.19762881100177764893 0.27270767092704772949 0.31832531094551086426 0.29596543312072753906 0.29571193456649780273 0.50832962989807128906 0.34021043777465820312 0.41973036527633666992 0.4101658165454864502 0.23189462721347808838 0.32278719544410705566 0.071768246591091156006 0.023307692259550094604 0.038812499493360519409 0.55603349208831787109 0.33385568857192993164 0.34159550070762634277 0.10437499731779098511 0.025000000372529029846 0.026214286684989929199 0.025000000372529029846 0.060155250132083892822 0.2484245002269744873 0.41163331270217895508 0.144747123122215271 0.1419843137264251709 0.1287803351879119873 0.10390058159828186035 0.17077283561229705811 0.52235651016235351562 0.49543645977973937988 0.42588981986045837402 0.25929123163223266602 0.28369921445846557617 0.24601359665393829346 0.52544760704040527344 0.31546258926391601562 0.25760424137115478516 0.4094600677490234375 0.36345282196998596191 0.35341733694076538086 0.32746490836143493652 0.31491884589195251465 0.11991387605667114258 0.3074989020824432373 0.1305611729621887207 0.18204489350318908691 0.35975283384323120117 0.50845700502395629883 0.35283106565475463867 0.22705218195915222168 0.31839680671691894531 0.43903842568397521973 0.44056388735771179199 0.25933349132537841797 0.15711256861686706543 0.13125124573707580566 0.203253135085105896 0.025371000170707702637 0.0049999998882412910461 0.0054374998435378074646 0.0049999998882412910461 0.1923424452543258667 0.2126776278018951416 0.14088737964630126953 0.30941751599311828613 0.3374983370304107666 0.14584536850452423096 0.20497550070285797119 0.15475906431674957275 0.14539450407028198242 0.20583738386631011963 0.23508156836032867432 0.15305700898170471191 
0.75163888931274414062 0.59922319650650024414 0.51615130901336669922 0.40362262725830078125 0.32916530966758728027 0.333980560302734375 0.50220817327499389648 0.3896166384220123291 0.31888738274574279785 0.17195950448513031006 0.16181287169456481934 0.17775468528270721436 0.2670879364013671875 0.2530625760555267334 0.28223448991775512695 0.18780168890953063965 0.30269250273704528809 0.25478312373161315918 0.27226555347442626953 0.48297142982482910156 0.37051299214363098145 0.16094218194484710693 0.32975462079048156738 0.27414724230766296387 0.11690025031566619873 0.06212224811315536499 0.17718169093132019043 0.34372416138648986816 0.078352667391300201416 0.45677506923675537109 0.22528734803199768066 0.038747373968362808228 0.027125000953674316406 0.083888888359069824219 0.074879467487335205078 0.087466873228549957275 0.30402737855911254883 0.44924363493919372559 0.34644058346748352051 0.13308450579643249512 0.17807845771312713623 0.012083333916962146759 0.40438225865364074707 0.480327606201171875 0.25923606753349304199 0.22654606401920318604 0.27285021543502807617 0.27919062972068786621 0.56589508056640625 0.17008312046527862549 0.39331570267677307129 0.19572450220584869385 0.26686039566993713379 0.091480754315853118896 0.11934830993413925171 0.17831762135028839111 0.11939662694931030273 0.24964630603790283203 0.13678862154483795166 0.51516693830490112305 0.42153838276863098145 0.35626131296157836914 0.3390172421932220459 0.22834768891334533691 0.30490756034851074219 0.35186338424682617188 0.4567088782787322998 0.28404930233955383301 0.181972503662109375 0.14492918550968170166 0.34567943215370178223 0.25842830538749694824 0.048679374158382415771 0.03934237360954284668 0.021562499925494194031 0.027749998494982719421 0.073848381638526916504 0.025437498465180397034 0.14269675314426422119 0.26855081319808959961 0.15496368706226348877 0.070477999746799468994 0.070477999746799468994 0.070477999746799468994 0.1055304408073425293 0.21834805607795715332 0.26833748817443847656 
0.52001023292541503906 0.5455780029296875 0.45856836438179016113 0.42022213339805603027 0.33103525638580322266 0.31235605478286743164 0.43782749772071838379 0.39156451821327209473 0.15282875299453735352 0.30001881718635559082 0.1620569378137588501 0.19843849539756774902 0.37284964323043823242 0.3253161311149597168 0.19014781713485717773 0.15470337867736816406 0.31781882047653198242 0.16062025725841522217 0.052048750221729278564 0.10119175165891647339 0.21801744401454925537 0.24961206316947937012 0.24802407622337341309 0.33697876334190368652 0.1966406702995300293 0.24793154001235961914 0.38948965072631835938 0.42162591218948364258 0.025000000372529029846 0.43131959438323974609 0.38529574871063232422 0.17980454862117767334 0.21849466860294342041 0.026888888329267501831 0.045896749943494796753 0.0062500000931322574615 0.0049999998882412910461 0.15363675355911254883 0.13793422281742095947 0.20670525729656219482 0.26086947321891784668 0.26446950435638427734 0.33402201533317565918 0.38075619935989379883 0.34643125534057617188 0.23947988450527191162 0.26873722672462463379 0.32136642932891845703 0.33710446953773498535 0.16811181604862213135 0.15901322662830352783 0.090737141668796539307 0.10884678363800048828 0.11874016374349594116 0.2469291388988494873 0.41045346856117248535 0.18691980838775634766 0.44592207670211791992 0.39947712421417236328 0.39507985115051269531 0.20717510581016540527 0.26902699470520019531 0.41986611485481262207 0.34790861606597900391 0.35212957859039306641 0.29244154691696166992 0.32256168127059936523 0.35518768429756164551 0.26739975810050964355 0.20652900636196136475 0.45086786150932312012 0.56420767307281494141 0.19872756302356719971 0.28707349300384521484 0.052471812814474105835 0.026000000536441802979 0.0049999998882412910461 0.0049999998882412910461 0.073848381638526916504 0.43233975768089294434 0.18014900386333465576 0.070477999746799468994 0.070477999746799468994 0.082867749035358428955 0.22058932483196258545 0.22777612507343292236 0.46633601188659667969 
0.74116212129592895508 0.41169607639312744141 0.32979717850685119629 0.35490626096725463867 0.3417110741138458252 0.52490156888961791992 0.28814733028411865234 0.31480112671852111816 0.29239088296890258789 0.17540319263935089111 0.18591800332069396973 0.27186638116836547852 0.2043202519416809082 0.19560074806213378906 0.16628144681453704834 0.37584155797958374023 0.29411369562149047852 0.24222731590270996094 0.23971325159072875977 0.46222135424613952637 0.2585251927375793457 0.1909583359956741333 0.10197299718856811523 0.55829912424087524414 0.42215812206268310547 0.41835916042327880859 0.42733117938041687012 0.24668675661087036133 0.32189732789993286133 0.25022655725479125977 0.20878656208515167236 0.16424416005611419678 0.27585518360137939453 0.17679354548454284668 0.1677592545747756958 0.0049999998882412910461 0.038526665419340133667 0.085438504815101623535 0.097113125026226043701 0.041513331234455108643 0.12244108319282531738 0.22829063236713409424 0.30935949087142944336 0.29712307453155517578 0.24928066134452819824 0.20674280822277069092 0.20421749353408813477 0.11484725028276443481 0.23061938583850860596 0.22836968302726745605 0.37839069962501525879 0.22344189882278442383 0.35388791561126708984 0.3690706789493560791 0.35130161046981811523 0.53407520055770874023 0.36203500628471374512 0.37483945488929748535 0.37950733304023742676 0.40618062019348144531 0.28031957149505615234 0.29872313141822814941 0.41087830066680908203 0.29577139019966125488 0.38907456398010253906 0.37603268027305603027 0.30927419662475585938 0.31710651516914367676 0.30409473180770874023 0.28698119521141052246 0.40024051070213317871 0.35234874486923217773 0.20537331700325012207 0.21864718198776245117 0.17100475728511810303 0.065146371722221374512 0.0049999998882412910461 0.11298256367444992065 0.044853188097476959229 0.28084713220596313477 0.19605718553066253662 0.070477999746799468994 0.070477999746799468994 0.3491916954517364502 0.28526329994201660156 0.58502233028411865234 0.80099326372146606445 
0.48556229472160339355 0.34160268306732177734 0.3381608128547668457 0.3824463188648223877 0.42805069684982299805 0.20435599982738494873 0.085602939128875732422 0.23422425985336303711 0.26474669575691223145 0.088981002569198608398 0.28701481223106384277 0.27446475625038146973 0.28132811188697814941 0.24896900355815887451 0.18034000694751739502 0.28808179497718811035 0.27087712287902832031 0.24712724983692169189 0.29203757643699645996 0.27556493878364562988 0.33221292495727539062 0.19023662805557250977 0.16775125265121459961 0.37609270215034484863 0.26180991530418395996 0.21169099211692810059 0.30795425176620483398 0.42043036222457885742 0.3605982363224029541 0.31724640727043151855 0.13344813883304595947 0.091099999845027923584 0.096326000988483428955 0.16308332979679107666 0.42587220668792724609 0.081336334347724914551 0.13378868997097015381 0.081958062946796417236 0.11158637702465057373 0.17287887632846832275 0.097333252429962158203 0.36712977290153503418 0.17348341643810272217 0.29564151167869567871 0.1594521254301071167 0.23015831410884857178 0.26315218210220336914 0.52098709344863891602 0.23009912669658660889 0.36790373921394348145 0.34336370229721069336 0.22678156197071075439 0.49021944403648376465 0.52585506439208984375 0.47785425186157226562 0.55672907829284667969 0.4146652519702911377 0.51407718658447265625 0.34870049357414245605 0.36169990897178649902 0.35320943593978881836 0.31343924999237060547 0.3327223658561706543 0.25973036885261535645 0.30757069587707519531 0.46880802512168884277 0.8148739933967590332 0.44350302219390869141 0.39009431004524230957 0.32816138863563537598 0.36555555462837219238 0.38849613070487976074 0.25726523995399475098 0.19307750463485717773 0.087722562253475189209 0.1800104975700378418 0.22334781289100646973 0.20464430749416351318 0.19523562490940093994 0.28631126880645751953 0.25102588534355163574 0.070477999746799468994 0.12004125118255615234 0.35662248730659484863 0.2924137413501739502 0.43298763036727905273 0.42928424477577209473 
0.35050544142723083496 0.43111050128936767578 0.2511374354362487793 0.36045488715171813965 0.39038306474685668945 0.30132043361663818359 0.17493112385272979736 0.15522706508636474609 0.42907226085662841797 0.21736931800842285156 0.31282475590705871582 0.26720613241195678711 0.33409106731414794922 0.22641849517822265625 0.32510542869567871094 0.22700293362140655518 0.44213095307350158691 0.40840268135070800781 0.24531686305999755859 0.28930261731147766113 0.28998807072639465332 0.07003186643123626709 0.37443611025810241699 0.28398630023002624512 0.073291555047035217285 0.3866450190544128418 0.11081338673830032349 0.077764123678207397461 0.020666666328907012939 0.018500000238418579102 0.14201650023460388184 0.40245652198791503906 0.028642857447266578674 0.74207252264022827148 0.59815526008605957031 0.072687998414039611816 0.055601499974727630615 0.088525503873825073242 0.026312500238418579102 0.08581507951021194458 0.11678966134786605835 0.15144599974155426025 0.25510174036026000977 0.25567507743835449219 0.24336324632167816162 0.27482745051383972168 0.22516350448131561279 0.2378914952278137207 0.25433686375617980957 0.28452137112617492676 0.23693832755088806152 0.21049730479717254639 0.42332386970520019531 0.54727536439895629883 0.84660798311233520508 1.005185246467590332 0.59464794397354125977 0.5302918553352355957 0.35130017995834350586 0.32746240496635437012 0.47151455283164978027 0.30510324239730834961 0.24520643055438995361 0.23915994167327880859 0.25098362565040588379 0.52414238452911376953 0.42576175928115844727 0.33848688006401062012 0.19775556027889251709 0.41019788384437561035 0.26939174532890319824 0.38437604904174804688 0.30730986595153808594 0.27229794859886169434 0.14248356223106384277 0.19014193117618560791 0.16322749853134155273 0.3297316133975982666 0.36427098512649536133 0.21117699146270751953 0.24104380607604980469 0.44068804383277893066 0.40278410911560058594 0.31032574176788330078 0.46409636735916137695 0.3510189354419708252 0.47003424167633056641 
0.32424819469451904297 0.59129005670547485352 0.33551856875419616699 0.31144574284553527832 0.24774724245071411133 0.30686038732528686523 0.29364174604415893555 0.26076111197471618652 0.25064924359321594238 0.28426656126976013184 0.38666263222694396973 0.43703362345695495605 0.47877264022827148438 0.31932660937309265137 0.23435406386852264404 0.29786512255668640137 0.26601836085319519043 0.30504694581031799316 0.29988950490951538086 0.21761912107467651367 0.18658858537673950195 0.026562500745058059692 0.027625000104308128357 0.061013109982013702393 0.16547210514545440674 0.16628134250640869141 0.15535156428813934326 0.23776951432228088379 0.3312129974365234375 0.23493859171867370605 0.30969959497451782227 0.039274692535400390625 0.024687500670552253723 0.1215257793664932251 0.30082979798316955566 0.11949343979358673096 0.030312500894069671631 0.025399999693036079407 0.20564450323581695557 0.29265201091766357422 0.19416156411170959473 0.2967974245548248291 0.23890337347984313965 0.27535098791122436523 0.25778993964195251465 0.40276426076889038086 0.29474821686744689941 0.34849625825881958008 0.40264943242073059082 0.21847175061702728271 0.21970084309577941895 0.25354287028312683105 0.23982587456703186035 0.36456438899040222168 0.74484324455261230469 0.93667608499526977539 0.81275576353073120117 0.60869866609573364258 0.38357454538345336914 0.4139264523983001709 0.28618100285530090332 0.25484201312065124512 0.34620961546897888184 0.25237005949020385742 0.26366332173347473145 0.49885594844818115234 0.66402280330657958984 0.23259325325489044189 0.27918669581413269043 0.40872806310653686523 0.39506512880325317383 0.36000144481658935547 0.30886298418045043945 0.34164825081825256348 0.18460975587368011475 0.2555885612964630127 0.28046831488609313965 0.4412231147289276123 0.55112218856811523438 0.12692444026470184326 0.52416568994522094727 0.49915516376495361328 0.30459880828857421875 0.29020249843597412109 0.56741166114807128906 0.42400842905044555664 0.48478874564170837402 
0.42484006285667419434 0.56231987476348876953 0.27043488621711730957 0.46731635928153991699 0.24689294397830963135 0.22360806167125701904 0.24483381211757659912 0.19890837371349334717 0.3673858642578125 0.34825173020362854004 0.33722719550132751465 0.31868562102317810059 0.50874042510986328125 0.31213492155075073242 0.26879873871803283691 0.39950543642044067383 0.30737817287445068359 0.42830038070678710938 0.22507131099700927734 0.22955307364463806152 0.16465131938457489014 0.13306038081645965576 0.35760068893432617188 0.12494583427906036377 0.35402691364288330078 0.10656600445508956909 0.31248494982719421387 0.2036225050687789917 0.45972874760627746582 0.42981308698654174805 0.4060001075267791748 0.17922167479991912842 0.11423543840646743774 0.027615385130047798157 0.029466666281223297119 0.035436250269412994385 0.07241500169038772583 0.059539169073104858398 0.09686711430549621582 0.1963644176721572876 0.30435585975646972656 0.31463617086410522461 0.26757299900054931641 0.54782617092132568359 0.54718810319900512695 0.32279685139656066895 0.66727334260940551758 0.47534137964248657227 0.18912807106971740723 0.22451475262641906738 0.070477999746799468994 0.10449912399053573608 0.070477999746799468994 0.070477999746799468994 0.23830777406692504883 0.38762560486793518066 0.42899537086486816406 0.28688862919807434082 0.30534520745277404785 0.34634432196617126465 0.30255538225173950195 0.44658306241035461426 0.59673321247100830078 0.44604524970054626465 0.36745113134384155273 0.45917093753814697266 0.63364487886428833008 0.41136914491653442383 0.26892951130867004395 0.3452917635440826416 0.45727518200874328613 0.26195305585861206055 0.34495168924331665039 0.31301239132881164551 0.17555543780326843262 0.2154423147439956665 0.26823049783706665039 0.42771792411804199219 0.52844136953353881836 0.36182475090026855469 0.21808324754238128662 0.29252150654792785645 0.28653830289840698242 0.41585186123847961426 0.58662456274032592773 0.63999080657958984375 0.70230150222778320312 
0.47412824630737304688 0.34690356254577636719 0.41909569501876831055 0.5347893834114074707 0.30716544389724731445 0.24148437380790710449 0.25676286220550537109 0.22347761690616607666 0.48135426640510559082 0.3287830054759979248 0.17825275659561157227 0.35370180010795593262 0.28312417864799499512 0.33717006444931030273 0.28880393505096435547 0.45088136196136474609 0.36625558137893676758 0.2943808138370513916 0.30309462547302246094 0.078809998929500579834 0.20569238066673278809 0.27994751930236816406 0.39643064141273498535 0.1990423351526260376 0.13355740904808044434 0.73650372028350830078 0.35130387544631958008 0.27147692441940307617 0.15997700393199920654 0.26149925589561462402 0.27691423892974853516 0.041857101023197174072 0.026416666805744171143 0.22091810405254364014 0.024100000038743019104 0.10110755264759063721 0.23960216343402862549 0.19192357361316680908 0.33274719119071960449 0.21801225841045379639 0.34674552083015441895 0.36148965358734130859 0.83010137081146240234 0.79490232467651367188 0.91174006462097167969 0.87356096506118774414 1.0552834272384643555 0.54375785589218139648 0.36553651094436645508 0.27993080019950866699 0.070477999746799468994 0.070477999746799468994 0.070477999746799468994 0.070477999746799468994 0.29708009958267211914 0.47275057435035705566 0.48626488447189331055 0.3838062286376953125 0.3147258758544921875 0.26515686511993408203 0.31830286979675292969 0.45397099852561950684 0.50050967931747436523 0.27423894405364990234 0.41271936893463134766 0.90273606777191162109 0.96160686016082763672 0.48506078124046325684 0.31896826624870300293 0.35299286246299743652 0.28595507144927978516 0.19344787299633026123 0.29144138097763061523 0.3780206143856048584 0.17819425463676452637 0.290714263916015625 0.23536624014377593994 0.3474267423152923584 0.4618555903434753418 0.941501617431640625 0.87807035446166992188 0.22217918932437896729 0.37560993432998657227 0.39621198177337646484 0.43816906213760375977 0.57653802633285522461 0.40504050254821777344 
0.42571899294853210449 0.30940538644790649414 0.70601731538772583008 0.52714323997497558594 0.359607696533203125 0.23104313015937805176 0.3058052361011505127 0.17271700501441955566 0.15686617791652679443 0.21698237955570220947 0.26934587955474853516 0.28311407566070556641 0.22256849706172943115 0.23346462845802307129 0.16809339821338653564 0.027125000953674316406 0.37464827299118041992 0.15106037259101867676 0.055112749338150024414 0.30088323354721069336 0.33347320556640625 0.027125000953674316406 0.20445512235164642334 0.215284004807472229 0.5617955327033996582 0.21007758378982543945 0.10159900039434432983 0.19692650437355041504 0.26837199926376342773 0.30805581808090209961 0.46165305376052856445 0.32538849115371704102 0.14051000773906707764 0.11774633079767227173 0.63809889554977416992 0.28729850053787231445 0.32077988982200622559 0.21523074805736541748 0.28536686301231384277 0.066918246448040008545 0.12224575132131576538 0.36294737458229064941 0.77376466989517211914 0.84990721940994262695 1.0217183828353881836 0.91284102201461791992 1.1065740585327148438 0.65142190456390380859 0.57444965839385986328 0.23775924742221832275 0.070477999746799468994 0.070477999746799468994 0.070477999746799468994 0.070477999746799468994 0.36006021499633789062 0.33260312676429748535 0.5731989741325378418 0.47230538725852966309 0.34688574075698852539 0.23823405802249908447 0.33423069119453430176 0.50196701288223266602 0.5131117701530456543 0.52292996644973754883 0.40245860815048217773 0.73698765039443969727 0.73704177141189575195 0.65697807073593139648 0.48079565167427062988 0.33400362730026245117 0.3525956273078918457 0.30711725354194641113 0.27361163496971130371 0.31687757372856140137 0.33944207429885864258 0.48596039414405822754 0.39910981059074401855 0.52962470054626464844 1.0783584117889404297 1.0211284160614013672 0.89330071210861206055 0.43136119842529296875 0.2336603701114654541 0.54686319828033447266 0.34493032097816467285 0.20529636740684509277 0.070477999746799468994 
0.43322700262069702148 0.54795175790786743164 0.55521738529205322266 0.42375463247299194336 0.2506943047046661377 0.22388838231563568115 0.30845776200294494629 0.20912937819957733154 0.30018606781959533691 0.29484194517135620117 0.2498254925012588501 0.26291152834892272949 0.38011291623115539551 0.33378076553344726562 0.43392199277877807617 0.34828081727027893066 0.078864306211471557617 0.19468142092227935791 0.35077849030494689941 0.095973782241344451904 0.1467660069465637207 0.25349268317222595215 0.57357144355773925781 0.62606251239776611328 0.66500002145767211914 0.57105332612991333008 0.23755466938018798828 0.32304501533508300781 0.49262210726737976074 0.49649083614349365234 0.34259784221649169922 0.2863241732120513916 0.31716132164001464844 0.40322825312614440918 0.31354388594627380371 0.35416781902313232422 0.34313812851905822754 0.33199998736381530762 0.328182220458984375 0.30212917923927307129 0.2709096074104309082 0.27380123734474182129 0.24076229333877563477 0.26049301028251647949 0.98026812076568603516 1.1065740585327148438 1.1065740585327148438 0.37707731127738952637 0.17634315788745880127 0.17922966182231903076 0.070477999746799468994 0.070477999746799468994 0.070477999746799468994 0.29818877577781677246 0.32409280538558959961 0.58636587858200073242 0.34771832823753356934 0.43400791287422180176 0.38373425602912902832 0.34670725464820861816 0.44237461686134338379 0.3099040687084197998 0.48475944995880126953 0.32233232259750366211 0.35957413911819458008 0.44287100434303283691 0.500732421875 0.45317643880844116211 0.37869361042976379395 0.21290580928325653076 0.15343211591243743896 0.28856244683265686035 0.24417962133884429932 0.35109344124794006348 0.33331444859504699707 0.39770588278770446777 0.27260756492614746094 0.51746481657028198242 0.9783089756965637207 0.87027341127395629883 0.55541020631790161133 0.44285225868225097656 0.7159455418586730957 0.67177242040634155273 0.52085661888122558594 0.29250538349151611328 0.49678325653076171875 
0.3147188723087310791 0.58337461948394775391 0.41577762365341186523 0.47011512517929077148 0.33193987607955932617 0.25390031933784484863 0.32770487666130065918 0.32788348197937011719 0.26021736860275268555 0.24033187329769134521 0.27893376350402832031 0.28492054343223571777 0.3421687781810760498 0.46020975708961486816 0.31075257062911987305 0.35346484184265136719 0.33045655488967895508 0.17287069559097290039 0.66588962078094482422 0.63311409950256347656 0.66500002145767211914 0.66500002145767211914 0.66500002145767211914 0.66500002145767211914 0.34155556559562683105 0.39788267016410827637 0.32068777084350585938 0.47324249148368835449 0.4357694089412689209 0.37294748425483703613 0.37749457359313964844 0.28980648517608642578 0.21677887439727783203 0.26098874211311340332 0.45150646567344665527 0.38467395305633544922 0.41696938872337341309 0.33199998736381530762 0.33199998736381530762 0.33199998736381530762 0.31688824295997619629 0.24422760307788848877 0.21949778497219085693 0.48459199070930480957 0.97801887989044189453 0.71981441974639892578 1.0320647954940795898 0.73653978109359741211 0.070477999746799468994 0.070477999746799468994 0.070477999746799468994 0.070477999746799468994 0.070477999746799468994 0.070477999746799468994 0.25919482111930847168 0.31434962153434753418 0.37176424264907836914 0.40326225757598876953 0.2454608231782913208 0.3352425694465637207 0.43248999118804931641 0.65762251615524291992 0.21306169033050537109 0.37422376871109008789 0.3586934208869934082 0.27959549427032470703 0.33018380403518676758 0.50346863269805908203 0.29662343859672546387 0.42181494832038879395 0.28127893805503845215 0.44152000546455383301 0.44081735610961914062 0.43104860186576843262 0.61622327566146850586 0.5504055023193359375 0.34214767813682556152 0.35323643684387207031 0.9541263580322265625 0.39722532033920288086 0.52720439434051513672 0.76741552352905273438 0.84151822328567504883 0.91198003292083740234 0.77052712440490722656 1.0881563425064086914 0.87924051284790039062 
0.4002749323844909668 0.45604443550109863281 0.31672811508178710938 0.2991377413272857666 0.30312374234199523926 0.43135881423950195312 0.30115818977355957031 0.28299695253372192383 0.30161711573600769043 0.27047199010848999023 0.36280080676078796387 0.22317922115325927734 0.34299376606941223145 0.27062976360321044922 0.30641376972198486328 0.35614350438117980957 0.3871250152587890625 0.66500002145767211914 0.66500002145767211914 0.66500002145767211914 0.66500002145767211914 0.66500002145767211914 0.4322510063648223877 0.36017334461212158203 0.48822665214538574219 0.39628136157989501953 0.32207792997360229492 0.55032300949096679688 0.64568722248077392578 0.35220459103584289551 0.43566879630088806152 0.18445366621017456055 0.32762533426284790039 0.23398838937282562256 0.49343144893646240234 0.28509366512298583984 0.36710759997367858887 0.32359999418258666992 0.33199998736381530762 0.32654199004173278809 0.29043608903884887695 0.25758978724479675293 0.44473832845687866211 0.47117829322814941406 0.63387852907180786133 0.72116839885711669922 1.1065740585327148438 0.66102498769760131836 0.070477999746799468994 0.070477999746799468994 0.070477999746799468994 0.070477999746799468994 0.070477999746799468994 0.070477999746799468994 0.24270582199096679688 0.27570962905883789062 0.51909124851226806641 0.53598731756210327148 0.50781953334808349609 0.44837155938148498535 0.33352294564247131348 0.34453219175338745117 0.41470006108283996582 0.50783467292785644531 0.30733144283294677734 0.26996344327926635742 0.37135243415832519531 0.3869781792163848877 0.21238037943840026855 0.32220152020454406738 0.24588699638843536377 0.48787486553192138672 0.66206693649291992188 0.4212881922721862793 0.47095441818237304688 0.39531269669532775879 0.15103399753570556641 0.37347364425659179688 0.36844232678413391113 0.44147306680679321289 0.45606693625450134277 0.72194314002990722656 1.0224479436874389648 0.948520660400390625 0.96675753593444824219 1.0170739889144897461 0.80556976795196533203 
0.4479236900806427002 0.35405999422073364258 0.28769242763519287109 0.39809775352478027344 0.39212432503700256348 0.46101662516593933105 0.41389405727386474609 0.37934800982475280762 0.32461157441139221191 0.41005551815032958984 0.45106244087219238281 0.41376662254333496094 0.33884361386299133301 0.35210514068603515625 0.25610259175300598145 0.30343967676162719727 0.66500002145767211914 0.66500002145767211914 0.66500002145767211914 0.58943355083465576172 0.40704444050788879395 0.4846039116382598877 0.31997913122177124023 0.50465446710586547852 0.75979268550872802734 0.95923650264739990234 0.68910652399063110352 0.71227478981018066406 0.50889647006988525391 0.62564170360565185547 0.61054587364196777344 0.17631524801254272461 0.19545044004917144775 0.23776394128799438477 0.28028911352157592773 0.32045209407806396484 0.28489804267883300781 0.33868741989135742188 0.29075837135314941406 0.26232030987739562988 0.26568448543548583984 0.31919756531715393066 0.46569868922233581543 0.39116081595420837402 0.44069656729698181152 0.30367714166641235352 0.34851625561714172363 0.24612382054328918457 0.070477999746799468994 0.19681636989116668701 0.43234238028526306152 0.070477999746799468994 0.12371231615543365479 0.12614905834197998047 0.2739258110523223877 0.38489112257957458496 0.2498226165771484375 0.57531517744064331055 0.35201731324195861816 0.30972918868064880371 0.56039917469024658203 0.48257160186767578125 0.54218858480453491211 0.54672425985336303711 0.47356998920440673828 0.40856412053108215332 0.30951237678527832031 0.2726542353630065918 0.1555446237325668335 0.15536387264728546143 0.30675345659255981445 0.46226030588150024414 0.43843361735343933105 0.34945726394653320312 0.32093951106071472168 0.17187955975532531738 0.070477999746799468994 0.15929043292999267578 0.58081078529357910156 0.39848420023918151855 0.61497843265533447266 0.92234843969345092773 0.88908123970031738281 0.84495913982391357422 0.85727393627166748047 1.0728623867034912109 0.99371129274368286133 
0.3933086395263671875 0.71503281593322753906 0.40703144669532775879 0.46764105558395385742 0.48802614212036132812 0.52655237913131713867 0.41392225027084350586 0.4522190093994140625 0.40782618522644042969 0.3211498558521270752 0.34479731321334838867 0.45812007784843444824 0.21916362643241882324 0.1706259995698928833 0.12775066494941711426 0.62606251239776611328 0.66500002145767211914 0.59243506193161010742 0.51861113309860229492 0.46750313043594360352 0.42158079147338867188 0.21074756979942321777 0.07432441413402557373 0.30712774395942687988 0.87858098745346069336 0.59037768840789794922 0.56086468696594238281 0.75637459754943847656 0.56085592508316040039 0.98043435811996459961 0.29655888676643371582 0.092111311852931976318 0.33443880081176757812 0.285274505615234375 0.19019187986850738525 0.24415916204452514648 0.30385422706604003906 0.32054641842842102051 0.32790675759315490723 0.3725649416446685791 0.39462637901306152344 0.54336720705032348633 0.62863183021545410156 0.52639281749725341797 0.57147377729415893555 0.29895430803298950195 0.23871237039566040039 0.21758411824703216553 0.14612899720668792725 0.86172252893447875977 0.7148456573486328125 0.44569820165634155273 0.44666281342506408691 0.36126020550727844238 0.41509613394737243652 0.4333973228931427002 0.53242009878158569336 0.46414443850517272949 0.29562813043594360352 0.19651331007480621338 0.36516463756561279297 0.37110888957977294922 0.42454880475997924805 0.41710531711578369141 0.56155431270599365234 0.37278676033020019531 0.49267274141311645508 0.29982444643974304199 0.31475493311882019043 0.19226381182670593262 0.25907042622566223145 0.50236350297927856445 0.60373800992965698242 0.80422836542129516602 0.85040175914764404297 0.51948010921478271484 0.49291408061981201172 0.40340241789817810059 0.81031328439712524414 0.78017765283584594727 0.63146239519119262695 0.65257787704467773438 0.63893157243728637695 0.53863573074340820312 0.64480441808700561523 0.77403736114501953125 0.49292549490928649902 
0.63477092981338500977 1.0348486900329589844 0.65489405393600463867 0.44968342781066894531 0.52481639385223388672 0.39843645691871643066 0.3265304267406463623 0.45302370190620422363 0.29503199458122253418 0.22658899426460266113 0.37413200736045837402 0.3330198824405670166 0.14056569337844848633 0.076277747750282287598 0.64666670560836791992 0.66500002145767211914 0.66500002145767211914 0.66500002145767211914 0.50153487920761108398 0.38965171575546264648 0.44202369451522827148 0.24277669191360473633 0.25462383031845092773 0.35649183392524719238 0.42362201213836669922 0.46339344978332519531 0.51925861835479736328 0.40167281031608581543 0.3392658233642578125 0.4373511970043182373 0.35222855210304260254 0.33948713541030883789 0.24177205562591552734 0.21797442436218261719 0.26367256045341491699 0.29593640565872192383 0.32966083288192749023 0.30159419775009155273 0.37267085909843444824 0.50251966714859008789 0.58694577217102050781 0.67381232976913452148 0.83341002464294433594 0.59963399171829223633 0.43873393535614013672 0.27390968799591064453 0.31600597500801086426 0.21758411824703216553 0.46790826320648193359 0.52928864955902099609 0.54568254947662353516 0.47251176834106445312 0.58904784917831420898 0.35092493891716003418 0.41249030828475952148 0.60517561435699462891 0.80841177701950073242 0.58044397830963134766 0.22341723740100860596 0.27606680989265441895 0.2997627556324005127 0.30236619710922241211 0.42702713608741760254 0.40382304787635803223 0.48409318923950195312 0.43642562627792358398 0.58730554580688476562 0.3315226137638092041 0.32455524802207946777 0.15577162802219390869 0.35779175162315368652 0.48811563849449157715 0.44994157552719116211 0.6622822880744934082 1.0360833406448364258 1.0751127004623413086 0.95529502630233764648 0.75527215003967285156 0.78336215019226074219 0.713787078857421875 0.74842935800552368164 0.42440146207809448242 0.38973149657249450684 0.27423337101936340332 0.4194888770580291748 0.47537824511528015137 0.43534550070762634277 
0.55539453029632568359 0.61450648307800292969 0.58592522144317626953 0.60045844316482543945 0.57019692659378051758 0.42918848991394042969 0.27816161513328552246 0.39981225132942199707 0.39694455265998840332 0.27031931281089782715 0.24928587675094604492 0.2635478675365447998 0.12752398848533630371 0.18975000083446502686 0.18641667068004608154 0.66500002145767211914 0.66500002145767211914 0.56242787837982177734 0.61728978157043457031 0.38451412320137023926 0.28257098793983459473 0.30977049469947814941 0.41757875680923461914 0.30432623624801635742 0.43379613757133483887 0.54191696643829345703 0.54522055387496948242 0.65466988086700439453 0.36585515737533569336 0.70726615190505981445 0.60980123281478881836 0.38668075203895568848 0.20402587950229644775 0.20755940675735473633 0.33005550503730773926 0.31952199339866638184 0.41978561878204345703 0.36878418922424316406 0.42001420259475708008 0.60425108671188354492 0.39107885956764221191 0.3689714968204498291 0.31609049439430236816 0.29615011811256408691 0.21399730443954467773 0.28508168458938598633 0.32889804244041442871 0.2467228621244430542 0.57213079929351806641 0.61770766973495483398 0.69742608070373535156 0.22376355528831481934 0.22478437423706054688 0.2122386246919631958 0.44067424535751342773 0.69562524557113647461 0.76735281944274902344 0.50700491666793823242 0.26463788747787475586 0.36577674746513366699 0.27573412656784057617 0.28261342644691467285 0.49759081006050109863 0.37427863478660583496 0.41429412364959716797 0.30261000990867614746 0.33639192581176757812 0.30650061368942260742 0.2732111811637878418 0.21562230587005615234 0.27265223860740661621 0.39111569523811340332 0.54377508163452148438 0.48932051658630371094 0.7600981593132019043 0.84263062477111816406 0.61974668502807617188 0.44876113533973693848 0.53827178478240966797 0.67961025238037109375 0.36358168721199035645 0.24994100630283355713 0.50879299640655517578 0.58750331401824951172 0.52436989545822143555 0.4651305079460144043 0.44779425859451293945 
0.59619987010955810547 0.45513224601745605469 0.47849512100219726562 0.51652866601943969727 0.52609294652938842773 0.3444748222827911377 0.20527018606662750244 0.25120881199836730957 0.32216569781303405762 0.33411958813667297363 0.11051106452941894531 0.13669891655445098877 0.043434750288724899292 0.037142857909202575684 0.3644377589225769043 0.66500002145767211914 0.42284739017486572266 0.56380438804626464844 0.34878212213516235352 0.35418650507926940918 0.26963019371032714844 0.42851501703262329102 0.32385686039924621582 0.38555386662483215332 0.42952656745910644531 0.43966650962829589844 0.53565293550491333008 0.56913864612579345703 0.95515143871307373047 0.68319493532180786133 0.75697737932205200195 0.85178840160369873047 0.34016701579093933105 0.37517467141151428223 0.2698020637035369873 0.46392881870269775391 0.68684840202331542969 0.51731580495834350586 0.31757399439811706543 0.37690868973731994629 0.28770250082015991211 0.15867799520492553711 0.12927800416946411133 0.20391668379306793213 0.2312606126070022583 0.21566300094127655029 0.29326868057250976562 0.43647980690002441406 0.87625014781951904297 0.70188039541244506836 0.36458751559257507324 0.3257961273193359375 0.33199998736381530762 0.33199998736381530762 0.33476436138153076172 0.34870842099189758301 0.23464399576187133789 0.2518978118896484375 0.32217776775360107422 0.28376811742782592773 0.26693248748779296875 0.36664035916328430176 0.4812584221363067627 0.4184373021125793457 0.45069539546966552734 0.44230943918228149414 0.40876206755638122559 0.29099693894386291504 0.24894924461841583252 0.21541643142700195312 0.33302900195121765137 0.27881079912185668945 0.36022111773490905762 0.41104900836944580078 0.4224770665168762207 0.65380871295928955078 0.83648735284805297852 0.43069875240325927734 0.43896594643592834473 0.39281031489372253418 0.48727148771286010742 0.47666206955909729004 0.53528016805648803711 0.48435732722282409668 0.4504025578498840332 0.48743411898612976074 0.69097822904586791992 
0.57573872804641723633 0.49799150228500366211 0.53165268898010253906 0.52033215761184692383 0.27647456526756286621 0.46860232949256896973 0.25722387433052062988 0.17485137283802032471 0.081693246960639953613 0.15437613427639007568 0.23929537832736968994 0.080401748418807983398 0.16657175123691558838 0.61308336257934570312 0.62949019670486450195 0.45622563362121582031 0.35543200373649597168 0.5365721583366394043 0.44201642274856567383 0.62617582082748413086 0.47124856710433959961 0.42194190621376037598 0.32206523418426513672 0.36828255653381347656 0.42557623982429504395 0.44457775354385375977 0.39065411686897277832 0.56079131364822387695 0.63442951440811157227 0.33199998736381530762 0.46416065096855163574 0.87806105613708496094 0.24055075645446777344 0.38007265329360961914 0.48155194520950317383 0.49030181765556335449 0.42873218655586242676 0.28571599721908569336 0.42773333191871643066 0.16022212803363800049 0.070477999746799468994 0.070477999746799468994 0.10691187530755996704 0.20586299896240234375 0.21894386410713195801 0.21121974289417266846 0.20718993246555328369 0.23595249652862548828 0.36683568358421325684 0.740062713623046875 0.21476812660694122314 0.32545486092567443848 0.33199998736381530762 0.33199998736381530762 0.33199998736381530762 0.23269192874431610107 0.20060424506664276123 0.20810155570507049561 0.3320885002613067627 0.41834881901741027832 0.26671013236045837402 0.39794906973838806152 0.28999781608581542969 0.5446026921272277832 0.38537776470184326172 0.45799812674522399902 0.38310894370079040527 0.39468467235565185547 0.33113962411880493164 0.31890738010406494141 0.41426286101341247559 0.41941031813621520996 0.5516726374626159668 0.84226268529891967773 0.80332338809967041016 0.7893428802490234375 0.65015256404876708984 0.56933307647705078125 0.54919517040252685547 0.43605306744575500488 0.42985194921493530273 0.36495625972747802734 0.51906526088714599609 0.57547229528427124023 0.39237248897552490234 0.64942014217376708984 0.74333047866821289062 
0.59347242116928100586 0.45917400717735290527 0.68388688564300537109 0.55142736434936523438 0.36665925383567810059 0.24019362032413482666 0.10836675018072128296 0.028166666626930236816 0.050904374569654464722 0.45231488347053527832 0.025499999523162841797 0.042595598846673965454 0.052999999374151229858 0.23883333802223205566 0.48112502694129943848 0.3304068148136138916 0.20980563759803771973 0.22133737802505493164 0.26531934738159179688 0.16568550467491149902 0.2020445019006729126 0.29001349210739135742 0.41602149605751037598 0.2937749326229095459 0.52465599775314331055 0.42065101861953735352 0.52922815084457397461 0.44793105125427246094 0.40523707866668701172 0.33199998736381530762 0.27231428027153015137 0.39646029472351074219 0.17198324203491210938 0.46144881844520568848 0.66500002145767211914 0.34456968307495117188 0.32512399554252624512 0.41026061773300170898 0.18078693747520446777 0.070477999746799468994 0.070477999746799468994 0.070477999746799468994 0.15528374910354614258 0.22932417690753936768 0.215585365891456604 0.21886900067329406738 0.16279412806034088135 0.24621206521987915039 0.21314449608325958252 0.21743725240230560303 0.21856674551963806152 0.27829262614250183105 0.33199998736381530762 0.33199998736381530762 0.32545486092567443848 0.20624800026416778564 0.18847417831420898438 0.21030686795711517334 0.2846768796443939209 0.39768543839454650879 0.30182167887687683105 0.43823224306106567383 0.39330410957336425781 0.82970911264419555664 0.57536387443542480469 0.33540943264961242676 0.29747763276100158691 0.37413075566291809082 0.44261431694030761719 0.22674943506717681885 0.29964387416839599609 0.35728669166564941406 0.35766455531120300293 0.80500108003616333008 0.68727332353591918945 0.80020171403884887695 0.30333593487739562988 0.36826744675636291504 0.44987848401069641113 0.37544792890548706055 0.34468299150466918945 0.48055100440979003906 0.5882962346076965332 0.62298095226287841797 0.90140420198440551758 0.97560459375381469727 0.51822173595428466797 
0.59245657920837402344 0.54525542259216308594 0.64773309230804443359 0.61167818307876586914 0.45521000027656555176 0.28835937380790710449 0.033612001687288284302 0.6110865473747253418 0.8552303314208984375 0.44787123799324035645 0.35797631740570068359 0.30003982782363891602 0.41733333468437194824 0.54614287614822387695 0.66500002145767211914 0.44836845993995666504 0.31338727474212646484 0.32004642486572265625 0.17664457857608795166 0.15814775228500366211 0.24492824077606201172 0.36669063568115234375 0.29226323962211608887 0.27525845170021057129 0.42158642411231994629 0.34750226140022277832 0.50874108076095581055 0.4764238893985748291 0.34733733534812927246 0.32545486092567443848 0.37518143653869628906 0.15212967991828918457 0.2415736764669418335 0.45395225286483764648 0.64078432321548461914 0.34471789002418518066 0.25352326035499572754 0.1721038818359375 0.070477999746799468994 0.070477999746799468994 0.070477999746799468994 0.078755371272563934326 0.17424862086772918701 0.21355086565017700195 0.2385482490062713623 0.19761949777603149414 0.25466105341911315918 0.31023350358009338379 0.23273356258869171143 0.21354193985462188721 0.21756973862648010254 0.21038231253623962402 0.3199157416820526123 0.33199998736381530762 0.26208329200744628906 0.21584737300872802734 0.22173887491226196289 0.20425200462341308594 0.3582560122013092041 0.32674363255500793457 0.40285405516624450684 0.31297725439071655273 0.48400154709815979004 0.55694544315338134766 0.36533668637275695801 0.30909487605094909668 0.46442055702209472656 0.32632905244827270508 0.37202599644660949707 0.32624825835227966309 0.56045818328857421875 0.46487507224082946777 0.54005253314971923828 0.53339624404907226562 0.36383712291717529297 0.31360843777656555176 0.24075025320053100586 0.47766220569610595703 0.33848243951797485352 0.47252517938613891602 0.42156437039375305176 0.51553058624267578125 0.66857928037643432617 0.66153955459594726562 1.0881563425064086914 0.83913534879684448242 0.54649174213409423828 
0.5329863429069519043 0.89512813091278076172 0.70088881254196166992 0.81848490238189697266 0.27290225028991699219 0.35536983609199523926 0.049459248781204223633 0.30567112565040588379 0.50797581672668457031 0.60194867849349975586 0.26350688934326171875 0.50818753242492675781 0.66500002145767211914 0.66500002145767211914 0.66500002145767211914 0.095470063388347625732 0.2065467536449432373 0.37081119418144226074 0.18437312543392181396 0.35142999887466430664 0.33731669187545776367 0.4333782494068145752 0.39168325066566467285 0.50935453176498413086 0.33282881975173950195 0.48933774232864379883 0.47403457760810852051 0.3894227445125579834 0.33991217613220214844 0.3060951530933380127 0.39080882072448730469 0.22303248941898345947 0.23690930008888244629 0.39200669527053833008 0.56098252534866333008 0.29878899455070495605 0.256282806396484375 0.1202831268310546875 0.070477999746799468994 0.11201668530702590942 0.24497844278812408447 0.20782686769962310791 0.22391112148761749268 0.24189893901348114014 0.20744399726390838623 0.22675068676471710205 0.2077334970235824585 0.11116225272417068481 0.17759318649768829346 0.20121124386787414551 0.20941774547100067139 0.22558462619781494141 0.24524037539958953857 0.2243226170539855957 0.21501137316226959229 0.29202094674110412598 0.20497761666774749756 0.2977434992790222168 0.41392543911933898926 0.59266614913940429688 0.27545219659805297852 0.27480468153953552246 0.33928686380386352539 0.41118150949478149414 0.31561586260795593262 0.27595737576484680176 0.41156238317489624023 0.26590874791145324707 0.63827627897262573242 0.44189295172691345215 0.63694494962692260742 0.77229970693588256836 0.92049521207809448242 0.76867491006851196289 0.29257825016975402832 0.23678705096244812012 0.49113431572914123535 0.84450459480285644531 0.98620766401290893555 0.91414231061935424805 0.61191827058792114258 0.64978736639022827148 0.71485447883605957031 0.64983880519866943359 0.83954012393951416016 0.7524420619010925293 0.69778901338577270508 
0.41610357165336608887 0.51236528158187866211 0.46243593096733093262 0.39269277453422546387 0.37190443277359008789 0.24209775030612945557 0.29021811485290527344 0.36015266180038452148 0.35237985849380493164 0.26038634777069091797 0.43961006402969360352 0.62606251239776611328 0.66500002145767211914 0.66500002145767211914 0.66500002145767211914 0.4051303863525390625 0.29687300324440002441 0.35897961258888244629 0.18569359183311462402 0.22970174252986907959 0.52816599607467651367 0.3496583104133605957 0.38234451413154602051 0.48542082309722900391 0.32969200611114501953 0.40111812949180603027 0.41567757725715637207 0.32521548867225646973 0.34729221463203430176 0.28516483306884765625 0.23324614763259887695 0.19945912063121795654 0.17325912415981292725 0.58770573139190673828 0.64441889524459838867 0.54624629020690917969 0.25611600279808044434 0.11819237470626831055 0.070477999746799468994 0.20100188255310058594 0.24105362594127655029 0.30664861202239990234 0.25891426205635070801 0.24269938468933105469 0.2188021242618560791 0.21869155764579772949 0.12031699717044830322 0.18169394135475158691 0.13555693626403808594 0.22111117839813232422 0.23834055662155151367 0.25324100255966186523 0.22194199264049530029 0.20750050246715545654 0.218845367431640625 0.4859835505485534668 0.24981787800788879395 0.68087732791900634766 0.88169908523559570312 0.72164309024810791016 0.59076839685440063477 0.36283704638481140137 0.40915650129318237305 0.23173725605010986328 0.26971673965454101562 0.31731942296028137207 0.28572261333465576172 0.42061942815780639648 0.87491023540496826172 0.50051921606063842773 0.3960266411304473877 0.79894948005676269531 0.60610330104827880859 0.74795031547546386719 0.33098930120468139648 0.27307787537574768066 0.3919741213321685791 0.917659759521484375 0.94464755058288574219 0.98765218257904052734 0.62178003787994384766 0.62726902961730957031 0.68725162744522094727 0.67689049243927001953 0.78956127166748046875 0.62353432178497314453 0.49396425485610961914 
0.52214425802230834961 0.49791201949119567871 0.28801393508911132812 0.27044913172721862793 0.32723930478096008301 0.38945844769477844238 0.32980972528457641602 0.48415786027908325195 0.39843142032623291016 0.46396648883819580078 0.66500002145767211914 0.66500002145767211914 0.5658391118049621582 0.66500002145767211914 0.66500002145767211914 0.57772809267044067383 0.30022519826889038086 0.38507562875747680664 0.31170693039894104004 0.35906872153282165527 0.29540744423866271973 0.27588692307472229004 0.35980662703514099121 0.35540914535522460938 0.25165548920631408691 0.29729342460632324219 0.31082263588905334473 0.32647293806076049805 0.36896699666976928711 0.18532599508762359619 0.44840991497039794922 0.35111549496650695801 0.50712502002716064453 0.40798938274383544922 0.4041525721549987793 0.29273456335067749023 0.25751706957817077637 0.19234706461429595947 0.14436775445938110352 0.21665312349796295166 0.20123624801635742188 0.2214533686637878418 0.22157436609268188477 0.23799450695514678955 0.21987737715244293213 0.19356012344360351562 0.17581112682819366455 0.16374836862087249756 0.16874419152736663818 0.22465144097805023193 0.43176057934761047363 0.28740411996841430664 0.21377399563789367676 0.2715587317943572998 0.25168812274932861328 0.2634359896183013916 0.48371055722236633301 0.75297760963439941406 0.76234614849090576172 0.6345908045768737793 0.89671945571899414062 0.35242530703544616699 0.23345968127250671387 0.21961887180805206299 0.49684181809425354004 0.34708949923515319824 0.28372207283973693848 0.24757793545722961426 0.48681786656379699707 0.55855906009674072266 0.58583825826644897461 0.81674796342849731445 0.63340616226196289062 0.32987812161445617676 0.21385873854160308838 0.24900305271148681641 0.27478355169296264648 0.65319329500198364258 0.83669650554656982422 0.98765218257904052734 0.67815190553665161133 0.70593380928039550781 0.66992986202239990234 0.62162613868713378906 0.5452200770378112793 0.71607220172882080078 0.91121757030487060547 
0.34999805688858032227 0.3143990635871887207 0.16925981640815734863 0.30829375982284545898 0.3441123664379119873 0.41210126876831054688 0.32152232527732849121 0.20786775648593902588 0.38164299726486206055 0.61308336257934570312 0.66500002145767211914 0.63055336475372314453 0.32133641839027404785 0.63845819234848022461 0.66500002145767211914 0.40489664673805236816 0.48314291238784790039 0.22540125250816345215 0.33645290136337280273 0.36956256628036499023 0.20848418772220611572 0.31507050991058349609 0.41634923219680786133 0.33247956633567810059 0.30866661667823791504 0.51496988534927368164 0.58484578132629394531 0.44444090127944946289 0.24034592509269714355 0.26056459546089172363 0.18180988729000091553 0.66500002145767211914 0.66500002145767211914 0.22545887529850006104 0.2210264354944229126 0.23880212008953094482 0.21733024716377258301 0.31580081582069396973 0.22118937969207763672 0.21850974857807159424 0.21594119071960449219 0.22695143520832061768 0.40300613641738891602 0.32864099740982055664 0.23326292634010314941 0.16340281069278717041 0.1744200587272644043 0.2717145085334777832 0.55760276317596435547 0.68690133094787597656 0.23254850506782531738 0.2274894416332244873 0.19730706512928009033 0.23221156001091003418 0.33863562345504760742 0.44079363346099853516 0.4041678309440612793 0.5534413456916809082 0.48310768604278564453 0.27312499284744262695 0.53217107057571411133 0.29243749380111694336 0.29609274864196777344 0.25914219021797180176 0.34671649336814880371 0.3338711857795715332 0.39467531442642211914 0.39678981900215148926 0.40749636292457580566 0.6023051142692565918 0.91071724891662597656 0.95561301708221435547 0.25941136479377746582 0.18328762054443359375 0.19572219252586364746 0.19203956425189971924 0.37859711050987243652 0.5712153315544128418 1.025610804557800293 0.99313759803771972656 0.58847576379776000977 0.90726399421691894531 0.94711023569107055664 0.68970441818237304688 0.64657157659530639648 1.0575307607650756836 0.88084852695465087891 
0.33661243319511413574 0.27868425846099853516 0.13275787234306335449 0.17471607029438018799 0.34213325381278991699 0.2574609220027923584 0.29318833351135253906 0.37147387862205505371 0.46666100621223449707 0.61166667938232421875 0.66500002145767211914 0.63556689023971557617 0.38366112112998962402 0.63764238357543945312 0.66500002145767211914 0.70588898658752441406 0.34923157095909118652 0.22759300470352172852 0.26788300275802612305 0.34235739707946777344 0.39057075977325439453 0.33457577228546142578 0.27206650376319885254 0.28064230084419250488 0.25930655002593994141 0.52420026063919067383 0.46289360523223876953 0.4027754366397857666 0.27430367469787597656 0.48817968368530273438 0.10398212820291519165 0.33500000834465026855 0.50782948732376098633 0.17199887335300445557 0.25784763693809509277 0.14369955658912658691 0.15102581679821014404 0.19109043478965759277 0.21822625398635864258 0.23754055798053741455 0.21084274351596832275 0.23328180611133575439 0.41981032490730285645 0.32368898391723632812 0.24432662129402160645 0.26563507318496704102 0.23541043698787689209 0.21107706427574157715 0.19625449180603027344 0.20868237316608428955 0.2481603771448135376 0.22969381511211395264 0.21882450580596923828 0.21968975663185119629 0.56010162830352783203 0.63738489151000976562 0.41910657286643981934 0.42517656087875366211 0.59707236289978027344 0.56010997295379638672 0.2300446927547454834 0.24867005646228790283 0.35574799776077270508 0.37171342968940734863 0.54306399822235107422 0.4507961273193359375 0.38251936435699462891 0.34001281857490539551 0.48816481232643127441 0.84239161014556884766 0.8679370880126953125 1.0609307289123535156 0.28510606288909912109 0.21008475124835968018 0.20352599024772644043 0.2215188145637512207 0.2776196897029876709 0.65129888057708740234 1.096954345703125 0.60454803705215454102 0.62398427724838256836 0.85063612461090087891 0.83847951889038085938 0.74916672706604003906 0.73217737674713134766 0.95010089874267578125 0.88755249977111816406 
0.30272918939590454102 0.2750371098518371582 0.22987675666809082031 0.41943287849426269531 0.30300733447074890137 0.18037112057209014893 0.27049311995506286621 0.39339998364448547363 0.24201412498950958252 0.29058334231376647949 0.62337499856948852539 0.43905866146087646484 0.56494688987731933594 0.22068113088607788086 0.64351999759674072266 0.41109880805015563965 0.068104833364486694336 0.29170936346054077148 0.56553429365158081055 0.41892629861831665039 0.25418132543563842773 0.31589326262474060059 0.29529660940170288086 0.39663541316986083984 0.41411948204040527344 0.39805680513381958008 0.59958899021148681641 0.41568839550018310547 0.15376032888889312744 0.38543024659156799316 0.21125000715255737305 0.043327938765287399292 0.1358461230993270874 0.21820762753486633301 0.20728474855422973633 0.16854874789714813232 0.1195133700966835022 0.15220361948013305664 0.19826449453830718994 0.23191124200820922852 0.23592787981033325195 0.22786287963390350342 0.21147961914539337158 0.20285362005233764648 0.22387255728244781494 0.27159744501113891602 0.2107686847448348999 0.24204786121845245361 0.20892286300659179688 0.24768637120723724365 0.3252881169319152832 0.21445293724536895752 0.20022425055503845215 0.21741406619548797607 0.51488012075424194336 1.0377013683319091797 0.80290466547012329102 0.52040308713912963867 0.65237027406692504883 0.46116605401039123535 0.13140781223773956299 0.39033862948417663574 0.35102570056915283203 0.3600260615348815918 0.21940763294696807861 0.48005524277687072754 0.52480316162109375 0.42592731118202209473 0.43505930900573730469 0.68266266584396362305 0.72730123996734619141 0.90123426914215087891 0.28031805157661437988 0.21610198915004730225 0.21421568095684051514 0.23234331607818603516 0.32269138097763061523 0.47975656390190124512 1.0741008520126342773 0.9066016077995300293 0.55840677022933959961 0.51757627725601196289 0.69497585296630859375 0.40035530924797058105 0.35497230291366577148 0.38764029741287231445 0.57259774208068847656 
0.31760355830192565918 0.21451605856418609619 0.18160256743431091309 0.21253193914890289307 0.28803905844688415527 0.19069756567478179932 0.25662288069725036621 0.15198250114917755127 0.61928576231002807617 0.61166667938232421875 0.52211409807205200195 0.35542750358581542969 0.2161680757999420166 0.29771375656127929688 0.67133742570877075195 0.41282489895820617676 0.14938686788082122803 0.29431900382041931152 0.59687608480453491211 0.40972831845283508301 0.28996843099594116211 0.33427217602729797363 0.29287394881248474121 0.30945324897766113281 0.34663411974906921387 0.48559916019439697266 0.47628566622734069824 0.31137523055076599121 0.082250997424125671387 0.087500005960464477539 0.26543319225311279297 0.21104381978511810303 0.17441950738430023193 0.28681468963623046875 0.26503792405128479004 0.17273800075054168701 0.25027436017990112305 0.31565487384796142578 0.19213686883449554443 0.26966580748558044434 0.20479993522167205811 0.21726912260055541992 0.19505256414413452148 0.202035561203956604 0.21181930601596832275 0.22806787490844726562 0.22935387492179870605 0.24005143344402313232 0.25629726052284240723 0.36134436726570129395 0.24315844476222991943 0.20419687032699584961 0.19528299570083618164 0.22444431483745574951 0.55678510665893554688 0.75045931339263916016 0.86913275718688964844 1.0593774318695068359 0.99025696516036987305 0.46772819757461547852 0.070477999746799468994 0.070477999746799468994 0.070477999746799468994 0.070477999746799468994 0.09519812464714050293 0.29516962170600891113 0.4248370826244354248 0.39459624886512756348 0.25701406598091125488 0.38210263848304748535 0.36285179853439331055 0.40400776267051696777 0.21017937362194061279 0.20504648983478546143 0.19408936798572540283 0.29173475503921508789 0.63121676445007324219 0.41981461644172668457 0.65778696537017822266 0.53482967615127563477 0.53837859630584716797 0.59326016902923583984 0.18691886961460113525 0.30724838376045227051 0.27480512857437133789 0.2529811859130859375 0.20281675457954406738 
0.29536187648773193359 0.2763881981372833252 0.16802705824375152588 0.31525006890296936035 0.27097588777542114258 0.20057274401187896729 0.4810130000114440918 0.140529632568359375 0.72578704357147216797 0.58217668533325195312 0.32027012109756469727 0.59078073501586914062 0.20289950072765350342 0.57217550277709960938 0.66500002145767211914 0.59745353460311889648 0.32185101509094238281 0.34298855066299438477 0.37396994233131408691 0.29136112332344055176 0.27326843142509460449 0.26359537243843078613 0.39803400635719299316 0.39645668864250183105 0.36132442951202392578 0.32200592756271362305 0.2542266845703125 0.34928724169731140137 0.11572250723838806152 0.19759838283061981201 0.33500000834465026855 0.23875607550144195557 0.28046068549156188965 0.29795107245445251465 0.28982311487197875977 0.19612930715084075928 0.25027436017990112305 0.23392924666404724121 0.23340712487697601318 0.28145417571067810059 0.22380681335926055908 0.2086118161678314209 0.20062525570392608643 0.18907500803470611572 0.2568251192569732666 0.41755244135856628418 0.23226049542427062988 0.26239663362503051758 0.22975406050682067871 0.24282418191432952881 0.27835118770599365234 0.23152844607830047607 0.2809174954891204834 0.21914494037628173828 0.34707975387573242188 0.56962764263153076172 0.62992298603057861328 0.56785869598388671875 0.2552159428596496582 0.12715025246143341064 0.15714131295680999756 0.17269437015056610107 0.22316700220108032227 0.14899900555610656738 0.25491806864738464355 0.27177911996841430664 0.37855488061904907227 0.31087467074394226074 0.27923211455345153809 0.2810013890266418457 0.24462392926216125488 0.2283630669116973877 0.18578612804412841797 0.21188175678253173828 0.25072920322418212891 0.36707931756973266602 0.42841067910194396973 0.38920906186103820801 0.59105348587036132812 0.69237148761749267578 0.54777282476425170898 0.19683225452899932861 0.10571025311946868896 0.17520737648010253906 0.24497187137603759766 0.20552887022495269775 0.27404624223709106445 
0.29629692435264587402 0.35505580902099609375 0.24614518880844116211 0.43761369585990905762 0.18768893182277679443 0.32060694694519042969 0.4186502993106842041 0.17013150453567504883 0.13419486582279205322 0.30482760071754455566 0.41883561015129089355 0.58412975072860717773 0.15857176482677459717 0.15532176196575164795 0.66500002145767211914 0.44806081056594848633 0.34529268741607666016 0.61333519220352172852 0.39129143953323364258 0.30907300114631652832 0.27388337254524230957 0.30314013361930847168 0.51202070713043212891 0.4738051295280456543 0.37490698695182800293 0.20763359963893890381 0.1037279963493347168 0.015750000253319740295 0.012654874473810195923 0.0049999998882412910461 0.0049999998882412910461 0.41459888219833374023 0.21907256543636322021 0.31642600893974304199 0.27055111527442932129 0.22705568373203277588 0.16016761958599090576 0.21621137857437133789 0.39500281214714050293 0.45757475495338439941 0.36566704511642456055 0.26959669589996337891 0.20504806935787200928 0.20310656726360321045 0.21198762953281402588 0.57633572816848754883 0.39466682076454162598 0.2161248624324798584 0.1759494394063949585 0.28111886978149414062 0.25865349173545837402 0.26077255606651306152 0.26682430505752563477 0.44854745268821716309 0.19991868734359741211 0.22090281546115875244 0.20490343868732452393 0.32229974865913391113 0.070477999746799468994 0.22426980733871459961 0.13992357254028320312 0.070477999746799468994 0.23506787419319152832 0.25647404789924621582 0.33002457022666931152 0.25311705470085144043 0.26051107048988342285 0.26433563232421875 0.25797098875045776367 0.23276656866073608398 0.21724656224250793457 0.28329950571060180664 0.19112256169319152832 0.19758643209934234619 0.33067166805267333984 0.41746273636817932129 0.27068343758583068848 0.49396574497222900391 0.68187081813812255859 0.64676529169082641602 0.68647074699401855469 0.34942907094955444336 0.070477999746799468994 0.078004062175750732422 0.25596407055854797363 0.27759394049644470215 0.28692898154258728027 
0.33641901612281799316 0.25520145893096923828 0.32962307333946228027 0.46423000097274780273 0.2013168036937713623 0.56980133056640625 0.50609117746353149414 0.092478334903717041016 0.15598924458026885986 0.098411768674850463867 0.39334031939506530762 0.29436171054840087891 0.019812500104308128357 0.041731201112270355225 0.62483286857604980469 0.20932386815547943115 0.070477999746799468994 0.43489524722099304199 0.41781857609748840332 0.29291823506355285645 0.30984637141227722168 0.24101363122463226318 0.58670896291732788086 0.41461861133575439453 0.28562518954277038574 0.16873531043529510498 0.022812500596046447754 0.023624999448657035828 0.040502622723579406738 0.0049999998882412910461 0.0049999998882412910461 0.32656189799308776855 0.20271088182926177979 0.2180541306734085083 0.27116563916206359863 0.26453763246536254883 0.24931786954402923584 0.30990767478942871094 0.53749608993530273438 0.47818669676780700684 0.32193362712860107422 0.26074606180191040039 0.23989056050777435303 0.22172500193119049072 0.21440713107585906982 0.39169675111770629883 0.15722411870956420898 0.10555874556303024292 0.084545746445655822754 0.25027436017990112305 0.18543425202369689941 0.22760324180126190186 0.27998769283294677734 0.28190430998802185059 0.21842600405216217041 0.23665644228458404541 0.27959179878234863281 0.16916856169700622559 0.070477999746799468994 0.087971560657024383545 0.070477999746799468994 0.14587324857711791992 0.33994638919830322266 0.4635829925537109375 0.31100612878799438477 0.24739438295364379883 0.26029819250106811523 0.23823799192905426025 0.27991318702697753906 0.18798156082630157471 0.20441356301307678223 0.19928018748760223389 0.20042812824249267578 0.23881737887859344482 0.27584132552146911621 0.41551756858825683594 0.31052312254905700684 0.46879869699478149414 0.62889897823333740234 0.77997821569442749023 0.72233790159225463867 0.27388361096382141113 0.24217106401920318604 0.1971531212329864502 0.51739943027496337891 0.24230518937110900879 0.23119825124740600586 
0.30556395649909973145 0.31793612241744995117 0.51407670974731445312 0.37708646059036254883 0.24422599375247955322 0.42258483171463012695 0.45184230804443359375 0.17648850381374359131 0.1494503021240234375 0.1515843123197555542 0.17353317141532897949 0.36245644092559814453 0.057117331773042678833 0.1817499995231628418 0.63441067934036254883 0.34275716543197631836 0.070477999746799468994 0.45035377144813537598 0.35886824131011962891 0.23469431698322296143 0.35878142714500427246 0.30267876386642456055 0.42037785053253173828 0.29308822751045227051 0.27779862284660339355 0.057847123593091964722 0.042096812278032302856 0.11427562683820724487 0.0049999998882412910461 0.0049999998882412910461 0.0049999998882412910461 0.17673812806606292725 0.15423625707626342773 0.22982412576675415039 0.27044999599456787109 0.31787401437759399414 0.28797155618667602539 0.40640836954116821289 0.43443149328231811523 0.58062207698822021484 0.34284356236457824707 0.20475524663925170898 0.23183393478393554688 0.1993338167667388916 0.13827906548976898193 0.11103212088346481323 0.19699011743068695068 0.20123898983001708984 0.27840986847877502441 0.28007593750953674316 0.25027436017990112305 0.23584511876106262207 0.2368097454309463501 0.2373606264591217041 0.30897286534309387207 0.2252124398946762085 0.22136574983596801758 0.070477999746799468994 0.11160918325185775757 0.1836414337158203125 0.12341087311506271362 0.23584687709808349609 0.24995493888854980469 0.22687412798404693604 0.21148294210433959961 0.24837255477905273438 0.2318859398365020752 0.24366886913776397705 0.23517437279224395752 0.18739581108093261719 0.19737412035465240479 0.22995030879974365234 0.2704830169677734375 0.30166512727737426758 0.22660413384437561035 0.27882224321365356445 0.44853693246841430664 0.72525823116302490234 0.72555899620056152344 1.0090669393539428711 0.82259279489517211914 0.60311180353164672852 0.69386851787567138672 0.48211002349853515625 0.42144182324409484863 0.38212829828262329102 0.48273497819900512695 
0.39494669437408447266 0.42701950669288635254 0.49342119693756103516 0.25140744447708129883 0.27409312129020690918 0.30330416560173034668 0.38454079627990722656 0.14132142066955566406 0.34304222464561462402 0.12333843857049942017 0.33740034699440002441 0.23187100887298583984 0.35992532968521118164 0.36429762840270996094 0.66500002145767211914 0.83059030771255493164 0.70566135644912719727 0.38752499222755432129 0.55561900138854980469 0.33297336101531982422 0.43919494748115539551 0.27036023139953613281 0.3191992640495300293 0.34509742259979248047 0.12014791369438171387 0.038313563913106918335 0.031624998897314071655 0.014437499456107616425 0.0049999998882412910461 0.0049999998882412910461 0.0049999998882412910461 0.0049999998882412910461 0.16777399182319641113 0.16377425193786621094 0.32716205716133117676 0.22637656331062316895 0.35688555240631103516 0.5076573491096496582 0.29473450779914855957 0.56911337375640869141 0.2284138798713684082 0.21944893896579742432 0.20694024860858917236 0.17475481331348419189 0.20123898983001708984 0.25027436017990112305 0.18489387631416320801 0.22985830903053283691 0.19837705790996551514 0.23971512913703918457 0.23067736625671386719 0.24472193419933319092 0.24410225450992584229 0.26869162917137145996 0.20835174620151519775 0.19888481497764587402 0.20228649675846099854 0.08232418447732925415 0.15174624323844909668 0.27670431137084960938 0.36671531200408935547 0.19303236901760101318 0.23737968504428863525 0.27885887026786804199 0.22272430360317230225 0.24000756442546844482 0.2148869931697845459 0.20991043746471405029 0.24879269301891326904 0.28253605961799621582 0.29940938949584960938 0.24750044941902160645 0.25657993555068969727 0.22817043960094451904 0.20846331119537353516 0.26213112473487854004 0.23812067508697509766 0.44137006998062133789 0.88751560449600219727 1.0303455591201782227 0.70258849859237670898 0.38728630542755126953 0.8818390965461730957 0.50159066915512084961 0.34661781787872314453 0.3207893073558807373 0.4942664802074432373 
0.14276950061321258545 0.29411619901657104492 0.31371551752090454102 0.087594874203205108643 0.071487814188003540039 0.25856775045394897461 0.25462740659713745117 0.050916664302349090576 0.19675575196743011475 0.2008228003978729248 0.2864551246166229248 0.19507834315299987793 0.59025824069976806641 0.37989124655723571777 0.36134749650955200195 0.51105737686157226562 0.38951286673545837402 0.34052565693855285645 0.4471066892147064209 0.47802630066871643066 0.4603023529052734375 0.36936098337173461914 0.35951519012451171875 0.29806590080261230469 0.16073042154312133789 0.027279876172542572021 0.032059874385595321655 0.077848374843597412109 0.0098125003278255462646 0.023691875860095024109 0.087783254683017730713 0.0049999998882412910461 0.16313426196575164795 0.26415961980819702148 0.21438956260681152344 0.30717512965202331543 0.3072795569896697998 0.30510237812995910645 0.28413131833076477051 0.25460755825042724609 0.22908063232898712158 0.23406493663787841797 0.22672449052333831787 0.23587286472320556641 0.21871517598628997803 0.21665781736373901367 0.19934587180614471436 0.1918996274471282959 0.19794955849647521973 0.47157418727874755859 0.29885882139205932617 0.27789887785911560059 0.27646756172180175781 0.24424242973327636719 0.16070194542407989502 0.20055949687957763672 0.21601356565952301025 0.22272357344627380371 0.24535025656223297119 0.23372513055801391602 0.19493313133716583252 0.1718731224536895752 0.27152687311172485352 0.26488956809043884277 0.18560431897640228271 0.27878531813621520996 0.27905419468879699707 0.2182499319314956665 0.20688462257385253906 0.26752451062202453613 0.24322481453418731689 0.25941562652587890625 0.24798668920993804932 0.22150711715221405029 0.21987706422805786133 0.26772579550743103027 0.2778441309928894043 0.38403287529945373535 0.78831917047500610352 0.80791056156158447266 0.3952738642692565918 0.38747617602348327637 0.64854925870895385742 0.38031932711601257324 0.26742574572563171387 0.35744550824165344238 0.24242174625396728516 
0.19440811872482299805 0.37578088045120239258 0.71044367551803588867 0.19298844039440155029 0.35855996608734130859 0.38959801197052001953 0.22233332693576812744 0.029750000685453414917 0.18581469357013702393 0.12638324499130249023 0.16298416256904602051 0.16722223162651062012 0.625 0.25357145071029663086 0.33046668767929077148 0.63679641485214233398 0.24951466917991638184 0.16759625077247619629 0.67073458433151245117 0.48050230741500854492 0.65515512228012084961 0.46817222237586975098 0.3759987950325012207 0.35785090923309326172 0.20259991288185119629 0.20296886563301086426 0.13623873889446258545 0.05486974865198135376 0.13888812065124511719 0.10103750228881835938 0.047332499176263809204 0.075098380446434020996 0.0049999998882412910461 0.24056574702262878418 0.34069237112998962402 0.44014081358909606934 0.30235531926155090332 0.42078074812889099121 0.23860499262809753418 0.37669673562049865723 0.49236732721328735352 0.19253256916999816895 0.22466824948787689209 0.20614725351333618164 0.22293686866760253906 0.20281106233596801758 0.19864524900913238525 0.18986131250858306885 0.2634003758430480957 0.24815063178539276123 0.25717476010322570801 0.38826224207878112793 0.24889843165874481201 0.19615043699741363525 0.10603275150060653687 0.095648378133773803711 0.30904763936996459961 0.3303476870059967041 0.23875375092029571533 0.21979324519634246826 0.12873418629169464111 0.29841649532318115234 0.3090457618236541748 0.23266318440437316895 0.24882824718952178955 0.19265262782573699951 0.21161293983459472656 0.2655029296875 0.17039924860000610352 0.24937736988067626953 0.21834625303745269775 0.22496455907821655273 0.20873975753784179688 0.31648686528205871582 0.27129006385803222656 0.34360969066619873047 0.3445529937744140625 0.42027387022972106934 0.28860062360763549805 0.22190244495868682861 0.12212018668651580811 0.17695887386798858643 0.29163125157356262207 0.22843056917190551758 0.25886812806129455566 0.24825437366962432861 0.24111899733543395996 
0.30958592891693115234 0.5147202610969543457 0.43375751376152038574 0.13112950325012207031 0.47752431035041809082 0.35550600290298461914 0.26619997620582580566 0.32894393801689147949 0.22047312557697296143 0.22684292495250701904 0.2489776909351348877 0.089519582688808441162 0.66500002145767211914 0.5370000004768371582 0.29666939377784729004 0.17928767204284667969 0.30826193094253540039 0.51635164022445678711 0.75266277790069580078 0.51878148317337036133 0.49745732545852661133 0.40074181556701660156 0.39219743013381958008 0.42241874337196350098 0.30597320199012756348 0.25381904840469360352 0.46871080994606018066 0.14562211930751800537 0.18994225561618804932 0.046304248273372650146 0.044087000191211700439 0.21050494909286499023 0.0049999998882412910461 0.30376794934272766113 0.26431313157081604004 0.43553581833839416504 0.21266731619834899902 0.26987281441688537598 0.33700719475746154785 0.28526636958122253418 0.33844342827796936035 0.22734631597995758057 0.21233130991458892822 0.22654905915260314941 0.19517350196838378906 0.19577075541019439697 0.21221262216567993164 0.19917081296443939209 0.29939392209053039551 0.32172369956970214844 0.54898434877395629883 0.34742063283920288086 0.33980792760848999023 0.17099744081497192383 0.14493744075298309326 0.18784244358539581299 0.35415288805961608887 0.37072136998176574707 0.30879381299018859863 0.21795800328254699707 0.21074882149696350098 0.23926430940628051758 0.2286895066499710083 0.34752812981605529785 0.35707819461822509766 0.45864892005920410156 0.41212487220764160156 0.20418643951416015625 0.29333138465881347656 0.21992725133895874023 0.20899412035942077637 0.26856720447540283203 0.24493774771690368652 0.27259787917137145996 0.33523893356323242188 0.37128162384033203125 0.32849317789077758789 0.27485445141792297363 0.24640968441963195801 0.27190029621124267578 0.20432943105697631836 0.38951706886291503906 0.21777124702930450439 0.40790805220603942871 0.23482674360275268555 0.25679698586463928223 0.25185349583625793457 
0.14477343857288360596 0.5176607966423034668 0.49048694968223571777 0.16589581966400146484 0.23747231066226959229 0.33685129880905151367 0.34002473950386047363 0.30439528822898864746 0.39666587114334106445 0.2885971367359161377 0.23910155892372131348 0.26255199313163757324 0.66500002145767211914 0.61486738920211791992 0.54543709754943847656 0.16582393646240234375 0.28357169032096862793 0.47182282805442810059 0.56776469945907592773 0.61144918203353881836 0.58968216180801391602 0.69158279895782470703 0.6247355341911315918 0.49905768036842346191 0.44968375563621520996 0.34633213281631469727 0.40712773799896240234 0.18563443422317504883 0.21433293819427490234 0.22865675389766693115 0.061950873583555221558 0.10063818842172622681 0.14269675314426422119 0.2388483881950378418 0.5248095393180847168 0.19835937023162841797 0.36621999740600585938 0.27764442563056945801 0.3519496917724609375 0.35029324889183044434 0.28685006499290466309 0.3196983039379119873 0.24890193343162536621 0.23515468835830688477 0.2166760563850402832 0.20687530934810638428 0.20428737998008728027 0.19538407027721405029 0.19616468250751495361 0.33808025717735290527 0.61577498912811279297 0.20715531706809997559 0.26744493842124938965 0.085574060678482055664 0.13479056954383850098 0.24986656010150909424 0.25732782483100891113 0.31658124923706054688 0.36618804931640625 0.28574430942535400391 0.080278001725673675537 0.1122983098030090332 0.079791747033596038818 0.24166344106197357178 0.31694954633712768555 0.29211586713790893555 0.33468860387802124023 0.3362961113452911377 0.3789043128490447998 0.32618305087089538574 0.22627243399620056152 0.30265951156616210938 0.2994518578052520752 0.25801369547843933105 0.34806960821151733398 0.31894481182098388672 0.23637562990188598633 0.24648949503898620605 0.28852918744087219238 0.32929050922393798828 0.35620963573455810547 0.25841051340103149414 0.44415187835693359375 0.75147908926010131836 0.46716701984405517578 0.66386121511459350586 0.32880902290344238281 
0.12252499908208847046 0.21614506840705871582 0.46080943942070007324 0.16297419369220733643 0.19251574575901031494 0.32184037566184997559 0.29440033435821533203 0.2000751197338104248 0.3611958622932434082 0.37932175397872924805 0.32307031750679016113 0.084487996995449066162 0.66500002145767211914 0.45616826415061950684 0.36580935120582580566 0.42626845836639404297 0.33564800024032592773 0.46368506550788879395 0.55816292762756347656 0.5878728032112121582 0.42013892531394958496 0.68971675634384155273 0.57270801067352294922 0.48548519611358642578 0.48278543353080749512 0.25881794095039367676 0.13651974499225616455 0.14001905918121337891 0.18771280348300933838 0.24653623998165130615 0.060171000659465789795 0.18310557305812835693 0.2388483881950378418 0.66500002145767211914 0.65812504291534423828 0.63506019115447998047 0.22752413153648376465 0.27493563294410705566 0.2928314208984375 0.31879460811614990234 0.25635623931884765625 0.29707807302474975586 0.28072085976600646973 0.23264099657535552979 0.22039255499839782715 0.20878730714321136475 0.21750029921531677246 0.2229741215705871582 0.23147436976432800293 0.21474081277847290039 0.32908827066421508789 0.18454781174659729004 0.13595287501811981201 0.13585849106311798096 0.18489387631416320801 0.14110212028026580811 0.24354474246501922607 0.37141370773315429688 0.47849538922309875488 0.53873777389526367188 0.25912812352180480957 0.12103056162595748901 0.12115693837404251099 0.13293212652206420898 0.22538256645202636719 0.37838125228881835938 0.31654068827629089355 0.32215023040771484375 0.24688531458377838135 0.26338607072830200195 0.21004256606101989746 0.31866601109504699707 0.29695060849189758301 0.32701560854911804199 0.36214104294776916504 0.35378113389015197754 0.23717918992042541504 0.29070436954498291016 0.33176481723785400391 0.25034061074256896973 0.22569186985492706299 0.31524494290351867676 0.4776344001293182373 0.33883893489837646484 0.32759076356887817383 0.45973426103591918945 0.22943574190139770508 
0.13908012211322784424 0.19828644394874572754 0.4083576202392578125 0.44490388035774230957 0.23399056494235992432 0.2907911837100982666 0.43356168270111083984 0.37228289246559143066 0.2769260704517364502 0.2830339968204498291 0.28952062129974365234 0.27196791768074035645 0.35810038447380065918 0.66500002145767211914 0.36546617746353149414 0.27349999547004699707 0.31366810202598571777 0.49665844440460205078 0.57099944353103637695 0.69531524181365966797 0.41663658618927001953 0.5204403996467590332 0.49604937434196472168 0.59366196393966674805 0.45193749666213989258 0.28479880094528198242 0.23602949082851409912 0.12278112024068832397 0.336589813232421875 0.17350074648857116699 0.16337025165557861328 0.27509912848472595215 0.32098662853240966797 0.46818751096725463867 0.66500002145767211914 0.66500002145767211914 0.36068612337112426758 0.2970256805419921875 0.29313099384307861328 0.26742056012153625488 0.36510455608367919922 0.25323405861854553223 0.22066056728363037109 0.22250075638294219971 0.20879843831062316895 0.28267243504524230957 0.26161062717437744141 0.24509850144386291504 0.24556493759155273438 0.25410181283950805664 0.23517593741416931152 0.22494725883007049561 0.10425149649381637573 0.15220361948013305664 0.12835419178009033203 0.18384775519371032715 0.38045263290405273438 0.61009132862091064453 0.43438231945037841797 0.24398542940616607666 0.57677799463272094727 0.44351795315742492676 0.21090118587017059326 0.086185626685619354248 0.24889418482780456543 0.30897498130798339844 0.38797289133071899414 0.47635087370872497559 0.26422968506813049316 0.22001919150352478027 0.24124312400817871094 0.28329142928123474121 0.30686360597610473633 0.33199998736381530762 0.37493818998336791992 0.26153525710105895996 0.3592776954174041748 0.34683755040168762207 0.22691349685192108154 0.20685349404811859131 0.20904211699962615967 0.21178512275218963623 0.22177080810070037842 0.20933562517166137695 0.20658455789089202881 0.19576099514961242676 0.18362499773502349854 
0.3755874335765838623 0.20614449679851531982 0.50358659029006958008 0.15852619707584381104 0.26448026299476623535 0.33217930793762207031 0.55959999561309814453 0.36056524515151977539 0.29090401530265808105 0.26642841100692749023 0.3653520047664642334 0.18532200157642364502 0.69027477502822875977 0.61717116832733154297 0.49222794175148010254 0.42530277371406555176 0.20649956166744232178 0.55060887336730957031 0.50155299901962280273 0.5736395716667175293 0.43870061635971069336 0.30739969015121459961 0.22280780971050262451 0.40483689308166503906 0.22964711487293243408 0.25050911307334899902 0.13637587428092956543 0.1354121863842010498 0.44479632377624511719 0.41465499997138977051 0.25552818179130554199 0.2834491729736328125 0.31585800647735595703 0.21936768293380737305 0.26221820712089538574 0.5259965062141418457 0.47479957342147827148 0.24351918697357177734 0.30770879983901977539 0.34762480854988098145 0.24849018454551696777 0.36587342619895935059 0.23560456931591033936 0.28237062692642211914 0.31791207194328308105 0.31438338756561279297 0.38289543986320495605 0.29401493072509765625 0.31262069940567016602 0.29675969481468200684 0.26220536231994628906 0.28947424888610839844 0.09270693361759185791 0.070477999746799468994 0.20101593434810638428 0.41177925467491149902 0.5949490666389465332 0.66500002145767211914 0.34393239021301269531 0.21006250381469726562 0.22773838043212890625 0.30909201502799987793 0.22920638322830200195 0.11734137684106826782 0.24187086522579193115 0.3216876983642578125 0.2993678748607635498 0.62227874994277954102 0.19959688186645507812 0.23523375391960144043 0.24885892868041992188 0.22820712625980377197 0.21460811793804168701 0.27788573503494262695 0.3044834434986114502 0.35260438919067382812 0.33352175354957580566 0.23663406074047088623 0.19578155875205993652 0.19292843341827392578 0.214292183518409729 0.19380649924278259277 0.19271674752235412598 0.19491943717002868652 0.19909980893135070801 0.19348900020122528076 0.19233250617980957031 
0.25779393315315246582 0.36036014556884765625 0.43932250142097473145 0.15730862319469451904 0.22893531620502471924 0.18345361948013305664 0.24725258350372314453 0.29276770353317260742 0.47903451323509216309 0.47637867927551269531 0.37719261646270751953 0.35853707790374755859 0.55598080158233642578 0.39917963743209838867 0.31857338547706604004 0.70630812644958496094 0.17660878598690032959 0.32619509100914001465 0.44631651043891906738 0.28501632809638977051 0.3992576301097869873 0.079842559993267059326 0.10367262363433837891 0.28513437509536743164 0.3745136260986328125 0.2781149446964263916 0.18694299459457397461 0.22588074207305908203 0.56359457969665527344 0.43154942989349365234 0.30107536911964416504 0.31201568245887756348 0.24110999703407287598 0.2668431401252746582 0.28714144229888916016 0.14939956367015838623 0.36423075199127197266 0.23486268520355224609 0.31688275933265686035 0.28689500689506530762 0.33508193492889404297 0.29706913232803344727 0.29578518867492675781 0.28302037715911865234 0.28140786290168762207 0.24452868103981018066 0.29758548736572265625 0.26106712222099304199 0.25190904736518859863 0.2466910630464553833 0.25599393248558044434 0.30408468842506408691 0.10409937798976898193 0.18707363307476043701 0.53593415021896362305 0.66500002145767211914 0.65256249904632568359 0.63097709417343139648 0.34586051106452941895 0.36490780115127563477 0.30560225248336791992 0.14175280928611755371 0.29896694421768188477 0.36865013837814331055 0.2144721299409866333 0.25898280739784240723 0.21978318691253662109 0.2079076915979385376 0.21295537054538726807 0.21645174920558929443 0.18045668303966522217 0.19759842753410339355 0.211048126220703125 0.33722788095474243164 0.42828470468521118164 0.27722617983818054199 0.22024144232273101807 0.21823793649673461914 0.18937861919403076172 0.19629231095314025879 0.20955830812454223633 0.1956335604190826416 0.19871124625205993652 0.22236743569374084473 0.2049083709716796875 0.23202575743198394775 0.23258499801158905029 
0.21313887834548950195 0.42221280932426452637 0.32276320457458496094 0.14633125066757202148 0.21589294075965881348 0.070477999746799468994 0.25188055634498596191 0.37884491682052612305 0.24219480156898498535 0.45651978254318237305 0.40764579176902770996 0.50034731626510620117 0.38755720853805541992 0.48243123292922973633 0.33692014217376708984 0.66500002145767211914 0.40183249115943908691 0.38219040632247924805 0.26735270023345947266 0.45723414421081542969 0.49328476190567016602 0.070477999746799468994 0.11960062384605407715 0.30549019575119018555 0.30272543430328369141 0.20022974908351898193 0.25839355587959289551 0.31172087788581848145 0.28344938158988952637 0.31511238217353820801 0.19084681570529937744 0.17766675353050231934 0.36011749505996704102 0.28264331817626953125 0.12012881040573120117 0.098325937986373901367 0.21449312567710876465 0.28010550141334533691 0.2870598137378692627 0.27181807160377502441 0.29502379894256591797 0.25425601005554199219 0.23913100361824035645 0.31572461128234863281 0.3619963228702545166 0.34038087725639343262 0.27720531821250915527 0.32623025774955749512 0.27841219305992126465 0.36848887801170349121 0.38441726565361022949 0.55331021547317504883 0.47457939386367797852 0.61194568872451782227 0.59952378273010253906 0.42457869648933410645 0.42528742551803588867 0.37385413050651550293 0.47783568501472473145 0.47847563028335571289 0.30500862002372741699 0.21824511885643005371 0.23146124184131622314 0.20044349133968353271 0.22451455891132354736 0.21580062806606292725 0.22795505821704864502 0.24046662449836730957 0.2326221168041229248 0.13869743049144744873 0.077511876821517944336 0.20645862817764282227 0.17308343946933746338 0.25523975491523742676 0.42005199193954467773 0.24172967672348022461 0.24103805422782897949 0.20531305670738220215 0.20076380670070648193 0.20039443671703338623 0.2081187516450881958 0.21566431224346160889 0.21248906850814819336 0.25828063488006591797 0.2521838843822479248 0.26424905657768249512 0.29845324158668518066 
0.36338087916374206543 0.56683927774429321289 0.26873314380645751953 0.32900193333625793457 0.11881393939256668091 0.12582299113273620605 0.086475811898708343506 0.1140259280800819397 0.070477999746799468994 0.20808191597461700439 0.31722390651702880859 0.53229963779449462891 0.4026940762996673584 0.44788599014282226562 0.27356499433517456055 0.33379063010215759277 0.32239419221878051758 0.28948649764060974121 0.29587575793266296387 0.33055531978607177734 0.49685630202293395996 0.22572205960750579834 0.1654211878776550293 0.4117425084114074707 0.27156123518943786621 0.26664832234382629395 0.22094155848026275635 0.27958342432975769043 0.40962937474250793457 0.27777445316314697266 0.18417605757713317871 0.2263889312744140625 0.40587699413299560547 0.45779004693031311035 0.095567375421524047852 0.070477999746799468994 0.20018680393695831299 0.35202968120574951172 0.36387106776237487793 0.38080245256423950195 0.27561363577842712402 0.24246618151664733887 0.23602336645126342773 0.22464762628078460693 0.31705451011657714844 0.25857430696487426758 0.23908624053001403809 0.26794981956481933594 0.23489843308925628662 0.31996294856071472168 0.30949413776397705078 0.40938574075698852539 0.44331112504005432129 0.32470780611038208008 0.23035912215709686279 0.31102642416954040527 0.25613713264465332031 0.16638892889022827148 0.238603249192237854 0.33083492517471313477 0.18819606304168701172 0.19205819070339202881 0.18569749593734741211 0.19739511609077453613 0.21634162962436676025 0.21898230910301208496 0.20791512727737426758 0.21092075109481811523 0.15862962603569030762 0.11881799995899200439 0.23198205232620239258 0.22060312330722808838 0.27584487199783325195 0.25219675898551940918 0.50540769100189208984 0.26400956511497497559 0.25426331162452697754 0.24620762467384338379 0.25375688076019287109 0.32764062285423278809 0.30584976077079772949 0.28593030571937561035 0.24877913296222686768 0.24832381308078765869 0.22602805495262145996 0.22502417862415313721 0.19621025025844573975 
0.13915656507015228271 0.40450125932693481445 0.41466507315635681152 0.34118244051933288574 0.37114182114601135254 0.36923649907112121582 0.25012877583503723145 0.22982417047023773193 0.24592833220958709717 0.4249331355094909668 0.40403613448143005371 0.26703956723213195801 0.31634888052940368652 0.55450004339218139648 0.32554158568382263184 0.38613706827163696289 0.45641443133354187012 0.11224187910556793213 0.18619275093078613281 0.78708636760711669922 0.66195780038833618164 0.20034612715244293213 0.26223137974739074707 0.22283349931240081787 0.28136113286018371582 0.2437216341495513916 0.22598706185817718506 0.27007687091827392578 0.30958530306816101074 0.17618769407272338867 0.1544608771800994873 0.37365835905075073242 0.39349031448364257812 0.37679126858711242676 0.16106425225734710693 0.070477999746799468994 0.17179962992668151855 0.24668231606483459473 0.24794225394725799561 0.24834044277667999268 0.22760862112045288086 0.22552612423896789551 0.22466987371444702148 0.20016124844551086426 0.20771574974060058594 0.20891806483268737793 0.25693470239639282227 0.24863493442535400391 0.29664468765258789062 0.23547999560832977295 0.22420024871826171875 0.21111199259757995605 0.1889588087797164917 0.18592150509357452393 0.18619406223297119141 0.18426349759101867676 0.18465349078178405762 0.077511876821517944336 0.17234650254249572754 0.1569528728723526001 0.17968086898326873779 0.20122881233692169189 0.18998268246650695801 0.19583281874656677246 0.19946569204330444336 0.19037543237209320068 0.19815324246883392334 0.21143993735313415527 0.13920937478542327881 0.12229999899864196777 0.17248524725437164307 0.1126812472939491272 0.26928180456161499023 0.35677218437194824219 0.31998601555824279785 0.27045688033103942871 0.2809390723705291748 0.28074312210083007812 0.28276494145393371582 0.31868919730186462402 0.29774388670921325684 0.29568520188331604004 0.28806042671203613281 0.27387756109237670898 0.23995475471019744873 0.19753099977970123291 0.22712700068950653076 
0.49979913234710693359 0.46292501688003540039 0.48185023665428161621 0.52656787633895874023 0.34669381380081176758 0.29186707735061645508 0.23872870206832885742 0.25543361902236938477 0.29725337028503417969 0.26167649030685424805 0.2846533656120300293 0.30271160602569580078 0.41367608308792114258 0.41750001907348632812 0.53009468317031860352 0.22982166707515716553 0.20897367596626281738 0.19362349808216094971 0.41996741294860839844 0.32315859198570251465 0.24535718560218811035 0.47132673859596252441 0.53214383125305175781 0.20825587213039398193 0.39199542999267578125 0.43761873245239257812 0.42538362741470336914 0.25976401567459106445 0.32980957627296447754 0.30679887533187866211 0.27192437648773193359 0.63736683130264282227 0.40650844573974609375 0.10176912695169448853 0.15220361948013305664 0.070477999746799468994 0.195217132568359375 0.28555530309677124023 0.243269309401512146 0.2620709836483001709 0.21030686795711517334 0.20786468684673309326 0.15242575109004974365 0.19127474725246429443 0.211061820387840271 0.23405855894088745117 0.28981825709342956543 0.25679850578308105469 0.27183169126510620117 0.25818598270416259766 0.22943893074989318848 0.20958536863327026367 0.18648068606853485107 0.1901537477970123291 0.1891898810863494873 0.13126462697982788086 0.078056372702121734619 0.077995687723159790039 0.16087231040000915527 0.070477999746799468994 0.13411405682563781738 0.19325043261051177979 0.20086742937564849854 0.19957225024700164795 0.19331593811511993408 0.19801187515258789062 0.20262481272220611572 0.20272624492645263672 0.15252868831157684326 0.12715563178062438965 0.099722251296043395996 0.077511876821517944336 0.33708474040031433105 0.33122399449348449707 0.21056805551052093506 0.27251705527305603027 0.30900901556015014648 0.30122420191764831543 0.3851464390754699707 0.30940294265747070312 0.30539986491203308105 0.28959900140762329102 0.27170780301094055176 0.28448224067687988281 0.22642043232917785645 0.2836748659610748291 0.2916717529296875 
0.54081618785858154297 0.28615537285804748535 0.28734043240547180176 0.15803644061088562012 0.20309725403785705566 0.40629175305366516113 0.63058757781982421875 0.3127873837947845459 0.31336429715156555176 0.37206172943115234375 0.26786711812019348145 0.42954137921333312988 0.63276469707489013672 0.3745161592960357666 0.50430130958557128906 0.44339567422866821289 0.34573182463645935059 0.25788220763206481934 0.39105737209320068359 0.37513870000839233398 0.36411318182945251465 0.45905375480651855469 0.53940463066101074219 0.44732362031936645508 0.48137864470481872559 0.48555725812911987305 0.32595863938331604004 0.2945092618465423584 0.30398038029670715332 0.30701112747192382812 0.23419350385665893555 0.31246370077133178711 0.21187005937099456787 0.13585849106311798096 0.086823120713233947754 0.070477999746799468994 0.074934311211109161377 0.33435010910034179688 0.28553166985511779785 0.23065805435180664062 0.23725929856300354004 0.18855224549770355225 0.18867813050746917725 0.19730786979198455811 0.22023831307888031006 0.28524374961853027344 0.29018932580947875977 0.22441355884075164795 0.25303292274475097656 0.25156673789024353027 0.24095086753368377686 0.22265724837779998779 0.21984650194644927979 0.19169375300407409668 0.19105049967765808105 0.15220361948013305664 0.086823120713233947754 0.13454875349998474121 0.14673618972301483154 0.070477999746799468994 0.085574060678482055664 0.20069894194602966309 0.21225249767303466797 0.20966181159019470215 0.23058156669139862061 0.19605949521064758301 0.1993980705738067627 0.10319656133651733398 0.070477999746799468994 0.20411592721939086914 0.17666219174861907959 0.21854817867279052734 0.29299125075340270996 0.25367018580436706543 0.23551787436008453369 0.25412982702255249023 0.28031575679779052734 0.28240081667900085449 0.30218032002449035645 0.28481245040893554688 0.29059305787086486816 0.26209288835525512695 0.25008311867713928223 0.2443999946117401123 0.26672700047492980957 0.23959192633628845215 0.21374124288558959961 
0.36300668120384216309 0.28916767239570617676 0.32073643803596496582 0.15327337384223937988 0.17617963254451751709 0.58068352937698364258 0.7843106389045715332 0.32368740439414978027 0.21493706107139587402 0.52660322189331054688 0.70179784297943115234 0.96315670013427734375 0.46123051643371582031 0.43779140710830688477 0.48724156618118286133 0.46066743135452270508 0.54173648357391357422 0.38161039352416992188 0.46717995405197143555 0.48463621735572814941 0.4152221977710723877 0.66500002145767211914 0.62123131752014160156 0.52875196933746337891 0.43298494815826416016 0.48386505246162414551 0.17459194362163543701 0.4831460118293762207 0.52521884441375732422 0.50859934091567993164 0.49145469069480895996 0.74094396829605102539 0.64618879556655883789 0.74561548233032226562 0.3279107511043548584 0.30288231372833251953 0.25547623634338378906 0.33167567849159240723 0.31293717026710510254 0.2745577394962310791 0.21674050390720367432 0.21184861660003662109 0.27579256892204284668 0.20823436975479125977 0.22331842780113220215 0.24531719088554382324 0.29293081164360046387 0.21989342570304870605 0.19746144115924835205 0.22575780749320983887 0.24686367809772491455 0.26233854889869689941 0.19427324831485748291 0.19203911721706390381 0.15416468679904937744 0.097121626138687133789 0.070477999746799468994 0.078120000660419464111 0.077995687723159790039 0.070477999746799468994 0.070477999746799468994 0.19721662998199462891 0.20391681790351867676 0.20194031298160552979 0.2202084958553314209 0.21374619007110595703 0.14820969104766845703 0.070477999746799468994 0.11698749661445617676 0.15937824547290802002 0.20655761659145355225 0.21848087012767791748 0.25902518630027770996 0.27634736895561218262 0.22634744644165039062 0.44724744558334350586 0.23235642910003662109 0.30940705537796020508 0.42202818393707275391 0.36432725191116333008 0.27901494503021240234 0.2449061274528503418 0.22616644203662872314 0.2337331920862197876 0.23353999853134155273 0.20195375382900238037 0.19544999301433563232 
0.29238292574882507324 0.13635493814945220947 0.30332300066947937012 0.39392414689064025879 0.49233525991439819336 0.57642918825149536133 0.42549437284469604492 0.25684475898742675781 0.28775489330291748047 0.65726578235626220703 0.51082861423492431641 0.61467450857162475586 0.45188426971435546875 0.59068477153778076172 0.40489664673805236816 0.64280641078948974609 0.40394482016563415527 0.26219382882118225098 0.26797568798065185547 0.52066320180892944336 0.56764501333236694336 0.48988321423530578613 0.39758443832397460938 0.43971341848373413086 0.43015399575233459473 0.25042513012886047363 0.32409170269966125488 0.40316286683082580566 0.34394431114196777344 0.48277500271797180176 0.49241593480110168457 1.1065740585327148438 0.83518606424331665039 0.91819769144058227539 0.43845707178115844727 0.3166103661060333252 0.2044270634651184082 0.31425911188125610352 0.42710885405540466309 0.24477112293243408203 0.20576788485050201416 0.19435955584049224854 0.30821520090103149414 0.21087318658828735352 0.19128631055355072021 0.19594024121761322021 0.22484305500984191895 0.23344762623310089111 0.23947231471538543701 0.3245888054370880127 0.16033762693405151367 0.23255580663681030273 0.23750580847263336182 0.22062599658966064453 0.20135724544525146484 0.25049838423728942871 0.14849650859832763672 0.19849768280982971191 0.092610627412796020508 0.088957376778125762939 0.14913800358772277832 0.19810087978839874268 0.20825017988681793213 0.2804934382438659668 0.21636368334293365479 0.19019925594329833984 0.12514562904834747314 0.070477999746799468994 0.091528438031673431396 0.19295312464237213135 0.25788092613220214844 0.2970415651798248291 0.25499138236045837402 0.24670262634754180908 0.16414237022399902344 0.30170601606369018555 0.40595600008964538574 0.24333249032497406006 0.23212186992168426514 0.24632506072521209717 0.27493610978126525879 0.22277443110942840576 0.25725644826889038086 0.23678331077098846436 0.20477737486362457275 0.21241655945777893066 0.19706824421882629395 
0.6517670750617980957 0.070477999746799468994 0.070477999746799468994 0.22274944186210632324 0.36154344677925109863 0.42382839322090148926 0.35615718364715576172 0.32895612716674804688 0.51110118627548217773 0.58027368783950805664 0.55234038829803466797 0.68882423639297485352 0.70684027671813964844 0.52164208889007568359 0.52354580163955688477 0.66500002145767211914 0.41314375400543212891 0.26626095175743103027 0.28568136692047119141 0.48738694190979003906 0.45478406548500061035 0.38103756308555603027 0.5855649113655090332 0.26424562931060791016 0.58754491806030273438 0.45100411772727966309 0.4292691349983215332 0.34950813651084899902 0.61442041397094726562 0.47005975246429443359 0.65586531162261962891 1.0232050418853759766 1.1065740585327148438 0.98308211565017700195 0.83398258686065673828 0.2425759434700012207 0.40612944960594177246 0.48538318276405334473 0.30677500367164611816 0.33180212974548339844 0.28144919872283935547 0.23456361889839172363 0.2108856886625289917 0.24629619717597961426 0.18631762266159057617 0.1963573843240737915 0.20089957118034362793 0.22058561444282531738 0.29397925734519958496 0.24221824109554290771 0.093802809715270996094 0.23454692959785461426 0.19138944149017333984 0.21260781586170196533 0.21136038005352020264 0.20601287484169006348 0.16684556007385253906 0.27823582291603088379 0.085540562868118286133 0.1204938739538192749 0.11196149885654449463 0.19406324625015258789 0.19332912564277648926 0.19805163145065307617 0.16333268582820892334 0.070477999746799468994 0.070477999746799468994 0.11223537474870681763 0.10556206107139587402 0.20234180986881256104 0.22467574477195739746 0.3304558098316192627 0.26434060931205749512 0.26187911629676818848 0.15942168235778808594 0.0054374998435378074646 0.31566449999809265137 0.24091824889183044434 0.20777656137943267822 0.18855224549770355225 0.24842698872089385986 0.24160811305046081543 0.23611424863338470459 0.24416692554950714111 0.2175903022289276123 0.17843587696552276611 0.16594900190830230713 
0.65141695737838745117 0.070477999746799468994 0.070477999746799468994 0.19684812426567077637 0.30614998936653137207 0.48287224769592285156 0.41518694162368774414 0.65022242069244384766 0.66817247867584228516 0.54729050397872924805 0.47839626669883728027 0.66966271400451660156 0.69259840250015258789 0.56101042032241821289 0.46903908252716064453 0.59683316946029663086 0.49385720491409301758 0.57467293739318847656 0.4550590217113494873 0.29767450690269470215 0.47618287801742553711 0.68885499238967895508 0.46594694256782531738 0.54205268621444702148 0.4146213531494140625 0.63852822780609130859 0.26022413372993469238 0.37207379937171936035 0.3153591156005859375 0.40055808424949645996 0.47177499532699584961 0.95422583818435668945 1.0865761041641235352 0.77772223949432373047 0.76893329620361328125 0.21194761991500854492 0.35656911134719848633 0.51155167818069458008 0.40034875273704528809 0.24465382099151611328 0.20912718772888183594 0.23603330552577972412 0.21748931705951690674 0.21548256278038024902 0.18660005927085876465 0.20931325852870941162 0.14213068783283233643 0.17210949957370758057 0.070477999746799468994 0.13187718391418457031 0.090293936431407928467 0.19262787699699401855 0.22697438299655914307 0.20621761679649353027 0.18118944764137268066 0.18266694247722625732 0.20419725775718688965 0.15680499374866485596 0.16209937632083892822 0.20282031595706939697 0.20126332342624664307 0.19883388280868530273 0.19489806890487670898 0.19524061679840087891 0.1422039419412612915 0.13305249810218811035 0.11644393950700759888 0.19417843222618103027 0.22586350142955780029 0.27500781416893005371 0.37074169516563415527 0.32132375240325927734 0.28192618489265441895 0.26845937967300415039 0.24090944230556488037 0.22993588447570800781 0.37362107634544372559 0.23733462393283843994 0.18768799304962158203 0.19378556311130523682 0.21401137113571166992 0.22421674430370330811 0.2181565016508102417 0.22829186916351318359 0.14995999634265899658 0.077705562114715576172 0.098613500595092773438 
0.52331894636154174805 0.070477999746799468994 0.070477999746799468994 0.15970399975776672363 0.40229025483131408691 0.51350194215774536133 0.38013118505477905273 0.58270317316055297852 0.40994587540626525879 0.22972431778907775879 0.31589069962501525879 0.66500002145767211914 0.64078432321548461914 0.44377458095550537109 0.54374659061431884766 0.66500002145767211914 0.61316645145416259766 0.41950139403343200684 0.47021815180778503418 0.47525233030319213867 0.27515006065368652344 0.47789055109024047852 0.52713143825531005859 0.27548936009407043457 0.26289337873458862305 0.43491083383560180664 0.2909584343433380127 0.4129619598388671875 0.48989364504814147949 0.73442870378494262695 0.29465770721435546875 0.94873785972595214844 0.97239744663238525391 0.77266538143157958984 0.33021745085716247559 0.26471388339996337891 0.48868697881698608398 0.40913724899291992188 0.33637136220932006836 0.30145931243896484375 0.24222424626350402832 0.22492943704128265381 0.33503258228302001953 0.27173843979835510254 0.1821835637092590332 0.14750450849533081055 0.087095811963081359863 0.070477999746799468994 0.070477999746799468994 0.079707309603691101074 0.095645621418952941895 0.20296400785446166992 0.20188824832439422607 0.20260182023048400879 0.20302712917327880859 0.21661487221717834473 0.20529800653457641602 0.20100131630897521973 0.2476215064525604248 0.20455144345760345459 0.19723218679428100586 0.20197337865829467773 0.19879224896430969238 0.20707087218761444092 0.20500899851322174072 0.20254300534725189209 0.22366593778133392334 0.21373587846755981445 0.28703936934471130371 0.26902657747268676758 0.28111132979393005371 0.28986662626266479492 0.28492856025695800781 0.25673961639404296875 0.046250000596046447754 0.4106960296630859375 0.24957412481307983398 0.25872510671615600586 0.20217105746269226074 0.20706805586814880371 0.20295175909996032715 0.18526619672775268555 0.20972774922847747803 0.20441186428070068359 0.19917206466197967529 0.19599036872386932373 0.13110500574111938477 
0.070477999746799468994 0.070477999746799468994 0.070477999746799468994 0.1840788722038269043 0.46883749961853027344 0.42250311374664306641 0.28388363122940063477 0.45389837026596069336 0.44508188962936401367 0.21910850703716278076 0.41950675845146179199 0.66500002145767211914 0.63571214675903320312 0.3327324986457824707 0.55872261524200439453 0.66500002145767211914 0.47882550954818725586 0.21412387490272521973 0.52142047882080078125 0.80044513940811157227 0.44089627265930175781 0.68244874477386474609 0.56340920925140380859 0.51478564739227294922 0.21923238039016723633 0.58999240398406982422 0.39166012406349182129 0.3605238795280456543 0.43659502267837524414 0.37461712956428527832 0.26488962769508361816 0.9007542729377746582 1.0039927959442138672 0.70402115583419799805 0.50857597589492797852 0.14877912402153015137 0.19713349640369415283 0.25282812118530273438 0.42730861902236938477 0.36387011408805847168 0.21383649110794067383 0.23583713173866271973 0.35159736871719360352 0.19821149110794067383 0.31626263260841369629 0.070477999746799468994 0.070477999746799468994 0.070477999746799468994 0.070477999746799468994 0.070477999746799468994 0.088936626911163330078 0.20278963446617126465 0.20448850095272064209 0.20200975239276885986 0.24356499314308166504 0.19340863823890686035 0.20949637889862060547 0.19940887391567230225 0.31777438521385192871 0.20472000539302825928 0.20472000539302825928 0.22835300862789154053 0.2141342461109161377 0.20472000539302825928 0.21065849065780639648 0.20946100354194641113 0.27567660808563232422 0.1937503814697265625 0.29324251413345336914 0.28730100393295288086 0.33228024840354919434 0.31766998767852783203 0.25578150153160095215 0.17249999940395355225 0.045874997973442077637 0.31826826930046081543 0.32062450051307678223 0.22087199985980987549 0.26609349250793457031 0.14677111804485321045 0.13357725739479064941 0.11678650230169296265 0.14505562186241149902 0.21444250643253326416 0.19728986918926239014 0.20113937556743621826 0.070477999746799468994 
