ncols        87
nrows        107
xllcorner    508536.404131802963
yllcorner    5265618.997906560078
cellsize     120.000000000000
NODATA_value -9999
0.11699999868869781494 0.11699999868869781494 0.11699999868869781494 0.11699999868869781494 0.11699999868869781494 0.11699999868869781494 0.11699999868869781494 0.11699999868869781494 0.11699999868869781494 0.11699999868869781494 0.11699999868869781494 0.11699999868869781494 0.11699999868869781494 0.11699999868869781494 0.11699999868869781494 0.11699999868869781494 0.11699999868869781494 0.11699999868869781494 0.11699999868869781494 0.11699999868869781494 0.11699999868869781494 0.11699999868869781494 0.11699999868869781494 0.11699999868869781494 0.11699999868869781494 0.11699999868869781494 0.11699999868869781494 0.11699999868869781494 0.11699999868869781494 0.11699999868869781494 0.11699999868869781494 0.11699999868869781494 0.11699999868869781494 0.11699999868869781494 0.11699999868869781494 0.11699999868869781494 0.11699999868869781494 0.11699999868869781494 0.11699999868869781494 0.11699999868869781494 0.11699999868869781494 0.11699999868869781494 0.11699999868869781494 0.11699999868869781494 0.11699999868869781494 0.11699999868869781494 0.11699999868869781494 0.11699999868869781494 0.11699999868869781494 0.11699999868869781494 0.11699999868869781494 0.11699999868869781494 0.11699999868869781494 0.11699999868869781494 0.11699999868869781494 0.11699999868869781494 0.11699999868869781494 0.11699999868869781494 0.11699999868869781494 0.11699999868869781494 0.11699999868869781494 0.11699999868869781494 0.11699999868869781494 0.11699999868869781494 0.11699999868869781494 0.11699999868869781494 0.37929952144622802734 1.5569741725921630859 1.7282102108001708984 1.5941619873046875 1.936711430549621582 3.730792999267578125 3.5801997184753417969 6.7907032966613769531 3.7042460441589355469 2.9579257965087890625 5.09629058837890625 3.0908854007720947266 2.6047053337097167969 5.5571513175964355469 7.4519867897033691406 3.9857683181762695312 5.5286579132080078125 4.3184905052185058594 4.2412791252136230469 3.6033520698547363281 5.823513031005859375 
0.11699999868869781494 0.11699999868869781494 0.11699999868869781494 0.11699999868869781494 0.11699999868869781494 0.11699999868869781494 0.11699999868869781494 0.11699999868869781494 0.11699999868869781494 0.11699999868869781494 0.11699999868869781494 0.11699999868869781494 0.11699999868869781494 0.11699999868869781494 0.11699999868869781494 0.11699999868869781494 0.11699999868869781494 0.11699999868869781494 0.11699999868869781494 0.11699999868869781494 0.11699999868869781494 0.11699999868869781494 0.11699999868869781494 0.11699999868869781494 0.11699999868869781494 0.11699999868869781494 0.11699999868869781494 0.11699999868869781494 0.11699999868869781494 0.11699999868869781494 0.11699999868869781494 0.11699999868869781494 0.11699999868869781494 0.11699999868869781494 0.11699999868869781494 0.11699999868869781494 0.11699999868869781494 0.11699999868869781494 0.11699999868869781494 0.11699999868869781494 0.11699999868869781494 0.11699999868869781494 0.11699999868869781494 0.11699999868869781494 0.11699999868869781494 0.11699999868869781494 0.11699999868869781494 0.11699999868869781494 0.11699999868869781494 0.11699999868869781494 0.11699999868869781494 0.11699999868869781494 0.11699999868869781494 0.11699999868869781494 0.11699999868869781494 0.11699999868869781494 0.11699999868869781494 0.11699999868869781494 0.11699999868869781494 0.11699999868869781494 0.11699999868869781494 0.20962499082088470459 0.20962499082088470459 0.11699999868869781494 0.11699999868869781494 0.36398702859878540039 1.8989188671112060547 1.2678885459899902344 2.0451333522796630859 1.3753669261932373047 4.4814691543579101562 4.3941178321838378906 6.2463731765747070312 6.0227422714233398438 9.3607988357543945312 3.0275278091430664062 3.2390968799591064453 6.2787332534790039062 7.5548615455627441406 10.071913719177246094 4.5829305648803710938 2.5615627765655517578 3.0078828334808349609 4.82738494873046875 2.0747132301330566406 4.724040985107421875 2.1358997821807861328 
0.11699999868869781494 0.11699999868869781494 0.11699999868869781494 0.11699999868869781494 0.11699999868869781494 0.11699999868869781494 0.11699999868869781494 0.11699999868869781494 0.11699999868869781494 0.11699999868869781494 0.11699999868869781494 0.11699999868869781494 0.11699999868869781494 0.11699999868869781494 0.11699999868869781494 0.11699999868869781494 0.11699999868869781494 0.11699999868869781494 0.11699999868869781494 0.11699999868869781494 0.11699999868869781494 0.11699999868869781494 0.11699999868869781494 0.11699999868869781494 0.11699999868869781494 0.11699999868869781494 0.11699999868869781494 0.11699999868869781494 0.11699999868869781494 0.11699999868869781494 0.11699999868869781494 0.11699999868869781494 0.11699999868869781494 0.11699999868869781494 0.11699999868869781494 0.11699999868869781494 0.11699999868869781494 0.11699999868869781494 0.11699999868869781494 0.11699999868869781494 0.11699999868869781494 0.11699999868869781494 0.11699999868869781494 0.11699999868869781494 0.11699999868869781494 0.11699999868869781494 0.11699999868869781494 0.11699999868869781494 0.11699999868869781494 0.11699999868869781494 0.11699999868869781494 0.11699999868869781494 0.11699999868869781494 0.11699999868869781494 0.11699999868869781494 0.11699999868869781494 0.11699999868869781494 0.11699999868869781494 0.10631249845027923584 0.88904213905334472656 1.6211743354797363281 0.55267745256423950195 0.092062495648860931396 0.11156249791383743286 0.071923077106475830078 0.90318059921264648438 1.9150226116180419922 1.7799963951110839844 2.5241048336029052734 2.0538387298583984375 6.2457256317138671875 7.7469816207885742188 10.775761604309082031 10.360152244567871094 6.6013021469116210938 3.180286407470703125 3.7324378490447998047 7.323360443115234375 4.7421846389770507812 8.4891042709350585938 4.985630035400390625 4.2153000831604003906 7.3635630607604980469 5.925800323486328125 7.6164059638977050781 2.0742011070251464844 0.26414850354194641113 
0.11699999868869781494 0.11699999868869781494 0.11699999868869781494 0.11699999868869781494 0.11699999868869781494 0.11699999868869781494 0.11699999868869781494 0.11699999868869781494 0.11699999868869781494 0.11699999868869781494 0.11699999868869781494 0.11699999868869781494 0.11699999868869781494 0.11699999868869781494 0.11699999868869781494 0.11699999868869781494 0.11699999868869781494 0.11699999868869781494 0.11699999868869781494 0.11699999868869781494 0.11699999868869781494 0.11699999868869781494 0.11699999868869781494 0.11699999868869781494 0.11699999868869781494 0.11699999868869781494 0.11699999868869781494 0.11699999868869781494 0.11699999868869781494 0.11699999868869781494 0.11699999868869781494 0.11699999868869781494 0.11699999868869781494 0.11699999868869781494 0.11699999868869781494 0.1134374961256980896 0.11699999868869781494 0.11699999868869781494 0.11699999868869781494 0.11699999868869781494 0.11699999868869781494 0.11699999868869781494 0.11699999868869781494 0.11699999868869781494 0.11699999868869781494 0.11699999868869781494 0.11699999868869781494 0.11699999868869781494 0.11699999868869781494 0.11699999868869781494 0.11699999868869781494 0.11699999868869781494 0.11699999868869781494 0.11699999868869781494 0.11699999868869781494 0.11699999868869781494 0.11699999868869781494 0.1027499958872795105 0.91659903526306152344 2.5678832530975341797 1.9490619897842407227 0.11666212975978851318 0.86036527156829833984 1.1124374866485595703 0.45899999141693115234 2.5021634101867675781 2.4535486698150634766 2.1416339874267578125 1.6841285228729248047 3.7811834812164306641 3.2154569625854492188 8.9580936431884765625 9.9818620681762695312 6.8933801651000976562 7.6011343002319335938 5.4082694053649902344 4.1777734756469726562 4.778903961181640625 4.9551758766174316406 5.8595690727233886719 7.0077071189880371094 5.8162698745727539062 3.3269388675689697266 8.99144744873046875 5.8259072303771972656 0.64386582374572753906 0.8982207179069519043 
0.11699999868869781494 0.11699999868869781494 0.11699999868869781494 0.11699999868869781494 0.11699999868869781494 0.11699999868869781494 0.11699999868869781494 0.11699999868869781494 0.11699999868869781494 0.11699999868869781494 0.11699999868869781494 0.11699999868869781494 0.11699999868869781494 0.11699999868869781494 0.11699999868869781494 0.11699999868869781494 0.11699999868869781494 0.11699999868869781494 0.11699999868869781494 0.11699999868869781494 0.11699999868869781494 0.11699999868869781494 0.11699999868869781494 0.11699999868869781494 0.11699999868869781494 0.11699999868869781494 0.11699999868869781494 0.11699999868869781494 0.11699999868869781494 0.11699999868869781494 0.11699999868869781494 0.11699999868869781494 0.11699999868869781494 0.83299267292022705078 2.7063741683959960938 2.8430147171020507812 0.08662500232458114624 0.11699999868869781494 0.11699999868869781494 0.11699999868869781494 0.11699999868869781494 0.11699999868869781494 0.11699999868869781494 0.11699999868869781494 0.11699999868869781494 0.11699999868869781494 0.11699999868869781494 0.11699999868869781494 0.11699999868869781494 0.11699999868869781494 0.11699999868869781494 0.11699999868869781494 0.11699999868869781494 0.11699999868869781494 0.11699999868869781494 0.10631249845027923584 0.083062499761581420898 1.0445235967636108398 1.5783751010894775391 1.1926374435424804688 0.2535000145435333252 0.4685872495174407959 0.57442617416381835938 2.0529851913452148438 1.502812504768371582 1.4754999876022338867 1.7746293544769287109 2.8037734031677246094 2.6604568958282470703 4.8832554817199707031 2.4187865257263183594 7.9969410896301269531 5.644153594970703125 4.8664312362670898438 6.6521234512329101562 7.5599761009216308594 7.1117706298828125 5.2227783203125 2.7853417396545410156 3.9137275218963623047 2.7511756420135498047 7.7709860801696777344 4.7650394439697265625 7.4008922576904296875 2.2183039188385009766 0.64297789335250854492 0.80841273069381713867 
0.11699999868869781494 0.11699999868869781494 0.11699999868869781494 0.11699999868869781494 0.11699999868869781494 0.11699999868869781494 0.11699999868869781494 0.11699999868869781494 0.11699999868869781494 0.11699999868869781494 0.11699999868869781494 0.11699999868869781494 0.11699999868869781494 0.11699999868869781494 0.11699999868869781494 0.11699999868869781494 0.11699999868869781494 0.11699999868869781494 0.11699999868869781494 0.11699999868869781494 0.11699999868869781494 0.11699999868869781494 0.11699999868869781494 0.11699999868869781494 0.11699999868869781494 0.11699999868869781494 0.11699999868869781494 0.11699999868869781494 0.11699999868869781494 0.11699999868869781494 0.11699999868869781494 0.095624998211860656738 1.620688319206237793 1.8517895936965942383 0.99500280618667602539 1.8138827085494995117 0.083875000476837158203 0.11699999868869781494 0.11699999868869781494 0.11699999868869781494 0.11699999868869781494 0.11699999868869781494 0.11699999868869781494 0.11699999868869781494 0.11699999868869781494 0.11699999868869781494 0.11699999868869781494 0.11699999868869781494 0.11699999868869781494 0.11699999868869781494 0.11699999868869781494 0.11699999868869781494 0.1134374961256980896 0.54530113935470581055 0.86382257938385009766 1.4972765445709228516 1.6234327554702758789 1.5362193584442138672 1.2991185188293457031 1.9203276634216308594 1.9018737077713012695 1.6068189144134521484 1.6734478473663330078 2.5160269737243652344 1.9467786550521850586 1.5989999771118164062 2.1322832107543945312 2.7644240856170654297 1.8469356298446655273 2.8283402919769287109 2.4182991981506347656 6.5705533027648925781 8.730377197265625 8.9550085067749023438 6.0050249099731445312 7.4617466926574707031 7.3334145545959472656 3.7108974456787109375 2.6911189556121826172 2.8290174007415771484 7.4809932708740234375 10.809687614440917969 4.2567915916442871094 1.848374485969543457 1.7199711799621582031 0.27414852380752563477 0.10000000149011611938 
0.11699999868869781494 0.11699999868869781494 0.11699999868869781494 0.11699999868869781494 0.11699999868869781494 0.11699999868869781494 0.11699999868869781494 0.11699999868869781494 0.11699999868869781494 0.11699999868869781494 0.11699999868869781494 0.11699999868869781494 0.11699999868869781494 0.11699999868869781494 0.11699999868869781494 0.11699999868869781494 0.11699999868869781494 0.11699999868869781494 0.11699999868869781494 0.11699999868869781494 0.11699999868869781494 0.11699999868869781494 0.11699999868869781494 0.11699999868869781494 0.11699999868869781494 0.11699999868869781494 0.11699999868869781494 0.11699999868869781494 0.095624998211860656738 0.066749997437000274658 0.057749997824430465698 2.5525248050689697266 2.0506031513214111328 1.6117916107177734375 0.41116073727607727051 0.77793556451797485352 0.27731248736381530762 0.11699999868869781494 0.11699999868869781494 0.11699999868869781494 0.11699999868869781494 0.11699999868869781494 0.11699999868869781494 0.11699999868869781494 0.11699999868869781494 0.11699999868869781494 0.11699999868869781494 0.11699999868869781494 0.11699999868869781494 0.11699999868869781494 0.1134374961256980896 1.6911412477493286133 0.72935301065444946289 1.0995819568634033203 2.5840284824371337891 2.8877520561218261719 2.7717387676239013672 3.6475057601928710938 5.615451812744140625 4.2764163017272949219 2.0546267032623291016 2.3953990936279296875 1.5520617961883544922 2.7718968391418457031 1.8742030858993530273 2.5755829811096191406 2.7973306179046630859 2.7752826213836669922 2.3075039386749267578 1.4542886018753051758 1.9572485685348510742 5.5729899406433105469 7.619731903076171875 7.6685748100280761719 5.9861044883728027344 10.289447784423828125 8.467258453369140625 2.8376879692077636719 3.4343268871307373047 4.7936353683471679688 8.8070430755615234375 8.454212188720703125 6.8870458602905273438 3.1288063526153564453 4.9303789138793945312 2.1331195831298828125 1.6133154630661010742 
0.11699999868869781494 0.11699999868869781494 0.11699999868869781494 0.11699999868869781494 0.11699999868869781494 0.11699999868869781494 0.11699999868869781494 0.11699999868869781494 0.11699999868869781494 0.11699999868869781494 0.11699999868869781494 0.11699999868869781494 0.11699999868869781494 0.11699999868869781494 0.11699999868869781494 0.11699999868869781494 0.11699999868869781494 0.11699999868869781494 0.11699999868869781494 0.11699999868869781494 0.11699999868869781494 0.11699999868869781494 0.11699999868869781494 0.11699999868869781494 0.11699999868869781494 0.11699999868869781494 0.55232781171798706055 0.88552320003509521484 0.22629205882549285889 1.1691914796829223633 2.1902201175689697266 1.1442219018936157227 1.1000131368637084961 1.2621178627014160156 0.93959879875183105469 0.1027499958872795105 0.11699999868869781494 0.11699999868869781494 0.11699999868869781494 0.11699999868869781494 0.11699999868869781494 0.11699999868869781494 0.11699999868869781494 0.11699999868869781494 0.11699999868869781494 0.11699999868869781494 0.11699999868869781494 0.11699999868869781494 0.11699999868869781494 0.38286200165748596191 1.8469501733779907227 1.2762597799301147461 2.1019012928009033203 3.3318994045257568359 3.3637797832489013672 2.7980082035064697266 2.7352166175842285156 2.6346828937530517578 6.4799685478210449219 7.2788596153259277344 2.0697090625762939453 2.5494122505187988281 1.9663028717041015625 2.9626147747039794922 2.8542380332946777344 1.8768304586410522461 2.7773656845092773438 3.6222212314605712891 2.3116881847381591797 1.0241397619247436523 4.7717089653015136719 7.6367778778076171875 6.2808046340942382812 5.6590852737426757812 2.5408999919891357422 5.8848452568054199219 9.4652156829833984375 2.7707850933074951172 3.4398102760314941406 8.5108356475830078125 8.8514242172241210938 7.0614266395568847656 6.0884313583374023438 6.836589813232421875 7.6681723594665527344 8.71169281005859375 5.5735001564025878906 
0.11699999868869781494 0.11699999868869781494 0.11699999868869781494 0.11699999868869781494 0.11699999868869781494 0.11699999868869781494 0.11699999868869781494 0.11699999868869781494 0.11699999868869781494 0.11699999868869781494 0.11699999868869781494 0.11699999868869781494 0.11699999868869781494 0.11699999868869781494 0.11699999868869781494 0.11699999868869781494 0.11699999868869781494 0.11699999868869781494 0.11699999868869781494 0.11699999868869781494 0.11699999868869781494 0.11699999868869781494 0.11699999868869781494 0.1027499958872795105 1.5211225748062133789 2.0054378509521484375 2.8515579700469970703 1.6118160486221313477 0.053124997764825820923 4.6397466659545898438 0.50695562362670898438 1.0476955175399780273 1.2456724643707275391 0.94088530540466308594 0.43404161930084228516 0.11699999868869781494 0.11699999868869781494 0.11699999868869781494 0.11699999868869781494 0.11699999868869781494 0.11699999868869781494 0.11699999868869781494 0.11699999868869781494 0.11699999868869781494 0.11699999868869781494 0.11699999868869781494 0.11699999868869781494 0.1134374961256980896 0.8304011225700378418 1.0987631082534790039 0.43461200594902038574 2.3704118728637695312 1.9210979938507080078 1.6276220083236694336 1.5117139816284179688 2.1003384590148925781 2.7553057670593261719 2.6099245548248291016 4.0316143035888671875 7.5449309349060058594 2.438846588134765625 2.5881333351135253906 5.9669747352600097656 3.3510472774505615234 1.7481458187103271484 1.579417109489440918 2.7968358993530273438 4.4964094161987304688 4.0970129966735839844 3.4044897556304931641 6.1735491752624511719 4.7477107048034667969 6.1216130256652832031 4.6496634483337402344 2.6989967823028564453 3.750202178955078125 9.0649557113647460938 2.6386868953704833984 2.6664915084838867188 2.6571557521820068359 4.8386831283569335938 5.3755774497985839844 6.1475687026977539062 4.6417474746704101562 1.8967099189758300781 1.8796215057373046875 3.0149123668670654297 
0.11699999868869781494 0.11699999868869781494 0.11699999868869781494 0.11699999868869781494 0.11699999868869781494 0.11699999868869781494 0.11699999868869781494 0.11699999868869781494 0.11699999868869781494 0.11699999868869781494 0.11699999868869781494 0.11699999868869781494 0.11699999868869781494 0.11699999868869781494 0.11699999868869781494 0.11699999868869781494 0.11699999868869781494 0.11699999868869781494 0.11699999868869781494 0.11699999868869781494 0.11699999868869781494 0.10987500101327896118 1.4631730318069458008 2.47043609619140625 3.4415600299835205078 1.1181271076202392578 2.2776448726654052734 2.0932769775390625 1.8520791530609130859 0.56632709503173828125 0.23230306804180145264 2.1599118709564208984 0.84497851133346557617 0.40810412168502807617 0.1134374961256980896 0.11699999868869781494 0.11699999868869781494 0.11699999868869781494 0.11699999868869781494 0.11699999868869781494 0.11699999868869781494 0.11699999868869781494 0.11699999868869781494 0.11699999868869781494 0.11699999868869781494 0.11699999868869781494 0.10631249845027923584 1.2805509567260742188 2.1167981624603271484 2.2651119232177734375 3.1549305915832519531 3.3521971702575683594 2.8076243400573730469 3.2395932674407958984 3.0488386154174804688 2.7495470046997070312 2.6936330795288085938 2.899349212646484375 4.2935094833374023438 5.83914947509765625 2.3026773929595947266 2.5211093425750732422 3.0084602832794189453 5.8236565589904785156 4.97980499267578125 1.6560169458389282227 2.8112211227416992188 4.5477404594421386719 2.9261674880981445312 2.5565500259399414062 2.6370356082916259766 7.4156022071838378906 7.0167403221130371094 3.4178099632263183594 1.8494050502777099609 7.5262722969055175781 5.7692685127258300781 1.6335823535919189453 2.3799197673797607422 1.8298984766006469727 2.9709355831146240234 2.7047710418701171875 5.2186570167541503906 6.312076568603515625 0.34219801425933837891 1.7661702632904052734 11.463999748229980469 
0.11699999868869781494 0.11699999868869781494 0.11699999868869781494 0.11699999868869781494 0.11699999868869781494 0.11699999868869781494 0.11699999868869781494 0.11699999868869781494 0.11699999868869781494 0.11699999868869781494 0.11699999868869781494 0.11699999868869781494 0.11699999868869781494 0.11699999868869781494 0.11699999868869781494 0.11699999868869781494 0.11699999868869781494 0.11699999868869781494 0.11699999868869781494 0.10987500101327896118 0.65834903717041015625 2.0249116420745849609 2.7008078098297119141 2.5931959152221679688 1.6123434305191040039 2.4554619789123535156 2.7956259250640869141 1.9158060550689697266 2.0181481838226318359 1.220789790153503418 0.63862097263336181641 2.2856302261352539062 0.41334411501884460449 0.092687502503395080566 0.11699999868869781494 0.11699999868869781494 0.11699999868869781494 0.11699999868869781494 0.11699999868869781494 0.11699999868869781494 0.11699999868869781494 0.11699999868869781494 0.11699999868869781494 0.11699999868869781494 0.11699999868869781494 0.10987500101327896118 0.93302357196807861328 1.1593137979507446289 2.0219683647155761719 5.6621961593627929688 3.2631838321685791016 2.9867177009582519531 2.8841118812561035156 5.6792964935302734375 3.8988721370697021484 2.6914751529693603516 2.7520275115966796875 3.7900042533874511719 3.5553319454193115234 4.9165592193603515625 2.5654647350311279297 0.94790625572204589844 5.8528776168823242188 5.2535881996154785156 5.9754109382629394531 2.2394814491271972656 2.7116770744323730469 3.4995524883270263672 3.7516562938690185547 5.1202602386474609375 3.6848189830780029297 6.8439350128173828125 8.3946542739868164062 4.3028230667114257812 3.3796315193176269531 2.5323972702026367188 2.3405103683471679688 1.1087042093276977539 5.0093488693237304688 4.1993441581726074219 5.204349517822265625 4.4427013397216796875 1.7775272130966186523 3.1898889541625976562 0.54225218296051025391 1.4089361429214477539 4.9361324310302734375 
0.11699999868869781494 0.11699999868869781494 0.11699999868869781494 0.11699999868869781494 0.11699999868869781494 0.11699999868869781494 0.11699999868869781494 0.11699999868869781494 0.11699999868869781494 0.11699999868869781494 0.11699999868869781494 0.11699999868869781494 0.11699999868869781494 0.11699999868869781494 0.11699999868869781494 0.11699999868869781494 0.11699999868869781494 0.11699999868869781494 0.11699999868869781494 0.077812500298023223877 2.0235691070556640625 2.1197102069854736328 2.2927408218383789062 1.9491260051727294922 1.6092984676361083984 2.7857594490051269531 2.766284942626953125 2.7944574356079101562 1.8143430948257446289 0.99237960577011108398 2.2596700191497802734 0.57941639423370361328 0.23961456120014190674 0.1134374961256980896 0.11699999868869781494 0.11699999868869781494 0.11699999868869781494 0.11699999868869781494 0.11699999868869781494 0.11699999868869781494 0.11699999868869781494 0.11699999868869781494 0.11699999868869781494 0.11699999868869781494 0.098124995827674865723 0.065875001251697540283 1.3625797033309936523 1.7668417692184448242 2.7558171749114990234 3.2526414394378662109 2.9829492568969726562 5.7100787162780761719 3.9309861660003662109 2.9129381179809570312 3.8862612247467041016 2.762088775634765625 3.0749151706695556641 2.7136411666870117188 4.8981370925903320312 4.99224853515625 2.1730720996856689453 0.07500000298023223877 5.5780091285705566406 3.0043683052062988281 3.7372975349426269531 1.9364821910858154297 3.6541597843170166016 2.7887806892395019531 3.9897434711456298828 6.3927316665649414062 1.7594231367111206055 3.1100995540618896484 5.3956785202026367188 4.9349536895751953125 2.7694432735443115234 1.8016145229339599609 0.94527006149291992188 1.848419189453125 1.9014139175415039062 7.751461029052734375 4.3259806632995605469 3.6141972541809082031 1.7934229373931884766 1.8087831735610961914 0.83342736959457397461 0.9472401738166809082 3.6916821002960205078 
0.11699999868869781494 0.11699999868869781494 0.11699999868869781494 0.11699999868869781494 0.11699999868869781494 0.11699999868869781494 0.11699999868869781494 0.11699999868869781494 0.11699999868869781494 0.11699999868869781494 0.11699999868869781494 0.11699999868869781494 0.11699999868869781494 0.11699999868869781494 0.11699999868869781494 0.11699999868869781494 0.11699999868869781494 0.11699999868869781494 0.10987500101327896118 0.37237438559532165527 1.4260675907135009766 0.9394461512565612793 1.9567067623138427734 1.941533207893371582 1.4177784919738769531 2.7673885822296142578 2.72127532958984375 2.7740435600280761719 0.83558511734008789062 1.0692105293273925781 1.202809453010559082 0.76061987876892089844 0.26661455631256103516 0.11699999868869781494 0.11699999868869781494 0.11699999868869781494 0.11699999868869781494 0.11699999868869781494 0.11699999868869781494 0.11699999868869781494 0.11699999868869781494 0.11699999868869781494 0.11699999868869781494 0.090187497437000274658 0.92339855432510375977 1.5449118614196777344 2.85213470458984375 2.7802088260650634766 2.8515255451202392578 7.7243590354919433594 5.8847789764404296875 9.6476831436157226562 3.1718497276306152344 3.1822414398193359375 5.3079686164855957031 3.0145990848541259766 3.7155711650848388672 2.8497798442840576172 3.8479907512664794922 4.4482607841491699219 1.6628129482269287109 0.064999997615814208984 2.4734556674957275391 3.0401120185852050781 2.2555384635925292969 2.5921092033386230469 5.1682987213134765625 5.3836450576782226562 4.7158017158508300781 2.5900075435638427734 2.2798941135406494141 2.0791203975677490234 1.4125926494598388672 2.1215538978576660156 3.8586025238037109375 2.5052657127380371094 2.1243283748626708984 5.8101291656494140625 2.2707014083862304688 4.6213502883911132812 2.8487257957458496094 2.7264556884765625 2.8986959457397460938 3.2436339855194091797 2.6601366996765136719 2.6357147693634033203 1.5150825977325439453 
0.11699999868869781494 0.11699999868869781494 0.11699999868869781494 0.11699999868869781494 0.11699999868869781494 0.11699999868869781494 0.11699999868869781494 0.11699999868869781494 0.11699999868869781494 0.11699999868869781494 0.11699999868869781494 0.11699999868869781494 0.11699999868869781494 0.11699999868869781494 0.11699999868869781494 0.11699999868869781494 0.11699999868869781494 0.11699999868869781494 0.3746744990348815918 2.7046558856964111328 2.6183199882507324219 1.785343170166015625 2.7616248130798339844 2.4177808761596679688 2.0638520717620849609 2.5713713169097900391 2.7741866111755371094 2.2755157947540283203 1.8400962352752685547 2.1096196174621582031 1.7649227380752563477 1.5242443084716796875 0.20606249570846557617 0.11699999868869781494 0.11699999868869781494 0.11699999868869781494 0.11699999868869781494 0.11699999868869781494 0.11699999868869781494 0.11699999868869781494 0.11699999868869781494 0.11699999868869781494 0.65834903717041015625 0.69537496566772460938 1.7883598804473876953 2.7880465984344482422 2.7877411842346191406 2.7645409107208251953 6.0154781341552734375 6.5360889434814453125 5.2108926773071289062 8.2025518417358398438 5.94759368896484375 2.9996623992919921875 3.2020969390869140625 3.3297145366668701172 5.0249075889587402344 4.3118357658386230469 3.5075521469116210938 3.8030552864074707031 1.5594156980514526367 0.66447401046752929688 3.3710184097290039062 2.9623839855194091797 4.890201568603515625 4.082714080810546875 2.9396715164184570312 3.238025665283203125 2.9268865585327148438 1.9012634754180908203 2.67786407470703125 3.1085910797119140625 4.1625680923461914062 5.9976205825805664062 5.1886315345764160156 5.8328914642333984375 3.9916355609893798828 2.7013611793518066406 2.2470347881317138672 7.4377255439758300781 4.8975729942321777344 2.8050897121429443359 3.689823150634765625 3.0156314373016357422 2.1393685340881347656 2.1975309848785400391 2.8363249301910400391 
0.11699999868869781494 0.11699999868869781494 0.11699999868869781494 0.11699999868869781494 0.11699999868869781494 0.11699999868869781494 0.11699999868869781494 0.11699999868869781494 0.11699999868869781494 0.11699999868869781494 0.11699999868869781494 0.11699999868869781494 0.11699999868869781494 0.11699999868869781494 0.11699999868869781494 0.11699999868869781494 0.11699999868869781494 0.11699999868869781494 1.6137475967407226562 2.8948085308074951172 2.7844049930572509766 1.7964763641357421875 2.8001551628112792969 2.5948092937469482422 1.9263149499893188477 2.644367218017578125 2.4458973407745361328 1.4207488298416137695 4.2754907608032226562 1.9941976070404052734 1.6031587123870849609 1.1540077924728393555 0.11699999868869781494 0.11699999868869781494 0.11699999868869781494 0.11699999868869781494 0.11699999868869781494 0.11699999868869781494 0.11699999868869781494 0.11699999868869781494 0.1134374961256980896 0.15642799437046051025 3.9560358524322509766 3.0423877239227294922 3.7822165489196777344 2.7800486087799072266 2.7743816375732421875 3.3048372268676757812 3.7015290260314941406 3.5572686195373535156 7.4790120124816894531 5.2214789390563964844 2.9794230461120605469 2.8929419517517089844 2.9277131557464599609 2.8022513389587402344 5.0784349441528320312 4.4818134307861328125 6.5355072021484375 3.7840702533721923828 1.1234909296035766602 1.2389481067657470703 1.5050635337829589844 7.5914959907531738281 6.3452677726745605469 2.7921166419982910156 2.77730560302734375 3.5486860275268554688 2.6220698356628417969 1.7594060897827148438 2.696193695068359375 3.1501035690307617188 4.3929696083068847656 9.2502231597900390625 11.915348052978515625 6.8061838150024414062 2.0381894111633300781 1.9123914241790771484 2.5820009708404541016 5.7955417633056640625 3.1122829914093017578 2.8554718494415283203 2.6403861045837402344 2.9441077709197998047 2.1508088111877441406 2.8139047622680664062 7.6171698570251464844 
0.11699999868869781494 0.11699999868869781494 0.11699999868869781494 0.11699999868869781494 0.11699999868869781494 0.11699999868869781494 0.11699999868869781494 0.11699999868869781494 0.11699999868869781494 0.11699999868869781494 0.11699999868869781494 0.11699999868869781494 0.11699999868869781494 0.11699999868869781494 0.11699999868869781494 0.11699999868869781494 0.11699999868869781494 0.11699999868869781494 1.92928314208984375 2.7904560565948486328 2.7932476997375488281 2.3031828403472900391 2.7029654979705810547 1.9967098236083984375 2.2854790687561035156 1.680024266242980957 2.1649901866912841797 2.111003875732421875 4.7534303665161132812 2.6213214397430419922 1.3270733356475830078 0.14537499845027923584 0.11699999868869781494 0.11699999868869781494 0.11699999868869781494 0.11699999868869781494 0.11699999868869781494 0.11699999868869781494 0.10612499713897705078 0.0703125 0.80027610063552856445 1.823691248893737793 4.53343963623046875 4.0723786354064941406 2.4485361576080322266 2.784488677978515625 4.303714752197265625 9.1467189788818359375 5.2999515533447265625 4.3467822074890136719 2.6668500900268554688 0.80657339096069335938 0.8025849461555480957 0.49615600705146789551 1.7435721158981323242 4.4851765632629394531 3.7079877853393554688 6.9112954139709472656 2.9401621818542480469 1.2595621347427368164 1.7219233512878417969 2.0091063976287841797 5.8117585182189941406 4.5731029510498046875 7.6935400962829589844 3.0166807174682617188 2.8002538681030273438 5.5080013275146484375 1.7843935489654541016 2.1924505233764648438 2.8073647022247314453 0.98328220844268798828 1.2268323898315429688 5.0832529067993164062 7.2391009330749511719 3.2414777278900146484 6.120510101318359375 2.7659175395965576172 2.0622913837432861328 5.9494204521179199219 2.7647328376770019531 2.1986315250396728516 1.7663444280624389648 2.2115805149078369141 2.2698042392730712891 3.5196135044097900391 6.64226531982421875 
0.11699999868869781494 0.11699999868869781494 0.11699999868869781494 0.11699999868869781494 0.11699999868869781494 0.11699999868869781494 0.11699999868869781494 0.11699999868869781494 0.11699999868869781494 0.11699999868869781494 0.11699999868869781494 0.11699999868869781494 0.11699999868869781494 0.11699999868869781494 0.11699999868869781494 0.11699999868869781494 0.11699999868869781494 0.1027499958872795105 2.0761966705322265625 1.6223038434982299805 1.7733269929885864258 2.8533344268798828125 3.0574131011962890625 2.3065965175628662109 1.7595616579055786133 0.26196581125259399414 0.8069655299186706543 1.6710699796676635742 2.2034661769866943359 1.2031114101409912109 0.47430208325386047363 0.11699999868869781494 0.11699999868869781494 0.11699999868869781494 0.11699999868869781494 0.10631249845027923584 0.38079950213432312012 0.24182043969631195068 0.74731838703155517578 1.42718505859375 1.4686492681503295898 1.5087668895721435547 2.5770385265350341797 0.69390720129013061523 1.7047964334487915039 2.5078868865966796875 1.7934004068374633789 4.6453661918640136719 8.6780719757080078125 3.6291227340698242188 2.8172476291656494141 0.49695345759391784668 0.34219801425933837891 0.34219801425933837891 1.0377789735794067383 2.1642065048217773438 5.6736655235290527344 7.6469445228576660156 3.8510100841522216797 2.4534621238708496094 6.1059384346008300781 1.5343109369277954102 5.6956338882446289062 4.8370685577392578125 7.2084255218505859375 2.9296076297760009766 4.0889611244201660156 4.249713897705078125 1.9972807168960571289 2.7947206497192382812 2.5384078025817871094 1.5092133283615112305 2.0188312530517578125 7.3630313873291015625 8.2952718734741210938 3.6096343994140625 3.0545182228088378906 1.9590058326721191406 5.9457988739013671875 5.4009609222412109375 2.8152103424072265625 1.2318838834762573242 0.56965488195419311523 0.62581104040145874023 2.0238432884216308594 5.6692166328430175781 3.4100637435913085938 
0.11699999868869781494 0.11699999868869781494 0.11699999868869781494 0.11699999868869781494 0.11699999868869781494 0.11699999868869781494 0.11699999868869781494 0.11699999868869781494 0.11699999868869781494 0.11699999868869781494 0.11699999868869781494 0.11699999868869781494 0.11699999868869781494 0.11699999868869781494 0.11699999868869781494 0.11699999868869781494 0.11699999868869781494 0.83540111780166625977 2.82776641845703125 2.1074979305267333984 2.7938735485076904297 3.4807264804840087891 3.1356379985809326172 2.689899444580078125 1.570341944694519043 1.0578466653823852539 0.63067805767059326172 3.4622619152069091797 1.3161687850952148438 1.0351352691650390625 0.55825001001358032227 0.11699999868869781494 0.11699999868869781494 0.11699999868869781494 0.11699999868869781494 0.34336200356483459473 2.6449456214904785156 3.7595012187957763672 3.5448958873748779297 3.68218994140625 1.8468316793441772461 0.2185990065336227417 1.3347127437591552734 1.0891785621643066406 4.9081397056579589844 0.34219801425933837891 0.34219801425933837891 1.5317293405532836914 3.4442751407623291016 1.97542572021484375 2.7560973167419433594 0.34219801425933837891 0.34219801425933837891 0.34219801425933837891 1.423701167106628418 3.6966199874877929688 6.9680533409118652344 4.2037506103515625 4.7226109504699707031 3.7178075313568115234 3.47800445556640625 3.15471649169921875 8.8079881668090820312 6.9895753860473632812 8.91753387451171875 4.7615036964416503906 2.8525817394256591797 2.8439252376556396484 3.2413096427917480469 2.1025743484497070312 1.9505527019500732422 1.9385885000228881836 2.2890076637268066406 3.2742204666137695312 2.8118243217468261719 2.2909235954284667969 1.77539825439453125 3.9014787673950195312 6.2938523292541503906 4.2012429237365722656 2.8220238685607910156 2.1904652118682861328 1.0629590749740600586 1.2302889823913574219 3.4570779800415039062 3.5036437511444091797 3.9028918743133544922 
0.11699999868869781494 0.11699999868869781494 0.11699999868869781494 0.11699999868869781494 0.11699999868869781494 0.11699999868869781494 0.11699999868869781494 0.11699999868869781494 0.11699999868869781494 0.11699999868869781494 0.11699999868869781494 0.11699999868869781494 0.11699999868869781494 0.11699999868869781494 0.11699999868869781494 0.11699999868869781494 0.40067452192306518555 2.0514097213745117188 2.6290175914764404297 2.6058602333068847656 2.7871239185333251953 3.1477615833282470703 3.0954306125640869141 1.5602153539657592773 1.6195393800735473633 1.453635096549987793 2.7796533107757568359 3.3239541053771972656 3.6801650524139404297 3.3111629486083984375 0.47681248188018798828 0.1134374961256980896 0.1134374961256980896 0.11699999868869781494 0.062374997884035110474 0.77678650617599487305 2.2933430671691894531 2.5131602287292480469 2.4709446430206298828 1.914647221565246582 4.4249200820922851562 0.42046913504600524902 0.64067339897155761719 1.2574399709701538086 3.8498530387878417969 0.34219801425933837891 0.34219801425933837891 0.30504825711250305176 1.3188710212707519531 1.6233284473419189453 1.2782281637191772461 1.3423798084259033203 0.85149431228637695312 0.62267392873764038086 1.0962076187133789062 2.9119017124176025391 5.5780425071716308594 2.1811151504516601562 1.3940021991729736328 2.6492941379547119141 6.1130299568176269531 5.9554414749145507812 7.2646918296813964844 3.8217296600341796875 4.0527815818786621094 2.8519678115844726562 5.8074450492858886719 2.9445145130157470703 2.5215306282043457031 0.7479756474494934082 0.07199999690055847168 0.67355340719223022461 2.2694487571716308594 1.6228499412536621094 2.4020712375640869141 2.2502934932708740234 2.52133941650390625 4.2216649055480957031 7.3017377853393554688 2.6464755535125732422 2.1008775234222412109 1.5183928012847900391 1.3052729368209838867 3.1703701019287109375 6.1705012321472167969 2.6137413978576660156 1.3849999904632568359 
0.11699999868869781494 0.11699999868869781494 0.11699999868869781494 0.11699999868869781494 0.11699999868869781494 0.11699999868869781494 0.11699999868869781494 0.11699999868869781494 0.11699999868869781494 0.11699999868869781494 0.11699999868869781494 0.11699999868869781494 0.11699999868869781494 0.11699999868869781494 0.11699999868869781494 0.11699999868869781494 1.2516980171203613281 2.9099440574645996094 2.2621197700500488281 2.2829394340515136719 2.2661545276641845703 1.4101263284683227539 1.9303833246231079102 1.2774937152862548828 0.86044615507125854492 1.7873206138610839844 1.8130644559860229492 1.4583046436309814453 6.1814088821411132812 3.4171190261840820312 0.73687499761581420898 0.17043749988079071045 0.081374995410442352295 0.074874997138977050781 0.98364806175231933594 2.6400620937347412109 2.9065639972686767578 2.7779507637023925781 2.3196187019348144531 0.96638607978820800781 2.0635671615600585938 0.23623637855052947998 0.32706063985824584961 0.94641244411468505859 0.95101034641265869141 0.37074813246726989746 1.274871826171875 0.27414852380752563477 2.9418768882751464844 2.7526364326477050781 2.7060568332672119141 1.5244960784912109375 1.7023216485977172852 2.2875812053680419922 1.1559696197509765625 2.9812662601470947266 4.0265679359436035156 3.4553067684173583984 2.8286082744598388672 2.9733946323394775391 4.3685708045959472656 3.0775485038757324219 3.2761232852935791016 2.7818186283111572266 2.7752549648284912109 2.7885286808013916016 7.6020102500915527344 7.0067567825317382812 6.9172768592834472656 4.5304532051086425781 2.0845086574554443359 0.53059560060501098633 1.0392763614654541016 1.5497771501541137695 1.9663224220275878906 1.7916387319564819336 1.5414712429046630859 5.2576556205749511719 10.470808029174804688 4.77880096435546875 0.94696247577667236328 0.94713866710662841797 0.87002921104431152344 2.3659269809722900391 2.1748859882354736328 1.4893555641174316406 2.9956717491149902344 
0.11699999868869781494 0.11699999868869781494 0.11699999868869781494 0.11699999868869781494 0.11699999868869781494 0.11699999868869781494 0.11699999868869781494 0.11699999868869781494 0.11699999868869781494 0.11699999868869781494 0.11699999868869781494 0.11699999868869781494 0.11699999868869781494 0.11699999868869781494 0.11699999868869781494 0.11699999868869781494 1.8565005064010620117 2.7033567428588867188 2.4420905113220214844 2.4414880275726318359 1.9444115161895751953 2.3134071826934814453 2.617214202880859375 1.4193793535232543945 1.0662537813186645508 3.1089394092559814453 5.1124324798583984375 2.6452126502990722656 4.2451176643371582031 2.4870097637176513672 1.5989999771118164062 1.5989999771118164062 0.64568752050399780273 0.67217946052551269531 3.0051183700561523438 2.7832200527191162109 3.024616241455078125 2.7897815704345703125 2.7858436107635498047 0.98029637336730957031 2.0759713649749755859 0.26401114463806152344 0.34219801425933837891 0.27477350831031799316 0.26651114225387573242 0.25713613629341125488 0.39182800054550170898 0.55775201320648193359 2.8512957096099853516 2.7639536857604980469 2.1308734416961669922 3.2543177604675292969 2.2833538055419921875 1.6365828514099121094 1.1859257221221923828 1.1741479635238647461 2.5961024761199951172 2.0111744403839111328 4.530620574951171875 5.9664831161499023438 2.5160212516784667969 2.7637343406677246094 2.791011810302734375 2.7879431247711181641 3.2896983623504638672 7.2569837570190429688 10.449659347534179688 11.902255058288574219 3.2250106334686279297 2.5420811176300048828 2.0509512424468994141 1.7633491754531860352 2.0961568355560302734 1.4027923345565795898 1.2259191274642944336 2.0689747333526611328 2.2951817512512207031 4.3550200462341308594 5.3255109786987304688 3.1806776523590087891 1.1920998096466064453 1.2064265012741088867 1.5755596160888671875 2.7262420654296875 2.7627460956573486328 2.0204081535339355469 2.5542614459991455078 
0.11699999868869781494 0.11699999868869781494 0.11699999868869781494 0.11699999868869781494 0.11699999868869781494 0.11699999868869781494 0.11699999868869781494 0.11699999868869781494 0.11699999868869781494 0.11699999868869781494 0.11699999868869781494 0.11699999868869781494 0.11699999868869781494 0.11699999868869781494 0.1134374961256980896 2.4312527179718017578 3.0179462432861328125 2.7956163883209228516 2.7861793041229248047 2.7836771011352539062 2.7642447948455810547 2.7225205898284912109 1.9297997951507568359 2.1870143413543701172 2.3522918224334716797 2.8904821872711181641 1.2366460561752319336 5.6681408882141113281 1.38333892822265625 1.1492698192596435547 1.4116250276565551758 2.2412266731262207031 0.44949048757553100586 0.040624998509883880615 2.1035811901092529297 2.7846498489379882812 3.1494162082672119141 2.7709844112396240234 3.5401608943939208984 2.3198056221008300781 2.3449609279632568359 0.25137376785278320312 0.32706063985824584961 0.63875997066497802734 0.34219801425933837891 0.39929825067520141602 0.58892238140106201172 1.4195722341537475586 2.8391232490539550781 2.1420092582702636719 1.4368636608123779297 2.6224069595336914062 5.3090968132019042969 1.9561785459518432617 1.490246891975402832 2.9840610027313232422 3.46889495849609375 4.9852271080017089844 3.7128424644470214844 5.8147969245910644531 3.8659694194793701172 2.7748227119445800781 2.6103866100311279297 2.8140263557434082031 4.5262594223022460938 2.9718537330627441406 5.2572579383850097656 3.6645219326019287109 4.6515321731567382812 2.9183325767517089844 2.9014313220977783203 2.4673635959625244141 1.1211909055709838867 2.0646696090698242188 1.4371560811996459961 2.4541900157928466797 2.1490468978881835938 2.1650049686431884766 2.7111873626708984375 1.0939944982528686523 0.79990208148956298828 0.074949875473976135254 1.2394298315048217773 2.3183732032775878906 1.4117292165756225586 1.8949375152587890625 2.0106325149536132812 
0.11699999868869781494 0.11699999868869781494 0.11699999868869781494 0.11699999868869781494 0.11699999868869781494 0.11699999868869781494 0.11699999868869781494 0.11699999868869781494 0.11699999868869781494 0.11699999868869781494 0.11699999868869781494 0.11699999868869781494 0.11699999868869781494 0.29156249761581420898 0.84822404384613037109 1.7918621301651000977 2.7471880912780761719 2.7818470001220703125 2.7972815036773681641 2.7798063755035400391 2.7221202850341796875 2.7539820671081542969 1.7686792612075805664 2.688877105712890625 3.4361431598663330078 1.1934319734573364258 1.0116516351699829102 2.5135653018951416016 3.3644254207611083984 4.8987407684326171875 0.16987499594688415527 2.3305187225341796875 1.8568003177642822266 1.7753884792327880859 2.9106903076171875 2.7923126220703125 2.3154270648956298828 2.2886440753936767578 4.5521402359008789062 2.8191902637481689453 2.8842492103576660156 4.0837407112121582031 6.2085614204406738281 3.0209369659423828125 2.7655642032623291016 2.6168367862701416016 2.2191627025604248047 2.9326834678649902344 3.5981059074401855469 2.6837573051452636719 3.1422455310821533203 2.5136911869049072266 1.7962839603424072266 1.390549778938293457 1.2036253213882446289 2.6457450389862060547 2.2580657005310058594 2.8464291095733642578 2.7960598468780517578 5.4503235816955566406 4.0596776008605957031 3.4354796409606933594 1.7558588981628417969 2.3259551525115966797 10.087613105773925781 4.8746972084045410156 2.6000194549560546875 2.5939967632293701172 2.4907126426696777344 2.4891135692596435547 2.4526522159576416016 0.066249996423721313477 0.04999999701976776123 2.12679290771484375 3.0620889663696289062 3.5090508460998535156 4.1662693023681640625 5.5224432945251464844 2.8893868923187255859 2.4496796131134033203 2.7350034713745117188 2.3305828571319580078 2.3995907306671142578 2.6081795692443847656 1.7057108879089355469 2.5924184322357177734 0.070000000298023223877 
0.11699999868869781494 0.11699999868869781494 0.11699999868869781494 0.11699999868869781494 0.11699999868869781494 0.11699999868869781494 0.11699999868869781494 0.11699999868869781494 0.11699999868869781494 0.11699999868869781494 0.11699999868869781494 0.11699999868869781494 0.3877499997615814209 1.1568206548690795898 3.1439917087554931641 1.5581690073013305664 2.1247735023498535156 2.7934203147888183594 2.7912499904632568359 2.7918741703033447266 2.7741560935974121094 2.4373621940612792969 2.2539165019989013672 1.6079678535461425781 4.4503564834594726562 1.4608641862869262695 0.66298967599868774414 3.9081010818481445312 2.8060634136199951172 4.3370580673217773438 1.8202484846115112305 4.5716290473937988281 1.4360826015472412109 1.9642965793609619141 1.5258485078811645508 1.655460357666015625 5.87172698974609375 2.1652472019195556641 1.1532874107360839844 1.4231708049774169922 2.1330943107604980469 3.8826611042022705078 3.9183659553527832031 2.9428591728210449219 2.7611374855041503906 2.3579032421112060547 1.1159781217575073242 1.4516935348510742188 3.0025830268859863281 2.6923253536224365234 2.5714478492736816406 2.4742882251739501953 2.9408841133117675781 1.9317404031753540039 2.6011638641357421875 2.7680790424346923828 2.7266664505004882812 2.8283607959747314453 4.5851526260375976562 4.9015278816223144531 6.4312572479248046875 2.8970813751220703125 5.4662418365478515625 1.5416860580444335938 2.7961342334747314453 6.50678253173828125 2.8032505512237548828 2.549869537353515625 1.6745562553405761719 2.4687008857727050781 2.5500066280364990234 2.2305428981781005859 1.918494105339050293 2.0544118881225585938 3.3984549045562744141 3.8594543933868408203 4.7394847869873046875 3.0484402179718017578 2.7936193943023681641 2.8278203010559082031 2.7857549190521240234 2.6235268115997314453 1.5907452106475830078 2.8107750415802001953 1.9114415645599365234 1.4484866857528686523 0.10000000149011611938 
0.11699999868869781494 0.11699999868869781494 0.11699999868869781494 0.11699999868869781494 0.11699999868869781494 0.82954293489456176758 1.2771551609039306641 2.1055233478546142578 1.2273312807083129883 0.1134374961256980896 0.11699999868869781494 0.10987500101327896118 1.4124244451522827148 3.0232846736907958984 2.7948422431945800781 2.7463161945343017578 2.75234222412109375 2.7802586555480957031 2.7983946800231933594 2.7865204811096191406 2.7802557945251464844 1.5972359180450439453 1.9401367902755737305 3.0772807598114013672 2.9141685962677001953 0.8718020319938659668 3.5193996429443359375 2.4529888629913330078 4.5834450721740722656 6.3531293869018554688 3.557819366455078125 5.1670675277709960938 5.7663292884826660156 4.3977813720703125 7.2350740432739257812 6.3657140731811523438 5.4910411834716796875 4.4780297279357910156 2.8254196643829345703 2.9930522441864013672 4.7677211761474609375 3.8146791458129882812 3.3406858444213867188 3.1068506240844726562 2.4310109615325927734 1.4879629611968994141 0.92981308698654174805 1.8835034370422363281 2.6695318222045898438 2.6801297664642333984 2.7222466468811035156 3.9952590465545654297 7.0018506050109863281 1.4489864110946655273 2.7979848384857177734 2.8339140415191650391 2.8659710884094238281 2.7971692085266113281 5.8089771270751953125 6.2243127822875976562 5.3820133209228515625 2.0521147251129150391 1.8842256069183349609 2.4152441024780273438 2.4666104316711425781 1.7357362508773803711 0.91522741317749023438 1.4234840869903564453 0.67512762546539306641 1.5815733671188354492 1.1147243976593017578 1.4268006086349487305 1.2183665037155151367 1.7845748662948608398 2.8417806625366210938 3.6826581954956054688 3.1162817478179931641 2.5659420490264892578 2.8001544475555419922 2.8273162841796875 2.7441740036010742188 1.8620200157165527344 1.5964583158493041992 2.7266728878021240234 2.7346551418304443359 2.5457847118377685547 0.10000000149011611938 
0.11699999868869781494 0.11699999868869781494 0.11699999868869781494 0.39711201190948486328 2.2059123516082763672 2.7073667049407958984 2.2284917831420898438 5.9006123542785644531 4.0875992774963378906 0.68205791711807250977 0.10631249845027923584 0.46968749165534973145 3.1260707378387451172 3.0315637588500976562 2.7947490215301513672 2.7748632431030273438 2.7895610332489013672 2.7869889736175537109 2.4420363903045654297 2.4528653621673583984 1.3580816984176635742 2.3010542392730712891 1.3790707588195800781 3.2129426002502441406 2.0633304119110107422 1.0871108770370483398 4.4161272048950195312 3.7785131931304931641 7.1832928657531738281 7.0943956375122070312 7.1777439117431640625 3.3831052780151367188 2.2590820789337158203 2.2401914596557617188 1.9743986129760742188 2.8453574180603027344 4.8448243141174316406 3.8367264270782470703 3.3657348155975341797 3.9605100154876708984 2.271484375 3.2720150947570800781 2.7204942703247070312 3.0696616172790527344 2.209278106689453125 0.66022932529449462891 1.427731633186340332 2.7177779674530029297 2.6960406303405761719 2.6852600574493408203 2.7316124439239501953 4.9955725669860839844 4.2251591682434082031 2.6412217617034912109 2.7621891498565673828 3.169010162353515625 9.227397918701171875 6.0967254638671875 8.6243152618408203125 5.0568637847900390625 4.1533966064453125 2.40415191650390625 2.8036415576934814453 0.87614107131958007812 3.7086603641510009766 2.8127512931823730469 2.3728165626525878906 2.9654054641723632812 2.5372641086578369141 2.6312208175659179688 2.5120384693145751953 2.2530837059020996094 2.9957232475280761719 2.7700214385986328125 1.7413731813430786133 3.4357807636260986328 1.9810990095138549805 2.8910033702850341797 2.7926154136657714844 2.8315153121948242188 2.7627458572387695312 1.8570349216461181641 2.9198148250579833984 2.7827324867248535156 2.5819973945617675781 2.5922293663024902344 0.10000000149011611938 
0.10987500101327896118 0.83860915899276733398 1.6935570240020751953 2.4122769832611083984 2.4787888526916503906 1.2525229454040527344 2.3442971706390380859 3.2848837375640869141 1.6318678855895996094 2.8843276500701904297 1.2187240123748779297 0.92568749189376831055 3.7940812110900878906 2.7349743843078613281 2.7633678913116455078 2.7703859806060791016 2.7797305583953857422 1.9955626726150512695 1.5480819940567016602 1.5695117712020874023 0.93723011016845703125 2.3428707122802734375 1.1993312835693359375 0.84785544872283935547 1.0266675949096679688 0.75982522964477539062 3.7570729255676269531 6.816890716552734375 5.5553212165832519531 7.34110260009765625 5.6937050819396972656 3.4182462692260742188 1.3499101400375366211 2.1366980075836181641 2.3048331737518310547 2.8626265525817871094 0.86251240968704223633 4.5085873603820800781 0.86481475830078125 1.3054944276809692383 0.42179039120674133301 3.6081085205078125 3.0983531475067138672 3.0961029529571533203 2.8198096752166748047 0.65283638238906860352 1.57726287841796875 2.9618217945098876953 2.7239851951599121094 2.7142946720123291016 2.7780969142913818359 2.7997469902038574219 2.8154332637786865234 2.8005428314208984375 2.8123369216918945312 2.7394735813140869141 3.3434255123138427734 3.1475434303283691406 5.9738397598266601562 5.2527194023132324219 2.7831966876983642578 2.7727403640747070312 2.6066286563873291016 0.83531665802001953125 0.98545509576797485352 1.4595825672149658203 1.4363317489624023438 1.7191569805145263672 1.7583767175674438477 1.6615619659423828125 2.0521261692047119141 2.1746320724487304688 2.5696837902069091797 1.9989563226699829102 2.4866266250610351562 3.5856266021728515625 1.5989999771118164062 2.8595476150512695312 2.8146235942840576172 2.5813188552856445312 2.8148584365844726562 1.3525223731994628906 2.8059611320495605469 1.6740158796310424805 1.5865807533264160156 3.2979149818420410156 1.2389481067657470703 
2.5818073749542236328 2.6449105739593505859 4.4779381752014160156 3.0256342887878417969 1.7212754487991333008 3.1557047367095947266 2.1702578067779541016 4.3443083763122558594 1.8311291933059692383 4.1619462966918945312 0.95153653621673583984 1.3104374408721923828 3.6734764575958251953 2.7634439468383789062 2.8012566566467285156 3.4612841606140136719 2.9288859367370605469 3.0508878231048583984 1.8504372835159301758 2.3068473339080810547 0.59662032127380371094 1.5233304500579833984 0.65746265649795532227 1.7239274978637695312 1.2530900239944458008 1.4808764457702636719 2.0267438888549804688 6.3866472244262695312 4.6635770797729492188 1.3437093496322631836 3.13605499267578125 1.4568170309066772461 4.0938196182250976562 2.6183145046234130859 2.7805395126342773438 2.7709183692932128906 2.4023251533508300781 4.4554662704467773438 0.75062769651412963867 1.1273646354675292969 0.34956437349319458008 4.12823486328125 2.8161611557006835938 2.7494139671325683594 2.7836637496948242188 2.1796848773956298828 0.8295637965202331543 1.2309869527816772461 2.7564356327056884766 2.6360645294189453125 3.0187845230102539062 2.957347869873046875 2.7281792163848876953 2.7978830337524414062 6.3284740447998046875 3.1487054824829101562 4.1789183616638183594 3.6965134143829345703 8.0616922378540039062 4.2324438095092773438 2.8075780868530273438 2.7929415702819824219 1.7006434202194213867 1.9368097782135009766 1.8897396326065063477 2.5775346755981445312 1.8628698587417602539 1.9045873880386352539 2.639190673828125 1.4375251531600952148 2.7331917285919189453 2.1318571567535400391 2.5869145393371582031 2.0070524215698242188 2.6784977912902832031 4.09136962890625 1.5989999771118164062 2.7088427543640136719 2.6536965370178222656 2.6938729286193847656 2.7821149826049804688 2.1824057102203369141 0.21409536898136138916 0.040624998509883880615 0.88688063621520996094 3.6926965713500976562 2.0588858127593994141 
2.8066549301147460938 2.8864843845367431641 2.0798871517181396484 2.3994934558868408203 1.4053946733474731445 2.5282938480377197266 2.9473166465759277344 3.7434487342834472656 3.5105099678039550781 3.2862207889556884766 0.09918750077486038208 0.74979948997497558594 3.5615088939666748047 1.7381538152694702148 1.8600903749465942383 3.1351904869079589844 3.6753458976745605469 4.655792236328125 1.1948618888854980469 2.2836456298828125 0.86589401960372924805 4.3218364715576171875 1.9730241298675537109 1.2535703182220458984 1.2121678590774536133 2.8972983360290527344 3.3350932598114013672 2.8075993061065673828 3.2206730842590332031 2.4758274555206298828 2.9278166294097900391 0.88006305694580078125 5.356204986572265625 2.7721757888793945312 2.61798858642578125 0.50864022970199584961 0.61425000429153442383 0.56618750095367431641 0.61507046222686767578 2.1182694435119628906 0.34466150403022766113 3.4866247177124023438 2.8498480319976806641 2.7351021766662597656 2.6307120323181152344 2.8243162631988525391 0.49735274910926818848 2.6414072513580322266 3.6011393070220947266 2.9708425998687744141 3.2387452125549316406 3.0703141689300537109 2.6881399154663085938 5.5778675079345703125 3.3399069309234619141 2.7804980278015136719 3.3330297470092773438 5.7670760154724121094 7.2544393539428710938 7.0476064682006835938 2.9759595394134521484 2.7657074928283691406 2.2549421787261962891 1.8999689817428588867 2.2163822650909423828 2.5627782344818115234 1.9763697385787963867 2.5826122760772705078 2.8048994541168212891 2.0020947456359863281 1.5802414417266845703 1.8453671932220458984 2.6488039493560791016 2.7922260761260986328 1.7857652902603149414 3.4775319099426269531 2.8654639720916748047 2.7528183460235595703 2.6788592338562011719 2.6499705314636230469 2.6830730438232421875 1.3066767454147338867 0.030624998733401298523 0.051249999552965164185 0.94883739948272705078 2.9811825752258300781 3.1874909400939941406 
2.4773488044738769531 2.8329923152923583984 1.7544512748718261719 1.7889664173126220703 2.2465906143188476562 2.5758030414581298828 3.1727199554443359375 4.007671356201171875 6.6147565841674804688 2.3840732574462890625 0.35925000905990600586 3.2281696796417236328 1.7010186910629272461 2.3058362007141113281 2.1351234912872314453 4.3020944595336914062 4.2845859527587890625 4.655792236328125 3.7033674716949462891 2.3154096603393554688 2.7392640113830566406 2.7864363193511962891 1.8060022592544555664 1.6089231967926025391 1.9616242647171020508 1.7993062734603881836 4.0822215080261230469 4.2401814460754394531 2.8922724723815917969 3.2939558029174804688 2.6207742691040039062 2.2312374114990234375 3.3973512649536132812 3.2715902328491210938 1.6177401542663574219 2.1838266849517822266 0.38581252098083496094 0.14862500131130218506 1.7904205322265625 2.3740341663360595703 1.3873536586761474609 2.7334551811218261719 2.7561147212982177734 2.6609363555908203125 2.7792921066284179688 1.154052734375 0.99538707733154296875 4.3155765533447265625 2.6902093887329101562 3.3495314121246337891 3.8105592727661132812 3.0796332359313964844 2.6660680770874023438 3.3786911964416503906 3.4979696273803710938 2.7809271812438964844 2.8625965118408203125 5.3743467330932617188 7.0423831939697265625 6.2208847999572753906 2.8597385883331298828 1.3940367698669433594 1.1172295808792114258 1.3480879068374633789 2.1340043544769287109 1.6767330169677734375 1.4539303779602050781 2.1628372669219970703 2.7753522396087646484 2.3483164310455322266 0.34219801425933837891 0.34219801425933837891 1.8698644638061523438 2.7740771770477294922 2.6273894309997558594 2.7328610420227050781 2.7008523941040039062 2.6356523036956787109 2.6486012935638427734 2.7052731513977050781 2.6454269886016845703 0.71992528438568115234 0.025624999776482582092 0.22168751060962677002 0.094999998807907104492 1.5144982337951660156 4.192539215087890625 
3.0766861438751220703 1.5932406187057495117 1.958615422248840332 2.2473461627960205078 2.1379857063293457031 2.2906289100646972656 2.6974103450775146484 7.2078390121459960938 4.5193986892700195312 1.502812504768371582 3.1802954673767089844 2.6795125007629394531 3.0428524017333984375 2.5168659687042236328 2.0163431167602539062 4.5320568084716796875 4.5399789810180664062 4.4099307060241699219 3.4777371883392333984 2.7923731803894042969 2.801837921142578125 2.7629528045654296875 0.7196324467658996582 1.8069969415664672852 2.8119721412658691406 2.3904871940612792969 5.0692753791809082031 6.7475399971008300781 3.2688281536102294922 1.7039923667907714844 1.3742547035217285156 3.3782346248626708984 3.5877339839935302734 6.0935597419738769531 2.6198103427886962891 1.4379281997680664062 0.49224457144737243652 1.8903572559356689453 2.8091688156127929688 2.0559418201446533203 0.68543928861618041992 1.8974626064300537109 2.7019786834716796875 2.8418509960174560547 2.7351200580596923828 1.6879585981369018555 0.39298343658447265625 1.5406701564788818359 3.3276882171630859375 4.3050761222839355469 3.9419987201690673828 3.6822936534881591797 3.0789160728454589844 2.7911756038665771484 3.1033880710601806641 3.6383714675903320312 2.7392344474792480469 5.397449493408203125 6.3534078598022460938 9.4016218185424804688 6.824260711669921875 2.7894542217254638672 2.0736200809478759766 1.4842149019241333008 2.2158885002136230469 2.4254736900329589844 1.974064946174621582 2.6306433677673339844 2.7869708538055419922 2.7904622554779052734 0.79449492692947387695 0.95882743597030639648 2.7826292514801025391 2.9046561717987060547 2.741024017333984375 3.6602110862731933594 1.9476417303085327148 2.6208322048187255859 2.5029501914978027344 2.6782350540161132812 2.6336257457733154297 2.4972856044769287109 2.0189702510833740234 2.1357092857360839844 2.2521955966949462891 2.5240387916564941406 2.6527297496795654297 
2.7964713573455810547 2.4869985580444335938 2.92978668212890625 2.3604857921600341797 2.6565189361572265625 2.5022065639495849609 6.1378259658813476562 8.720943450927734375 2.1489913463592529297 2.0534820556640625 2.5884747505187988281 1.7850959300994873047 2.7514545917510986328 1.1418131589889526367 2.2025287151336669922 4.5399789810180664062 4.3378853797912597656 4.1942877769470214844 3.7040858268737792969 3.67287445068359375 3.3641438484191894531 2.7845385074615478516 2.4626162052154541016 1.2806560993194580078 2.1431055068969726562 2.8107347488403320312 3.7074823379516601562 5.2467889785766601562 5.6547617912292480469 1.8486322164535522461 1.7630956172943115234 2.9779465198516845703 2.4855370521545410156 3.0572211742401123047 2.4424347877502441406 2.8019897937774658203 2.801212310791015625 2.9952969551086425781 3.8702898025512695312 1.6389002799987792969 0.95692771673202514648 3.9021100997924804688 2.7931315898895263672 2.6742181777954101562 3.6205184459686279297 3.2640731334686279297 1.3604922294616699219 0.93642199039459228516 3.9277718067169189453 3.7215435504913330078 3.4506671428680419922 4.3027353286743164062 2.7278509140014648438 2.74053955078125 2.7070763111114501953 2.7846972942352294922 2.9716651439666748047 9.1833925247192382812 7.5267620086669921875 5.8678975105285644531 2.8996307849884033203 2.7866539955139160156 2.7934784889221191406 2.6706140041351318359 2.7477121353149414062 2.9576499462127685547 2.5095047950744628906 2.8179495334625244141 2.8186359405517578125 2.8145606517791748047 1.1190943717956542969 1.5620187520980834961 2.9114630222320556641 3.0216045379638671875 2.7761075496673583984 4.1582841873168945312 3.4524426460266113281 2.4016871452331542969 2.8877007961273193359 3.1756958961486816406 3.1666684150695800781 2.7076463699340820312 2.6981921195983886719 2.7187931537628173828 2.7133324146270751953 2.3124206066131591797 2.7365751266479492188 
2.1187915802001953125 1.3973107337951660156 2.8386671543121337891 3.5272083282470703125 5.2950968742370605469 2.6250307559967041016 2.2100193500518798828 1.2242499589920043945 4.1319837570190429688 2.0208935737609863281 1.6090490818023681641 5.0719580650329589844 1.0478403568267822266 1.3909052610397338867 2.8737249374389648438 4.655792236328125 4.2951593399047851562 4.029888153076171875 3.2271561622619628906 4.273693084716796875 3.2452523708343505859 2.6064312458038330078 2.8311121463775634766 1.8499811887741088867 3.1366369724273681641 3.0346829891204833984 5.7773728370666503906 3.1801269054412841797 2.5548372268676757812 2.1925482749938964844 2.4531137943267822266 5.4287962913513183594 3.9243395328521728516 2.90828704833984375 1.9580656290054321289 5.867870330810546875 2.8962543010711669922 4.644130706787109375 6.7758817672729492188 2.5950644016265869141 3.4198832511901855469 2.8085169792175292969 2.6295957565307617188 2.4707765579223632812 3.9080638885498046875 5.8172054290771484375 4.1996583938598632812 2.6031169891357421875 3.436923980712890625 4.1480984687805175781 4.0649647712707519531 3.6951768398284912109 3.0616104602813720703 2.7257235050201416016 2.7455523014068603516 2.8014049530029296875 3.7139256000518798828 6.791469573974609375 9.3103847503662109375 3.2964427471160888672 2.8476357460021972656 2.8148255348205566406 2.8073987960815429688 2.1962964534759521484 1.2211785316467285156 1.2680153846740722656 1.8827115297317504883 2.6174175739288330078 2.80950927734375 2.8262515068054199219 0.96121978759765625 1.0949304103851318359 3.484405517578125 2.7776267528533935547 2.9286060333251953125 1.9048972129821777344 2.8137841224670410156 2.8185665607452392578 4.2916131019592285156 4.655792236328125 4.655792236328125 3.2338602542877197266 2.3876512050628662109 2.7133769989013671875 2.6994302272796630859 2.3258962631225585938 3.1595196723937988281 
2.5347898006439208984 2.2837576866149902344 1.6510000228881835938 4.5958080291748046875 3.3615283966064453125 2.699718475341796875 3.5253634452819824219 3.9416832923889160156 3.4539899826049804688 2.7814857959747314453 2.7927458286285400391 3.3919615745544433594 1.3806875944137573242 2.4252889156341552734 2.7760250568389892578 4.655792236328125 3.5177540779113769531 2.4259607791900634766 3.7755296230316162109 2.9083440303802490234 2.7488195896148681641 2.7364318370819091797 2.5019631385803222656 3.0507552623748779297 4.7071900367736816406 2.1730062961578369141 4.5373568534851074219 2.8829433917999267578 2.9036056995391845703 1.4406074285507202148 2.4655752182006835938 4.55664825439453125 3.0872757434844970703 2.8250682353973388672 3.9129347801208496094 3.7408900260925292969 3.2565581798553466797 6.0427770614624023438 3.6617846488952636719 8.5529727935791015625 7.4279150962829589844 2.6622703075408935547 2.7911350727081298828 4.1065726280212402344 3.6235382556915283203 7.4548473358154296875 3.2115488052368164062 1.898095250129699707 3.3129289150238037109 4.0673851966857910156 4.0643067359924316406 3.4866042137145996094 1.6464060544967651367 3.4253122806549072266 3.6587681770324707031 4.3029575347900390625 4.5627398490905761719 5.1837892532348632812 7.6610274314880371094 5.8877058029174804688 2.8518798351287841797 2.8081746101379394531 2.2110221385955810547 1.7943141460418701172 2.3972754478454589844 1.6061346530914306641 1.9828201532363891602 2.609272003173828125 2.8073427677154541016 2.8077244758605957031 1.4083896875381469727 0.81078284978866577148 2.4510250091552734375 2.6289317607879638672 1.810420989990234375 2.5979554653167724609 2.6783499717712402344 2.7984087467193603516 3.7423110008239746094 4.655792236328125 4.655792236328125 3.3297171592712402344 1.2042336463928222656 2.6681842803955078125 3.0555958747863769531 2.9028220176696777344 3.2340555191040039062 
3.2380716800689697266 1.5227211713790893555 1.4331774711608886719 5.0934224128723144531 5.2708125114440917969 2.5580904483795166016 3.8731009960174560547 2.8237969875335693359 2.1109330654144287109 2.7749655246734619141 2.7822527885437011719 2.75197601318359375 2.7612917423248291016 2.6855819225311279297 2.9489345550537109375 3.19637298583984375 2.7782680988311767578 2.6865146160125732422 2.5395841598510742188 3.3327820301055908203 3.0042831897735595703 2.1344294548034667969 6.1112995147705078125 4.3078761100769042969 2.1489183902740478516 1.7102982997894287109 2.8184027671813964844 1.7289965152740478516 2.8152596950531005859 1.0905376672744750977 2.6091659069061279297 3.6200134754180908203 6.47344207763671875 5.5071802139282226562 4.3712019920349121094 5.9384288787841796875 7.2472853660583496094 6.9706707000732421875 6.6068468093872070312 2.2079916000366210938 1.528654932975769043 4.6113104820251464844 3.8092482089996337891 3.9621396064758300781 2.7041177749633789062 5.9073877334594726562 2.0617702007293701172 4.2170586585998535156 3.3352823257446289062 4.0744113922119140625 3.4769518375396728516 2.6206536293029785156 2.9060509204864501953 2.7332885265350341797 2.9925272464752197266 2.9614288806915283203 2.92853546142578125 6.0380578041076660156 7.423419952392578125 8.22110748291015625 2.8169798851013183594 2.8068571090698242188 2.6291012763977050781 2.4574158191680908203 2.6419055461883544922 1.7902173995971679688 2.1714584827423095703 2.6338400840759277344 2.8060133457183837891 2.8100590705871582031 2.7966303825378417969 0.65048843622207641602 0.80793410539627075195 0.80780237913131713867 1.2277177572250366211 2.4433302879333496094 1.2034590244293212891 0.43945536017417907715 3.9851641654968261719 4.41970062255859375 4.4162435531616210938 3.4191963672637939453 2.3667094707489013672 2.8447399139404296875 2.3272702693939208984 2.7011263370513916016 3.4468548297882080078 
2.6939027309417724609 2.5180459022521972656 1.9477794170379638672 7.6768689155578613281 5.6899771690368652344 2.4846787452697753906 3.8882293701171875 1.7466129064559936523 1.4159157276153564453 2.777130126953125 2.8058598041534423828 2.7488346099853515625 2.747310638427734375 2.7562346458435058594 2.7260761260986328125 2.7421483993530273438 2.8333895206451416016 2.9647061824798583984 3.2033388614654541016 4.4190244674682617188 3.8174803256988525391 4.3888373374938964844 3.5470261573791503906 1.6959104537963867188 1.9463807344436645508 2.4495766162872314453 2.6265146732330322266 2.6295595169067382812 2.3083672523498535156 1.3893909454345703125 1.6712422370910644531 2.3815441131591796875 3.9339916706085205078 4.9967560768127441406 3.3740131855010986328 2.5664744377136230469 4.1107163429260253906 9.1085824966430664062 2.71999359130859375 3.002079010009765625 2.7773268222808837891 2.6429514884948730469 1.6669623851776123047 1.9315288066864013672 1.4919494390487670898 2.3420007228851318359 1.7731575965881347656 2.9034686088562011719 3.5259418487548828125 1.8577136993408203125 2.2924218177795410156 2.3140466213226318359 2.4346523284912109375 2.6013927459716796875 5.3625688552856445312 6.7966098785400390625 6.4853687286376953125 5.4156055450439453125 6.5825443267822265625 8.6098985671997070312 3.9750390052795410156 2.8012895584106445312 3.1595563888549804688 2.5343940258026123047 2.3812770843505859375 2.6232535839080810547 2.7738087177276611328 2.8005373477935791016 3.0260386466979980469 3.7343325614929199219 2.886699676513671875 0.34219801425933837891 0.34219801425933837891 1.2959069013595581055 4.3435616493225097656 1.3594521284103393555 0.73343485593795776367 0.39013776183128356934 1.5461761951446533203 2.2851581573486328125 1.2013033628463745117 2.6650459766387939453 2.7312657833099365234 2.6602199077606201172 1.0858750343322753906 2.9185769557952880859 2.6682329177856445312 
1.8952221870422363281 3.0061216354370117188 2.6022298336029052734 5.8231420516967773438 2.9564976692199707031 5.0824913978576660156 5.9684810638427734375 1.7475600242614746094 2.2503497600555419922 2.7915716171264648438 2.7903416156768798828 2.7002358436584472656 2.8225297927856445312 2.8503186702728271484 2.7012484073638916016 2.7403213977813720703 3.1410603523254394531 4.0706996917724609375 4.0792536735534667969 4.655792236328125 4.655792236328125 4.5007505416870117188 3.7202813625335693359 2.8014936447143554688 2.7927591800689697266 2.6257281303405761719 2.9307572841644287109 3.3909742832183837891 2.2020888328552246094 1.0334399938583374023 2.1844134330749511719 2.5403954982757568359 4.6392788887023925781 4.8788156509399414062 3.7584433555603027344 2.8757088184356689453 6.9411520957946777344 6.9325394630432128906 2.4178466796875 5.0419759750366210938 5.579975128173828125 4.2156877517700195312 5.5092220306396484375 5.4071197509765625 5.75266265869140625 6.1591587066650390625 2.5119609832763671875 0.34712502360343933105 4.1105647087097167969 2.7264614105224609375 2.7219376564025878906 2.4322702884674072266 2.7421686649322509766 3.536228179931640625 2.794933319091796875 3.2519555091857910156 6.98686981201171875 8.2829151153564453125 8.1916408538818359375 7.6493430137634277344 8.1420116424560546875 2.0310332775115966797 2.4188616275787353516 2.4303839206695556641 2.7926006317138671875 2.6693234443664550781 2.7891507148742675781 2.8000609874725341797 2.8423459529876708984 4.08661651611328125 3.0211930274963378906 1.0978701114654541016 1.5747203826904296875 3.3432908058166503906 3.3160703182220458984 2.8157184123992919922 2.3270153999328613281 0.94976371526718139648 2.2298684120178222656 2.2187249660491943359 2.0939552783966064453 2.647624969482421875 3.0124208927154541016 1.1784999370574951172 1.1784999370574951172 2.9693381786346435547 2.7788815498352050781 
2.3807129859924316406 2.4919197559356689453 6.5187740325927734375 3.7000699043273925781 5.0296216011047363281 4.9971957206726074219 3.6749813556671142578 0.93992668390274047852 2.2923536300659179688 2.8208196163177490234 2.8145861625671386719 2.8021173477172851562 2.7963635921478271484 2.8206052780151367188 2.7156860828399658203 2.6409831047058105469 4.0591511726379394531 4.2895679473876953125 4.4099307060241699219 4.655792236328125 3.9595429897308349609 2.7810969352722167969 2.8944189548492431641 2.8085312843322753906 2.7912404537200927734 3.5396938323974609375 4.9598627090454101562 5.8725748062133789062 0.38206252455711364746 1.8795726299285888672 2.7951462268829345703 2.9966979026794433594 3.0713992118835449219 3.5385103225708007812 3.6875405311584472656 4.445465087890625 3.5019087791442871094 5.5417013168334960938 5.6735644340515136719 4.525508880615234375 2.7925329208374023438 5.3992214202880859375 6.4470376968383789062 3.3188688755035400391 2.5494263172149658203 6.3979105949401855469 2.7588226795196533203 0.34212499856948852539 6.7453751564025878906 3.4315474033355712891 1.8135586977005004883 1.0467071533203125 2.7644548416137695312 2.8124153614044189453 4.3900814056396484375 6.7438154220581054688 12.786192893981933594 6.957798004150390625 6.1720671653747558594 10.270227432250976562 4.7291684150695800781 1.3311862945556640625 1.4341999292373657227 1.881725311279296875 1.3480554819107055664 2.7019474506378173828 2.8084912300109863281 2.7332706451416015625 2.6659767627716064453 2.1637375354766845703 3.2215571403503417969 2.7191116809844970703 2.9491264820098876953 3.3391699790954589844 2.5252654552459716797 2.1118493080139160156 1.3800120353698730469 1.6608568429946899414 1.9982573986053466797 2.1897361278533935547 2.6300883293151855469 2.9278812408447265625 2.966976165771484375 1.5063749551773071289 1.041674494743347168 2.8684611320495605469 2.77526092529296875 
2.0808992385864257812 8.7091522216796875 5.9310865402221679688 2.9535355567932128906 3.3796582221984863281 4.0532999038696289062 3.4134194850921630859 1.9417690038681030273 2.3013141155242919922 2.7903888225555419922 2.7455670833587646484 2.6825928688049316406 2.7306265830993652344 2.6858048439025878906 2.6760702133178710938 3.4587204456329345703 4.4273266792297363281 4.655792236328125 4.655792236328125 4.4171004295349121094 2.9717276096343994141 2.7462527751922607422 2.8155901432037353516 2.7977380752563476562 3.0571107864379882812 6.0854291915893554688 3.4784383773803710938 4.9709148406982421875 3.3987262248992919922 1.9708716869354248047 2.7902672290802001953 2.9121260643005371094 5.1157484054565429688 4.5704846382141113281 4.9475607872009277344 2.9396686553955078125 6.352977752685546875 2.6100795269012451172 7.6188569068908691406 2.8159508705139160156 3.6706435680389404297 3.1124842166900634766 2.7865464687347412109 2.9423625469207763672 2.7888994216918945312 4.3810977935791015625 1.3331158161163330078 4.7008838653564453125 3.2364041805267333984 0.97478133440017700195 1.2916833162307739258 2.2541360855102539062 3.0151925086975097656 4.2275261878967285156 4.0373182296752929688 3.9107975959777832031 10.24610137939453125 9.4488840103149414062 5.43454742431640625 5.18963623046875 5.5076088905334472656 2.4004952907562255859 2.5501096248626708984 1.5721163749694824219 1.5412098169326782227 1.9032498598098754883 1.6385128498077392578 2.057003021240234375 1.4782277345657348633 1.1389201879501342773 1.6432398557662963867 1.746523737907409668 2.8161151409149169922 2.7679495811462402344 4.7063493728637695312 1.7630895376205444336 0.51152515411376953125 0.91535753011703491211 1.3268865346908569336 1.5399937629699707031 2.3833336830139160156 2.8419868946075439453 2.8070964813232421875 0.85799998044967651367 2.1279480457305908203 2.8318414688110351562 2.77526092529296875 
2.9764423370361328125 7.2641744613647460938 3.9516172409057617188 2.7987520694732666016 4.2309169769287109375 6.624298095703125 4.2352118492126464844 1.9511078596115112305 2.4693839550018310547 2.8294568061828613281 2.8114719390869140625 2.7295067310333251953 2.6858048439025878906 2.7457346916198730469 2.9081003665924072266 4.5399789810180664062 3.5607147216796875 4.4253377914428710938 4.2726125717163085938 2.7707564830780029297 2.8078908920288085938 2.8256916999816894531 2.8303351402282714844 3.3905587196350097656 3.2718758583068847656 4.8575654029846191406 2.6120853424072265625 10.709865570068359375 2.9573626518249511719 2.4462139606475830078 2.7556917667388916016 3.5001769065856933594 4.7311663627624511719 1.6915224790573120117 2.3686490058898925781 3.2154390811920166016 2.4078922271728515625 4.4185214042663574219 4.4933466911315917969 2.6092362403869628906 2.8476858139038085938 2.6213166713714599609 2.5012950897216796875 2.6925547122955322266 3.9857795238494873047 7.1455893516540527344 3.7101805210113525391 5.8213567733764648438 0.34219801425933837891 0.34219801425933837891 0.78255808353424072266 1.8414967060089111328 2.7349424362182617188 2.7125387191772460938 2.7361884117126464844 5.8160181045532226562 9.0166454315185546875 8.5818300247192382812 3.5492110252380371094 3.2262530326843261719 3.1799302101135253906 2.907833099365234375 2.9391651153564453125 1.8516294956207275391 2.3036472797393798828 2.5223484039306640625 2.8921477794647216797 2.6058146953582763672 3.0200238227844238281 2.8117454051971435547 2.7664062976837158203 3.0771162509918212891 1.9740506410598754883 2.762569427490234375 2.6412541866302490234 2.1194059848785400391 2.2114291191101074219 2.2754833698272705078 1.6037839651107788086 1.3612167835235595703 1.8091747760772705078 2.4651744365692138672 2.1477835178375244141 1.5063749551773071289 1.4137499332427978516 1.8047988414764404297 2.7914333343505859375 
3.6734592914581298828 7.0970597267150878906 5.1060323715209960938 2.8240315914154052734 3.6853487491607666016 7.3029384613037109375 7.1316914558410644531 2.4484944343566894531 2.7039048671722412109 2.7867691516876220703 2.7780435085296630859 2.775783538818359375 2.7311294078826904297 2.7605075836181640625 3.0386099815368652344 3.9467961788177490234 3.3135564327239990234 4.1714539527893066406 3.9262371063232421875 4.8444318771362304688 2.8233547210693359375 2.8465030193328857422 3.7209744453430175781 3.1226263046264648438 2.7759752273559570312 2.2782447338104248047 2.1306314468383789062 3.678668975830078125 1.9539161920547485352 2.6135778427124023438 2.2810785770416259766 8.3185434341430664062 3.8155772686004638672 1.2358248233795166016 1.4321540594100952148 0.77044987678527832031 1.8443977832794189453 2.2990229129791259766 2.7534582614898681641 1.7798819541931152344 2.4536676406860351562 2.7375900745391845703 2.5699801445007324219 3.0371999740600585938 5.2262358665466308594 2.9818890094757080078 1.9087285995483398438 3.0264122486114501953 1.0920689105987548828 2.1839182376861572266 0.62581104040145874023 0.79017394781112670898 2.5661320686340332031 2.8653419017791748047 2.7477464675903320312 3.7601389884948730469 10.39650726318359375 10.594516754150390625 7.6720781326293945312 1.983050227165222168 3.3710873126983642578 2.3309431076049804688 2.1776521205902099609 2.6507256031036376953 1.9910523891448974609 1.3172975778579711914 1.8988337516784667969 2.8037364482879638672 2.7559125423431396484 2.7750432491302490234 2.7557609081268310547 2.7908372879028320312 2.8384680747985839844 2.4188077449798583984 3.1395041942596435547 3.2565279006958007812 2.2509224414825439453 2.3489077091217041016 1.7735449075698852539 2.2737810611724853516 2.6099302768707275391 2.4161550998687744141 2.7936849594116210938 2.2126076221466064453 1.3811485767364501953 3.1531696319580078125 2.77526092529296875 
4.5170640945434570312 3.3157150745391845703 2.8687131404876708984 2.8308832645416259766 2.9339511394500732422 5.0292677879333496094 5.2138352394104003906 5.3215498924255371094 2.8027722835540771484 2.8265221118927001953 2.8204376697540283203 2.8216109275817871094 2.7735772132873535156 2.6262102127075195312 2.7615046501159667969 3.2095158100128173828 2.7164838314056396484 3.8147327899932861328 4.3144359588623046875 5.3551211357116699219 2.8444142341613769531 3.0061047077178955078 3.6405556201934814453 3.3431577682495117188 2.728244781494140625 2.6746182441711425781 2.9886157512664794922 2.3566837310791015625 1.5277419090270996094 2.2100763320922851562 1.9179033041000366211 7.833065032958984375 3.8810441493988037109 2.1132707595825195312 1.4674108028411865234 0.79900002479553222656 0.77917695045471191406 2.7327094078063964844 2.6346812248229980469 3.3699796199798583984 3.0097532272338867188 2.2972359657287597656 2.2503647804260253906 2.3887078762054443359 2.6253561973571777344 1.3615819215774536133 1.8773701190948486328 1.8698267936706542969 2.7151494026184082031 0.80906665325164794922 0.7676175236701965332 2.1096346378326416016 2.5510232448577880859 1.8278813362121582031 2.7461304664611816406 5.3126368522644042969 6.2207698822021484375 3.4084355831146240234 3.0587644577026367188 2.6962351799011230469 4.5790386199951171875 3.1472766399383544922 2.9677183628082275391 2.6374650001525878906 3.1002552509307861328 2.4985752105712890625 2.2123334407806396484 2.7975683212280273438 2.7960450649261474609 2.77898406982421875 2.7695381641387939453 2.7930948734283447266 3.5264546871185302734 1.993790745735168457 0.94645470380783081055 1.6912616491317749023 0.64859247207641601562 0.68305569887161254883 0.70392054319381713867 1.2710908651351928711 1.135814666748046875 2.8734586238861083984 3.5838596820831298828 3.5203473567962646484 2.2696170806884765625 2.6876652240753173828 2.8034107685089111328 
5.2390866279602050781 3.1579668521881103516 2.7975072860717773438 2.7925674915313720703 2.8323335647583007812 2.7777361869812011719 4.4808859825134277344 7.1104111671447753906 3.8587992191314697266 2.8023293018341064453 2.8116900920867919922 2.8418557643890380859 2.8150191307067871094 2.8328366279602050781 2.7686989307403564453 2.7803003787994384766 2.7479119300842285156 2.7754194736480712891 2.7314920425415039062 2.983394622802734375 2.8429841995239257812 3.0914790630340576172 3.8059585094451904297 3.2607126235961914062 3.146453857421875 2.8438403606414794922 1.1444138288497924805 2.5524756908416748047 1.7460800409317016602 2.7651517391204833984 5.1312799453735351562 3.9461567401885986328 1.7781547307968139648 2.03325653076171875 1.866607666015625 2.2729690074920654297 0.34219801425933837891 2.4501059055328369141 2.8553090095520019531 2.6241574287414550781 2.8082830905914306641 2.4602315425872802734 2.2280054092407226562 2.5727252960205078125 2.7769281864166259766 2.65715789794921875 2.7834877967834472656 2.6268634796142578125 1.0045293569564819336 0.42784839868545532227 2.1513397693634033203 2.6007847785949707031 2.1372535228729248047 1.1561533212661743164 1.8915692567825317383 2.6910760402679443359 2.7847514152526855469 4.6518464088439941406 5.6506299972534179688 7.5059337615966796875 5.3975663185119628906 6.5084786415100097656 6.543041229248046875 3.1577997207641601562 3.7677047252655029297 3.0936217308044433594 6.5186572074890136719 2.9060070514678955078 2.7309103012084960938 2.7771985530853271484 2.7719502449035644531 2.6116259098052978516 2.7881245613098144531 2.6776223182678222656 1.5620093345642089844 1.7823169231414794922 0.072499997913837432861 0.89394730329513549805 0.30692327022552490234 1.7916721105575561523 2.2700035572052001953 2.6871640682220458984 2.9409999847412109375 2.7850017547607421875 2.5544881820678710938 1.5989999771118164062 1.5989999771118164062 
3.9518706798553466797 2.9295594692230224609 2.6260426044464111328 2.6377711296081542969 2.6809689998626708984 2.8105664253234863281 3.4483227729797363281 9.3123502731323242188 5.5798749923706054688 2.7997617721557617188 2.8041520118713378906 2.8191502094268798828 2.8120906352996826172 2.8120625019073486328 2.8125247955322265625 2.7953579425811767578 2.8108351230621337891 2.8195927143096923828 2.7719392776489257812 2.8325014114379882812 2.8365514278411865234 3.0940358638763427734 4.9852857589721679688 3.1772205829620361328 4.9839940071105957031 5.9557566642761230469 0.69842243194580078125 2.7217569351196289062 1.7699296474456787109 2.9498467445373535156 7.4276795387268066406 3.4670121669769287109 2.8988471031188964844 1.1804822683334350586 1.3400682210922241211 2.4622693061828613281 1.7117284536361694336 2.78156280517578125 2.7882473468780517578 2.0781283378601074219 1.7944122552871704102 1.4555540084838867188 1.9596675634384155273 2.2720839977264404297 2.8196809291839599609 2.7950198650360107422 2.6205861568450927734 2.6974990367889404297 0.76093316078186035156 0.89881443977355957031 2.1167378425598144531 1.5456686019897460938 0.95747750997543334961 0.53253221511840820312 1.4740065336227416992 2.7359600067138671875 2.9605929851531982422 3.36797332763671875 3.8535730838775634766 6.6697077751159667969 3.8903739452362060547 5.5805687904357910156 3.8479053974151611328 6.2750668525695800781 3.4665243625640869141 4.8314728736877441406 5.6268472671508789062 5.1051621437072753906 2.7358362674713134766 3.6674554347991943359 2.7214953899383544922 2.7254285812377929688 3.4886002540588378906 2.5085966587066650391 1.4195170402526855469 2.5494573116302490234 1.1027485132217407227 3.3086969852447509766 0.62310928106307983398 2.4536123275756835938 1.5292700529098510742 2.5423040390014648438 2.8981449604034423828 2.3368544578552246094 2.8016390800476074219 1.9729251861572265625 1.5989999771118164062 
4.6296362876892089844 2.8536272048950195312 2.6625304222106933594 2.9396641254425048828 2.6840777397155761719 2.6475794315338134766 3.5137505531311035156 3.365421295166015625 4.7583670616149902344 4.3610672950744628906 3.5660994052886962891 2.8188316822052001953 2.8484978675842285156 2.8155272006988525391 2.7585568428039550781 2.8236429691314697266 2.8206045627593994141 2.8213472366333007812 2.8093705177307128906 2.7970745563507080078 2.80074310302734375 4.3555474281311035156 7.74169921875 3.5631814002990722656 3.9974954128265380859 2.8411378860473632812 1.9448462724685668945 3.0115275382995605469 2.261356353759765625 5.1765356063842773438 5.8822560310363769531 4.1616158485412597656 6.5351104736328125 3.0551435947418212891 2.7727100849151611328 2.7755115032196044922 2.7726831436157226562 3.1566741466522216797 2.6172246932983398438 1.3790019750595092773 1.5601727962493896484 1.4450459480285644531 4.131290435791015625 2.2816481590270996094 2.81864166259765625 2.7913670539855957031 3.52188873291015625 2.2158939838409423828 0.79900002479553222656 1.0557291507720947266 2.8080196380615234375 0.75487917661666870117 1.5349407196044921875 0.60866582393646240234 1.5665361881256103516 2.7869234085083007812 2.8154699802398681641 3.9557998180389404297 9.1561107635498046875 6.8958621025085449219 4.4307370185852050781 3.1925191879272460938 2.7844884395599365234 4.3997111320495605469 5.4954094886779785156 4.2537360191345214844 2.9367859363555908203 5.3956394195556640625 8.5813074111938476562 6.6251554489135742188 4.5717167854309082031 2.7822220325469970703 2.6665451526641845703 1.6755280494689941406 2.5447270870208740234 1.4150419235229492188 2.9826989173889160156 3.1090128421783447266 2.065673828125 2.8751828670501708984 0.36036202311515808105 3.2139558792114257812 2.6748807430267333984 2.0485160350799560547 2.4331009387969970703 1.9768368005752563477 1.5989999771118164062 
3.2042207717895507812 3.1140758991241455078 2.6779966354370117188 3.4360003471374511719 3.0526208877563476562 3.037784576416015625 3.2479066848754882812 2.7889499664306640625 2.7928223609924316406 6.7333288192749023438 5.5201010704040527344 2.9115340709686279297 2.8167846202850341797 2.8216109275817871094 2.6957347393035888672 2.7535693645477294922 2.7462403774261474609 2.7839171886444091797 3.2358419895172119141 3.010517120361328125 3.4663269519805908203 8.3063945770263671875 5.1272664070129394531 2.4689502716064453125 1.9506289958953857422 2.4232006072998046875 1.6547015905380249023 1.1326898336410522461 2.5783038139343261719 2.76369476318359375 2.9408965110778808594 3.6419293880462646484 2.1134166717529296875 2.9588820934295654297 2.6234261989593505859 2.2772583961486816406 3.0779173374176025391 2.8763051033020019531 1.4272633790969848633 1.7176420688629150391 1.6091684103012084961 1.8007758855819702148 0.41558423638343811035 1.7243093252182006836 2.7865290641784667969 2.8072581291198730469 2.1626427173614501953 0.51349878311157226562 0.79900002479553222656 1.7866573333740234375 2.6062326431274414062 2.3656513690948486328 2.6907837390899658203 0.79900002479553222656 0.75001662969589233398 1.8760880231857299805 2.8138072490692138672 2.9374170303344726562 4.0385541915893554688 5.9416742324829101562 3.2285492420196533203 3.1793940067291259766 3.0966906547546386719 3.5144839286804199219 3.8284962177276611328 2.7472486495971679688 2.7900748252868652344 2.6066958904266357422 2.0806014537811279297 6.2543201446533203125 4.5355310440063476562 2.7900822162628173828 2.6913168430328369141 2.8796355724334716797 3.2543361186981201172 2.2403218746185302734 2.5696048736572265625 2.9363553524017333984 2.1050794124603271484 2.7867136001586914062 0.91421103477478027344 1.8820024728775024414 2.3776772022247314453 3.3666081428527832031 3.0695056915283203125 2.6768991947174072266 1.8016257286071777344 
3.4899222850799560547 3.1838221549987792969 3.1891691684722900391 2.9396641254425048828 2.6840777397155761719 3.8951146602630615234 2.76203155517578125 2.8102064132690429688 2.7867069244384765625 6.5791344642639160156 4.1494655609130859375 2.8022136688232421875 2.7919852733612060547 2.762599945068359375 2.7313091754913330078 2.7396695613861083984 2.7434923648834228516 2.7803165912628173828 3.3106379508972167969 4.0191287994384765625 7.142375946044921875 2.8583841323852539062 2.7866845130920410156 2.6352655887603759766 1.8179520368576049805 4.5320568084716796875 2.6141235828399658203 3.4253747463226318359 2.3956534862518310547 4.1124124526977539062 2.6329915523529052734 5.4967470169067382812 0.81106364727020263672 2.8211779594421386719 2.3095729351043701172 1.7958748340606689453 2.0756139755249023438 0.53363382816314697266 2.0958054065704345703 1.7289865016937255859 2.6450946331024169922 2.6266770362854003906 2.1404860019683837891 2.4426274299621582031 2.4054651260375976562 3.3947415351867675781 2.5580782890319824219 0.88062328100204467773 0.87493634223937988281 2.6449434757232666016 1.9098937511444091797 0.73374259471893310547 0.68479955196380615234 1.7494761943817138672 2.2831997871398925781 1.107840418815612793 1.7333086729049682617 1.7254317998886108398 7.0391931533813476562 4.8138360977172851562 3.1280548572540283203 3.4266393184661865234 3.2359521389007568359 3.1204247474670410156 4.0713562965393066406 3.1123893260955810547 3.0328605175018310547 2.8944311141967773438 2.1934506893157958984 1.5839853286743164062 1.166392207145690918 2.7995810508728027344 2.7505552768707275391 2.9216845035552978516 2.5379984378814697266 1.6087443828582763672 1.6045241355895996094 1.7974275350570678711 1.9033523797988891602 2.3024008274078369141 3.2932288646697998047 1.8293299674987792969 0.82751888036727905273 1.7030980587005615234 2.9849569797515869141 3.3389055728912353516 1.5989999771118164062 
2.905506134033203125 3.4530208110809326172 2.8070118427276611328 3.1811480522155761719 3.0708649158477783203 2.7870202064514160156 2.6904683113098144531 2.8099639415740966797 2.8009743690490722656 8.26549530029296875 5.5720052719116210938 3.0774827003479003906 2.8009974956512451172 2.8221540451049804688 2.7741937637329101562 2.7932002544403076172 2.7243051528930664062 2.7912313938140869141 3.7997937202453613281 4.5556721687316894531 3.8672029972076416016 2.8064415454864501953 3.3691453933715820312 2.5206317901611328125 1.9102449417114257812 3.3411397933959960938 1.8447777032852172852 3.9562053680419921875 2.8297584056854248047 2.7369790077209472656 2.5753469467163085938 2.759937286376953125 0.51001989841461181641 1.2832528352737426758 1.8320586681365966797 1.9967576265335083008 2.3144729137420654297 1.16516876220703125 1.3918821811676025391 1.4410933256149291992 3.3558316230773925781 0.75211322307586669922 1.9885754585266113281 2.2758612632751464844 2.5275237560272216797 2.8103096485137939453 1.5049284696578979492 0.79900002479553222656 1.8244341611862182617 2.7571899890899658203 2.380413055419921875 1.5833153724670410156 2.1182024478912353516 2.7175703048706054688 2.6140751838684082031 2.0240960121154785156 2.6638479232788085938 2.7811064720153808594 4.3491749763488769531 6.2490725517272949219 3.5085973739624023438 4.0569028854370117188 3.7018065452575683594 3.8195974826812744141 3.2491703033447265625 3.1144537925720214844 4.0848164558410644531 3.0799014568328857422 1.9230620861053466797 0.35951468348503112793 0.62332475185394287109 2.5840449333190917969 2.7989788055419921875 2.7632236480712890625 3.0969877243041992188 2.4556651115417480469 2.4592595100402832031 2.4491224288940429688 2.2094635963439941406 1.9063031673431396484 1.7734429836273193359 1.5938525199890136719 2.4797482490539550781 2.5852322578430175781 1.7209904193878173828 1.7123086452484130859 0.8495000004768371582 
3.0786046981811523438 2.9659242630004882812 3.5298149585723876953 3.6890208721160888672 2.8034391403198242188 2.6672778129577636719 2.7193231582641601562 2.7979178428649902344 4.6066279411315917969 8.27166748046875 9.3705120086669921875 4.29515838623046875 2.8830888271331787109 2.8212158679962158203 2.7898435592651367188 2.7517466545104980469 2.7618205547332763672 2.7724852561950683594 3.4779284000396728516 2.8813869953155517578 2.6397366523742675781 2.7853772640228271484 3.9892439842224121094 2.9996848106384277344 4.0619401931762695312 3.7895426750183105469 2.4589364528656005859 5.2459998130798339844 5.7782721519470214844 2.9573373794555664062 4.5765681266784667969 4.1667413711547851562 0.98539775609970092773 1.2755659818649291992 0.52894902229309082031 0.42304047942161560059 2.0182929039001464844 1.5005638599395751953 2.5514597892761230469 2.3297643661499023438 3.2923097610473632812 0.76872599124908447266 2.5200326442718505859 2.0441431999206542969 2.3989088535308837891 2.2284951210021972656 2.4787092208862304688 1.1867489814758300781 2.8281507492065429688 2.6824777126312255859 2.5085263252258300781 2.7535853385925292969 2.6897413730621337891 2.7228865623474121094 4.0014910697937011719 3.0221943855285644531 2.7894856929779052734 5.0127453804016113281 8.391246795654296875 11.306063652038574219 7.7356972694396972656 4.152339935302734375 3.5470733642578125 4.5143985748291015625 2.8913974761962890625 3.3479447364807128906 3.9381253719329833984 3.2852447032928466797 2.0036947727203369141 1.9179360866546630859 1.2744470834732055664 1.3303754329681396484 2.3507039546966552734 1.7665430307388305664 2.1182692050933837891 1.4599622488021850586 2.2279706001281738281 1.7864404916763305664 1.2441625595092773438 1.3752893209457397461 1.024840235710144043 2.6312098503112792969 2.7766923904418945312 2.8167004585266113281 2.6640405654907226562 2.763874053955078125 2.801654815673828125 
3.6903781890869140625 4.0564227104187011719 4.4205560684204101562 4.5381741523742675781 4.1785335540771484375 3.1468844413757324219 3.6065666675567626953 5.5255675315856933594 4.5348453521728515625 5.0870099067687988281 4.385196685791015625 3.1914663314819335938 3.0255897045135498047 2.7935705184936523438 2.7799005508422851562 2.6379489898681640625 2.7506864070892333984 2.7942802906036376953 2.9403481483459472656 2.9046475887298583984 2.8048543930053710938 3.6861712932586669922 2.9293110370635986328 2.6725182533264160156 1.5556839704513549805 0.48521101474761962891 1.1921629905700683594 2.2220618724822998047 3.4918696880340576172 3.3432865142822265625 2.9033112525939941406 2.8418726921081542969 1.4329198598861694336 1.4818135499954223633 2.9938073158264160156 1.0638204813003540039 1.8155629634857177734 2.0827150344848632812 3.3412716388702392578 5.0172033309936523438 4.6443524360656738281 1.7214568853378295898 1.4167704582214355469 1.2780877351760864258 1.9779400825500488281 2.7188591957092285156 2.7594621181488037109 2.4192681312561035156 2.8087787628173828125 2.8337397575378417969 2.8174412250518798828 2.7910184860229492188 2.7334146499633789062 2.7364194393157958984 2.8180401325225830078 6.7083420753479003906 3.3428966999053955078 4.1322569847106933594 2.1745693683624267578 2.1300892829895019531 1.5548042058944702148 1.0567071437835693359 2.5993707180023193359 1.1750489473342895508 2.0313251018524169922 2.1151306629180908203 4.783962249755859375 2.7549414634704589844 2.0455355644226074219 1.8019280433654785156 2.2425169944763183594 0.4276250004768371582 1.121085047721862793 1.7273459434509277344 2.4615409374237060547 2.7192053794860839844 2.2536118030548095703 1.6378424167633056641 0.68381750583648681641 0.58791947364807128906 1.1084063053131103516 2.9014582633972167969 3.6338083744049072266 2.6489157676696777344 2.3993215560913085938 2.7853984832763671875 2.7592079639434814453 
3.9593977928161621094 3.4633500576019287109 4.655792236328125 4.4205560684204101562 4.4149127006530761719 2.7737643718719482422 4.7007312774658203125 6.1766195297241210938 6.4729976654052734375 5.9704003334045410156 3.2457032203674316406 3.1176457405090332031 2.799663543701171875 2.7991394996643066406 2.6635410785675048828 1.0967286825180053711 2.4726169109344482422 2.7930328845977783203 2.7792749404907226562 3.2046430110931396484 2.6765773296356201172 3.4883944988250732422 2.7017800807952880859 2.7710187435150146484 2.5671198368072509766 0.73957675695419311523 1.7390769720077514648 0.79251062870025634766 1.6826946735382080078 1.522922515869140625 4.8823380470275878906 3.3400905132293701172 1.7021579742431640625 2.1159114837646484375 2.7923297882080078125 2.447635650634765625 2.815242767333984375 2.7885010242462158203 6.1543674468994140625 3.5909249782562255859 3.9855282306671142578 1.2159115076065063477 1.493455052375793457 1.5550650358200073242 1.8815876245498657227 3.0544877052307128906 2.8074736595153808594 2.8163008689880371094 2.7967493534088134766 2.7813563346862792969 2.7724645137786865234 2.7325897216796875 2.7801373004913330078 2.8036208152770996094 1.7339999675750732422 5.9475154876708984375 2.8774199485778808594 3.1074929237365722656 3.9704618453979492188 5.1831278800964355469 1.3649178743362426758 1.5478358268737792969 1.1615402698516845703 0.59560722112655639648 2.2037539482116699219 2.0710377693176269531 3.7435894012451171875 1.5864720344543457031 1.3457130193710327148 2.8170249462127685547 1.4331611394882202148 0.55085825920104980469 1.3113780021667480469 1.2000558376312255859 1.7143166065216064453 1.5581499338150024414 0.9263312220573425293 1.156108856201171875 1.0831372737884521484 1.7213944196701049805 2.2150716781616210938 2.7683563232421875 2.7884333133697509766 2.6932148933410644531 2.5351812839508056641 2.4057252407073974609 1.4700517654418945312 
3.6854026317596435547 3.9399397373199462891 4.4205560684204101562 4.5381741523742675781 3.7085719108581542969 2.8029623031616210938 4.3092265129089355469 5.6703543663024902344 5.776912689208984375 3.8409938812255859375 4.0986776351928710938 2.8057727813720703125 2.7630641460418701172 2.4606444835662841797 2.4633357524871826172 2.7918920516967773438 2.7926769256591796875 2.7471966743469238281 2.9823238849639892578 2.6920092105865478516 2.7151303291320800781 2.3704133033752441406 2.0100405216217041016 2.5648403167724609375 2.5734484195709228516 2.8404803276062011719 1.1606929302215576172 0.78148704767227172852 0.25629207491874694824 0.88432037830352783203 2.3924317359924316406 6.8459024429321289062 2.3612208366394042969 2.7646999359130859375 3.1992509365081787109 3.5010900497436523438 2.4045681953430175781 4.0400347709655761719 7.0796051025390625 1.1047900915145874023 0.91842263936996459961 2.6876273155212402344 2.8746683597564697266 1.436400294303894043 2.1212074756622314453 3.1338002681732177734 2.7890179157257080078 2.8061923980712890625 2.8458683490753173828 2.8037207126617431641 2.7376859188079833984 2.7944276332855224609 2.7812554836273193359 5.0127706527709960938 4.0804843902587890625 3.4044411182403564453 2.7671389579772949219 3.6306891441345214844 5.4792985916137695312 4.3213362693786621094 1.89377593994140625 1.1636524200439453125 1.5886547565460205078 2.3475711345672607422 1.04228973388671875 2.5676164627075195312 6.2956852912902832031 3.3708856105804443359 1.7900495529174804688 1.7466815710067749023 2.876934051513671875 3.3928596973419189453 0.92425233125686645508 1.9074789285659790039 0.50622129440307617188 3.6172108650207519531 2.1043155193328857422 1.5474438667297363281 1.3847477436065673828 1.5829350948333740234 3.8417694568634033203 3.4814534187316894531 2.9090871810913085938 2.6617455482482910156 2.8266663551330566406 1.9143674373626708984 0.72777551412582397461 
3.9365866184234619141 4.1730852127075195312 4.408321380615234375 4.5431399345397949219 3.074371337890625 2.7416841983795166016 4.94306182861328125 7.352390289306640625 3.8584609031677246094 4.2893991470336914062 4.2308802604675292969 1.3220022916793823242 1.2591428756713867188 0.53511202335357666016 0.95751589536666870117 2.7823863029479980469 2.7825450897216796875 2.7398118972778320312 2.7022099494934082031 2.7078759670257568359 2.8421237468719482422 2.5901937484741210938 2.7395410537719726562 2.6726861000061035156 1.5137190818786621094 5.4282078742980957031 1.3179644346237182617 1.1117713451385498047 0.18368749320507049561 2.0925836563110351562 5.3929624557495117188 5.1295638084411621094 1.7272043228149414062 3.7985575199127197266 5.4626421928405761719 1.5953131914138793945 0.064999997615814208984 1.4506212472915649414 5.5078783035278320312 2.9881641864776611328 0.28557074069976806641 1.5654351711273193359 2.9241971969604492188 2.9418041706085205078 2.8041012287139892578 2.8111863136291503906 3.7479574680328369141 2.8003406524658203125 2.8082029819488525391 2.8058495521545410156 2.7919461727142333984 2.7720975875854492188 2.7740104198455810547 5.5720572471618652344 3.8952507972717285156 2.8470516204833984375 1.7856056690216064453 2.17980194091796875 4.5440683364868164062 3.3216483592987060547 1.8962279558181762695 1.6453531980514526367 1.1897430419921875 1.735492706298828125 2.3282027244567871094 4.8905549049377441406 3.8926136493682861328 6.1809315681457519531 2.993144989013671875 1.8138074874877929688 1.2961736917495727539 0.563568115234375 0.11699999868869781494 0.11699999868869781494 1.8545471429824829102 2.9739167690277099609 2.2200193405151367188 1.7738426923751831055 0.74842798709869384766 1.3070200681686401367 2.4643681049346923828 2.7704663276672363281 2.7551229000091552734 2.7484486103057861328 2.7018654346466064453 2.0818364620208740234 1.4467341899871826172 
3.8298730850219726562 3.6081049442291259766 3.931262969970703125 4.2939853668212890625 2.7772073745727539062 3.5168688297271728516 7.5906896591186523438 4.3019480705261230469 3.6949415206909179688 4.2971367835998535156 3.8266022205352783203 2.5302321910858154297 1.7807997465133666992 2.0188295841217041016 1.5267350673675537109 2.79449462890625 2.8028948307037353516 2.790019989013671875 2.9324274063110351562 3.6032884120941162109 2.7943820953369140625 1.9232113361358642578 1.7792541980743408203 1.2431347370147705078 1.6155028343200683594 1.83522796630859375 1.2971068620681762695 2.3982343673706054688 1.6986527442932128906 2.8830385208129882812 4.9486460685729980469 2.9845421314239501953 1.9931318759918212891 2.3332970142364501953 2.5602891445159912109 0.79197478294372558594 0.8326320648193359375 1.8547648191452026367 5.2880220413208007812 0.51944595575332641602 0.37114423513412475586 2.8043150901794433594 3.0667147636413574219 3.2326734066009521484 2.8165242671966552734 2.8169679641723632812 2.8190875053405761719 3.0450291633605957031 2.7920055389404296875 2.7843227386474609375 2.7814180850982666016 5.220600128173828125 4.7451090812683105469 2.6679952144622802734 1.7451078891754150391 2.3720791339874267578 1.6924750804901123047 3.8351776599884033203 6.2884435653686523438 6.716091156005859375 1.4431254863739013672 1.4583795070648193359 0.66870021820068359375 2.8085439205169677734 5.7705364227294921875 5.3263072967529296875 4.0227742195129394531 2.9794211387634277344 3.0487349033355712891 2.8645601272583007812 0.15962499380111694336 0.11699999868869781494 0.11699999868869781494 0.11699999868869781494 0.40067452192306518555 2.0985598564147949219 1.0933197736740112305 1.3891823291778564453 2.5817511081695556641 1.7583558559417724609 1.5990155935287475586 2.7844316959381103516 2.7667746543884277344 3.6103615760803222656 2.9680662155151367188 2.1006953716278076172 2.1485447883605957031 
2.5735149383544921875 2.7266480922698974609 2.6779654026031494141 2.7355439662933349609 3.0014948844909667969 5.2528400421142578125 5.3481912612915039062 2.74924468994140625 3.0849893093109130859 3.3032763004302978516 2.9633593559265136719 1.517403721809387207 1.7905019521713256836 1.8462083339691162109 2.0025258064270019531 4.6150469779968261719 2.8049094676971435547 5.4923114776611328125 2.7864949703216552734 2.7619867324829101562 2.7156467437744140625 2.3797526359558105469 1.2497354745864868164 2.871387481689453125 2.1161367893218994141 1.8680721521377563477 0.93175351619720458984 1.0806032419204711914 0.47474998235702514648 2.2361440658569335938 1.2099639177322387695 1.4444826841354370117 1.4388346672058105469 2.5180490016937255859 2.1076133251190185547 1.7390156984329223633 1.2078213691711425781 2.45455169677734375 0.19748479127883911133 0.63947403430938720703 1.4290075302124023438 2.8016109466552734375 2.7870364189147949219 2.7651882171630859375 3.4926095008850097656 2.8160374164581298828 2.8139781951904296875 2.7843480110168457031 8.2486257553100585938 3.81258392333984375 2.8065328598022460938 5.0576214790344238281 6.7998676300048828125 8.0631456375122070312 8.8933811187744140625 2.3010079860687255859 2.9536736011505126953 6.0312342643737792969 6.0391588211059570312 5.827014923095703125 1.7764682769775390625 2.4212980270385742188 2.6868607997894287109 2.769496917724609375 2.7995638847351074219 2.7529482841491699219 4.2985706329345703125 5.346477508544921875 3.9667313098907470703 2.5753970146179199219 0.28363901376724243164 0.11699999868869781494 0.11699999868869781494 0.11699999868869781494 0.11699999868869781494 1.3631980419158935547 1.0971391201019287109 1.839257359504699707 1.6946898698806762695 2.6228618621826171875 1.5761445760726928711 2.7351548671722412109 2.8130674362182617188 2.7543330192565917969 2.7611553668975830078 1.3791536092758178711 1.4599205255508422852 
2.6111021041870117188 2.6260426044464111328 3.0612430572509765625 2.8082087039947509766 4.74604034423828125 4.6828474998474121094 3.7103414535522460938 2.6579198837280273438 2.4236187934875488281 2.7059073448181152344 2.6860566139221191406 1.4743012189865112305 2.5796439647674560547 2.2946107387542724609 3.7723646163940429688 3.8522210121154785156 2.7346274852752685547 3.4270129203796386719 2.1291141510009765625 5.2373933792114257812 7.8943738937377929688 7.9333624839782714844 2.6336910724639892578 2.9151411056518554688 0.59576553106307983398 0.056153845041990280151 0.092500001192092895508 2.525638580322265625 1.5244218111038208008 2.5113384723663330078 0.97587502002716064453 0.059999998658895492554 0.062857143580913543701 0.059999998658895492554 0.53783589601516723633 1.1432626247406005859 2.3174688816070556641 1.449149012565612793 1.0996382236480712891 1.6523981094360351562 0.75973355770111083984 1.1299262046813964844 3.1584329605102539062 4.8792390823364257812 7.2616643905639648438 2.7952854633331298828 2.8346970081329345703 2.8010110855102539062 7.9409680366516113281 4.9640607833862304688 2.1349856853485107422 6.1635165214538574219 3.7119805812835693359 6.711956024169921875 5.0970253944396972656 4.3763670921325683594 1.19903564453125 4.8811445236206054688 0.67394369840621948242 1.8901083469390869141 5.3468689918518066406 2.7280051708221435547 2.7935168743133544922 2.8150553703308105469 2.8125920295715332031 2.9111237525939941406 6.7542638778686523438 4.6874322891235351562 2.1895599365234375 0.76926749944686889648 2.0055947303771972656 0.31049695611000061035 0.11699999868869781494 0.11156249791383743286 0.11699999868869781494 0.79227906465530395508 1.0163959264755249023 0.57895284891128540039 1.3196709156036376953 2.6422774791717529297 1.4648696184158325195 1.876796722412109375 1.7349969148635864258 1.5802414417266845703 2.3461616039276123047 2.3820378780364990234 1.4324899911880493164 
2.8801724910736083984 2.8816072940826416016 2.7103044986724853516 5.354511260986328125 5.7272548675537109375 5.4853048324584960938 3.0187137126922607422 2.2268040180206298828 1.7446142435073852539 1.4269098043441772461 1.9340860843658447266 1.0363278388977050781 2.6221859455108642578 2.6289455890655517578 2.4618723392486572266 2.1135158538818359375 2.5602264404296875 2.82801055908203125 4.4832029342651367188 3.789020538330078125 4.3489460945129394531 1.4955012798309326172 2.581447601318359375 2.5729470252990722656 0.79694294929504394531 0.17089974880218505859 1.7210942506790161133 7.4699978828430175781 0.68995875120162963867 2.3432130813598632812 2.2631702423095703125 0.24208487570285797119 0.064999997615814208984 0.75711113214492797852 0.26106840372085571289 0.71161228418350219727 1.4057255983352661133 3.3726949691772460938 1.9970271587371826172 1.4379949569702148438 2.6174724102020263672 0.029999999329447746277 4.4462308883666992188 10.592662811279296875 3.5396802425384521484 2.8094313144683837891 2.8275754451751708984 2.8160023689270019531 9.180419921875 2.0765516757965087891 4.642757415771484375 2.0355851650238037109 2.1709566116333007812 0.97200644016265869141 1.1713099479675292969 3.3959453105926513672 0.77212238311767578125 3.5403935909271240234 1.2590378522872924805 6.8710279464721679688 6.719333648681640625 2.7644391059875488281 2.7915160655975341797 2.81970977783203125 2.8181581497192382812 2.7848672866821289062 7.19510650634765625 3.3899872303009033203 2.0707316398620605469 2.1545932292938232422 8.0024232864379882812 4.0513157844543457031 0.32225936651229858398 0.11119987815618515015 0.097437500953674316406 0.15856249630451202393 0.40067452192306518555 0.15962499380111694336 0.68434900045394897461 2.0660748481750488281 1.0115518569946289062 0.34219801425933837891 0.34219801425933837891 0.34219801425933837891 0.95999932289123535156 2.8032705783843994141 2.7931532859802246094 
2.4887378215789794922 2.6264569759368896484 3.9115879535675048828 5.9752774238586425781 5.6881566047668457031 4.7596917152404785156 2.7308745384216308594 2.0236556529998779297 1.2543308734893798828 1.8207994699478149414 1.3032640218734741211 1.6018956899642944336 2.7379641532897949219 2.5243248939514160156 1.6656433343887329102 1.2766112089157104492 1.956448674201965332 1.347771763801574707 0.23324875533580780029 0.69549316167831420898 1.9426764249801635742 2.0354180335998535156 2.637691497802734375 1.9628881216049194336 2.4447422027587890625 2.1923246383666992188 5.1148800849914550781 7.1448788642883300781 0.059999998658895492554 6.957813262939453125 4.4521694183349609375 1.3099095821380615234 1.9242666959762573242 0.06444444507360458374 0.30131158232688903809 0.1134374961256980896 0.11699999868869781494 1.3827333450317382812 0.97827088832855224609 2.7667520046234130859 2.5413694381713867188 0.79300904273986816406 2.8944797515869140625 5.6693553924560546875 2.7800812721252441406 2.827823638916015625 2.8087899684906005859 3.4537136554718017578 4.2315521240234375 2.1259639263153076172 1.5420783758163452148 0.66078805923461914062 0.65108942985534667969 0.98116976022720336914 3.0596463680267333984 6.2602224349975585938 0.99550843238830566406 8.1723756790161132812 6.7289538383483886719 5.3987703323364257812 1.9877135753631591797 2.7916810512542724609 8.0983734130859375 2.7984712123870849609 2.7833502292633056641 2.8732655048370361328 3.9840908050537109375 3.4556257724761962891 3.4631164073944091797 2.1130003929138183594 6.6903614997863769531 4.1168618202209472656 3.2733731269836425781 5.1285948753356933594 0.25909537076950073242 0.10137499868869781494 0.11699999868869781494 0.11699999868869781494 0.40067452192306518555 2.2763192653656005859 1.1462980508804321289 0.34219801425933837891 0.34219801425933837891 0.49894508719444274902 1.6464713811874389648 2.8094995021820068359 2.7607746124267578125 
3.0244975090026855469 2.7585186958312988281 4.0084214210510253906 5.6196565628051757812 3.9405653476715087891 2.8903789520263671875 1.931410670280456543 2.413707733154296875 2.4492304325103759766 2.118282318115234375 2.1194281578063964844 2.3643333911895751953 1.337347865104675293 1.944514155387878418 1.3790088891983032227 3.7085516452789306641 2.5606231689453125 2.2400302886962890625 2.2793362140655517578 2.1946194171905517578 1.2200090885162353516 1.1387847661972045898 0.75412309169769287109 2.884918212890625 2.5503995418548583984 2.8058457374572753906 2.9185593128204345703 2.1181087493896484375 2.6132454872131347656 3.3794314861297607422 2.1889441013336181641 1.6648836135864257812 1.7357878684997558594 1.1794527769088745117 0.7248490452766418457 0.11699999868869781494 0.56775534152984619141 0.60971921682357788086 0.5685551762580871582 0.29346099495887756348 0.6267172694206237793 2.6925485134124755859 4.1937499046325683594 2.7959086894989013672 2.7961423397064208984 2.4682888984680175781 2.2615902423858642578 1.2081388235092163086 2.8139660358428955078 2.8176856040954589844 2.5461633205413818359 2.8254740238189697266 2.51584625244140625 2.7755100727081298828 4.7963194847106933594 7.3816466331481933594 2.5990073680877685547 6.1589002609252929688 5.140155792236328125 7.5601258277893066406 2.6290225982666015625 3.2643232345581054688 7.7688622474670410156 2.7974193096160888672 2.7481544017791748047 3.4632997512817382812 2.9443671703338623047 2.9302847385406494141 2.6149680614471435547 2.0986299514770507812 3.6124045848846435547 5.1140112876892089844 2.5638830661773681641 2.6686580181121826172 1.2359489202499389648 0.59180784225463867188 0.11699999868869781494 0.9061082005500793457 0.62424767017364501953 2.4053218364715576172 0.97058928012847900391 0.34219801425933837891 0.34219801425933837891 1.8223071098327636719 2.7344524860382080078 3.0990891456604003906 3.7159831523895263672 
2.7133464813232421875 3.5118551254272460938 5.3793325424194335938 5.0410056114196777344 2.8703761100769042969 1.6047235727310180664 0.7554385066032409668 1.7731146812438964844 1.1917273998260498047 0.50926506519317626953 2.9848852157592773438 2.2240111827850341797 2.4363613128662109375 2.8066806793212890625 1.5548646450042724609 2.9255990982055664062 3.59264373779296875 2.2799003124237060547 2.7524926662445068359 2.5898406505584716797 2.7545933723449707031 2.1099884510040283203 1.671732783317565918 2.5615494251251220703 1.4116914272308349609 1.8853286504745483398 1.791947484016418457 2.1147494316101074219 1.5286967754364013672 1.8740637302398681641 1.0341289043426513672 0.21889999508857727051 0.28898265957832336426 0.39149999618530273438 1.675137639045715332 0.7887897491455078125 1.2766790390014648438 0.74699997901916503906 0.92873948812484741211 2.1098399162292480469 0.7428296208381652832 4.1375021934509277344 1.8718221187591552734 1.9679534435272216797 1.0835771560668945312 2.4717803001403808594 2.7997865676879882812 2.7066719532012939453 2.7939302921295166016 2.7627384662628173828 2.7034163475036621094 2.8037791252136230469 2.7338299751281738281 2.7067356109619140625 3.5913448333740234375 3.1375489234924316406 3.0546534061431884766 9.3230304718017578125 5.27001190185546875 4.0986027717590332031 4.5126280784606933594 3.9465651512145996094 4.1918044090270996094 2.2987334728240966797 2.6631550788879394531 3.2676486968994140625 3.8215990066528320312 2.9291601181030273438 2.4122860431671142578 1.5176064968109130859 2.7831852436065673828 5.0134510993957519531 3.7575948238372802734 1.9497854709625244141 1.3072538375854492188 1.7882026433944702148 1.5562329292297363281 1.2497260570526123047 3.0486211776733398438 2.0616896152496337891 1.3883063793182373047 0.34219801425933837891 0.63741230964660644531 4.467060089111328125 2.7915148735046386719 2.7225861549377441406 2.7169420719146728516 
3.5679788589477539062 5.945758819580078125 3.4908511638641357422 2.8405163288116455078 2.5103881359100341797 1.7994264364242553711 1.777811884880065918 1.185210108757019043 2.0302317142486572266 1.1594358682632446289 1.9159693717956542969 2.1879787445068359375 2.3069584369659423828 2.6426174640655517578 2.2210524082183837891 2.6371831893920898438 3.0150480270385742188 2.6356251239776611328 2.25057220458984375 2.7954854965209960938 2.2900559902191162109 0.18001320958137512207 2.3463442325592041016 2.6039648056030273438 0.37016144394874572754 2.0909025669097900391 0.41967633366584777832 0.40091362595558166504 0.050000000745058059692 0.0449999980628490448 0.65393710136413574219 0.98209983110427856445 0.068571425974369049072 2.6242468357086181641 2.5609650611877441406 0.73157823085784912109 0.24259079992771148682 0.57652735710144042969 0.063124999403953552246 0.75056123733520507812 0.98273700475692749023 1.8455346822738647461 2.8150143623352050781 2.8160700798034667969 2.8066036701202392578 2.8116006851196289062 2.8178856372833251953 2.7971322536468505859 2.8104491233825683594 2.7907655239105224609 2.8030974864959716797 2.8086502552032470703 2.7361989021301269531 2.973583221435546875 3.9431622028350830078 4.1653585433959960938 3.0315115451812744141 3.6918299198150634766 4.8277144432067871094 0.96621054410934448242 2.3514146804809570312 4.4808216094970703125 3.2674965858459472656 2.8083362579345703125 2.8099017143249511719 3.4352030754089355469 3.0149586200714111328 2.2487752437591552734 0.98861765861511230469 2.0645985603332519531 2.7915651798248291016 5.4485225677490234375 4.1022686958312988281 2.6237406730651855469 2.1696195602416992188 2.73023223876953125 1.3934781551361083984 2.8251338005065917969 4.2801098823547363281 1.7019445896148681641 1.8543514013290405273 2.1026132106781005859 2.7232723236083984375 4.3272342681884765625 8.8022518157958984375 2.7812244892120361328 2.7497074604034423828 
4.7245955467224121094 9.7053012847900390625 3.7777559757232666016 4.7630162239074707031 2.8069703578948974609 2.7885119915008544922 3.4835426807403564453 4.1813378334045410156 2.7994289398193359375 3.4896252155303955078 3.9319856166839599609 3.1722741127014160156 6.0385751724243164062 5.3935461044311523438 2.6521143913269042969 1.8347868919372558594 2.4455437660217285156 1.3328927755355834961 1.888031005859375 2.8008546829223632812 1.9477832317352294922 0.063749998807907104492 0.066249996423721313477 0.67054331302642822266 0.9288151860237121582 0.88657224178314208984 1.292180180549621582 1.3375754356384277344 1.6165157556533813477 2.6644628047943115234 1.2098587751388549805 0.27248439192771911621 0.059374999254941940308 1.300454258918762207 1.7184053659439086914 0.93548619747161865234 0.072499997913837432861 0.061000000685453414917 1.7362036705017089844 2.5649890899658203125 1.7817121744155883789 3.0213494300842285156 2.8216981887817382812 2.7979278564453125 2.8053517341613769531 2.7741472721099853516 2.9095702171325683594 3.7301661968231201172 2.7567913532257080078 2.1790511608123779297 2.4264934062957763672 2.8168656826019287109 1.8504368066787719727 2.0778787136077880859 3.5768818855285644531 3.9226260185241699219 3.4364769458770751953 3.0938739776611328125 2.015422821044921875 1.6931145191192626953 2.7892439365386962891 2.8559288978576660156 6.9514451026916503906 2.8957955837249755859 2.9544315338134765625 3.2591834068298339844 3.3460147380828857422 1.5270348787307739258 1.8799479007720947266 2.4212753772735595703 5.1114621162414550781 6.1240682601928710938 2.7843980789184570312 2.7952966690063476562 2.9395020008087158203 2.2865664958953857422 1.8752815723419189453 2.741855621337890625 3.1718096733093261719 1.2565083503723144531 2.2274599075317382812 2.8629388809204101562 2.8080546855926513672 2.2048270702362060547 3.6646416187286376953 2.4998850822448730469 5.5795712471008300781 
6.1924643516540527344 8.930957794189453125 2.8819110393524169922 2.7423684597015380859 2.8025956153869628906 2.7931337356567382812 2.6783964633941650391 0.95288926362991333008 4.2898807525634765625 6.4811148643493652344 5.5953965187072753906 2.5775637626647949219 3.4171521663665771484 4.59821319580078125 3.8404138088226318359 2.0658071041107177734 2.2614169120788574219 2.73386383056640625 2.7765386104583740234 2.7924115657806396484 1.2664188146591186523 1.2684777975082397461 5.243442535400390625 1.4237397909164428711 2.0107483863830566406 0.97279453277587890625 2.7282090187072753906 2.6009290218353271484 7.2993412017822265625 6.8954343795776367188 4.992961883544921875 1.4330623149871826172 0.69537496566772460938 0.066153846681118011475 0.07066666334867477417 0.28140407800674438477 0.75538301467895507812 0.53447484970092773438 0.67734742164611816406 1.9013320207595825195 3.7787396907806396484 5.1668043136596679688 2.9458289146423339844 3.7306742668151855469 3.2442650794982910156 2.9547874927520751953 4.1921405792236328125 4.2198591232299804688 1.2708923816680908203 1.0808920860290527344 0.34219801425933837891 0.6532681584358215332 0.34219801425933837891 0.34219801425933837891 2.2153222560882568359 2.7567722797393798828 2.7390575408935546875 2.7939798831939697266 2.790618896484375 3.78266143798828125 3.47194671630859375 6.5536522865295410156 10.172360420227050781 6.5484952926635742188 2.7573521137237548828 2.9974732398986816406 3.2228677272796630859 1.8896458148956298828 2.6228361129760742188 3.7856886386871337891 8.9987306594848632812 1.7610650062561035156 1.4886047840118408203 4.6098680496215820312 2.6151282787322998047 1.7362939119338989258 1.7515720129013061523 2.7367157936096191406 2.7039775848388671875 2.2830691337585449219 1.5373678207397460938 1.2051885128021240234 1.2047655582427978516 2.2632653713226318359 2.6795806884765625 2.58560943603515625 2.1050510406494140625 
6.095447540283203125 4.8239421844482421875 2.7322382926940917969 2.6964159011840820312 2.7846028804779052734 3.4707422256469726562 3.9684269428253173828 2.1540238857269287109 3.8290259838104248047 4.9050488471984863281 2.0443837642669677734 1.3552471399307250977 1.7399381399154663086 2.5675690174102783203 2.3871703147888183594 2.5298509597778320312 2.5006451606750488281 2.8152139186859130859 3.7654259204864501953 0.66387677192687988281 2.7291395664215087891 2.1744518280029296875 3.1419897079467773438 2.1998221874237060547 0.52057921886444091797 3.3872737884521484375 2.5565884113311767578 3.5395340919494628906 1.124184727668762207 3.1596226692199707031 2.2593126296997070312 0.33222970366477966309 0.063333332538604736328 1.5312646627426147461 0.057999998331069946289 2.0282530784606933594 2.6004486083984375 1.9006741046905517578 2.0700218677520751953 1.185733795166015625 2.6822459697723388672 3.8075902462005615234 3.8141198158264160156 4.3253722190856933594 4.5120167732238769531 4.0689644813537597656 4.4057803153991699219 3.3657023906707763672 2.5425384044647216797 1.2145502567291259766 0.34219801425933837891 0.34219801425933837891 0.34219801425933837891 0.34219801425933837891 2.7940294742584228516 2.945934295654296875 2.9701979160308837891 2.7833774089813232422 2.7747578620910644531 2.8268573284149169922 4.0366959571838378906 7.0764436721801757812 6.2161397933959960938 3.1255035400390625 2.7499976158142089844 3.9183521270751953125 4.29897308349609375 2.1740980148315429688 2.6210265159606933594 4.5840902328491210938 3.6730053424835205078 1.0374650955200195312 1.3560504913330078125 2.4072453975677490234 1.9598929882049560547 2.5799233913421630859 1.5767160654067993164 2.9073634147644042969 3.2449960708618164062 4.3079142570495605469 4.1895198822021484375 1.5242815017700195312 1.4915906190872192383 2.752635955810546875 2.7275798320770263672 2.523929595947265625 1.4766499996185302734 
5.6521353721618652344 3.1378405094146728516 2.6226830482482910156 2.7059710025787353516 2.7879698276519775391 2.8158926963806152344 2.7807910442352294922 1.9512000083923339844 1.3721004724502563477 1.9441255331039428711 4.1564531326293945312 2.4009261131286621094 1.9465367794036865234 2.1073584556579589844 1.1722369194030761719 0.064999997615814208984 1.978192448616027832 1.0937193632125854492 0.41647049784660339355 5.1694917678833007812 5.7590389251708984375 0.064999997615814208984 2.791713714599609375 0.80898213386535644531 1.6650848388671875 1.1235449314117431641 0.87100279331207275391 2.4949629306793212891 3.7695369720458984375 2.7900245189666748047 2.7432863712310791016 1.7901414632797241211 1.1571037769317626953 1.0781997442245483398 4.0561070442199707031 1.0772536993026733398 5.2935943603515625 1.7823584079742431641 1.6462758779525756836 0.31192326545715332031 0.95802998542785644531 3.0430459976196289062 3.7388157844543457031 3.6612691879272460938 4.4144387245178222656 4.1813063621520996094 4.655792236328125 3.7409322261810302734 2.6727907657623291016 0.90942406654357910156 0.34219801425933837891 0.34219801425933837891 0.34219801425933837891 0.34219801425933837891 2.7758812904357910156 2.7359368801116943359 2.8292412757873535156 2.8627314567565917969 2.7682280540466308594 2.8049705028533935547 2.7667553424835205078 8.9382905960083007812 6.7577967643737792969 2.7040379047393798828 2.7510120868682861328 3.5805153846740722656 3.5786473751068115234 3.5752515792846679688 3.2451784610748291016 5.8600611686706542969 1.4696762561798095703 1.0023595094680786133 1.7862076759338378906 2.2548065185546875 2.4382088184356689453 2.6196930408477783203 2.2199459075927734375 3.1142492294311523438 4.5345568656921386719 4.4161143302917480469 4.1955361366271972656 2.5905027389526367188 1.2350696325302124023 2.7010741233825683594 2.7767276763916015625 1.8553791046142578125 0.34219801425933837891 
5.8705663681030273438 2.7369525432586669922 2.6901574134826660156 2.7351107597351074219 3.3977181911468505859 2.8174874782562255859 2.8361339569091796875 2.4500098228454589844 3.5900161266326904297 3.2733325958251953125 2.8129973411560058594 3.7812237739562988281 2.7750236988067626953 2.601413726806640625 2.3159902095794677734 2.2437455654144287109 0.70958691835403442383 1.6636705398559570312 2.3583307266235351562 0.96634382009506225586 2.3497140407562255859 0.66706597805023193359 1.3791428804397583008 1.5053124427795410156 1.5989999771118164062 6.9159150123596191406 2.1588294506072998047 3.4720120429992675781 4.8321361541748046875 3.5772483348846435547 3.4339113235473632812 1.5755990743637084961 5.0451827049255371094 7.6895537376403808594 2.4645075798034667969 2.3816497325897216797 2.77733612060546875 0.79900002479553222656 0.95182394981384277344 1.0219618082046508789 1.4954857826232910156 2.7985491752624511719 2.8075144290924072266 2.8167138099670410156 4.3003392219543457031 4.655792236328125 4.655792236328125 2.1819174289703369141 1.8636810779571533203 1.9914250373840332031 0.34219801425933837891 0.34219801425933837891 0.34219801425933837891 1.95516204833984375 2.1033861637115478516 3.4053292274475097656 2.7558565139770507812 2.9228646755218505859 2.7474107742309570312 2.7606291770935058594 2.8601253032684326172 3.5236120223999023438 5.4373426437377929688 4.1830706596374511719 3.9085421562194824219 2.8889734745025634766 2.8458781242370605469 3.3543446063995361328 5.8589754104614257812 2.3707227706909179688 1.0612037181854248047 1.5477290153503417969 1.5900480747222900391 2.0247609615325927734 1.6848083734512329102 2.660518646240234375 2.6692790985107421875 3.2674877643585205078 4.2963724136352539062 3.8813567161560058594 3.1223959922790527344 2.7285387516021728516 3.5773169994354248047 3.4613847732543945312 2.9963991641998291016 2.4397325515747070312 1.9878225326538085938 
2.8274462223052978516 2.6798300743103027344 2.7281942367553710938 3.4030549526214599609 5.2801609039306640625 3.7118325233459472656 6.2901906967163085938 5.6209301948547363281 0.63688737154006958008 1.0225884914398193359 2.4151666164398193359 2.4301042556762695312 2.7474613189697265625 2.5871179103851318359 1.5476624965667724609 1.8626981973648071289 1.6058789491653442383 1.436360478401184082 2.6684870719909667969 1.6978925466537475586 1.5989999771118164062 1.5989999771118164062 1.5989999771118164062 1.5989999771118164062 2.3984444141387939453 4.9590411186218261719 3.9983401298522949219 4.0598611831665039062 6.000522613525390625 5.4403576850891113281 4.8949251174926757812 4.8078331947326660156 3.1812014579772949219 2.9139673709869384766 2.1303925514221191406 3.4273750782012939453 5.6232275962829589844 0.79900002479553222656 0.79900002479553222656 0.79900002479553222656 2.4229624271392822266 2.8051154613494873047 2.8061470985412597656 2.7247257232666015625 4.1625475883483886719 3.4863605499267578125 4.8021931648254394531 3.115222930908203125 0.34219801425933837891 0.34219801425933837891 0.34219801425933837891 0.34219801425933837891 0.34219801425933837891 0.34219801425933837891 2.4915926456451416016 2.7775597572326660156 2.7703740596771240234 2.7497115135192871094 2.8174269199371337891 2.7732739448547363281 2.7278952598571777344 3.1975531578063964844 2.7885532379150390625 2.7827179431915283203 3.7675821781158447266 2.8024258613586425781 2.7850992679595947266 6.82456207275390625 5.1236724853515625 1.9764132499694824219 2.7961354255676269531 2.7313649654388427734 2.735469818115234375 2.7414608001708984375 2.8190579414367675781 2.8496451377868652344 2.2915654182434082031 2.0929782390594482422 3.9887998104095458984 2.9078400135040283203 2.9781246185302734375 3.2887334823608398438 3.9410107135772705078 3.9169270992279052734 3.0737426280975341797 4.5336661338806152344 3.1786236763000488281 
3.0702550411224365234 2.7317888736724853516 2.8120284080505371094 2.8002018928527832031 2.8016004562377929688 3.7235078811645507812 4.5114083290100097656 2.4549493789672851562 2.4999110698699951172 2.4571135044097900391 2.6040444374084472656 2.1948366165161132812 2.6128673553466796875 2.2852146625518798828 2.1391797065734863281 1.889606475830078125 0.93068748712539672852 1.5989999771118164062 1.5989999771118164062 1.5989999771118164062 1.5989999771118164062 1.5989999771118164062 2.0582456588745117188 3.5878040790557861328 8.0311870574951171875 4.3011922836303710938 2.1239213943481445312 4.8922443389892578125 8.8987016677856445312 4.8549528121948242188 2.1983578205108642578 1.4470841884613037109 2.5666208267211914062 2.3900623321533203125 4.7433147430419921875 3.8706185817718505859 4.6252369880676269531 1.2785999774932861328 0.79900002479553222656 1.135748744010925293 2.7881996631622314453 2.77993011474609375 2.7442944049835205078 1.9326447248458862305 2.8845338821411132812 3.0496990680694580078 4.655792236328125 2.9220025539398193359 0.34219801425933837891 0.34219801425933837891 0.34219801425933837891 0.34219801425933837891 0.34219801425933837891 0.34219801425933837891 2.1645073890686035156 2.8086566925048828125 2.7404141426086425781 2.7258021831512451172 2.7356178760528564453 2.7598052024841308594 3.0121057033538818359 2.8471806049346923828 3.2050497531890869141 5.2058086395263671875 4.2407007217407226562 3.857952117919921875 4.6272687911987304688 5.79569244384765625 2.9860472679138183594 1.5965199470520019531 2.8078372478485107422 2.7266371250152587891 3.2100031375885009766 2.7226920127868652344 2.7111885547637939453 2.7817080020904541016 1.2690705060958862305 1.9329278469085693359 1.9228960275650024414 2.1080734729766845703 2.7209258079528808594 3.2114114761352539062 4.4162435531616210938 4.0619940757751464844 3.907070159912109375 4.2957262992858886719 2.6901185512542724609 
2.7705206871032714844 3.6729760169982910156 2.8126614093780517578 2.7681431770324707031 2.7733693122863769531 2.6939544677734375 3.8111245632171630859 2.7805502414703369141 2.8010463714599609375 2.7252945899963378906 2.7574808597564697266 2.7425839900970458984 2.7732911109924316406 2.7137079238891601562 1.6469947099685668945 1.1288301944732666016 1.5989999771118164062 1.5989999771118164062 1.5989999771118164062 6.6347913742065429688 5.3189473152160644531 8.4116144180297851562 3.4973535537719726562 3.4655523300170898438 3.8537104129791259766 4.1438550949096679688 3.4142487049102783203 5.2565274238586425781 6.02892303466796875 3.1412398815155029297 2.6693506240844726562 0.77763944864273071289 1.8891177177429199219 2.7944447994232177734 2.6402277946472167969 2.5932724475860595703 1.4960399866104125977 0.93988949060440063477 1.888180851936340332 2.6737778186798095703 2.7771892547607421875 2.8022572994232177734 2.7512333393096923828 2.1317203044891357422 2.7378368377685546875 1.9988405704498291016 1.6884772777557373047 1.503556370735168457 0.34219801425933837891 1.0815668106079101562 2.3271353244781494141 0.34219801425933837891 1.1082484722137451172 1.4103974103927612305 2.7994520664215087891 2.7742283344268798828 2.8067336082458496094 2.9593889713287353516 2.7541244029998779297 2.7736687660217285156 2.6874091625213623047 4.8962106704711914062 9.1907491683959960938 7.8359098434448242188 7.3247528076171875 5.2538881301879882812 4.519496917724609375 2.0229558944702148438 1.5253022909164428711 1.2586411237716674805 2.7991383075714111328 2.7297682762145996094 2.7590045928955078125 2.7875118255615234375 2.7964267730712890625 1.4297338724136352539 0.34219801425933837891 1.2551873922348022461 3.4137265682220458984 2.1367363929748535156 2.3332157135009765625 3.7714622020721435547 3.9383077621459960938 3.8072817325592041016 3.2833471298217773438 4.4224810600280761719 4.1708498001098632812 
2.7590847015380859375 3.7791624069213867188 3.3253512382507324219 2.7544207572937011719 2.7335956096649169922 2.1861538887023925781 2.7631266117095947266 2.7517387866973876953 2.7594518661499023438 1.4655987024307250977 2.5969805717468261719 2.5463919639587402344 1.446505427360534668 1.4597460031509399414 1.0064973831176757812 1.5053124427795410156 1.5989999771118164062 2.0868668556213378906 4.5204949378967285156 5.5611186027526855469 5.3600254058837890625 1.3312431573867797852 0.57229751348495483398 2.4196131229400634766 3.6657221317291259766 3.0949697494506835938 2.8099703788757324219 3.3233730792999267578 3.3680579662322998047 4.0411825180053710938 1.3736326694488525391 0.65160834789276123047 2.3191688060760498047 2.7886855602264404297 1.8958650827407836914 2.8118734359741210938 1.4661813974380493164 1.1328830718994140625 2.5499994754791259766 2.7545943260192871094 2.7765707969665527344 2.7039520740509033203 3.084197998046875 2.7339575290679931641 2.8212525844573974609 4.3466978073120117188 2.6785726547241210938 0.59914916753768920898 0.63515567779541015625 3.8117694854736328125 3.8368792533874511719 2.7884538173675537109 2.5347118377685546875 3.6001226902008056641 4.2616667747497558594 3.6217751502990722656 5.4300723075866699219 3.5363867282867431641 2.7944118976593017578 2.5029728412628173828 3.6748654842376708984 5.3058037757873535156 5.5721564292907714844 3.4544224739074707031 2.6750922203063964844 2.7878060340881347656 3.0342803001403808594 2.844783782958984375 3.0563127994537353516 1.7995104789733886719 2.7998228073120117188 2.7215726375579833984 2.9824776649475097656 3.6115365028381347656 2.9120070934295654297 2.2785232067108154297 2.9703662395477294922 2.5856444835662841797 3.5714516639709472656 3.7107336521148681641 1.7459146976470947266 2.3966708183288574219 3.0465400218963623047 3.0032153129577636719 2.7960946559906005859 3.7058465480804443359 3.1156275272369384766 
2.9923508167266845703 4.3021364212036132812 3.2280070781707763672 2.75040435791015625 2.4622766971588134766 2.613384246826171875 2.6575875282287597656 2.8961124420166015625 2.6359152793884277344 1.300951838493347168 2.0461378097534179688 2.1049430370330810547 1.1518268585205078125 0.76726639270782470703 2.3881666660308837891 1.5989999771118164062 1.5989999771118164062 1.5989999771118164062 5.4776520729064941406 7.2788438796997070312 6.3452286720275878906 2.5979490280151367188 3.9849781990051269531 2.3768281936645507812 2.7917430400848388672 2.7518756389617919922 3.1077501773834228516 2.7499175071716308594 2.7893199920654296875 2.8762133121490478516 1.5129125118255615234 2.6219506263732910156 2.8043868541717529297 2.8311219215393066406 2.7948527336120605469 2.4198055267333984375 0.94332087039947509766 2.1718220710754394531 2.7568569183349609375 2.3939893245697021484 2.6795406341552734375 3.0833592414855957031 3.8211143016815185547 4.2270808219909667969 5.4520111083984375 1.9280091524124145508 1.0477980375289916992 0.59914916753768920898 2.3053393363952636719 5.1154551506042480469 3.4973874092102050781 2.4962055683135986328 3.4998219013214111328 5.01244354248046875 5.6078038215637207031 4.3519678115844726562 4.66791534423828125 3.4941856861114501953 2.3492445945739746094 2.49671173095703125 3.6569232940673828125 2.9559180736541748047 4.0541586875915527344 2.7362167835235595703 2.7294518947601318359 2.7553706169128417969 3.2486090660095214844 2.6007287502288818359 2.2695941925048828125 2.4244937896728515625 2.7726569175720214844 2.7656514644622802734 3.0541570186614990234 2.8864731788635253906 4.1625084877014160156 4.5320568084716796875 4.1742725372314453125 3.7132709026336669922 3.7120394706726074219 3.3120450973510742188 2.4355809688568115234 2.8462197780609130859 5.073902130126953125 4.846240997314453125 6.5228328704833984375 6.6475191116333007812 8.1008844375610351562 
4.4431629180908203125 3.9918434619903564453 2.8498005867004394531 2.6514368057250976562 2.3653874397277832031 2.7441246509552001953 3.4591455459594726562 1.9964807033538818359 7.442600250244140625 1.8387246131896972656 0.72423702478408813477 0.83530116081237792969 0.46062827110290527344 0.4560000002384185791 0.44808334112167358398 1.5989999771118164062 1.5989999771118164062 6.8939676284790039062 10.906296730041503906 4.5787968635559082031 2.5185022354125976562 2.1418550014495849609 6.5352854728698730469 4.0082716941833496094 2.7641191482543945312 2.7039301395416259766 2.8565495014190673828 3.2212913036346435547 1.4458010196685791016 3.1940331459045410156 2.6639811992645263672 2.1225616931915283203 1.8814744949340820312 2.1884198188781738281 2.8014833927154541016 2.4686918258666992188 1.9356824159622192383 2.7779741287231445312 2.7601227760314941406 2.677303314208984375 2.7096581459045410156 2.7083973884582519531 2.7891016006469726562 3.9236581325531005859 2.8030765056610107422 2.0530104637145996094 0.92316949367523193359 1.1862285137176513672 3.3405332565307617188 3.0470178127288818359 2.8579056262969970703 2.5527143478393554688 2.4228391647338867188 2.6721415519714355469 2.7721693515777587891 3.9024100303649902344 3.5715403556823730469 3.1170630455017089844 3.7472257614135742188 4.78802490234375 2.9654245376586914062 3.1856374740600585938 3.1902174949645996094 2.7640299797058105469 2.758831024169921875 2.7684731483459472656 2.7777547836303710938 2.7807900905609130859 2.6157712936401367188 2.6462180614471435547 2.8211958408355712891 2.9004242420196533203 3.1326847076416015625 2.8724195957183837891 3.3101825714111328125 4.6619005203247070312 5.1500959396362304688 4.6099858283996582031 5.7840251922607421875 4.7611494064331054688 3.3529696464538574219 3.7341828346252441406 9.2433109283447265625 9.5875186920166015625 8.420806884765625 4.7178034782409667969 2.8380818367004394531 
3.169769287109375 2.7450368404388427734 2.7160439491271972656 3.5968225002288818359 2.7929596900939941406 2.8066833019256591797 2.1622409820556640625 2.5679194927215576172 5.5108575820922851562 1.697804570198059082 0.68139445781707763672 0.91575962305068969727 0.12527474761009216309 0.088571429252624511719 1.8157465457916259766 1.5989999771118164062 4.8497719764709472656 11.188931465148925781 3.1697494983673095703 2.6602666378021240234 1.9365829229354858398 2.5282628536224365234 3.3256905078887939453 5.0206379890441894531 2.9295547008514404297 2.7403771877288818359 2.7089073657989501953 3.2439467906951904297 4.1719341278076171875 3.1865675449371337891 3.4341492652893066406 3.8020694255828857422 3.0464613437652587891 2.76506805419921875 2.810817718505859375 2.2679486274719238281 3.0631215572357177734 2.7263131141662597656 2.7917437553405761719 2.4449431896209716797 2.2698724269866943359 1.7269086837768554688 1.2653385400772094727 2.4983992576599121094 2.7998163700103759766 2.7966451644897460938 1.5478873252868652344 2.3983252048492431641 3.5513460636138916016 3.7490468025207519531 3.0297060012817382812 1.0473389625549316406 0.79900002479553222656 0.79900002479553222656 0.92653906345367431641 1.0356088876724243164 2.7894883155822753906 2.8074738979339599609 3.2516963481903076172 3.464763641357421875 2.8109455108642578125 2.7741217613220214844 2.7394316196441650391 2.7423045635223388672 2.7463574409484863281 2.7013554573059082031 2.7284846305847167969 2.6180975437164306641 3.3924057483673095703 3.2695727348327636719 4.6008100509643554688 3.0272078514099121094 3.6908307075500488281 4.0611944198608398438 3.7591280937194824219 3.5050663948059082031 3.2918341159820556641 3.5846376419067382812 6.1706004142761230469 4.4113597869873046875 6.6583795547485351562 7.2070317268371582031 9.66202545166015625 8.2621088027954101562 8.8373737335205078125 3.6421060562133789062 2.6135013103485107422 
2.7172245979309082031 2.7264616489410400391 2.7198827266693115234 5.30169677734375 3.4118599891662597656 6.3473539352416992188 4.8596320152282714844 1.795012354850769043 0.7756417393684387207 1.094830632209777832 2.7876024246215820312 0.58656132221221923828 0.64947402477264404297 1.4740833044052124023 1.7186338901519775391 2.1931252479553222656 2.7393774986267089844 2.6992864608764648438 2.3669276237487792969 2.5967764854431152344 2.7740828990936279297 2.7894880771636962891 3.4472646713256835938 4.5168046951293945312 2.7503762245178222656 2.7509820461273193359 2.7719473838806152344 3.1221668720245361328 3.1037399768829345703 0.79900002479553222656 2.3383593559265136719 3.2620244026184082031 2.1985280513763427734 2.7916133403778076172 2.4755294322967529297 2.40120697021484375 3.0753164291381835938 2.8061709403991699219 2.2768867015838623047 1.8812611103057861328 0.34219801425933837891 0.34219801425933837891 0.956981658935546875 2.6427884101867675781 2.7991709709167480469 2.7927367687225341797 2.7894856929779052734 2.813388824462890625 2.937076568603515625 3.8612275123596191406 2.7921800613403320312 0.92430663108825683594 0.79900002479553222656 0.79900002479553222656 0.79900002479553222656 2.2838537693023681641 2.7821981906890869141 2.7913608551025390625 5.5827789306640625 5.2158269882202148438 2.8136198520660400391 2.5062971115112304688 2.7699768543243408203 2.9705371856689453125 2.7664930820465087891 2.72704315185546875 2.8785974979400634766 2.5902941226959228516 2.9179217815399169922 4.4253792762756347656 7.2980408668518066406 5.6319246292114257812 4.1222071647644042969 4.3284125328063964844 3.6061367988586425781 3.5533938407897949219 3.344249725341796875 3.0466496944427490234 4.9506206512451171875 6.3943505287170410156 5.0039858818054199219 2.7926702499389648438 3.5558762550354003906 4.805591583251953125 5.2928833961486816406 3.0523018836975097656 2.6580359935760498047 
2.6880185604095458984 2.7348265647888183594 3.1729800701141357422 3.7871289253234863281 2.9075837135314941406 3.3373494148254394531 0.79933649301528930664 0.067500002682209014893 0.41585612297058105469 2.4331650733947753906 0.061249997466802597046 0.13643960654735565186 0.12749999761581420898 0.57483333349227905273 1.1568124294281005859 1.5693287849426269531 1.4339357614517211914 1.3470140695571899414 4.239566802978515625 2.7161188125610351562 1.8425136804580688477 2.6412050724029541016 4.8020310401916503906 3.1764941215515136719 2.7159855365753173828 2.7641124725341796875 2.7179541587829589844 2.7628772258758544922 1.4540836811065673828 0.79900002479553222656 2.0878078937530517578 3.1767640113830566406 1.498093724250793457 2.5444879531860351562 1.5989999771118164062 2.5147480964660644531 2.6578741073608398438 2.4323527812957763672 1.8730757236480712891 0.34219801425933837891 0.34219801425933837891 0.34219801425933837891 1.5734692811965942383 2.8097431659698486328 2.6485364437103271484 2.8054986000061035156 2.0317704677581787109 2.8100655078887939453 2.8020579814910888672 2.8044786453247070312 2.7984604835510253906 1.6717336177825927734 0.79900002479553222656 0.79900002479553222656 0.92430663108825683594 2.7951865196228027344 2.7851438522338867188 2.7989184856414794922 3.4321763515472412109 6.5579857826232910156 2.7888817787170410156 3.0198566913604736328 3.4189527034759521484 3.9428427219390869141 3.3862574100494384766 3.3562402725219726562 2.7631628513336181641 2.8023214340209960938 3.0746264457702636719 2.3145730495452880859 3.1739172935485839844 3.0241725444793701172 2.9428937435150146484 3.8170139789581298828 2.8513977527618408203 3.4497110843658447266 2.7741498947143554688 3.5754847526550292969 3.6188924312591552734 4.0642857551574707031 3.1728262901306152344 6.4698648452758789062 3.7390503883361816406 2.7154004573822021484 3.7909798622131347656 4.3043832778930664062 2.725658416748046875 
2.6896429061889648438 2.8755612373352050781 3.3261876106262207031 3.2792062759399414062 2.9331996440887451172 1.7899490594863891602 0.10726123303174972534 2.4798805713653564453 3.5254390239715576172 2.8855426311492919922 1.4703987836837768555 0.73559981584548950195 1.0035833120346069336 1.3135714530944824219 1.5989999771118164062 2.7140767574310302734 2.4012513160705566406 2.7936961650848388672 1.7031397819519042969 2.9309999942779541016 2.2938978672027587891 3.8756852149963378906 2.7729659080505371094 2.7983570098876953125 2.7454040050506591797 2.7796771526336669922 2.7310910224914550781 2.7317271232604980469 1.4576861858367919922 0.92430663108825683594 2.4290645122528076172 1.1565842628479003906 0.91108453273773193359 1.7767355442047119141 1.6744078397750854492 2.5117731094360351562 2.8138535022735595703 1.7242408990859985352 0.34219801425933837891 0.34219801425933837891 0.34219801425933837891 0.49293243885040283203 2.3351128101348876953 2.7947635650634765625 2.8162832260131835938 2.6451120376586914062 3.8615846633911132812 3.6458752155303955078 2.8052432537078857422 2.7971353530883789062 2.8048098087310791016 2.8011827468872070312 1.1779775619506835938 0.79900002479553222656 1.9187895059585571289 2.7984902858734130859 2.7991435527801513672 2.7984666824340820312 5.2137475013732910156 4.984180450439453125 2.7416911125183105469 3.9904224872589111328 2.876491546630859375 2.6782481670379638672 2.7616956233978271484 3.3657209873199462891 2.9496147632598876953 3.7692058086395263672 4.7382860183715820312 3.55709075927734375 3.1074271202087402344 2.7862753868103027344 3.4628951549530029297 3.1162290573120117188 2.7471723556518554688 2.7720582485198974609 2.8041102886199951172 3.1685512065887451172 3.1937286853790283203 2.9215970039367675781 2.7566835880279541016 3.574520111083984375 2.6983346939086914062 2.833774566650390625 4.5336661338806152344 3.7045104503631591797 2.7076117992401123047 
2.9638488292694091797 3.6800131797790527344 2.9663863182067871094 3.6929011344909667969 1.1876398324966430664 1.8817714452743530273 0.42611426115036010742 0.99783885478973388672 2.7317912578582763672 2.6832678318023681641 1.6896935701370239258 1.2217500209808349609 1.5989999771118164062 1.5989999771118164062 1.5989999771118164062 0.94803476333618164062 1.5287663936614990234 2.8758704662322998047 0.89205724000930786133 3.2175552845001220703 3.2845468521118164062 4.7095079421997070312 2.2928972244262695312 3.3920719623565673828 2.78234100341796875 2.7408099174499511719 2.7332673072814941406 2.2475943565368652344 0.92206376791000366211 2.1495397090911865234 2.4894139766693115234 0.60866582393646240234 0.70347040891647338867 2.3238558769226074219 1.9022263288497924805 2.6632907390594482422 2.8047161102294921875 0.63929522037506103516 0.34219801425933837891 0.80581778287887573242 2.5034193992614746094 2.7925233840942382812 2.8141264915466308594 2.6631288528442382812 2.7936894893646240234 2.8024566173553466797 2.4954988956451416016 1.1109696626663208008 2.0335216522216796875 2.8029372692108154297 2.7910513877868652344 2.8014769554138183594 2.6793544292449951172 2.4106569290161132812 2.7852079868316650391 3.4370067119598388672 2.7967510223388671875 2.9065735340118408203 3.3052003383636474609 3.7344274520874023438 2.9625105857849121094 2.7885577678680419922 2.7532784938812255859 2.7330763339996337891 2.6474621295928955078 2.8177173137664794922 2.7457709312438964844 2.5108740329742431641 3.3830380439758300781 2.7724213600158691406 3.4688160419464111328 3.333240509033203125 4.1796984672546386719 4.2176022529602050781 2.9200046062469482422 2.7812857627868652344 2.8602166175842285156 3.7981562614440917969 4.1621141433715820312 4.1878690719604492188 2.7327172756195068359 2.7113177776336669922 2.6891658306121826172 2.8140420913696289062 3.4369351863861083984 3.1595818996429443359 2.6306831836700439453 
2.88440704345703125 2.8754942417144775391 2.3631181716918945312 2.0690152645111083984 2.5529196262359619141 2.4453687667846679688 2.6617555618286132812 2.8200376033782958984 2.9280607700347900391 2.2053728103637695312 1.2003586292266845703 1.5053124427795410156 1.5989999771118164062 1.5989999771118164062 1.5989999771118164062 1.5731619596481323242 2.3081426620483398438 2.0322687625885009766 1.4173144102096557617 1.362406611442565918 3.8889484405517578125 4.0546488761901855469 2.7723612785339355469 4.9144163131713867188 2.9552600383758544922 2.7722115516662597656 2.7643530368804931641 1.780834197998046875 1.3997881412506103516 2.8233504295349121094 1.6835592985153198242 0.55546164512634277344 1.1822551488876342773 2.5004358291625976562 1.6763328313827514648 2.9595580101013183594 2.7998723983764648438 0.95564740896224975586 0.34219801425933837891 2.1870586872100830078 2.8077657222747802734 3.4052126407623291016 3.6096448898315429688 2.8206014633178710938 2.7944793701171875 2.7970106601715087891 1.1045312881469726562 2.3387305736541748047 1.2713540792465209961 2.7815735340118408203 2.7171945571899414062 2.7283699512481689453 2.79833221435546875 2.7898271083831787109 2.7843799591064453125 5.5891385078430175781 2.8096547126770019531 3.3180510997772216797 4.0580019950866699219 3.3805303573608398438 3.2094049453735351562 2.7610199451446533203 2.7412462234497070312 2.7987484931945800781 2.5576260089874267578 2.6423237323760986328 2.8032448291778564453 2.9235880374908447266 3.4520182609558105469 2.8793900012969970703 3.7067749500274658203 4.3675518035888671875 4.2337813377380371094 4.1962018013000488281 2.7794358730316162109 2.815700531005859375 2.7781550884246826172 3.7626397609710693359 3.8902330398559570312 4.1518073081970214844 2.9834470748901367188 2.6728906631469726562 2.6925210952758789062 2.7116596698760986328 3.4436061382293701172 2.8298029899597167969 2.7485527992248535156 
2.7319231033325195312 2.1216890811920166016 1.5130650997161865234 2.0585148334503173828 2.4616405963897705078 9.046596527099609375 3.1916625499725341797 5.5195789337158203125 2.7717823982238769531 1.6216012239456176758 1.5989999771118164062 1.5989999771118164062 1.8988600969314575195 1.5989999771118164062 1.5989999771118164062 3.383243560791015625 3.7511036396026611328 2.7624793052673339844 2.9423947334289550781 2.71591949462890625 2.0652322769165039062 2.8125669956207275391 2.7610476016998291016 4.8906025886535644531 2.7379910945892333984 2.7355475425720214844 2.8009316921234130859 2.7864542007446289062 2.5611166954040527344 1.6656271219253540039 1.8710913658142089844 1.280598759651184082 1.2192499637603759766 1.6001034975051879883 2.8119847774505615234 3.6579480171203613281 2.7989017963409423828 1.8745554685592651367 1.2674198150634765625 2.8258719444274902344 2.7912971973419189453 2.8023946285247802734 2.8091533184051513672 2.7989494800567626953 2.7903921604156494141 2.0354938507080078125 2.1804854869842529297 1.4248572587966918945 2.1852090358734130859 2.7051422595977783203 2.1907258033752441406 2.5769472122192382812 2.8000829219818115234 2.8129613399505615234 2.7908496856689453125 2.7929770946502685547 2.5554993152618408203 3.6991021633148193359 3.8360314369201660156 3.1606273651123046875 3.9249210357666015625 2.9111421108245849609 2.8083696365356445312 2.6646671295166015625 2.7071340084075927734 2.7760818004608154297 2.7949476242065429688 2.9849231243133544922 3.1181726455688476562 3.1648974418640136719 3.4046051502227783203 3.6756229400634765625 2.9076161384582519531 2.6631193161010742188 2.7970702648162841797 2.7881708145141601562 2.7917733192443847656 3.348514556884765625 3.3798601627349853516 4.1518073081970214844 3.8580727577209472656 2.6945896148681640625 2.8322496414184570312 2.7251541614532470703 2.8713407516479492188 2.9399974346160888672 3.6545712947845458984 
2.2777209281921386719 5.047069549560546875 1.5983090400695800781 1.9072290658950805664 2.2302985191345214844 3.3989877700805664062 2.7062845230102539062 1.7667789459228515625 2.0408611297607421875 1.4740833044052124023 1.5989999771118164062 1.6832367181777954102 2.4784464836120605469 1.675556182861328125 1.5989999771118164062 1.0491491556167602539 7.0176424980163574219 2.9527530670166015625 4.25125885009765625 4.2541956901550292969 2.8713307380676269531 3.6038434505462646484 6.0608987808227539062 3.9319379329681396484 2.7876837253570556641 2.5030725002288818359 2.6748056411743164062 2.7412664890289306641 2.0294828414916992188 1.9746526479721069336 0.65852236747741699219 1.5989999771118164062 1.5989999771118164062 1.8024485111236572266 2.8001062870025634766 2.6574475765228271484 2.8189084529876708984 2.7843811511993408203 2.5035464763641357422 2.800907135009765625 2.8175261020660400391 2.8192133903503417969 2.739837646484375 4.9067196846008300781 2.8000495433807373047 1.730926513671875 1.5758527517318725586 2.9197680950164794922 2.4318494796752929688 3.6573047637939453125 2.8013575077056884766 2.8007493019104003906 2.8003206253051757812 2.7880446910858154297 3.1168360710144042969 2.7561235427856445312 2.1999979019165039062 3.6633586883544921875 2.8573014736175537109 1.914942622184753418 3.0962641239166259766 2.8243823051452636719 2.8093981742858886719 2.4977247714996337891 2.7562301158905029297 2.7792143821716308594 3.9460303783416748047 6.3271956443786621094 5.7173986434936523438 3.2203080654144287109 3.9124004840850830078 3.8751456737518310547 2.2274565696716308594 1.9357867240905761719 2.7959947586059570312 2.7913355827331542969 2.9144065380096435547 3.2333378791809082031 4.2730126380920410156 4.1486134529113769531 4.5003628730773925781 4.092395782470703125 4.0285391807556152344 3.5109944343566894531 4.4628882408142089844 4.5400533676147460938 3.6859076023101806641 
2.5807466506958007812 2.8111565113067626953 1.1114040613174438477 2.1108081340789794922 2.7713215351104736328 2.7923121452331542969 2.7923092842102050781 2.0717282295227050781 2.0194191932678222656 1.470749974250793457 1.5989999771118164062 1.6902854442596435547 2.0754337310791015625 1.6743066310882568359 1.5989999771118164062 4.7168364524841308594 3.4514892101287841797 2.8188016414642333984 3.7472231388092041016 5.5810647010803222656 7.5406699180603027344 5.6057219505310058594 3.5050525665283203125 2.8102517127990722656 2.7909367084503173828 2.6982069015502929688 2.7346460819244384766 2.5283370018005371094 1.8679977655410766602 2.1573636531829833984 0.47307193279266357422 0.85799998044967651367 2.0751278400421142578 1.6276494264602661133 2.5087409019470214844 1.2702046632766723633 1.5815709829330444336 2.3527209758758544922 2.8083367347717285156 2.8133733272552490234 2.8221447467803955078 2.7999749183654785156 4.2135710716247558594 3.7419655323028564453 2.8218812942504882812 2.8078515529632568359 2.8114833831787109375 2.7899234294891357422 2.7946975231170654297 2.7978487014770507812 3.0237753391265869141 2.8075580596923828125 2.7990295886993408203 2.7828340530395507812 5.6137552261352539062 3.2126016616821289062 2.8958835601806640625 2.8787443637847900391 2.8235604763031005859 2.9577884674072265625 2.3540620803833007812 2.8042035102844238281 3.0551354885101318359 2.7489178180694580078 2.6943764686584472656 2.7233965396881103516 4.1587696075439453125 5.6848807334899902344 3.1702327728271484375 3.9574816226959228516 3.6594636440277099609 4.4057469367980957031 2.90926361083984375 2.8057324886322021484 2.8043446540832519531 2.7980716228485107422 2.7729673385620117188 4.1705732345581054688 4.5316095352172851562 4.0116529464721679688 5.1849331855773925781 3.6765596866607666016 4.3114714622497558594 3.614559173583984375 3.5827248096466064453 4.0522999763488769531 3.6675040721893310547 
3.91696929931640625 2.806606292724609375 1.6261020898818969727 1.4125269651412963867 1.7454886436462402344 1.8770226240158081055 2.7894484996795654297 2.3911316394805908203 0.79566359519958496094 0.69875001907348632812 1.4989999532699584961 4.5444936752319335938 7.5973038673400878906 1.1797732114791870117 3.0009682178497314453 2.4949748516082763672 0.32201483845710754395 2.7941319942474365234 2.699832916259765625 2.7561786174774169922 2.8127853870391845703 3.9177618026733398438 4.2423877716064453125 2.4089138507843017578 2.7246291637420654297 2.7460367679595947266 2.4898965358734130859 2.3546736240386962891 1.2220417261123657227 1.4553567171096801758 0.58012497425079345703 0.62822592258453369141 1.6288993358612060547 2.6414179801940917969 1.780028223991394043 0.51349878311157226562 0.42784839868545532227 0.48494863510131835938 1.9360505342483520508 2.8049061298370361328 2.8057334423065185547 2.7952969074249267578 2.8021197319030761719 2.7816987037658691406 2.7870230674743652344 2.8019046783447265625 2.793170928955078125 2.7963075637817382812 2.8008708953857421875 2.8008182048797607422 3.8503901958465576172 2.8225061893463134766 2.7830111980438232422 2.7853801250457763672 3.2284295558929443359 4.4123687744140625 3.5458235740661621094 3.0997855663299560547 2.9348330497741699219 2.6656026840209960938 0.64009368419647216797 2.8705122470855712891 3.1837906837463378906 2.4301462173461914062 2.163219451904296875 5.7841496467590332031 6.7145352363586425781 7.3097958564758300781 3.0910892486572265625 4.2139086723327636719 4.233058929443359375 3.9116094112396240234 2.8126387596130371094 2.7998783588409423828 2.7949366569519042969 2.8078968524932861328 2.7639400959014892578 3.4440598487854003906 4.5313930511474609375 4.3510060310363769531 5.8053164482116699219 3.8167424201965332031 4.1454777717590332031 2.9098374843597412109 2.77388763427734375 2.7637257575988769531 3.2229208946228027344 
3.7697782516479492188 2.8022277355194091797 2.1336677074432373047 1.7820072174072265625 1.1498199701309204102 1.260599970817565918 2.4188566207885742188 1.4295103549957275391 1.4890713691711425781 1.470749974250793457 1.431225895881652832 4.0815682411193847656 1.7735358476638793945 2.2647755146026611328 2.8594102859497070312 1.2046523094177246094 0.67768591642379760742 2.8014605045318603516 2.6777834892272949219 2.7703783512115478516 2.8152828216552734375 3.0181162357330322266 2.9538326263427734375 2.7891094684600830078 2.7000956535339355469 2.6587402820587158203 2.1362547874450683594 2.77545928955078125 0.77442348003387451172 0.30224999785423278809 0.83955359458923339844 1.4009264707565307617 1.4438214302062988281 2.7993512153625488281 2.6545121669769287109 1.4253400564193725586 0.65624940395355224609 0.77044987678527832031 1.4980263710021972656 2.8711559772491455078 2.7933902740478515625 2.7985618114471435547 2.7846808433532714844 2.79396820068359375 2.7946648597717285156 2.7258915901184082031 2.7969009876251220703 2.784221649169921875 2.7884006500244140625 2.7670948505401611328 2.7884385585784912109 2.7985448837280273438 2.7967171669006347656 2.7935216426849365234 2.9573161602020263672 3.5700705051422119141 3.9253330230712890625 4.4030246734619140625 4.2907032966613769531 2.1159505844116210938 0.34219801425933837891 0.34219801425933837891 0.34219801425933837891 0.34219801425933837891 0.65331065654754638672 5.0039262771606445312 5.5078716278076171875 4.5719618797302246094 2.3395833969116210938 3.0713105201721191406 2.9067566394805908203 3.15570068359375 2.7951066493988037109 2.8044297695159912109 2.7928724288940429688 2.776348114013671875 2.8163151741027832031 2.8006708621978759766 3.3309977054595947266 4.5682077407836914062 3.5869054794311523438 3.3631370067596435547 0.90859395265579223633 2.6433744430541992188 2.8091273307800292969 2.8042356967926025391 2.8064665794372558594 
3.1846117973327636719 4.1124234199523925781 1.7951587438583374023 1.8469809293746948242 2.9004461765289306641 1.7882895469665527344 2.5293700695037841797 1.11220550537109375 2.7426462173461914062 8.047946929931640625 6.9697718620300292969 2.712642669677734375 4.5156044960021972656 2.5480387210845947266 1.5989999771118164062 2.1812062263488769531 2.4257695674896240234 2.7809596061706542969 2.7618923187255859375 2.8061122894287109375 2.8149912357330322266 2.8151853084564208984 2.8933317661285400391 2.7781302928924560547 2.7744753360748291016 2.7037422657012939453 2.6846456527709960938 2.7880959510803222656 0.89992541074752807617 0.67854952812194824219 0.85799998044967651367 1.6634470224380493164 2.62816619873046875 2.8227684497833251953 2.819736480712890625 2.3436930179595947266 0.65624940395355224609 0.62769925594329833984 2.1737551689147949219 2.7922675609588623047 2.8028542995452880859 2.8118917942047119141 2.7889957427978515625 2.7817099094390869141 2.7340569496154785156 2.2876970767974853516 2.8132905960083007812 2.8113532066345214844 2.8219771385192871094 2.80408477783203125 2.7977149486541748047 2.7892320156097412109 2.7773294448852539062 2.799060821533203125 2.7559392452239990234 3.3759109973907470703 3.4714052677154541016 3.3634347915649414062 1.6437278985977172852 0.80509048700332641602 1.2653892040252685547 1.2665420770645141602 1.7304229736328125 2.0643274784088134766 2.71832275390625 3.2912971973419189453 4.7644410133361816406 3.2838239669799804688 2.8008816242218017578 3.3305575847625732422 2.8007845878601074219 2.8030455112457275391 2.7942552566528320312 2.8008227348327636719 2.8047046661376953125 2.75927734375 2.7286012172698974609 2.7287969589233398438 2.6476242542266845703 2.7892923355102539062 2.7022547721862792969 1.0981204509735107422 0.95010459423065185547 1.7271224260330200195 2.797954559326171875 2.8067958354949951172 2.7977666854858398438 
2.3178796768188476562 1.9584413766860961914 2.4577462673187255859 2.2530000209808349609 2.1731417179107666016 2.5947387218475341797 2.0096607208251953125 0.67974877357482910156 0.4694372713565826416 7.1075830459594726562 8.4227380752563476562 2.1911611557006835938 0.63072401285171508789 0.62322402000427246094 1.5989999771118164062 2.5398459434509277344 1.8093682527542114258 2.6752912998199462891 2.7518193721771240234 2.7931091785430908203 2.8108716011047363281 2.8011555671691894531 2.8503742218017578125 2.7233381271362304688 2.5988161563873291016 2.5417268276214599609 1.0422341823577880859 0.047249998897314071655 0.12644986808300018311 0.11699999868869781494 0.11699999868869781494 2.1119675636291503906 2.0599608421325683594 2.8296685218811035156 2.8217198848724365234 2.7968769073486328125 0.63554650545120239258 2.1799077987670898438 2.7942013740539550781 2.740146636962890625 2.7579042911529541016 2.7890458106994628906 2.7922632694244384766 2.8330848217010498047 2.8111262321472167969 2.8886759281158447266 3.1579823493957519531 2.8002696037292480469 2.0501046180725097656 3.1092431545257568359 3.1556684970855712891 2.7973780632019042969 2.7430896759033203125 5.4803981781005859375 2.7943408489227294922 2.8140308856964111328 2.8046126365661621094 1.6806789636611938477 0.34219801425933837891 1.7320731878280639648 1.1087512969970703125 0.34219801425933837891 2.1736795902252197266 3.1192619800567626953 4.1204905509948730469 2.5110423564910888672 3.00799560546875 2.8088479042053222656 2.8122124671936035156 2.8032979965209960938 2.8006529808044433594 2.8039698600769042969 2.7862710952758789062 2.7986509799957275391 2.7722871303558349609 2.7525815963745117188 2.8015196323394775391 2.7031486034393310547 2.9369182586669921875 2.9460523128509521484 3.1896102428436279297 2.4364464282989501953 0.34219801425933837891 0.49335512518882751465 2.7885649204254150391 2.7993786334991455078 2.8065199851989746094 
4.44257354736328125 1.7377573251724243164 2.5665884017944335938 1.8371493816375732422 1.9809277057647705078 3.2532379627227783203 6.3156723976135253906 1.2484838962554931641 1.5061573982238769531 1.0279456377029418945 2.5268802642822265625 0.86394804716110229492 0.048124998807907104492 0.91637593507766723633 1.7015336751937866211 1.5631864070892333984 0.34219801425933837891 2.7545938491821289062 2.7693247795104980469 1.8504689931869506836 2.324047088623046875 2.8172307014465332031 2.6726305484771728516 2.7468199729919433594 2.8034861087799072266 0.61358088254928588867 0.054999999701976776123 0.056874997913837432861 0.31482398509979248047 0.11699999868869781494 0.11699999868869781494 1.5591199398040771484 1.5518032312393188477 2.6077742576599121094 2.6382508277893066406 2.8102383613586425781 2.0763502120971679688 3.1058223247528076172 2.7078423500061035156 2.7320101261138916016 2.7975013256072998047 2.7981843948364257812 2.8149235248565673828 2.818454742431640625 2.8014914989471435547 2.9640436172485351562 1.8732513189315795898 1.1072020530700683594 0.64862477779388427734 0.65624940395355224609 1.6503052711486816406 2.7893946170806884766 2.6531889438629150391 3.3953073024749755859 2.9195249080657958984 2.79602813720703125 2.7888927459716796875 1.4007815122604370117 0.34219801425933837891 0.49831807613372802734 0.34219801425933837891 1.4643378257751464844 4.1078600883483886719 6.6996741294860839844 3.5316307544708251953 2.9137549400329589844 2.807147979736328125 2.8200643062591552734 2.815826416015625 2.7967278957366943359 2.8121292591094970703 2.8225986957550048828 2.8112206459045410156 2.7782573699951171875 2.9609904289245605469 4.5303874015808105469 3.9818160533905029297 3.0004467964172363281 2.6807034015655517578 3.4393465518951416016 3.0779728889465332031 1.8494164943695068359 1.3893723487854003906 1.1575590372085571289 3.0903644561767578125 2.8097820281982421875 2.8259379863739013672 
1.6151208877563476562 2.3846061229705810547 2.4646050930023193359 2.1330277919769287109 2.1194083690643310547 2.8872807025909423828 5.7787799835205078125 1.2981110811233520508 1.8030526638031005859 1.263530731201171875 1.6635267734527587891 1.3587945699691772461 0.39399373531341552734 0.43724998831748962402 1.6805020570755004883 1.6786735057830810547 0.34219801425933837891 2.7499237060546875 2.7819762229919433594 2.6524431705474853516 2.7750210762023925781 2.7876110076904296875 2.5707652568817138672 2.8063902854919433594 3.929836273193359375 0.75139349699020385742 0.23472037911415100098 0.71377021074295043945 0.11699999868869781494 0.11699999868869781494 0.11699999868869781494 1.0205863714218139648 0.86325353384017944336 2.4480185508728027344 3.2417769432067871094 2.4923467636108398438 2.8021728992462158203 2.7267477512359619141 2.7364046573638916016 2.6835048198699951172 2.7752017974853515625 2.2984802722930908203 2.8189435005187988281 2.6617510318756103516 1.4190385341644287109 0.95406389236450195312 1.9330178499221801758 0.57059901952743530273 1.269102931022644043 1.5394333600997924805 0.65624940395355224609 2.6504781246185302734 2.7986004352569580078 2.8087227344512939453 3.5561506748199462891 3.0209398269653320312 2.3306756019592285156 0.34219801425933837891 0.80291652679443359375 1.8856160640716552734 1.2620646953582763672 2.5145237445831298828 2.8170769214630126953 2.9606354236602783203 2.802989959716796875 2.8145833015441894531 2.8069667816162109375 2.8081107139587402344 2.7936723232269287109 2.7790811061859130859 2.7956383228302001953 2.7983717918395996094 2.7979741096496582031 2.7918143272399902344 2.8051049709320068359 3.8491578102111816406 3.2965230941772460938 3.5730574131011962891 3.3596599102020263672 4.2878584861755371094 3.4456465244293212891 2.8407573699951171875 3.2220096588134765625 2.7911558151245117188 2.748462677001953125 2.7593555450439453125 2.71649169921875 
1.8497017621994018555 2.7602512836456298828 2.0883204936981201172 2.2751810550689697266 1.5967476367950439453 4.4042816162109375 4.1189508438110351562 1.4130074977874755859 2.5872309207916259766 1.2634662389755249023 2.5356755256652832031 1.6317994594573974609 2.5166406631469726562 1.9113528728485107422 1.5989999771118164062 2.7452969551086425781 3.6407175064086914062 2.2127969264984130859 2.8417418003082275391 2.7840192317962646484 2.7460963726043701172 4.459957122802734375 3.5409839153289794922 2.613346099853515625 1.2195546627044677734 0.23420630395412445068 0.075625002384185791016 0.10668750107288360596 0.11699999868869781494 0.11699999868869781494 0.11699999868869781494 0.11699999868869781494 0.58956575393676757812 1.2180016040802001953 3.1001584529876708984 2.8056735992431640625 2.7860889434814453125 2.7022945880889892578 2.7682900428771972656 2.6803083419799804688 2.8089084625244140625 2.7954733371734619141 2.8108947277069091797 2.1852238178253173828 0.57059901952743530273 0.65624940395355224609 0.54204887151718139648 1.1810854673385620117 2.6543450355529785156 2.7812829017639160156 2.6450927257537841797 2.8121397495269775391 2.6362078189849853516 2.8091628551483154297 2.8317623138427734375 2.8290021419525146484 2.5005025863647460938 0.50189197063446044922 1.2639764547348022461 2.7401099205017089844 2.0559227466583251953 2.0467371940612792969 2.8148617744445800781 2.9618885517120361328 2.8051431179046630859 2.8104436397552490234 2.5002233982086181641 2.3500528335571289062 2.7974860668182373047 2.7689979076385498047 2.7982010841369628906 2.7997355461120605469 2.8029916286468505859 2.7978153228759765625 2.7954185009002685547 2.7806549072265625 2.7884967327117919922 4.6409044265747070312 3.6592853069305419922 4.4162168502807617188 3.3175187110900878906 3.2024898529052734375 4.2248682975769042969 2.8583605289459228516 2.7719120979309082031 2.782253265380859375 2.7115037441253662109 
1.2588737010955810547 1.5592170953750610352 1.2413206100463867188 0.57402527332305908203 0.5103976130485534668 3.3373703956604003906 1.6550776958465576172 0.122416667640209198 1.2387950420379638672 1.294215083122253418 2.1746640205383300781 1.2521163225173950195 1.8182816505432128906 2.0184361934661865234 1.6231923103332519531 2.5931298732757568359 2.5523574352264404297 2.0882370471954345703 2.7318973541259765625 2.7298014163970947266 2.7501986026763916016 3.9595139026641845703 4.4779276847839355469 2.8733417987823486328 1.1110123395919799805 0.076387375593185424805 0.24589738249778747559 0.39061200618743896484 0.10881249606609344482 0.26876863837242126465 0.55725938081741333008 0.11699999868869781494 0.72697401046752929688 1.34283447265625 2.4655857086181640625 5.2733464241027832031 3.7331643104553222656 2.4945187568664550781 4.3753452301025390625 2.6403620243072509766 2.6494891643524169922 2.8071949481964111328 2.8012082576751708984 2.8003842830657958984 2.3971889019012451172 2.1474754810333251953 1.9843237400054931641 2.7978296279907226562 2.7741656303405761719 2.706882476806640625 2.7825968265533447266 2.3041052818298339844 2.8047039508819580078 2.3556840419769287109 2.0599751472473144531 2.6840572357177734375 2.804851531982421875 2.7964086532592773438 2.8091959953308105469 2.8213262557983398438 2.034488677978515625 1.2650492191314697266 2.6496303081512451172 2.8113188743591308594 1.7302184104919433594 2.4945919513702392578 2.807285308837890625 2.6484611034393310547 2.3314688205718994141 2.8216369152069091797 2.7998373508453369141 2.8071312904357910156 2.7987267971038818359 2.8070096969604492188 2.8058686256408691406 2.7902112007141113281 3.1862046718597412109 4.949863433837890625 3.6993844509124755859 3.422168731689453125 2.7576053142547607422 4.6150636672973632812 3.4482111930847167969 3.0285515785217285156 2.8033924102783203125 2.7711784839630126953 2.8290586471557617188 
1.9534746408462524414 3.59972381591796875 4.8802623748779296875 1.6800185441970825195 2.0307722091674804688 3.0865240097045898438 0.53500002622604370117 0.071249999105930328369 2.1308739185333251953 0.90056562423706054688 1.7400268316268920898 0.40199998021125793457 1.502812504768371582 0.60964286327362060547 0.79420000314712524414 2.9569430351257324219 1.8834729194641113281 1.4597241878509521484 3.0740375518798828125 2.7400920391082763672 2.6613061428070068359 5.4655208587646484375 3.7651598453521728516 7.1162924766540527344 1.9666918516159057617 1.0971196889877319336 0.64041304588317871094 0.42979475855827331543 1.2712348699569702148 1.1175544261932373047 0.42400398850440979004 0.39711201190948486328 0.11699999868869781494 1.1457761526107788086 4.8340640068054199219 4.3493971824645996094 3.5360429286956787109 2.58402252197265625 3.5004680156707763672 4.1690087318420410156 2.9672565460205078125 2.7919914722442626953 2.8114147186279296875 2.7924983501434326172 2.8109538555145263672 2.8293204307556152344 2.8079297542572021484 2.7673504352569580078 2.7618765830993652344 2.9193198680877685547 3.4468593597412109375 3.0610857009887695312 2.7782845497131347656 2.1911664009094238281 0.95972830057144165039 0.81227028369903564453 3.5543904304504394531 4.4121828079223632812 2.7991611957550048828 2.8102428913116455078 1.4191251993179321289 2.7932190895080566406 2.7858045101165771484 2.8091990947723388672 2.7961382865905761719 2.8036646842956542969 2.4873056411743164062 1.9930651187896728516 1.1072046756744384766 2.8074543476104736328 2.7971708774566650391 2.7930560111999511719 2.8048720359802246094 2.7849621772766113281 2.7888686656951904297 2.7833693027496337891 4.0512642860412597656 5.8152561187744140625 3.6708936691284179688 2.3957414627075195312 0.80562514066696166992 1.4148534536361694336 2.4829926490783691406 2.8156077861785888672 2.8157680034637451172 2.8147246837615966797 2.8064315319061279297 
2.0937318801879882812 2.2429769039154052734 6.4177160263061523438 1.2906099557876586914 4.3619694709777832031 1.3119466304779052734 0.64060002565383911133 1.5471230745315551758 1.5507787466049194336 1.7332422733306884766 2.7889690399169921875 0.41132074594497680664 1.5989999771118164062 1.2911999225616455078 0.86933267116546630859 1.8969838619232177734 1.4900380373001098633 2.8407506942749023438 3.4382390975952148438 2.6962745189666748047 3.6937172412872314453 4.8159570693969726562 2.3183455467224121094 2.7559156417846679688 2.6306006908416748047 3.5754873752593994141 4.15720367431640625 1.2789806127548217773 1.0289208889007568359 0.17582425475120544434 0.28749701380729675293 1.2080659866333007812 0.11699999868869781494 1.1533353328704833984 3.2495923042297363281 2.4278366565704345703 2.6268658638000488281 2.8115546703338623047 3.6781973838806152344 2.531307220458984375 2.7898836135864257812 2.8056261539459228516 2.7974421977996826172 2.7962167263031005859 2.7935638427734375 2.8235976696014404297 2.8062756061553955078 2.7950882911682128906 2.7740778923034667969 3.0532431602478027344 4.379360198974609375 3.727108001708984375 2.8380112648010253906 1.8901033401489257812 1.7260602712631225586 1.8839524984359741211 4.7649440765380859375 4.5348348617553710938 2.5755200386047363281 2.8038375377655029297 1.5616196393966674805 2.7889058589935302734 2.8038136959075927734 2.7558662891387939453 2.7474374771118164062 2.7192320823669433594 2.7593510150909423828 1.5663324594497680664 2.1691052913665771484 2.8081889152526855469 2.7994160652160644531 2.8064379692077636719 3.4952223300933837891 2.7913954257965087891 2.8037695884704589844 2.7565929889678955078 2.7831120491027832031 3.2512269020080566406 2.8131625652313232422 2.6412427425384521484 2.1882722377777099609 2.8463733196258544922 2.5038728713989257812 4.8269486427307128906 2.7982780933380126953 2.8071422576904296875 2.808990478515625 
1.2583891153335571289 2.2798829078674316406 5.4944982528686523438 1.3958624601364135742 2.8930087089538574219 2.4121603965759277344 1.9168030023574829102 2.0045325756072998047 2.898319244384765625 3.0331037044525146484 2.2931275367736816406 1.581030726432800293 1.5989999771118164062 1.749472498893737793 1.7587738037109375 1.187229156494140625 2.3272411823272705078 2.5707767009735107422 2.7122788429260253906 3.1011917591094970703 2.7339887619018554688 3.2153646945953369141 2.7095842361450195312 2.7371973991394042969 5.3957667350769042969 4.5042243003845214844 2.7438225746154785156 2.4154415130615234375 1.545775294303894043 2.1672821044921875 0.28928589820861816406 0.76592874526977539062 0.68434900045394897461 0.77117449045181274414 2.9763808250427246094 1.5929774045944213867 2.1869502067565917969 2.8018403053283691406 3.48382568359375 2.8224966526031494141 2.7984285354614257812 2.7763218879699707031 2.8102602958679199219 2.6491270065307617188 2.8247973918914794922 2.8367683887481689453 2.8428678512573242188 2.7899837493896484375 2.8003530502319335938 3.0186917781829833984 4.9691329002380371094 2.4901483058929443359 2.2035012245178222656 0.64494687318801879883 1.4186452627182006836 2.9577305316925048828 2.8569846153259277344 4.7794294357299804688 4.9196929931640625 2.1195101737976074219 0.49605476856231689453 0.48400452733039855957 0.49598389863967895508 1.8796410560607910156 1.9981292486190795898 1.7521736621856689453 1.9280123710632324219 1.424704432487487793 2.7651388645172119141 2.7827539443969726562 2.8080821037292480469 2.8391289710998535156 1.4259190559387207031 2.5717504024505615234 2.7802450656890869141 2.7952826023101806641 2.8062205314636230469 3.5888504981994628906 4.105495452880859375 3.8749001026153564453 5.2729935646057128906 2.7183165550231933594 2.0936505794525146484 2.4373674392700195312 2.0329675674438476562 2.3951826095581054688 2.4901571273803710938 
1.0977621078491210938 2.5954782962799072266 4.9437074661254882812 2.1149904727935791016 2.2969090938568115234 2.9449329376220703125 0.80078911781311035156 2.1134858131408691406 3.0162889957427978516 3.0257511138916015625 5.30106353759765625 0.77006399631500244141 1.5989999771118164062 2.2001972198486328125 2.5066008567810058594 1.6030610799789428711 2.5527071952819824219 2.3797485828399658203 2.7189052104949951172 2.6864080429077148438 3.9640049934387207031 2.9528574943542480469 2.7261207103729248047 2.7391848564147949219 7.3419170379638671875 2.9414892196655273438 1.2289705276489257812 1.9187449216842651367 1.6948477029800415039 2.1574985980987548828 0.27414852380752563477 0.99743562936782836914 0.77117449045181274414 1.5989999771118164062 1.8949375152587890625 1.6720037460327148438 1.8867601156234741211 2.8244571685791015625 2.8122656345367431641 2.7760725021362304688 2.7901825904846191406 2.7847948074340820312 2.7981767654418945312 2.8110709190368652344 2.8263828754425048828 2.8245110511779785156 2.8004090785980224609 2.8239150047302246094 2.8084750175476074219 2.8193058967590332031 3.0405418872833251953 2.6415979862213134766 1.2990162372589111328 0.45639851689338684082 0.54204887151718139648 1.4239231348037719727 2.80391693115234375 2.4894616603851318359 2.2864253520965576172 1.9451558589935302734 2.4449517726898193359 1.7775849103927612305 1.1137328147888183594 1.2646254301071166992 1.8497523069381713867 1.4032647609710693359 1.0513192415237426758 1.3311414718627929688 2.9489102363586425781 2.8074843883514404297 2.8035302162170410156 2.2919549942016601562 1.5562292337417602539 2.1500158309936523438 2.5205705165863037109 2.7759826183319091797 2.8083653450012207031 2.8320975303649902344 3.4520139694213867188 2.8085932731628417969 2.8056650161743164062 2.5832419395446777344 2.8503293991088867188 3.0635752677917480469 3.1799657344818115234 3.2613995075225830078 2.7920966148376464844 
0.90609890222549438477 1.1624112129211425781 4.1585497856140136719 5.9936704635620117188 1.9469588994979858398 2.8221113681793212891 3.8379404544830322266 2.2664494514465332031 2.56130218505859375 3.7715654373168945312 2.3673772811889648438 2.8170261383056640625 2.4205489158630371094 1.5989999771118164062 1.6464786529541015625 0.65712499618530273438 1.95017242431640625 2.7150528430938720703 2.6835019588470458984 3.2595269680023193359 5.8107714653015136719 2.7260468006134033203 2.7290058135986328125 2.7031397819519042969 5.58290863037109375 1.982651829719543457 1.987151026725769043 1.5531274080276489258 3.3932905197143554688 1.5626788139343261719 1.6690179109573364258 2.0593793392181396484 1.6005520820617675781 1.1255624294281005859 1.5989999771118164062 1.5989999771118164062 1.7180094718933105469 2.8242328166961669922 2.9693200588226318359 3.0242662429809570312 2.7475869655609130859 2.8040874004364013672 2.8154726028442382812 2.8246598243713378906 2.81861114501953125 2.8103971481323242188 2.8073451519012451172 2.8161604404449462891 2.8140864372253417969 2.8178565502166748047 2.8724863529205322266 2.4976453781127929688 0.68305748701095581055 0.48494863510131835938 0.58057713508605957031 2.3264639377593994141 3.8482165336608886719 1.750904083251953125 2.2965493202209472656 2.9134352207183837891 4.7853579521179199219 3.3824188709259033203 2.6434581279754638672 0.69849628210067749023 2.0126388072967529297 2.3857848644256591797 3.2075457572937011719 2.9202997684478759766 3.1328418254852294922 2.7973470687866210938 2.8026547431945800781 2.0628080368041992188 1.9459857940673828125 0.79900002479553222656 1.6519732475280761719 2.6647810935974121094 3.4293169975280761719 4.2381319999694824219 2.810733795166015625 2.7987129688262939453 2.804531097412109375 2.7972157001495361328 2.8016874790191650391 2.8026041984558105469 2.7998025417327880859 2.7929575443267822266 2.7993364334106445312 
2.0787205696105957031 0.84053909778594970703 1.4635119438171386719 1.4778008460998535156 2.4637997150421142578 2.5187280178070068359 1.3458666801452636719 2.5630691051483154297 2.5986387729644775391 3.6681330204010009766 4.5247673988342285156 3.2184939384460449219 2.1276555061340332031 1.7473388910293579102 2.1006567478179931641 2.3824987411499023438 1.2847568988800048828 2.6890153884887695312 2.7164278030395507812 3.1488330364227294922 5.0329809188842773438 1.8363946676254272461 1.2353485822677612305 4.0599451065063476562 2.6453821659088134766 2.1973636150360107422 1.3435307741165161133 1.0350408554077148438 3.1823511123657226562 2.8336610794067382812 2.7962563037872314453 2.8030197620391845703 2.7969913482666015625 2.6348114013671875 2.0632102489471435547 1.8156297206878662109 1.8390954732894897461 2.478145599365234375 3.1204526424407958984 2.7761723995208740234 2.8103494644165039062 2.7456789016723632812 2.8025469779968261719 2.7986028194427490234 2.7958514690399169922 2.7956070899963378906 2.7771229743957519531 2.7903244495391845703 2.7834351062774658203 2.7904639244079589844 3.1003944873809814453 3.0126888751983642578 0.650455474853515625 0.34219801425933837891 2.0910198688507080078 3.9741125106811523438 1.7849073410034179688 1.5989999771118164062 2.6809072494506835938 2.7917447090148925781 2.9547579288482666016 2.5761270523071289062 3.1424508094787597656 1.1096847057342529297 2.9300072193145751953 3.3874733448028564453 2.8414926528930664062 3.6178421974182128906 2.7889227867126464844 2.8060543537139892578 2.8050899505615234375 2.8054223060607910156 3.0895843505859375 3.0122549533843994141 1.9331432580947875977 2.6428992748260498047 2.5015637874603271484 2.8016343116760253906 2.810184478759765625 2.7891130447387695312 2.7950923442840576172 2.8079221248626708984 2.7945325374603271484 2.7919073104858398438 2.7972848415374755859 2.7994332313537597656 2.80236053466796875 
2.2102410793304443359 1.5200699567794799805 3.3215978145599365234 1.6539160013198852539 1.3264605998992919922 0.56007361412048339844 1.9079711437225341797 2.6577970981597900391 6.0896019935607910156 9.0867938995361328125 5.1838588714599609375 5.8115873336791992188 1.6606377363204956055 2.4820187091827392578 2.5182969570159912109 2.2090091705322265625 1.5902602672576904297 1.6027731895446777344 1.8779546022415161133 1.8577380180358886719 3.3994851112365722656 0.49695345759391784668 0.9583880305290222168 2.7852356433868408203 5.2916846275329589844 3.3438572883605957031 2.1369330883026123047 2.8137395381927490234 3.5041513442993164062 3.0022215843200683594 2.7798988819122314453 2.8086893558502197266 2.8140072822570800781 3.3161156177520751953 2.1090455055236816406 1.0980703830718994141 1.849406123161315918 2.1390860080718994141 3.1791288852691650391 2.8224003314971923828 2.7911503314971923828 2.8126549720764160156 2.8143966197967529297 2.8085913658142089844 2.8075172901153564453 2.8016104698181152344 2.7917821407318115234 2.7953863143920898438 2.7893800735473632812 2.7919781208038330078 2.9646048545837402344 3.849422454833984375 0.80915772914886474609 1.652863621711730957 1.9800602197647094727 1.5989999771118164062 1.8315625190734863281 3.1841993331909179688 4.1884331703186035156 4.1066575050354003906 3.4031844139099121094 1.4708173274993896484 4.0493664741516113281 5.7935876846313476562 2.5757534503936767578 2.8967068195343017578 2.8092389106750488281 2.7993619441986083984 2.7976539134979248047 2.7947695255279541016 2.1847681999206542969 2.5037701129913330078 2.3693354129791259766 3.4510605335235595703 2.3485867977142333984 2.8142766952514648438 2.8053994178771972656 2.8049767017364501953 2.7873384952545166016 2.7933049201965332031 2.7971315383911132812 2.8034441471099853516 2.8051929473876953125 2.8097376823425292969 2.8057091236114501953 2.7929766178131103516 2.8100466728210449219 
1.9454998970031738281 2.2672684192657470703 2.8474392890930175781 1.4485963582992553711 1.7594974040985107422 0.34219801425933837891 1.5389180183410644531 1.8075369596481323242 1.1515444517135620117 9.5761060714721679688 7.4961881637573242188 7.7583513259887695312 2.4507093429565429688 2.32477569580078125 2.6320092678070068359 1.5989999771118164062 2.541259765625 1.9621393680572509766 1.7159404754638671875 1.8926610946655273438 5.8341889381408691406 0.34219801425933837891 1.2595837116241455078 2.9662222862243652344 3.2369391918182373047 2.3051416873931884766 2.4713230133056640625 3.6448104381561279297 2.7919533252716064453 2.7968389987945556641 2.3500237464904785156 1.9281288385391235352 3.7393250465393066406 4.5485348701477050781 1.1101232767105102539 0.65269780158996582031 2.0361816883087158203 3.1316590309143066406 3.1349074840545654297 2.8080842494964599609 2.8070652484893798828 2.8212993144989013672 2.8219380378723144531 3.6714751720428466797 4.41043853759765625 4.5074710845947265625 3.8008329868316650391 4.9143614768981933594 3.8196482658386230469 5.382953643798828125 2.3932154178619384766 1.9965940713882446289 2.2488257884979248047 1.8042578697204589844 2.0506532192230224609 3.6704900264739990234 5.4930777549743652344 5.2836556434631347656 5.8017110824584960938 7.6623578071594238281 4.757518768310546875 2.8726038932800292969 2.8022069931030273438 2.8028428554534912109 2.8004395961761474609 2.7978169918060302734 2.8021254539489746094 2.8054511547088623047 2.8009214401245117188 1.7215334177017211914 0.49541139602661132812 2.5069544315338134766 2.0637946128845214844 2.8143362998962402344 2.4152846336364746094 2.8012776374816894531 2.7993421554565429688 2.8095407485961914062 2.7960333824157714844 2.8026103973388671875 2.7961659431457519531 2.7950282096862792969 2.8142411708831787109 2.7949078083038330078 2.814266204833984375 2.5503549575805664062 1.3038717508316040039 
1.8161242008209228516 2.8468375205993652344 1.8881466388702392578 2.2489740848541259766 1.1172845363616943359 1.1145913600921630859 0.64800268411636352539 0.86718714237213134766 0.34219801425933837891 4.4932389259338378906 5.6410832405090332031 11.234310150146484375 2.7632417678833007812 2.467922210693359375 2.7822756767272949219 2.9085214138031005859 2.0313498973846435547 2.2426197528839111328 1.8532531261444091797 5.3989095687866210938 9.2813205718994140625 1.9323217868804931641 1.7136522531509399414 6.1745324134826660156 3.3254492282867431641 3.1927647590637207031 2.6373622417449951172 2.7774910926818847656 2.7420980930328369141 2.8043167591094970703 1.4085566997528076172 2.8839502334594726562 4.7990860939025878906 5.8751969337463378906 0.65461152791976928711 0.34219801425933837891 2.189022064208984375 1.7027431726455688477 2.9175701141357421875 5.6171827316284179688 3.039798736572265625 2.8100991249084472656 2.8091995716094970703 2.8034608364105224609 4.1309957504272460938 3.6494050025939941406 2.8126175403594970703 3.0501990318298339844 3.4828646183013916016 5.6621675491333007812 4.4672017097473144531 7.6954979896545410156 7.44133758544921875 5.3412175178527832031 3.0463109016418457031 4.7495827674865722656 3.6963734626770019531 1.8783415555953979492 3.0170547962188720703 4.8770051002502441406 2.8045496940612792969 2.7876791954040527344 2.7931923866271972656 2.7955181598663330078 2.7974684238433837891 2.7991528511047363281 2.7994022369384765625 2.7995846271514892578 2.0232899188995361328 0.80332899093627929688 2.3245995044708251953 2.8057167530059814453 2.4847278594970703125 2.8152563571929931641 2.1101965904235839844 2.7439725399017333984 2.8160793781280517578 2.8051633834838867188 2.7998979091644287109 2.7781684398651123047 2.7973620891571044922 2.8050546646118164062 2.8064310550689697266 2.8069622516632080078 2.8065857887268066406 1.4888303279876708984 1.6788384914398193359 
0.9164269566535949707 2.3188662528991699219 5.0812230110168457031 4.0914645195007324219 5.2690529823303222656 1.7521531581878662109 0.704540252685546875 3.0444896221160888672 2.4025213718414306641 2.3893079757690429688 5.9162750244140625 2.8153367042541503906 2.7988438606262207031 1.3421666622161865234 2.6994478702545166016 2.5533289909362792969 2.5380415916442871094 0.7737172245979309082 2.4614088535308837891 10.141698837280273438 5.393199920654296875 2.76432037353515625 2.8024036884307861328 2.8107075691223144531 2.7924633026123046875 2.8227543830871582031 2.8104376792907714844 2.8212091922760009766 2.794586181640625 2.2308716773986816406 1.5732169151306152344 4.2871751785278320312 4.9122953414916992188 2.7182030677795410156 0.78091663122177124023 0.34219801425933837891 1.0821204185485839844 2.0521922111511230469 2.8146243095397949219 2.9632394313812255859 2.8155851364135742188 2.8094568252563476562 2.8003776073455810547 2.7961614131927490234 2.7980527877807617188 2.8101468086242675781 2.8261852264404296875 2.8090043067932128906 2.8220243453979492188 2.6545584201812744141 2.8089916706085205078 2.8028922080993652344 2.78371429443359375 2.7927210330963134766 2.7831373214721679688 2.7911331653594970703 2.7896795272827148438 0.49541139602661132812 2.3211040496826171875 2.0232579708099365234 2.3311266899108886719 2.7674605846405029297 2.7694630622863769531 2.7683343887329101562 2.7780632972717285156 2.7848031520843505859 2.80661773681640625 2.8138399124145507812 1.5783342123031616211 1.4196754693984985352 1.4069051742553710938 1.2614783048629760742 2.6232893466949462891 2.7790765762329101562 2.6391663551330566406 2.8107192516326904297 2.8111681938171386719 2.8084826469421386719 2.8189864158630371094 2.8029108047485351562 2.8028817176818847656 2.8432190418243408203 2.8157384395599365234 2.3101279735565185547 2.2206714153289794922 2.0832855701446533203 2.9947125911712646484 
2.1076326370239257812 3.0710697174072265625 4.7700715065002441406 5.7374577522277832031 5.3391423225402832031 4.826496124267578125 1.6503843069076538086 2.4898099899291992188 3.4065520763397216797 2.6935074329376220703 2.3422944545745849609 2.8025226593017578125 2.5210108757019042969 1.043249964714050293 2.3894796371459960938 1.358080744743347168 1.4448995590209960938 1.0747867822647094727 2.5203588008880615234 1.5166012048721313477 1.8919707536697387695 2.0246596336364746094 2.7029759883880615234 2.4668147563934326172 3.0086159706115722656 2.9429326057434082031 2.7592806816101074219 2.7340312004089355469 3.5499978065490722656 3.8131494522094726562 2.9628713130950927734 3.7539651393890380859 3.6914856433868408203 0.65156066417694091797 0.48494863510131835938 0.34219801425933837891 1.3406163454055786133 3.3398637771606445312 2.7955014705657958984 2.8236434459686279297 2.8035070896148681641 2.800258636474609375 1.8755943775177001953 2.7883446216583251953 2.7843906879425048828 2.7994182109832763672 2.8179991245269775391 2.8149302005767822266 2.8192884922027587891 2.8317613601684570312 2.8033566474914550781 2.7858927249908447266 2.7856180667877197266 2.7804710865020751953 2.7715446949005126953 1.4120246171951293945 0.4941005706787109375 0.49304431676864624023 2.1555225849151611328 0.34219801425933837891 1.4025871753692626953 2.7616302967071533203 2.7718157768249511719 2.7681066989898681641 2.7576584815979003906 2.7567131519317626953 2.7880349159240722656 2.6558413505554199219 1.7288668155670166016 0.96574813127517700195 0.65367436408996582031 0.49541139602661132812 2.774028778076171875 2.7892088890075683594 2.8119564056396484375 2.8052527904510498047 2.8338818550109863281 2.8283312320709228516 2.7901310920715332031 2.8323330879211425781 2.8171658515930175781 2.8259131908416748047 2.8211832046508789062 2.3808095455169677734 2.5104093551635742188 3.5190017223358154297 4.0491871833801269531 
1.9779126644134521484 2.7319996356964111328 2.5586438179016113281 0.65201783180236816406 1.9571655988693237305 2.7588727474212646484 3.1584014892578125 3.4735949039459228516 3.2447531223297119141 2.9610445499420166016 2.1186301708221435547 2.3426389694213867188 1.7221758365631103516 4.6987862586975097656 1.9148453474044799805 1.9858373403549194336 2.0536656379699707031 1.7751986980438232422 3.0234296321868896484 2.8910593986511230469 2.6002707481384277344 2.5938539505004882812 2.0408005714416503906 2.1806828975677490234 2.1205418109893798828 3.4711527824401855469 3.1497061252593994141 3.5060660839080810547 3.0716297626495361328 3.3914203643798828125 2.9682545661926269531 3.8916006088256835938 2.2000379562377929688 0.45639851689338684082 0.37074813246726989746 0.34219801425933837891 0.4025338292121887207 2.9411189556121826172 2.7905962467193603516 2.8078289031982421875 2.7907695770263671875 2.7948987483978271484 2.6330416202545166016 2.7811231613159179688 2.8005769252777099609 2.8236153125762939453 2.8121471405029296875 2.4995250701904296875 2.8328199386596679688 2.6550118923187255859 2.6667768955230712891 2.7819297313690185547 2.7803678512573242188 2.7660508155822753906 2.6187040805816650391 0.48494863510131835938 0.37074813246726989746 0.72954100370407104492 1.5526126623153686523 0.34219801425933837891 0.64494687318801879883 2.7713301181793212891 2.7779545783996582031 2.7761673927307128906 2.7667055130004882812 2.7738242149353027344 2.7672204971313476562 0.95077341794967651367 0.34219801425933837891 2.1978440284729003906 1.7301312685012817383 2.0306823253631591797 2.8064341545104980469 2.8055810928344726562 2.7960197925567626953 2.8084132671356201172 2.8089520931243896484 2.8081171512603759766 2.9787280559539794922 2.8111014366149902344 3.0428369045257568359 2.8090384006500244141 2.8297579288482666016 2.8215434551239013672 2.7994303703308105469 4.2868070602416992188 2.8155760765075683594 
2.3478536605834960938 2.4658882617950439453 2.1096823215484619141 0.65425664186477661133 1.7210972309112548828 2.6743457317352294922 3.4149580001831054688 3.4140372276306152344 2.2627453804016113281 2.3440825939178466797 1.8537327051162719727 3.9958567619323730469 2.7525527477264404297 2.0305202007293701172 2.1318781375885009766 2.3826894760131835938 2.8388447761535644531 1.8602118492126464844 2.561389923095703125 2.3498556613922119141 2.4894380569458007812 1.5989999771118164062 1.8130720853805541992 2.3015625476837158203 2.6730432510375976562 2.9773812294006347656 2.1478900909423828125 4.2794623374938964844 3.4829964637756347656 4.0548853874206542969 4.0502786636352539062 4.2140512466430664062 3.8893725872039794922 2.9861814975738525391 2.1186800003051757812 1.9966474771499633789 1.6487903594970703125 2.778514862060546875 2.7832345962524414062 2.7889521121978759766 2.804981231689453125 2.7972040176391601562 2.6430158615112304688 2.8060095310211181641 2.8087067604064941406 2.830814361572265625 2.82354736328125 2.6673681735992431641 1.8838648796081542969 2.8178341388702392578 2.8100366592407226562 2.6444427967071533203 2.1831898689270019531 2.4632027149200439453 2.0084574222564697266 0.65440195798873901367 0.34219801425933837891 0.49392282962799072266 0.49304431676864624023 0.34219801425933837891 0.34219801425933837891 2.7700288295745849609 2.7888824939727783203 2.7888205051422119141 2.6064739227294921875 2.7853410243988037109 1.8550301790237426758 0.34219801425933837891 1.1101260185241699219 2.0109527111053466797 2.8049206733703613281 2.8172743320465087891 2.7978265285491943359 2.7892811298370361328 2.2848291397094726562 2.8413579463958740234 2.7958474159240722656 3.4067180156707763672 5.3576073646545410156 5.0531129837036132812 3.1244466304779052734 2.8071608543395996094 2.8062615394592285156 2.8191752433776855469 2.8071303367614746094 2.8011994361877441406 2.7878091335296630859 
2.6281006336212158203 0.94288623332977294922 1.7052277326583862305 1.2772765159606933594 2.4401197433471679688 2.7359991073608398438 4.0905356407165527344 3.0243012905120849609 2.7997651100158691406 2.0704455375671386719 2.6587808132171630859 3.2234723567962646484 1.3753490447998046875 1.4418997764587402344 1.0491491556167602539 1.6737711429595947266 2.2753026485443115234 1.7735059261322021484 2.9247841835021972656 2.7133755683898925781 2.7704432010650634766 2.1307044029235839844 1.7986445426940917969 1.9435186386108398438 2.7400872707366943359 2.7948920726776123047 2.0904800891876220703 5.3409442901611328125 3.4687895774841308594 3.301357269287109375 3.1195883750915527344 4.655792236328125 4.0678706169128417969 4.0464200973510742188 2.8680176734924316406 2.2654786109924316406 2.1226873397827148438 2.7962267398834228516 2.7476775646209716797 2.7993605136871337891 2.8263769149780273438 2.7913179397583007812 2.6562469005584716797 2.7942433357238769531 2.7972064018249511719 2.8090555667877197266 2.813129425048828125 2.8205835819244384766 2.8138062953948974609 2.7631101608276367188 1.5575326681137084961 2.5186581611633300781 2.8221220970153808594 2.7880225181579589844 2.7992129325866699219 2.6384363174438476562 1.8807202577590942383 2.7975633144378662109 0.79533720016479492188 0.65094506740570068359 1.8613699674606323242 2.4523682594299316406 2.6180171966552734375 2.5869314670562744141 2.4714968204498291016 2.0135071277618408203 1.4020446538925170898 0.34219801425933837891 0.79896998405456542969 2.7917139530181884766 2.8052198886871337891 2.8227024078369140625 2.8030252456665039062 2.8142335414886474609 1.628645777702331543 1.2834481000900268555 1.494885563850402832 2.8014979362487792969 2.8128042221069335938 2.8031029701232910156 2.7898116111755371094 2.808742523193359375 2.8230798244476318359 2.8303592205047607422 2.8200545310974121094 2.8107674121856689453 2.813846588134765625 
3.0247752666473388672 0.34219801425933837891 0.34219801425933837891 2.1021113395690917969 3.0992169380187988281 2.7500407695770263672 2.771839141845703125 3.4181160926818847656 2.7015626430511474609 2.0919575691223144531 2.7120749950408935547 2.5304379463195800781 2.4674220085144042969 1.7282739877700805664 1.9587379693984985352 1.5989999771118164062 1.9684660434722900391 1.5803170204162597656 2.7957489490509033203 2.1170010566711425781 2.2711205482482910156 2.7655177116394042969 2.1965956687927246094 1.2148631811141967773 3.4577553272247314453 3.0200505256652832031 2.7704792022705078125 4.1045665740966796875 4.0643630027770996094 2.8156423568725585938 2.9110245704650878906 4.4166369438171386719 4.655792236328125 4.4548501968383789062 4.0712075233459472656 1.5698308944702148438 2.3477725982666015625 2.7291357517242431641 2.8027417659759521484 2.9132034778594970703 2.9255313873291015625 2.8123412132263183594 2.8327610492706298828 2.8002519607543945312 2.3661236763000488281 2.6622331142425537109 2.631908416748046875 2.8039946556091308594 2.6366944313049316406 1.6010243892669677734 0.80570566654205322266 2.8047637939453125 2.3419382572174072266 2.7974531650543212891 2.7985022068023681641 2.7978906631469726562 2.1777596473693847656 2.1620571613311767578 0.64581024646759033203 1.2686371803283691406 1.1176240444183349609 2.7853767871856689453 2.7765293121337890625 2.793560028076171875 1.5321122407913208008 0.34219801425933837891 0.34219801425933837891 1.1102014780044555664 1.1034846305847167969 2.7906961441040039062 2.7959511280059814453 2.8149905204772949219 2.8160789012908935547 2.8041136264801025391 1.7976322174072265625 0.11156249791383743286 2.2440035343170166016 2.793743133544921875 2.8105444908142089844 2.7948987483978271484 2.7970330715179443359 2.7933554649353027344 2.7912707328796386719 2.7959957122802734375 2.8035821914672851562 2.489013671875 2.1833319664001464844 
3.1578938961029052734 0.34219801425933837891 0.34219801425933837891 1.6537376642227172852 2.7779877185821533203 2.7340257167816162109 2.9812974929809570312 3.7466576099395751953 3.3303706645965576172 1.9740422964096069336 2.1832332611083984375 1.6622563600540161133 1.7900495529174804688 2.5151019096374511719 1.9536421298980712891 1.5822654962539672852 2.5241973400115966797 2.3464095592498779297 2.7592897415161132812 2.7735579013824462891 2.2600922584533691406 2.6372272968292236328 1.9330570697784423828 2.6937706470489501953 5.3659334182739257812 3.0139296054840087891 2.4522697925567626953 3.5483288764953613281 4.0668253898620605469 3.0311923027038574219 3.1279673576354980469 3.9067709445953369141 4.5307526588439941406 3.6781723499298095703 3.4346218109130859375 2.2986290454864501953 2.6350605487823486328 2.7038352489471435547 2.7589457035064697266 2.8029043674468994141 2.7976186275482177734 2.8053088188171386719 2.7875180244445800781 2.7916729450225830078 2.6327211856842041016 2.6501183509826660156 1.7165853977203369141 1.8851736783981323242 0.34219801425933837891 1.4113242626190185547 0.64524066448211669922 2.7786433696746826172 2.7912805080413818359 2.8015539646148681641 2.4658589363098144531 2.4917390346527099609 2.6477766036987304688 1.3835072517395019531 2.1686196327209472656 2.8101401329040527344 2.8088891506195068359 2.8025758266448974609 2.7980020046234130859 2.8106069564819335938 1.7173013687133789062 1.5566316843032836914 1.2598233222961425781 2.7938396930694580078 2.4949221611022949219 2.7995731830596923828 2.8188424110412597656 2.8055996894836425781 2.8073036670684814453 2.8142459392547607422 1.02768707275390625 1.1369292736053466797 3.0686166286468505859 2.81027984619140625 2.7984099388122558594 2.7973225116729736328 2.7931306362152099609 2.7954034805297851562 2.7990124225616455078 2.7967164516448974609 1.8837602138519287109 0.49528226256370544434 0.95505154132843017578 
2.1825621128082275391 0.34219801425933837891 0.34219801425933837891 1.5770517587661743164 2.7590742111206054688 2.7210178375244140625 3.6178140640258789062 3.2212879657745361328 2.4625239372253417969 0.81150484085083007812 1.4169937372207641602 1.5989999771118164062 1.6744078397750854492 2.3476941585540771484 2.041004180908203125 1.5989999771118164062 1.7460674047470092773 2.0680310726165771484 1.6204135417938232422 2.2642416954040527344 2.0855646133422851562 2.2500731945037841797 2.7254672050476074219 2.7884390354156494141 3.3312656879425048828 2.2801976203918457031 2.6161913871765136719 3.0542969703674316406 4.1127386093139648438 3.8633508682250976562 2.9365823268890380859 4.0411624908447265625 4.178424835205078125 3.3336224555969238281 1.9139065742492675781 3.7016320228576660156 2.7166221141815185547 2.7323455810546875 2.7863445281982421875 2.7826075553894042969 2.7895069122314453125 2.7211461067199707031 2.5845048427581787109 2.7999777793884277344 2.3465583324432373047 1.7169466018676757812 0.64872682094573974609 0.34219801425933837891 0.34219801425933837891 0.49788388609886169434 0.79718935489654541016 2.7892694473266601562 2.8081810474395751953 2.7995452880859375 2.8133466243743896484 2.7753753662109375 2.8092327117919921875 2.8020195960998535156 2.8074464797973632812 2.8217148780822753906 2.8029875755310058594 2.8403832912445068359 2.8240087032318115234 2.8134045600891113281 2.8010501861572265625 2.7974262237548828125 2.8064723014831542969 2.7914395332336425781 2.8074889183044433594 2.7983839511871337891 2.7989165782928466797 2.8026833534240722656 2.8084166049957275391 2.0099864006042480469 0.20962499082088470459 2.6278998851776123047 2.86138153076171875 2.7800989151000976562 2.8001763820648193359 2.7941229343414306641 2.7849800586700439453 2.6232616901397705078 2.8029692173004150391 2.7922499179840087891 2.7966966629028320312 2.7937197685241699219 1.5574185848236083984 
0.34219801425933837891 0.34219801425933837891 0.34219801425933837891 1.8814638853073120117 2.7475886344909667969 2.7397761344909667969 2.7893035411834716797 2.7253160476684570312 2.3253722190856933594 0.65639853477478027344 1.5864310264587402344 1.5989999771118164062 1.9207268953323364258 2.4455037117004394531 1.8994902372360229492 1.5989999771118164062 1.7084449529647827148 2.1235516071319580078 3.0052084922790527344 3.4083280563354492188 2.6474373340606689453 2.6329281330108642578 2.690113067626953125 2.7131130695343017578 2.8048343658447265625 2.2145974636077880859 2.7392203807830810547 3.1111135482788085938 3.9783878326416015625 2.6316618919372558594 2.8096513748168945312 3.919315338134765625 4.1557683944702148438 3.0312898159027099609 2.7083139419555664062 1.5806038379669189453 2.1976060867309570312 2.7942683696746826172 2.7327442169189453125 2.7405478954315185547 2.79055023193359375 2.7719762325286865234 2.5068225860595703125 2.7963852882385253906 2.4348309040069580078 0.34219801425933837891 0.34219801425933837891 0.34219801425933837891 0.34219801425933837891 0.34219801425933837891 0.65356975793838500977 2.7944779396057128906 2.7975332736968994141 2.8006544113159179688 2.8007721900939941406 2.8000771999359130859 2.8119652271270751953 2.8300249576568603516 3.0640153884887695312 2.8492500782012939453 2.8492500782012939453 2.8418107032775878906 2.8332793712615966797 2.8492500782012939453 2.7945165634155273438 2.8277370929718017578 2.8247847557067871094 2.8143379688262939453 2.8140387535095214844 2.7971973419189453125 2.813320159912109375 2.7777898311614990234 2.5493631362915039062 0.48037499189376831055 0.20225000381469726562 2.6963517665863037109 2.8108735084533691406 2.8077123165130615234 2.8156633377075195312 1.5802388191223144531 1.5708773136138916016 1.252198338508605957 1.8511885404586791992 2.7986123561859130859 2.7789673805236816406 2.7837278842926025391 0.34219801425933837891 
