ncols        87
nrows        107
xllcorner    508536.404131802963
yllcorner    5265618.997906560078
cellsize     120.000000000000
NODATA_value -9999
0.23399999737739562988 0.23399999737739562988 0.23399999737739562988 0.23399999737739562988 0.23399999737739562988 0.23399999737739562988 0.23399999737739562988 0.23399999737739562988 0.23399999737739562988 0.23399999737739562988 0.23399999737739562988 0.23399999737739562988 0.23399999737739562988 0.23399999737739562988 0.23399999737739562988 0.23399999737739562988 0.23399999737739562988 0.23399999737739562988 0.23399999737739562988 0.23399999737739562988 0.23399999737739562988 0.23399999737739562988 0.23399999737739562988 0.23399999737739562988 0.23399999737739562988 0.23399999737739562988 0.23399999737739562988 0.23399999737739562988 0.23399999737739562988 0.23399999737739562988 0.23399999737739562988 0.23399999737739562988 0.23399999737739562988 0.23399999737739562988 0.23399999737739562988 0.23399999737739562988 0.23399999737739562988 0.23399999737739562988 0.23399999737739562988 0.23399999737739562988 0.23399999737739562988 0.23399999737739562988 0.23399999737739562988 0.23399999737739562988 0.23399999737739562988 0.23399999737739562988 0.23399999737739562988 0.23399999737739562988 0.23399999737739562988 0.23399999737739562988 0.23399999737739562988 0.23399999737739562988 0.23399999737739562988 0.23399999737739562988 0.23399999737739562988 0.23399999737739562988 0.23399999737739562988 0.23399999737739562988 0.23399999737739562988 0.23399999737739562988 0.23399999737739562988 0.23399999737739562988 0.23399999737739562988 0.23399999737739562988 0.23399999737739562988 0.23399999737739562988 0.47752472758293151855 1.6328104734420776367 1.7634752988815307617 1.613301396369934082 3.2855141162872314453 5.8570904731750488281 4.8972153663635253906 13.820018768310546875 7.7120580673217773438 4.0757098197937011719 10.446108818054199219 4.3058462142944335938 3.9518473148345947266 8.5609064102172851562 11.631116867065429688 5.3472833633422851562 9.943389892578125 7.7885713577270507812 6.6767015457153320312 6.2225923538208007812 6.9866538047790527344 
0.23399999737739562988 0.23399999737739562988 0.23399999737739562988 0.23399999737739562988 0.23399999737739562988 0.23399999737739562988 0.23399999737739562988 0.23399999737739562988 0.23399999737739562988 0.23399999737739562988 0.23399999737739562988 0.23399999737739562988 0.23399999737739562988 0.23399999737739562988 0.23399999737739562988 0.23399999737739562988 0.23399999737739562988 0.23399999737739562988 0.23399999737739562988 0.23399999737739562988 0.23399999737739562988 0.23399999737739562988 0.23399999737739562988 0.23399999737739562988 0.23399999737739562988 0.23399999737739562988 0.23399999737739562988 0.23399999737739562988 0.23399999737739562988 0.23399999737739562988 0.23399999737739562988 0.23399999737739562988 0.23399999737739562988 0.23399999737739562988 0.23399999737739562988 0.23399999737739562988 0.23399999737739562988 0.23399999737739562988 0.23399999737739562988 0.23399999737739562988 0.23399999737739562988 0.23399999737739562988 0.23399999737739562988 0.23399999737739562988 0.23399999737739562988 0.23399999737739562988 0.23399999737739562988 0.23399999737739562988 0.23399999737739562988 0.23399999737739562988 0.23399999737739562988 0.23399999737739562988 0.23399999737739562988 0.23399999737739562988 0.23399999737739562988 0.23399999737739562988 0.23399999737739562988 0.23399999737739562988 0.23399999737739562988 0.23399999737739562988 0.23399999737739562988 0.4198125004768371582 0.4198125004768371582 0.23399999737739562988 0.23399999737739562988 0.44689974188804626465 2.2200696468353271484 1.5969517230987548828 3.0388989448547363281 2.3735098838806152344 6.5214018821716308594 9.0975255966186523438 9.172267913818359375 7.7130131721496582031 14.46399688720703125 5.4394164085388183594 6.3416614532470703125 10.326557159423828125 12.522604942321777344 12.114792823791503906 7.02986907958984375 3.3745701313018798828 3.2583038806915283203 5.6679134368896484375 3.3195617198944091797 5.3011851310729980469 2.1261584758758544922 
0.23399999737739562988 0.23399999737739562988 0.23399999737739562988 0.23399999737739562988 0.23399999737739562988 0.23399999737739562988 0.23399999737739562988 0.23399999737739562988 0.23399999737739562988 0.23399999737739562988 0.23399999737739562988 0.23399999737739562988 0.23399999737739562988 0.23399999737739562988 0.23399999737739562988 0.23399999737739562988 0.23399999737739562988 0.23399999737739562988 0.23399999737739562988 0.23399999737739562988 0.23399999737739562988 0.23399999737739562988 0.23399999737739562988 0.23399999737739562988 0.23399999737739562988 0.23399999737739562988 0.23399999737739562988 0.23399999737739562988 0.23399999737739562988 0.23399999737739562988 0.23399999737739562988 0.23399999737739562988 0.23399999737739562988 0.23399999737739562988 0.23399999737739562988 0.23399999737739562988 0.23399999737739562988 0.23399999737739562988 0.23399999737739562988 0.23399999737739562988 0.23399999737739562988 0.23399999737739562988 0.23399999737739562988 0.23399999737739562988 0.23399999737739562988 0.23399999737739562988 0.23399999737739562988 0.23399999737739562988 0.23399999737739562988 0.23399999737739562988 0.23399999737739562988 0.23399999737739562988 0.23399999737739562988 0.23399999737739562988 0.23399999737739562988 0.23399999737739562988 0.23399999737739562988 0.23399999737739562988 0.21262499690055847168 0.97462069988250732422 1.6935858726501464844 0.62463361024856567383 0.18412499129772186279 0.22312499582767486572 0.14384615421295166016 0.98487842082977294922 1.9085091352462768555 1.7884762287139892578 3.3960769176483154297 4.6179747581481933594 8.5253629684448242188 9.9429101943969726562 14.632338523864746094 11.656209945678710938 12.390233993530273438 5.5879082679748535156 6.1977791786193847656 10.921717643737792969 6.5243601799011230469 10.202864646911621094 6.8739328384399414062 6.0883746147155761719 10.418416023254394531 8.7797412872314453125 7.4471516609191894531 2.6419701576232910156 0.29407349228858947754 
0.23399999737739562988 0.23399999737739562988 0.23399999737739562988 0.23399999737739562988 0.23399999737739562988 0.23399999737739562988 0.23399999737739562988 0.23399999737739562988 0.23399999737739562988 0.23399999737739562988 0.23399999737739562988 0.23399999737739562988 0.23399999737739562988 0.23399999737739562988 0.23399999737739562988 0.23399999737739562988 0.23399999737739562988 0.23399999737739562988 0.23399999737739562988 0.23399999737739562988 0.23399999737739562988 0.23399999737739562988 0.23399999737739562988 0.23399999737739562988 0.23399999737739562988 0.23399999737739562988 0.23399999737739562988 0.23399999737739562988 0.23399999737739562988 0.23399999737739562988 0.23399999737739562988 0.23399999737739562988 0.23399999737739562988 0.23399999737739562988 0.23399999737739562988 0.2268749922513961792 0.23399999737739562988 0.23399999737739562988 0.23399999737739562988 0.23399999737739562988 0.23399999737739562988 0.23399999737739562988 0.23399999737739562988 0.23399999737739562988 0.23399999737739562988 0.23399999737739562988 0.23399999737739562988 0.23399999737739562988 0.23399999737739562988 0.23399999737739562988 0.23399999737739562988 0.23399999737739562988 0.23399999737739562988 0.23399999737739562988 0.23399999737739562988 0.23399999737739562988 0.23399999737739562988 0.205499991774559021 1.2732994556427001953 2.5645349025726318359 1.934368133544921875 0.17476837337017059326 1.1104290485382080078 2.2310624122619628906 0.92024999856948852539 3.1334981918334960938 4.4193081855773925781 2.1540570259094238281 3.0920011997222900391 6.8399081230163574219 6.9593791961669921875 11.228386878967285156 16.675525665283203125 12.980297088623046875 11.043683052062988281 6.5120668411254882812 5.1088070869445800781 8.7196483612060546875 5.9061365127563476562 6.9297628402709960938 9.9160060882568359375 7.587940216064453125 5.339366912841796875 9.7204437255859375 4.9981870651245117188 1.1417516469955444336 0.9161052703857421875 
0.23399999737739562988 0.23399999737739562988 0.23399999737739562988 0.23399999737739562988 0.23399999737739562988 0.23399999737739562988 0.23399999737739562988 0.23399999737739562988 0.23399999737739562988 0.23399999737739562988 0.23399999737739562988 0.23399999737739562988 0.23399999737739562988 0.23399999737739562988 0.23399999737739562988 0.23399999737739562988 0.23399999737739562988 0.23399999737739562988 0.23399999737739562988 0.23399999737739562988 0.23399999737739562988 0.23399999737739562988 0.23399999737739562988 0.23399999737739562988 0.23399999737739562988 0.23399999737739562988 0.23399999737739562988 0.23399999737739562988 0.23399999737739562988 0.23399999737739562988 0.23399999737739562988 0.23399999737739562988 0.23399999737739562988 0.92582249641418457031 3.4755835533142089844 2.8520708084106445312 0.17325000464916229248 0.23399999737739562988 0.23399999737739562988 0.23399999737739562988 0.23399999737739562988 0.23399999737739562988 0.23399999737739562988 0.23399999737739562988 0.23399999737739562988 0.23399999737739562988 0.23399999737739562988 0.23399999737739562988 0.23399999737739562988 0.23399999737739562988 0.23399999737739562988 0.23399999737739562988 0.23399999737739562988 0.23399999737739562988 0.23399999737739562988 0.21262499690055847168 0.1661249995231628418 1.2463867664337158203 1.8525683879852294922 1.3164936304092407227 0.50849997997283935547 0.90094971656799316406 0.7029768824577331543 2.6922502517700195312 3.0140624046325683594 2.9592499732971191406 1.7825170755386352539 2.7743344306945800781 3.9931695461273193359 7.9192233085632324219 4.4533557891845703125 12.618681907653808594 10.342906951904296875 6.5580906867980957031 10.252288818359375 10.766272544860839844 14.15132904052734375 7.7967095375061035156 3.0222375392913818359 6.9835691452026367188 3.7123160362243652344 12.522162437438964844 7.1337289810180664062 9.4451208114624023438 3.0973730087280273438 0.78145045042037963867 0.84491676092147827148 
0.23399999737739562988 0.23399999737739562988 0.23399999737739562988 0.23399999737739562988 0.23399999737739562988 0.23399999737739562988 0.23399999737739562988 0.23399999737739562988 0.23399999737739562988 0.23399999737739562988 0.23399999737739562988 0.23399999737739562988 0.23399999737739562988 0.23399999737739562988 0.23399999737739562988 0.23399999737739562988 0.23399999737739562988 0.23399999737739562988 0.23399999737739562988 0.23399999737739562988 0.23399999737739562988 0.23399999737739562988 0.23399999737739562988 0.23399999737739562988 0.23399999737739562988 0.23399999737739562988 0.23399999737739562988 0.23399999737739562988 0.23399999737739562988 0.23399999737739562988 0.23399999737739562988 0.19124999642372131348 1.6781975030899047852 2.1367771625518798828 1.3188071250915527344 3.8225169181823730469 0.16775000095367431641 0.23399999737739562988 0.23399999737739562988 0.23399999737739562988 0.23399999737739562988 0.23399999737739562988 0.23399999737739562988 0.23399999737739562988 0.23399999737739562988 0.23399999737739562988 0.23399999737739562988 0.23399999737739562988 0.23399999737739562988 0.23399999737739562988 0.23399999737739562988 0.23399999737739562988 0.2268749922513961792 0.64435184001922607422 0.91052216291427612305 1.5422970056533813477 1.6476175785064697266 2.0968468189239501953 1.3418430089950561523 1.9213852882385253906 2.2275288105010986328 2.4329369068145751953 1.7260199785232543945 2.4859466552734375 3.2577760219573974609 3.2070000171661376953 2.1232423782348632812 2.7494463920593261719 1.847184300422668457 4.1342229843139648438 3.5830953121185302734 9.7909374237060546875 11.867646217346191406 12.51629638671875 10.246626853942871094 13.832269668579101562 12.021424293518066406 6.3376946449279785156 2.6609244346618652344 3.0782570838928222656 12.196927070617675781 16.082530975341796875 7.9585595130920410156 3.0739302635192871094 1.8309388160705566406 0.31407350301742553711 0.20000000298023223877 
0.23399999737739562988 0.23399999737739562988 0.23399999737739562988 0.23399999737739562988 0.23399999737739562988 0.23399999737739562988 0.23399999737739562988 0.23399999737739562988 0.23399999737739562988 0.23399999737739562988 0.23399999737739562988 0.23399999737739562988 0.23399999737739562988 0.23399999737739562988 0.23399999737739562988 0.23399999737739562988 0.23399999737739562988 0.23399999737739562988 0.23399999737739562988 0.23399999737739562988 0.23399999737739562988 0.23399999737739562988 0.23399999737739562988 0.23399999737739562988 0.23399999737739562988 0.23399999737739562988 0.23399999737739562988 0.23399999737739562988 0.19124999642372131348 0.13349999487400054932 0.1154999956488609314 4.390171051025390625 2.6186196804046630859 1.6926400661468505859 0.46865037083625793457 1.0152469873428344727 0.55575001239776611328 0.23399999737739562988 0.23399999737739562988 0.23399999737739562988 0.23399999737739562988 0.23399999737739562988 0.23399999737739562988 0.23399999737739562988 0.23399999737739562988 0.23399999737739562988 0.23399999737739562988 0.23399999737739562988 0.23399999737739562988 0.23399999737739562988 0.2268749922513961792 1.7988966703414916992 0.77232527732849121094 1.1522829532623291016 2.5892751216888427734 2.8915009498596191406 2.7588095664978027344 4.2835125923156738281 8.2318334579467773438 4.7322421073913574219 2.0762104988098144531 2.4020030498504638672 1.5914300680160522461 2.7490916252136230469 3.6109507083892822266 3.4024782180786132812 2.7714591026306152344 2.741489410400390625 2.2928354740142822266 1.4754431247711181641 1.9597527980804443359 6.9334468841552734375 11.05204010009765625 8.7351531982421875 10.059210777282714844 9.4442882537841796875 10.201770782470703125 3.3582234382629394531 4.7028717994689941406 8.2560291290283203125 10.995816230773925781 12.414240837097167969 8.1964998245239257812 4.263156890869140625 8.4578685760498046875 3.5001196861267089844 2.6853964328765869141 
0.23399999737739562988 0.23399999737739562988 0.23399999737739562988 0.23399999737739562988 0.23399999737739562988 0.23399999737739562988 0.23399999737739562988 0.23399999737739562988 0.23399999737739562988 0.23399999737739562988 0.23399999737739562988 0.23399999737739562988 0.23399999737739562988 0.23399999737739562988 0.23399999737739562988 0.23399999737739562988 0.23399999737739562988 0.23399999737739562988 0.23399999737739562988 0.23399999737739562988 0.23399999737739562988 0.23399999737739562988 0.23399999737739562988 0.23399999737739562988 0.23399999737739562988 0.23399999737739562988 0.65012282133102416992 0.96313238143920898438 0.27266150712966918945 1.3885040283203125 3.4399423599243164062 2.3939268589019775391 1.1757936477661132812 1.3012050390243530273 0.97931623458862304688 0.205499991774559021 0.23399999737739562988 0.23399999737739562988 0.23399999737739562988 0.23399999737739562988 0.23399999737739562988 0.23399999737739562988 0.23399999737739562988 0.23399999737739562988 0.23399999737739562988 0.23399999737739562988 0.23399999737739562988 0.23399999737739562988 0.23399999737739562988 0.48464974761009216309 1.9318939447402954102 1.3037104606628417969 3.2920343875885009766 5.0793442726135253906 3.4009315967559814453 2.77428436279296875 2.7090401649475097656 2.6150419712066650391 8.428180694580078125 11.138739585876464844 2.079326629638671875 2.5228414535522460938 1.9843006134033203125 4.1256580352783203125 5.7910556793212890625 2.6159501075744628906 2.7634844779968261719 4.7302536964416503906 3.0097517967224121094 1.617283940315246582 5.0457663536071777344 8.4524383544921875 9.6491956710815429688 7.6984047889709472656 3.6273379325866699219 7.4623084068298339844 10.073409080505371094 2.7464468479156494141 4.9371933937072753906 8.6498727798461914062 10.975108146667480469 9.5420656204223632812 8.2293806076049804688 6.4863839149475097656 11.43920135498046875 17.453046798706054688 11.180250167846679688 
0.23399999737739562988 0.23399999737739562988 0.23399999737739562988 0.23399999737739562988 0.23399999737739562988 0.23399999737739562988 0.23399999737739562988 0.23399999737739562988 0.23399999737739562988 0.23399999737739562988 0.23399999737739562988 0.23399999737739562988 0.23399999737739562988 0.23399999737739562988 0.23399999737739562988 0.23399999737739562988 0.23399999737739562988 0.23399999737739562988 0.23399999737739562988 0.23399999737739562988 0.23399999737739562988 0.23399999737739562988 0.23399999737739562988 0.205499991774559021 1.6368737220764160156 2.0397827625274658203 2.8556988239288330078 1.624737858772277832 0.10624999552965164185 5.9770894050598144531 0.88266187906265258789 1.1143411397933959961 1.2779650688171386719 0.97672188282012939453 0.50606375932693481445 0.23399999737739562988 0.23399999737739562988 0.23399999737739562988 0.23399999737739562988 0.23399999737739562988 0.23399999737739562988 0.23399999737739562988 0.23399999737739562988 0.23399999737739562988 0.23399999737739562988 0.23399999737739562988 0.23399999737739562988 0.2268749922513961792 0.9176438450813293457 1.1732935905456542969 0.58889973163604736328 2.3974199295043945312 1.945656895637512207 1.6402404308319091797 2.0674369335174560547 2.0911936759948730469 2.7307426929473876953 2.5915970802307128906 4.6302762031555175781 11.606814384460449219 3.1417572498321533203 2.5794215202331542969 5.5442299842834472656 5.41596221923828125 3.1480896472930908203 2.9909732341766357422 2.7745530605316162109 8.0873394012451171875 5.8704509735107421875 4.3778843879699707031 7.1898341178894042969 6.3143410682678222656 7.8731389045715332031 4.6375732421875 2.9891595840454101562 3.7645373344421386719 7.4805974960327148438 2.6131367683410644531 2.9407007694244384766 2.6356053352355957031 4.2447910308837890625 8.313007354736328125 10.192429542541503906 6.4609274864196777344 3.0963261127471923828 1.8727233409881591797 5.4648375511169433594 
0.23399999737739562988 0.23399999737739562988 0.23399999737739562988 0.23399999737739562988 0.23399999737739562988 0.23399999737739562988 0.23399999737739562988 0.23399999737739562988 0.23399999737739562988 0.23399999737739562988 0.23399999737739562988 0.23399999737739562988 0.23399999737739562988 0.23399999737739562988 0.23399999737739562988 0.23399999737739562988 0.23399999737739562988 0.23399999737739562988 0.23399999737739562988 0.23399999737739562988 0.23399999737739562988 0.21975000202655792236 1.5476645231246948242 2.5551631450653076172 5.7584691047668457031 1.1658037900924682617 2.2634198665618896484 2.0900599956512451172 1.8820248842239379883 0.90008389949798583984 0.28447777032852172852 2.1778516769409179688 0.89450889825820922852 0.45418873429298400879 0.2268749922513961792 0.23399999737739562988 0.23399999737739562988 0.23399999737739562988 0.23399999737739562988 0.23399999737739562988 0.23399999737739562988 0.23399999737739562988 0.23399999737739562988 0.23399999737739562988 0.23399999737739562988 0.23399999737739562988 0.21262499690055847168 1.3696547746658325195 2.1241991519927978516 4.03118896484375 5.7303252220153808594 4.7891292572021484375 2.7787203788757324219 3.8550434112548828125 4.40610504150390625 2.7124805450439453125 2.6596772670745849609 3.4198930263519287109 5.7990784645080566406 9.6378889083862304688 2.2833425998687744141 2.5487160682678222656 4.0826568603515625 6.8038778305053710938 8.2750244140625 2.6107504367828369141 2.7857921123504638672 5.2339158058166503906 3.7464220523834228516 3.6809182167053222656 2.5991656780242919922 7.9349589347839355469 12.256756782531738281 4.2919826507568359375 2.4581663608551025391 9.4018230438232421875 6.747997283935546875 1.653868556022644043 2.9413228034973144531 1.8446050882339477539 3.7115883827209472656 5.4169683456420898438 8.3947696685791015625 8.5641012191772460938 0.37209799885749816895 2.1634752750396728516 22.99575042724609375 
0.23399999737739562988 0.23399999737739562988 0.23399999737739562988 0.23399999737739562988 0.23399999737739562988 0.23399999737739562988 0.23399999737739562988 0.23399999737739562988 0.23399999737739562988 0.23399999737739562988 0.23399999737739562988 0.23399999737739562988 0.23399999737739562988 0.23399999737739562988 0.23399999737739562988 0.23399999737739562988 0.23399999737739562988 0.23399999737739562988 0.23399999737739562988 0.21975000202655792236 0.75454950332641601562 2.0509936809539794922 2.7149822711944580078 2.5793347358703613281 1.6384071111679077148 2.4383015632629394531 2.7602784633636474609 2.2528963088989257812 2.1783573627471923828 2.7032313346862792969 0.96770590543746948242 2.2764132022857666016 0.46575587987899780273 0.18537500500679016113 0.23399999737739562988 0.23399999737739562988 0.23399999737739562988 0.23399999737739562988 0.23399999737739562988 0.23399999737739562988 0.23399999737739562988 0.23399999737739562988 0.23399999737739562988 0.23399999737739562988 0.23399999737739562988 0.21975000202655792236 1.0228242874145507812 1.7652266025543212891 3.5789885520935058594 5.1586842536926269531 5.5107135772705078125 4.9514985084533691406 3.1308126449584960938 8.4578952789306640625 4.327724456787109375 2.650806427001953125 2.7105154991149902344 5.1597008705139160156 3.5210237503051757812 6.8034162521362304688 2.5615751743316650391 1.7369779348373413086 9.2611551284790039062 7.9066491127014160156 10.065388679504394531 3.3141944408416748047 2.8116426467895507812 5.9430899620056152344 6.3515644073486328125 8.0308742523193359375 4.0647854804992675781 8.251377105712890625 10.126797676086425781 5.9516477584838867188 4.026386260986328125 2.5816934108734130859 2.6118340492248535156 1.1612011194229125977 5.02886199951171875 3.9741513729095458984 8.0208940505981445312 5.1895575523376464844 2.1256232261657714844 4.6756949424743652344 0.84294468164443969727 1.4189110994338989258 9.1975460052490234375 
0.23399999737739562988 0.23399999737739562988 0.23399999737739562988 0.23399999737739562988 0.23399999737739562988 0.23399999737739562988 0.23399999737739562988 0.23399999737739562988 0.23399999737739562988 0.23399999737739562988 0.23399999737739562988 0.23399999737739562988 0.23399999737739562988 0.23399999737739562988 0.23399999737739562988 0.23399999737739562988 0.23399999737739562988 0.23399999737739562988 0.23399999737739562988 0.15562500059604644775 2.0972604751586914062 2.1201903820037841797 2.2783977985382080078 1.961430668830871582 1.6302728652954101562 2.7512502670288085938 2.7423596382141113281 2.769268035888671875 1.8589818477630615234 1.3349291086196899414 3.2187349796295166016 0.6311098933219909668 0.29821938276290893555 0.2268749922513961792 0.23399999737739562988 0.23399999737739562988 0.23399999737739562988 0.23399999737739562988 0.23399999737739562988 0.23399999737739562988 0.23399999737739562988 0.23399999737739562988 0.23399999737739562988 0.23399999737739562988 0.19624999165534973145 0.13175000250339508057 2.0348730087280273438 1.7752252817153930664 2.7288916110992431641 3.0229048728942871094 3.5324602127075195312 8.1993770599365234375 5.8475594520568847656 3.4496378898620605469 4.2457647323608398438 2.7301163673400878906 4.238719940185546875 2.6757173538208007812 6.0114150047302246094 6.1087441444396972656 4.5570545196533203125 0.15000000596046447754 7.3826017379760742188 4.1155939102172851562 7.5260558128356933594 4.0158624649047851562 3.908229827880859375 2.7680072784423828125 8.4342184066772460938 7.5839915275573730469 2.6236689090728759766 4.1721525192260742188 8.5183506011962890625 4.8503756523132324219 3.7243399620056152344 1.8165811300277709961 0.98966699838638305664 1.9106121063232421875 2.6031222343444824219 11.746842384338378906 5.6115236282348632812 3.3785154819488525391 1.8213583230972290039 1.8349587917327880859 1.5549620389938354492 1.7943521738052368164 6.622570037841796875 
0.23399999737739562988 0.23399999737739562988 0.23399999737739562988 0.23399999737739562988 0.23399999737739562988 0.23399999737739562988 0.23399999737739562988 0.23399999737739562988 0.23399999737739562988 0.23399999737739562988 0.23399999737739562988 0.23399999737739562988 0.23399999737739562988 0.23399999737739562988 0.23399999737739562988 0.23399999737739562988 0.23399999737739562988 0.23399999737739562988 0.21975000202655792236 0.44415587186813354492 1.4679660797119140625 1.0033762454986572266 1.9678845405578613281 1.9553027153015136719 1.4562733173370361328 2.7308757305145263672 2.7005510330200195312 2.7572891712188720703 0.98488163948059082031 1.6198920011520385742 1.2451380491256713867 0.8077233433723449707 0.35221937298774719238 0.23399999737739562988 0.23399999737739562988 0.23399999737739562988 0.23399999737739562988 0.23399999737739562988 0.23399999737739562988 0.23399999737739562988 0.23399999737739562988 0.23399999737739562988 0.23399999737739562988 0.18037499487400054932 1.0035742521286010742 1.5700078010559082031 2.855258941650390625 2.7551419734954833984 3.1102125644683837891 12.114629745483398438 9.544994354248046875 8.8919496536254882812 5.0974712371826171875 4.8659071922302246094 8.7889871597290039062 3.6029248237609863281 4.3102407455444335938 3.0904777050018310547 5.8081312179565429688 7.4658184051513671875 2.0674321651458740234 0.12999999523162841797 2.7792601585388183594 5.5710721015930175781 4.5240001678466796875 4.8238468170166015625 8.15424346923828125 6.2250995635986328125 7.6312737464904785156 2.8619797229766845703 2.2808368206024169922 2.0740685462951660156 1.4525682926177978516 3.2190134525299072266 5.0823383331298828125 2.7538368701934814453 2.1445977687835693359 5.592990875244140625 3.9647150039672851562 7.3234872817993164062 4.034885406494140625 2.699306488037109375 2.8913035392761230469 3.2777140140533447266 2.7025024890899658203 4.3073759078979492188 3.2415323257446289062 
0.23399999737739562988 0.23399999737739562988 0.23399999737739562988 0.23399999737739562988 0.23399999737739562988 0.23399999737739562988 0.23399999737739562988 0.23399999737739562988 0.23399999737739562988 0.23399999737739562988 0.23399999737739562988 0.23399999737739562988 0.23399999737739562988 0.23399999737739562988 0.23399999737739562988 0.23399999737739562988 0.23399999737739562988 0.23399999737739562988 0.46827474236488342285 2.7588860988616943359 2.6036312580108642578 1.8059401512145996094 2.7370343208312988281 2.4021694660186767578 2.0743627548217773438 2.5478246212005615234 2.7471251487731933594 2.2731509208679199219 2.1499841213226318359 3.0069146156311035156 1.7838355302810668945 1.637828826904296875 0.41268751025199890137 0.23399999737739562988 0.23399999737739562988 0.23399999737739562988 0.23399999737739562988 0.23399999737739562988 0.23399999737739562988 0.23399999737739562988 0.23399999737739562988 0.23399999737739562988 0.75454950332641601562 0.74838727712631225586 2.1164181232452392578 2.7644429206848144531 2.7607958316802978516 2.7447147369384765625 8.3031826019287109375 8.3276777267456054688 7.9893898963928222656 11.074736595153808594 8.6617498397827148438 3.8501253128051757812 4.8679575920104980469 4.4827475547790527344 8.0777425765991210938 4.2863025665283203125 3.1863815784454345703 3.7599277496337890625 2.1913595199584960938 0.76679950952529907227 3.9929616451263427734 6.2091794013977050781 8.4820261001586914062 5.425632476806640625 3.2416718006134033203 4.4802069664001464844 3.4765691757202148438 1.9323850870132446289 2.6690347194671630859 2.8479862213134765625 4.1268625259399414062 7.2178397178649902344 5.0202393531799316406 6.5456395149230957031 3.8674643039703369141 2.7244367599487304688 3.7725458145141601562 8.8249530792236328125 5.7030777931213378906 2.8040647506713867188 3.7632970809936523438 3.0246665477752685547 2.2013962268829345703 2.1949665546417236328 2.8010540008544921875 
0.23399999737739562988 0.23399999737739562988 0.23399999737739562988 0.23399999737739562988 0.23399999737739562988 0.23399999737739562988 0.23399999737739562988 0.23399999737739562988 0.23399999737739562988 0.23399999737739562988 0.23399999737739562988 0.23399999737739562988 0.23399999737739562988 0.23399999737739562988 0.23399999737739562988 0.23399999737739562988 0.23399999737739562988 0.23399999737739562988 1.8226861953735351562 2.8773837089538574219 2.7561662197113037109 1.8065165281295776367 2.7761323451995849609 2.5789325237274169922 1.9371334314346313477 2.6111128330230712891 2.4377560615539550781 1.4455854892730712891 4.2138767242431640625 2.2857632637023925781 1.6238420009613037109 1.3034647703170776367 0.23399999737739562988 0.23399999737739562988 0.23399999737739562988 0.23399999737739562988 0.23399999737739562988 0.23399999737739562988 0.23399999737739562988 0.23399999737739562988 0.2268749922513961792 0.19063431024551391602 5.0684494972229003906 3.0279536247253417969 4.7441806793212890625 2.7634983062744140625 2.7536566257476806641 4.2012944221496582031 5.113765716552734375 3.5247058868408203125 7.3128142356872558594 9.7056417465209960938 4.0401158332824707031 3.6795969009399414062 3.7170193195343017578 2.7660372257232666016 5.2955746650695800781 7.78890228271484375 10.291661262512207031 7.1724634170532226562 1.1797111034393310547 1.3535989522933959961 1.5244894027709960938 11.629542350769042969 9.3128252029418945312 2.759403228759765625 2.7680466175079345703 3.5157055854797363281 2.6003401279449462891 1.7890738248825073242 2.7610175609588623047 3.5030272006988525391 4.6319036483764648438 9.6524991989135742188 9.314777374267578125 9.4656133651733398438 2.0577783584594726562 1.9131681919097900391 2.9132306575775146484 6.9694809913635253906 3.7639615535736083984 3.1809363365173339844 2.6144070625305175781 2.9404125213623046875 2.2338130474090576172 2.7978465557098388672 13.827703475952148438 
0.23399999737739562988 0.23399999737739562988 0.23399999737739562988 0.23399999737739562988 0.23399999737739562988 0.23399999737739562988 0.23399999737739562988 0.23399999737739562988 0.23399999737739562988 0.23399999737739562988 0.23399999737739562988 0.23399999737739562988 0.23399999737739562988 0.23399999737739562988 0.23399999737739562988 0.23399999737739562988 0.23399999737739562988 0.23399999737739562988 2.0161237716674804688 2.7690293788909912109 2.7717943191528320312 2.3514997959136962891 2.7670133113861083984 2.2907702922821044922 2.3932647705078125 1.7175852060317993164 3.0482552051544189453 2.1227295398712158203 7.0061831474304199219 3.2040228843688964844 1.5938122272491455078 0.2911249995231628418 0.23399999737739562988 0.23399999737739562988 0.23399999737739562988 0.23399999737739562988 0.23399999737739562988 0.23399999737739562988 0.21224999427795410156 0.140625 0.85739386081695556641 2.9134969711303710938 5.7572703361511230469 4.5503931045532226562 2.4261291027069091797 2.7709095478057861328 4.0812768936157226562 10.53876495361328125 8.7139635086059570312 7.8214373588562011719 2.6431040763854980469 0.82424408197402954102 0.82252860069274902344 0.5232493281364440918 1.8022103309631347656 5.3804421424865722656 3.9949617385864257812 8.5316619873046875 4.1053080558776855469 1.486252903938293457 2.770336151123046875 2.0294752120971679688 10.496494293212890625 7.7049021720886230469 13.450384140014648438 4.1247625350952148438 2.79346466064453125 6.9300079345703125 2.5120451450347900391 2.22197723388671875 2.8104908466339111328 1.0011034011840820312 1.2502759695053100586 6.3175306320190429688 8.60601043701171875 4.384616851806640625 5.7230553627014160156 2.7475469112396240234 2.0679802894592285156 7.2675747871398925781 2.7447252273559570312 2.1762678623199462891 1.7593044042587280273 2.1913437843322753906 3.0808620452880859375 3.5256178379058837891 11.915591239929199219 
0.23399999737739562988 0.23399999737739562988 0.23399999737739562988 0.23399999737739562988 0.23399999737739562988 0.23399999737739562988 0.23399999737739562988 0.23399999737739562988 0.23399999737739562988 0.23399999737739562988 0.23399999737739562988 0.23399999737739562988 0.23399999737739562988 0.23399999737739562988 0.23399999737739562988 0.23399999737739562988 0.23399999737739562988 0.205499991774559021 2.1422634124755859375 1.6503564119338989258 1.7948502302169799805 2.9113953113555908203 4.9790072441101074219 2.6475481986999511719 1.9493257999420166016 0.35047307610511779785 1.1218221187591552734 1.6842039823532104492 3.6000387668609619141 1.799841761589050293 0.76946938037872314453 0.23399999737739562988 0.23399999737739562988 0.23399999737739562988 0.23399999737739562988 0.21262499690055847168 0.48052474856376647949 0.31081017851829528809 0.7928492426872253418 1.7430602312088012695 1.4840116500854492188 1.5295273065567016602 2.5626847743988037109 0.73027646541595458984 1.7122471332550048828 2.4810688495635986328 2.0709412097930908203 4.9967203140258789062 8.3217878341674804688 3.8613276481628417969 2.7978794574737548828 0.52479648590087890625 0.37209799885749816895 0.37209799885749816895 1.1988358497619628906 3.6329252719879150391 9.4333620071411132812 10.26177978515625 4.5095882415771484375 3.5275096893310546875 8.055019378662109375 2.8154118061065673828 11.221673965454101562 7.2589364051818847656 12.405777931213378906 3.6487712860107421875 5.3614268302917480469 4.2364263534545898438 2.836154937744140625 2.8149652481079101562 2.5386147499084472656 1.5237833261489868164 2.0305395126342773438 7.3310980796813964844 7.9205965995788574219 3.8643636703491210938 4.0732626914978027344 1.9746158123016357422 6.2415761947631835938 6.329128265380859375 2.8096303939819335938 1.2430614233016967773 0.74070227146148681641 0.64734321832656860352 2.0250911712646484375 6.5389699935913085938 6.7387714385986328125 
0.23399999737739562988 0.23399999737739562988 0.23399999737739562988 0.23399999737739562988 0.23399999737739562988 0.23399999737739562988 0.23399999737739562988 0.23399999737739562988 0.23399999737739562988 0.23399999737739562988 0.23399999737739562988 0.23399999737739562988 0.23399999737739562988 0.23399999737739562988 0.23399999737739562988 0.23399999737739562988 0.23399999737739562988 0.92764383554458618164 2.8459343910217285156 2.1194601058959960938 2.7627530097961425781 3.5251917839050292969 3.2460789680480957031 2.8008522987365722656 1.6152291297912597656 1.1192783117294311523 1.0835402011871337891 4.9756846427917480469 2.7872622013092041016 1.1659718751907348633 1.1196874380111694336 0.23399999737739562988 0.23399999737739562988 0.23399999737739562988 0.23399999737739562988 0.40564975142478942871 2.7602226734161376953 5.2788958549499511719 3.8048965930938720703 6.2238068580627441406 1.8488554954528808594 0.28104901313781738281 1.3622992038726806641 1.1066217422485351562 7.9781208038330078125 0.37209799885749816895 0.37209799885749816895 1.521607518196105957 3.1545512676239013672 1.9551296234130859375 2.7382211685180664062 0.37209799885749816895 0.37209799885749816895 0.37209799885749816895 1.42952728271484375 4.4926557540893554688 7.8879899978637695312 7.7732105255126953125 6.8444285392761230469 7.5471220016479492188 5.1245326995849609375 4.310638427734375 10.996846199035644531 9.97150421142578125 11.51332855224609375 4.7738847732543945312 3.1165785789489746094 3.0854802131652832031 4.6622424125671386719 2.2063982486724853516 1.9745432138442993164 1.9465081691741943359 2.2819020748138427734 3.3243432044982910156 3.1014177799224853516 2.3031191825866699219 2.7729828357696533203 5.4335627555847167969 5.9567232131958007812 3.6254117488861083984 2.8077788352966308594 2.1891613006591796875 1.0717091560363769531 1.2399669885635375977 3.8263735771179199219 5.1729912757873535156 5.2670507431030273438 
0.23399999737739562988 0.23399999737739562988 0.23399999737739562988 0.23399999737739562988 0.23399999737739562988 0.23399999737739562988 0.23399999737739562988 0.23399999737739562988 0.23399999737739562988 0.23399999737739562988 0.23399999737739562988 0.23399999737739562988 0.23399999737739562988 0.23399999737739562988 0.23399999737739562988 0.23399999737739562988 0.52027475833892822266 2.1251432895660400391 2.6059415340423583984 2.5997684001922607422 2.7549986839294433594 3.1467528343200683594 3.1669054031372070312 1.7867479324340820312 1.651093602180480957 1.4639503955841064453 3.0789816379547119141 3.4454770088195800781 4.4256920814514160156 6.536712646484375 0.95587497949600219727 0.2268749922513961792 0.2268749922513961792 0.23399999737739562988 0.12474999576807022095 0.99254947900772094727 2.3270833492279052734 2.7348587512969970703 2.4565453529357910156 2.7215197086334228516 6.5575838088989257812 0.46946868300437927246 0.66000914573669433594 1.2732269763946533203 3.2810051441192626953 0.37209799885749816895 0.37209799885749816895 0.33683574199676513672 1.3416055440902709961 1.6409821510314941406 1.3228467702865600586 1.3705506324768066406 0.89948815107345581055 0.86818033456802368164 1.1393673419952392578 4.0397114753723144531 7.1165804862976074219 4.6207747459411621094 3.1667428016662597656 2.6967058181762695312 11.072430610656738281 8.6941022872924804688 9.9514980316162109375 5.7396755218505859375 4.9299325942993164062 3.117290496826171875 9.2225942611694335938 3.7804749011993408203 2.7863368988037109375 0.7941989898681640625 0.14399999380111694336 0.73216998577117919922 2.2471244335174560547 1.6869807243347167969 2.4145843982696533203 2.2616720199584960938 2.5395832061767578125 4.054439544677734375 9.6413125991821289062 3.5700333118438720703 2.1083590984344482422 1.5255604982376098633 1.324513554573059082 3.2040774822235107422 6.3211536407470703125 2.7090222835540771484 2.7779998779296875 
0.23399999737739562988 0.23399999737739562988 0.23399999737739562988 0.23399999737739562988 0.23399999737739562988 0.23399999737739562988 0.23399999737739562988 0.23399999737739562988 0.23399999737739562988 0.23399999737739562988 0.23399999737739562988 0.23399999737739562988 0.23399999737739562988 0.23399999737739562988 0.23399999737739562988 0.23399999737739562988 1.3790990114212036133 2.9502394199371337891 2.2713255882263183594 2.275852203369140625 2.2756311893463134766 1.5840228796005249023 1.9530599117279052734 1.3176687955856323242 0.90956026315689086914 1.7936495542526245117 3.0176098346710205078 1.4660185575485229492 9.101165771484375 5.8912839889526367188 1.4776874780654907227 0.34143748879432678223 0.16274999082088470459 0.14974999427795410156 2.2213532924652099609 2.7793524265289306641 2.8910183906555175781 2.766780853271484375 2.3102221488952636719 1.1481072902679443359 2.3888380527496337891 0.29680511355400085449 0.36134186387062072754 0.96969991922378540039 0.96961122751235961914 0.44909188151359558105 1.3362398147583007812 0.31407350301742553711 2.9412767887115478516 2.7324070930480957031 2.7643504142761230469 1.5415974855422973633 2.0045931339263916016 2.6359205245971679688 1.2240182161331176758 3.7022635936737060547 5.4665989875793457031 6.5939121246337890625 6.2485017776489257812 3.6958870887756347656 8.4023761749267578125 5.7780237197875976562 5.2569432258605957031 2.7594537734985351562 2.7522945404052734375 2.7506530284881591797 9.1649322509765625 10.3350067138671875 9.1769456863403320312 4.91289520263671875 2.9245703220367431641 0.58366769552230834961 1.0855187177658081055 1.5894085168838500977 2.1676023006439208984 2.4239499568939208984 2.2758669853210449219 6.5705056190490722656 9.5751628875732421875 4.2577996253967285156 1.0273190736770629883 1.0041519403457641602 0.89937192201614379883 2.3485851287841796875 2.4519467353820800781 1.5320740938186645508 3.0807130336761474609 
0.23399999737739562988 0.23399999737739562988 0.23399999737739562988 0.23399999737739562988 0.23399999737739562988 0.23399999737739562988 0.23399999737739562988 0.23399999737739562988 0.23399999737739562988 0.23399999737739562988 0.23399999737739562988 0.23399999737739562988 0.23399999737739562988 0.23399999737739562988 0.23399999737739562988 0.23399999737739562988 1.9552226066589355469 2.7026531696319580078 2.434032440185546875 2.4351525306701660156 1.9532543420791625977 2.2943556308746337891 2.5940964221954345703 1.4530477523803710938 1.0859180688858032227 3.1238718032836914062 6.3364481925964355469 4.605289459228515625 7.486301422119140625 3.8219575881958007812 3.2070000171661376953 3.2070000171661376953 1.2947499752044677734 1.6132634878158569336 3.5435564517974853516 2.7644314765930175781 3.0118958950042724609 2.7700998783111572266 2.7585015296936035156 1.1081857681274414062 2.1690342426300048828 0.31331738829612731934 0.37209799885749816895 0.3153235018253326416 0.3183173835277557373 0.29956737160682678223 0.48980736732482910156 0.58996552228927612305 2.8410553932189941406 2.8067455291748046875 2.3691875934600830078 3.5268790721893310547 2.0525333881378173828 1.6551164388656616211 1.6039204597473144531 1.6129170656204223633 4.2486658096313476562 2.0139024257659912109 4.6402506828308105469 11.676850318908691406 5.0226321220397949219 3.1192257404327392578 2.7503464221954345703 2.7680175304412841797 4.5324773788452148438 9.002994537353515625 12.05730438232421875 10.492605209350585938 4.6390271186828613281 2.6233422756195068359 2.3197667598724365234 1.81395721435546875 2.1344325542449951172 1.4251178503036499023 1.6552655696868896484 2.3680255413055419922 2.5795474052429199219 4.1126985549926757812 5.7692332267761230469 4.7384033203125 1.3497927188873291016 1.2472757101058959961 1.5974938869476318359 2.708072662353515625 2.7987811565399169922 2.16542816162109375 2.6014018058776855469 
0.23399999737739562988 0.23399999737739562988 0.23399999737739562988 0.23399999737739562988 0.23399999737739562988 0.23399999737739562988 0.23399999737739562988 0.23399999737739562988 0.23399999737739562988 0.23399999737739562988 0.23399999737739562988 0.23399999737739562988 0.23399999737739562988 0.23399999737739562988 0.2268749922513961792 2.543300628662109375 3.0105915069580078125 2.7815318107604980469 2.7606585025787353516 2.7656710147857666016 2.7335109710693359375 2.6989483833312988281 1.9550093412399291992 2.1715741157531738281 2.3399500846862792969 2.8715362548828125 1.9985994100570678711 8.852252960205078125 2.8553864955902099609 2.3573744297027587891 2.8311250209808349609 4.8450207710266113281 0.77844679355621337891 0.08124999701976776123 2.1031050682067871094 2.7646956443786621094 3.1624047756195068359 2.7457191944122314453 3.5168170928955078125 2.319782257080078125 2.3373880386352539062 0.3075612485408782959 0.36134186387062072754 0.66241914033889770508 0.37209799885749816895 0.52608573436737060547 0.66945832967758178711 1.4296267032623291016 2.8341112136840820312 2.3764019012451171875 1.7857476472854614258 2.6228747367858886719 4.566585540771484375 1.9703702926635742188 2.1964259147644042969 4.5738205909729003906 5.2049999237060546875 5.44884490966796875 3.8722536563873291016 10.983232498168945312 5.5120477676391601562 2.7553319931030273438 2.5885171890258789062 2.7961771488189697266 9.0187320709228515625 3.3283267021179199219 4.708591461181640625 3.3097212314605712891 5.2863759994506835938 2.9062569141387939453 2.8864259719848632812 2.4550502300262451172 1.1576021909713745117 2.1265466213226318359 1.4606341123580932617 2.4785699844360351562 2.1790788173675537109 2.9928708076477050781 2.7521333694458007812 1.1269762516021728516 0.85752725601196289062 0.13038112223148345947 1.2700885534286499023 2.3369081020355224609 1.4299623966217041016 1.9033662080764770508 2.0001571178436279297 
0.23399999737739562988 0.23399999737739562988 0.23399999737739562988 0.23399999737739562988 0.23399999737739562988 0.23399999737739562988 0.23399999737739562988 0.23399999737739562988 0.23399999737739562988 0.23399999737739562988 0.23399999737739562988 0.23399999737739562988 0.23399999737739562988 0.58424997329711914062 1.135424494743347168 1.9979056119918823242 2.8096933364868164062 2.7656877040863037109 2.7775862216949462891 2.7581796646118164062 2.6986341476440429688 2.7418158054351806641 1.7989548444747924805 3.7861118316650390625 3.1468143463134765625 1.2336102724075317383 1.3314685821533203125 3.7593607902526855469 6.2927775382995605469 6.6112570762634277344 0.34049999713897705078 3.8129146099090576172 3.7461640834808349609 1.8222159147262573242 4.1458520889282226562 2.7571916580200195312 2.0677607059478759766 3.2424464225769042969 4.9941534996032714844 2.7965607643127441406 2.8840181827545166016 5.2671341896057128906 6.6052346229553222656 3.0227766036987304688 2.740772247314453125 2.8635258674621582031 2.2690012454986572266 2.9478702545166015625 3.6530518531799316406 2.6576249599456787109 3.913654327392578125 2.8985810279846191406 1.8051972389221191406 1.4143053293228149414 1.2401124238967895508 2.7159872055053710938 2.2590894699096679688 4.8163633346557617188 2.7787082195281982422 8.5926179885864257812 5.3355865478515625 4.7413067817687988281 2.5899746417999267578 1.8604753017425537109 8.8156328201293945312 6.7165513038635253906 2.5898809432983398438 2.5857534408569335938 2.4820818901062011719 2.4793491363525390625 2.4498541355133056641 0.13249999284744262695 0.099999994039535522461 2.1416163444519042969 3.2638652324676513672 3.5506742000579833984 3.5746846199035644531 6.2229557037353515625 3.4136691093444824219 2.4356021881103515625 2.7152767181396484375 2.3271496295928955078 2.4425618648529052734 2.6067829132080078125 1.7123026847839355469 2.623073577880859375 0.14000000059604644775 
0.23399999737739562988 0.23399999737739562988 0.23399999737739562988 0.23399999737739562988 0.23399999737739562988 0.23399999737739562988 0.23399999737739562988 0.23399999737739562988 0.23399999737739562988 0.23399999737739562988 0.23399999737739562988 0.23399999737739562988 0.77718752622604370117 1.4923124313354492188 3.1531629562377929688 1.5889170169830322266 2.1890847682952880859 2.7728319168090820312 2.7683782577514648438 2.7676157951354980469 2.7569246292114257812 2.4346878528594970703 2.5707080364227294922 2.1968820095062255859 8.1898298263549804688 2.6044080257415771484 1.5359294414520263672 5.9606032371520996094 3.7448818683624267578 6.2966828346252441406 2.6697573661804199219 6.87186431884765625 1.457396388053894043 2.2356250286102294922 1.8184319734573364258 2.1962342262268066406 9.49564361572265625 2.5857157707214355469 1.1908428668975830078 1.4679361581802368164 2.1926515102386474609 4.6419892311096191406 4.2793779373168945312 2.9380965232849121094 2.7340226173400878906 2.4319348335266113281 1.2837349176406860352 1.473240971565246582 3.0064551830291748047 2.6621448993682861328 2.5451564788818359375 2.4727599620819091797 2.6701176166534423828 1.9523198604583740234 2.5882742404937744141 2.7483153343200683594 2.7019102573394775391 3.0793006420135498047 7.2945680618286132812 9.1910266876220703125 8.90261077880859375 5.1306262016296386719 4.3922038078308105469 2.0200557708740234375 3.62683868408203125 8.8332691192626953125 2.7928335666656494141 2.5410056114196777344 1.6946433782577514648 2.4896342754364013672 2.5388057231903076172 2.3610942363739013672 1.9258160591125488281 2.0706462860107421875 3.4257183074951171875 3.6829471588134765625 8.0060815811157226562 4.5703039169311523438 2.7801754474639892578 2.8015680313110351562 2.7522058486938476562 2.8056457042694091797 1.6436442136764526367 2.7934460639953613281 1.9148908853530883789 1.4635900259017944336 0.20000000298023223877 
0.23399999737739562988 0.23399999737739562988 0.23399999737739562988 0.23399999737739562988 0.23399999737739562988 0.9314282536506652832 1.3233828544616699219 3.3825542926788330078 1.5972001552581787109 0.2268749922513961792 0.23399999737739562988 0.21975000202655792236 2.5499622821807861328 3.0183773040771484375 2.7755234241485595703 2.7189393043518066406 2.7284131050109863281 2.7552232742309570312 2.778820037841796875 2.7604687213897705078 2.7554457187652587891 1.6343582868576049805 1.9632409811019897461 4.4382457733154296875 3.4558484554290771484 0.92023164033889770508 3.8470973968505859375 3.8477149009704589844 4.4802784919738769531 7.6083230972290039062 4.8769164085388183594 7.2095351219177246094 8.1655941009521484375 6.2021169662475585938 7.6146950721740722656 7.9171671867370605469 6.9161214828491210938 5.8979482650756835938 3.4323267936706542969 4.3747577667236328125 5.467105865478515625 3.8973560333251953125 3.3756949901580810547 3.1167912483215332031 2.4085366725921630859 1.7313059568405151367 1.3100452423095703125 2.0672268867492675781 2.6395676136016845703 2.6524493694305419922 2.6938488483428955078 5.9034781455993652344 6.0237240791320800781 1.4708417654037475586 2.7815496921539306641 2.7948963642120361328 3.2125649452209472656 2.7788298130035400391 9.2128343582153320312 10.5874481201171875 7.4592123031616210938 4.1769289970397949219 1.8713032007217407227 3.97586822509765625 2.4755144119262695312 1.7558388710021972656 0.98322659730911254883 1.4632282257080078125 0.74527430534362792969 1.6204702854156494141 1.1527431011199951172 1.4617927074432373047 1.2600233554840087891 1.79938507080078125 2.8435702323913574219 3.7504372596740722656 3.3718421459197998047 2.8731100559234619141 2.7789463996887207031 2.8043024539947509766 2.7205290794372558594 2.668758392333984375 1.6551918983459472656 2.7060797214508056641 2.7162303924560546875 2.5577826499938964844 0.20000000298023223877 
0.23399999737739562988 0.23399999737739562988 0.23399999737739562988 0.51314973831176757812 2.290683746337890625 2.7147707939147949219 2.5083708763122558594 8.942340850830078125 5.9748396873474121094 0.73509442806243896484 0.21262499690055847168 0.94162499904632568359 3.7252852916717529297 3.0277509689331054688 2.7635409832000732422 2.7605082988739013672 2.7710502147674560547 2.7682671546936035156 2.4336411952972412109 2.4444689750671386719 1.4746372699737548828 2.3216617107391357422 1.4239925146102905273 5.0887742042541503906 2.0781931877136230469 1.1149466037750244141 6.9758548736572265625 4.7443108558654785156 9.115940093994140625 8.4999227523803710938 7.963550567626953125 3.0308883190155029297 3.5582346916198730469 2.2494025230407714844 1.9997171163558959961 3.3796319961547851562 7.7291631698608398438 5.2250185012817382812 4.0842962265014648438 4.6840415000915527344 2.5602066516876220703 3.3475949764251708984 2.6859395503997802734 3.066066741943359375 2.2981631755828857422 0.78497368097305297852 1.4555468559265136719 2.6944737434387207031 2.6728069782257080078 2.6445589065551757812 2.7211644649505615234 4.2076616287231445312 3.6617052555084228516 2.6220853328704833984 2.7488665580749511719 4.4839196205139160156 7.337017059326171875 7.0246143341064453125 7.8686800003051757812 10.443044662475585938 6.5557017326354980469 2.4122357368469238281 2.7743976116180419922 0.94356429576873779297 4.5290241241455078125 2.8058240413665771484 2.3717427253723144531 2.9681065082550048828 2.5241761207580566406 2.7770733833312988281 2.5175583362579345703 2.2705891132354736328 3.7938301563262939453 5.0310349464416503906 1.7472844123840332031 3.4943914413452148438 3.4079244136810302734 3.1826691627502441406 2.7786002159118652344 2.7938473224639892578 2.7331609725952148438 2.1000192165374755859 2.9384782314300537109 2.759677886962890625 2.5721175670623779297 2.5699431896209716797 0.20000000298023223877 
0.21975000202655792236 0.93696737289428710938 1.7418142557144165039 2.4340152740478515625 2.4709289073944091797 1.2897729873657226562 3.0726325511932373047 4.04486083984375 1.6533638238906860352 3.1988208293914794922 1.8786745071411132812 1.8564375638961791992 3.9341967105865478516 2.7145175933837890625 2.7335453033447265625 2.7379000186920166016 2.7508933544158935547 2.0516526699066162109 1.6494166851043701172 1.6862728595733642578 1.1602803468704223633 2.3170499801635742188 1.2540736198425292969 0.88265031576156616211 1.0658843517303466797 0.79846137762069702148 4.0721440315246582031 5.9868602752685546875 10.422784805297851562 10.863786697387695312 6.770801544189453125 3.7052333354949951172 2.5766320228576660156 2.1296598911285400391 2.2903609275817871094 4.2043452262878417969 1.7101311683654785156 6.3572773933410644531 0.92015731334686279297 1.3317203521728515625 0.47591349482536315918 3.6657960414886474609 3.0962865352630615234 3.09978485107421875 2.7898566722869873047 0.67660623788833618164 2.1624388694763183594 4.3549337387084960938 2.7005765438079833984 2.6903698444366455078 2.7593793869018554688 2.7928340435028076172 2.8034105300903320312 2.7948424816131591797 2.7932155132293701172 2.7228968143463134766 5.1075873374938964844 3.6220729351043701172 7.6549344062805175781 8.24396514892578125 2.7563409805297851562 2.7567203044891357422 2.601673126220703125 1.2589145898818969727 1.0402688980102539062 1.5043890476226806641 1.4803423881530761719 1.7536554336547851562 1.7825015783309936523 1.7001676559448242188 2.0910615921020507812 2.2161118984222412109 2.0990386009216308594 2.3654351234436035156 2.4958698749542236328 3.6607890129089355469 3.2070000171661376953 3.4243187904357910156 2.8045403957366943359 2.877468109130859375 2.7939507961273193359 1.5176217555999755859 2.8165576457977294922 1.8233189582824707031 1.6048716306686401367 3.3359568119049072266 1.3535989522933959961 
2.5814902782440185547 2.6305539608001708984 6.3352866172790527344 5.0681805610656738281 1.7520253658294677734 3.1566793918609619141 2.19977569580078125 7.1834588050842285156 2.8259198665618896484 6.9732785224914550781 1.3426120281219482422 2.6281874179840087891 3.7622301578521728516 2.7416794300079345703 2.7830991744995117188 3.5075540542602539062 3.0065500736236572266 3.1490342617034912109 1.8556848764419555664 2.2965919971466064453 0.63083606958389282227 1.530086517333984375 0.71252584457397460938 1.7673376798629760742 1.28558349609375 1.7633911371231079102 3.1227583885192871094 5.2431817054748535156 6.6671462059020996094 1.9544546604156494141 5.4491581916809082031 1.7842333316802978516 5.3311281204223632812 2.6027622222900390625 2.7624659538269042969 5.4886455535888671875 3.9140367507934570312 5.6817898750305175781 0.79519349336624145508 1.1523891687393188477 0.67177486419677734375 3.9164404869079589844 2.7884533405303955078 2.7178318500518798828 2.7557833194732666016 2.1656179428100585938 1.4414825439453125 1.5723185539245605469 2.7386825084686279297 2.6013474464416503906 3.0211803913116455078 2.94976806640625 2.7050766944885253906 2.7911732196807861328 8.5810079574584960938 3.8590333461761474609 7.4750308990478515625 6.2025976181030273438 8.2188615798950195312 7.323848724365234375 2.78536224365234375 2.7682433128356933594 1.8319685459136962891 1.948262333869934082 2.1486971378326416016 2.5775334835052490234 1.8769257068634033203 2.0662305355072021484 2.6557571887969970703 1.4518095254898071289 2.7117373943328857422 2.1384928226470947266 2.5795545578002929688 2.0364806652069091797 2.7336642742156982422 4.1960172653198242188 3.2070000171661376953 2.7961714267730712891 2.8457033634185791016 2.7784681320190429688 2.7610979080200195312 2.2547109127044677734 0.25190743803977966309 0.08124999701976776123 0.97667032480239868164 3.7461781501770019531 2.3001086711883544922 
2.7798800468444824219 2.8968937397003173828 2.0910792350769042969 2.9457652568817138672 1.4293220043182373047 2.5113732814788818359 2.9661443233489990234 4.326114654541015625 5.6228652000427246094 6.2903351783752441406 0.19837500154972076416 1.2207747697830200195 3.6398134231567382812 1.7564870119094848633 1.8658111095428466797 3.2346439361572265625 3.8126239776611328125 4.814395904541015625 1.2136700153350830078 2.264591217041015625 0.88968497514724731445 4.6560993194580078125 1.9746419191360473633 1.2871668338775634766 1.2431285381317138672 3.4450790882110595703 3.0434155464172363281 3.6462666988372802734 4.9218335151672363281 3.3049671649932861328 3.5063500404357910156 1.1549537181854248047 8.6164121627807617188 2.7571163177490234375 2.5956020355224609375 0.60015010833740234375 1.2329999208450317383 1.1365000009536743164 0.70724368095397949219 2.1306061744689941406 0.53429901599884033203 3.7741742134094238281 2.8337254524230957031 2.7072076797485351562 2.6168437004089355469 2.8086674213409423828 0.52619016170501708984 4.2080721855163574219 4.9115662574768066406 2.9683887958526611328 3.2673537731170654297 3.0835144519805908203 2.6612284183502197266 6.0502424240112304688 4.3886742591857910156 2.7726712226867675781 4.9094696044921875 11.420511245727539062 9.236248016357421875 9.8888807296752929688 3.8587663173675537109 2.7374794483184814453 2.2565135955810546875 1.9278519153594970703 2.2065541744232177734 2.5435159206390380859 1.9993011951446533203 2.5822517871856689453 2.7979629039764404297 2.0769121646881103516 1.5936859846115112305 1.8436731100082397461 2.6279330253601074219 2.778751373291015625 1.7925603389739990234 3.5297131538391113281 2.8483560085296630859 2.7398271560668945312 2.7605116367340087891 2.7340822219848632812 2.6551537513732910156 1.3284509181976318359 0.061249997466802597046 0.10249999910593032837 1.0257437229156494141 3.1052408218383789062 3.2049593925476074219 
2.4583642482757568359 2.8479318618774414062 1.7845364809036254883 1.7972342967987060547 2.2428350448608398438 2.5945451259613037109 3.1532123088836669922 5.5325999259948730469 7.5861477851867675781 4.8855199813842773438 0.7201874852180480957 3.3645222187042236328 1.7421175241470336914 2.3102526664733886719 2.1827442646026611328 4.4292964935302734375 4.4196782112121582031 4.814395904541015625 3.7749865055084228516 2.9027001857757568359 2.7134962081909179688 2.7703213691711425781 3.05718231201171875 1.6299338340759277344 1.9655083417892456055 1.8192633390426635742 4.7382016181945800781 6.2666926383972167969 3.4259440898895263672 4.5205378532409667969 4.8760471343994140625 2.5239858627319335938 5.7588620185852050781 5.8469109535217285156 1.627245783805847168 2.2921688556671142578 0.77424997091293334961 0.29800000786781311035 1.8004937171936035156 3.2773082256317138672 1.7345010042190551758 3.5508084297180175781 2.7313854694366455078 2.6239054203033447266 2.7471308708190917969 1.3180674314498901367 1.0299022197723388672 5.6617894172668457031 2.6553893089294433594 3.3892207145690917969 3.8799352645874023438 3.0835618972778320312 2.6388223171234130859 4.3292803764343261719 3.8120200634002685547 2.7648007869720458984 3.1616003513336181641 8.3775882720947265625 9.3142108917236328125 9.6879262924194335938 3.2202289104461669922 1.4059549570083618164 1.2703093290328979492 1.4722340106964111328 2.1282334327697753906 1.7127306461334228516 1.5021054744720458984 2.1768100261688232422 2.7576911449432373047 2.3319475650787353516 0.37209799885749816895 0.37209799885749816895 1.8725986480712890625 2.7440690994262695312 2.6607279777526855469 2.7055332660675048828 2.6804325580596923828 2.6038193702697753906 2.6188952922821044922 2.686626434326171875 2.6132116317749023438 0.73877722024917602539 0.051249999552965164185 0.4444999992847442627 0.18999999761581420898 1.5776358842849731445 4.297359466552734375 
3.1005330085754394531 1.6056860685348510742 2.2609853744506835938 2.3178036212921142578 2.2272651195526123047 2.3211407661437988281 3.8552777767181396484 11.219548225402832031 8.0722360610961914062 3.0140624046325683594 3.4785492420196533203 2.7009310722351074219 5.4604430198669433594 2.4537522792816162109 1.9931746721267700195 4.68282318115234375 4.6851367950439453125 4.5492644309997558594 3.8511888980865478516 3.1067883968353271484 2.7788105010986328125 2.7516539096832275391 0.90491181612014770508 1.8590911626815795898 2.8555238246917724609 2.4862842559814453125 6.3584227561950683594 7.1260099411010742188 5.7435498237609863281 2.2275526523590087891 1.7773011922836303711 4.5901570320129394531 4.6779842376708984375 6.7760715484619140625 2.6159756183624267578 1.4487590789794921875 0.53183448314666748047 1.9019370079040527344 2.7834661006927490234 2.9791288375854492188 0.74210304021835327148 1.8907567262649536133 2.6666736602783203125 2.8273766040802001953 2.7053790092468261719 1.7400020360946655273 0.44962093234062194824 2.0935165882110595703 3.3653035163879394531 4.4293227195739746094 4.0296812057495117188 3.7608265876770019531 3.093746185302734375 2.788860321044921875 3.1122307777404785156 3.6765069961547851562 2.7037487030029296875 8.4842891693115234375 6.9837098121643066406 9.7268056869506835938 6.7804098129272460938 2.7725040912628173828 2.0914173126220703125 1.5882041454315185547 2.33896636962890625 2.8804318904876708984 1.9837983846664428711 2.6199774742126464844 2.7805163860321044922 2.7608172893524169922 0.81185889244079589844 0.97825044393539428711 2.754550933837890625 2.8878986835479736328 2.72400665283203125 5.659084320068359375 1.9418796300888061523 2.5916283130645751953 2.9041235446929931641 2.6465795040130615234 2.6013922691345214844 2.4697010517120361328 2.0147831439971923828 2.2268269062042236328 2.3341829776763916016 2.8052315711975097656 3.4943397045135498047 
2.7580327987670898438 3.5919308662414550781 5.04250335693359375 2.8908741474151611328 3.0346102714538574219 2.9522557258605957031 6.70218658447265625 12.046474456787109375 4.4094481468200683594 3.3792972564697265625 2.6357631683349609375 1.808707118034362793 3.5852277278900146484 1.1865258216857910156 2.1944925785064697266 4.6851367950439453125 4.7819566726684570312 4.2994432449340820312 4.0437064170837402344 4.8016123771667480469 3.4081132411956787109 2.7666115760803222656 2.5471773147583007812 1.6782897710800170898 2.5137643814086914062 2.7812299728393554688 4.3296742439270019531 5.5309009552001953125 7.3574161529541015625 3.3385555744171142578 1.8135503530502319336 3.2315385341644287109 2.46909332275390625 2.8057429790496826172 2.7896852493286132812 2.7904512882232666016 2.7767498493194580078 3.3779051303863525391 3.3176641464233398438 3.1307227611541748047 1.5523900985717773438 3.9202873706817626953 2.7668864727020263672 2.6344799995422363281 3.7305555343627929688 4.3125476837158203125 1.3930325508117675781 0.95275700092315673828 4.0175771713256835938 4.120700836181640625 3.5096337795257568359 4.4273009300231933594 2.7159671783447265625 2.7442097663879394531 2.6828274726867675781 2.7766773700714111328 4.9622492790222167969 11.444499969482421875 9.2090768814086914062 9.2477283477783203125 3.3565924167633056641 2.7775564193725585938 2.779193878173828125 2.6977972984313964844 2.7346084117889404297 2.9566426277160644531 2.5088701248168945312 2.8068256378173828125 2.8179669380187988281 2.8107452392578125 1.13481903076171875 1.5705889463424682617 2.8972930908203125 3.0279245376586914062 2.7671489715576171875 4.2816038131713867188 3.2270152568817138672 2.8870241641998291016 3.1544370651245117188 3.1964654922485351562 3.1879668235778808594 2.669315338134765625 2.6723597049713134766 2.6919090747833251953 2.6809539794921875 2.901111602783203125 2.7111806869506835938 
2.1153419017791748047 1.7670986652374267578 4.7218136787414550781 4.0505361557006835938 8.2767848968505859375 4.0938768386840820312 3.4221622943878173828 2.4552500247955322266 5.826267242431640625 2.0624887943267822266 1.6337811946868896484 4.6122894287109375 1.018441319465637207 1.3966937065124511719 2.8630242347717285156 4.814395904541015625 5.2388806343078613281 5.8597021102905273438 3.7972605228424072266 4.6134715080261230469 3.2707808017730712891 2.5825123786926269531 2.7920517921447753906 2.0947327613830566406 4.9609093666076660156 4.3614253997802734375 9.4327526092529296875 5.7438793182373046875 4.025604248046875 2.8981795310974121094 2.4904153347015380859 6.1347422599792480469 5.1625518798828125 3.4213261604309082031 1.9764271974563598633 6.8086113929748535156 3.4423000812530517578 5.8072848320007324219 6.9668679237365722656 3.9720327854156494141 5.6364836692810058594 2.7894339561462402344 2.6101222038269042969 2.4669528007507324219 5.1608862876892089844 8.2763500213623046875 6.5130076408386230469 2.6431136131286621094 4.2936892509460449219 5.0730338096618652344 4.163845062255859375 3.7637312412261962891 3.0671391487121582031 2.7120547294616699219 2.7281279563903808594 2.7947187423706054688 4.32462310791015625 10.23441314697265625 11.516660690307617188 5.4085650444030761719 3.1749415397644042969 2.8062562942504882812 2.7907266616821289062 2.2085409164428710938 1.2748266458511352539 1.3271542787551879883 1.9586328268051147461 2.6051137447357177734 2.8005549907684326172 2.8157432079315185547 0.98289197683334350586 1.1126189231872558594 3.5239872932434082031 2.7649695873260498047 2.9277431964874267578 1.9437083005905151367 2.7945592403411865234 2.7987313270568847656 4.3991212844848632812 4.814395904541015625 4.814395904541015625 3.2463617324829101562 2.3603367805480957031 2.6656625270843505859 2.6674664020538330078 3.2429778575897216797 3.1756329536437988281 
2.5521972179412841797 2.2703230381011962891 3.3112499713897705078 7.289386749267578125 5.9202675819396972656 5.6254320144653320312 6.2823510169982910156 6.9065136909484863281 5.9521346092224121094 2.7584033012390136719 2.7668819427490234375 3.3157484531402587891 1.401012420654296875 2.3896601200103759766 2.778667449951171875 4.814395904541015625 4.3757357597351074219 3.2416284084320068359 4.2840237617492675781 3.2153911590576171875 2.7216732501983642578 2.7016017436981201172 2.4705076217651367188 3.2082488536834716797 5.6575121879577636719 2.4976572990417480469 5.8599677085876464844 4.391326904296875 3.4445400238037109375 1.5289167165756225586 2.4514346122741699219 4.9367952346801757812 4.4718799591064453125 2.799488067626953125 4.2597908973693847656 3.8903796672821044922 2.9847548007965087891 7.7573485374450683594 5.3101353645324707031 7.9819269180297851562 8.2767000198364257812 2.6487753391265869141 2.5138936042785644531 4.6868519783020019531 4.0118842124938964844 10.513766288757324219 5.5127100944519042969 2.6750400066375732422 3.3304502964019775391 4.1702985763549804688 4.166996002197265625 3.8228206634521484375 1.7563315629959106445 3.1778390407562255859 5.383502960205078125 4.3638606071472167969 6.0434980392456054688 8.8303861618041992188 11.117128372192382812 7.3579039573669433594 3.1798398494720458984 2.7957606315612792969 2.2286565303802490234 2.0549221038818359375 3.0042498111724853516 1.6290571689605712891 2.001796722412109375 2.5805256366729736328 2.7975935935974121094 2.7973384857177734375 1.4193521738052368164 0.82947301864624023438 2.4279706478118896484 2.6202197074890136719 1.836527705192565918 2.6364426612854003906 2.6911745071411132812 2.7807512283325195312 5.4383225440979003906 4.814395904541015625 4.814395904541015625 3.3614566326141357422 1.2051534652709960938 2.6289906501770019531 3.0625624656677246094 3.5480973720550537109 3.255260467529296875 
3.2735502719879150391 1.5560388565063476562 1.5020539760589599609 7.053924560546875 9.6729917526245117188 5.1877307891845703125 5.61975860595703125 4.6094655990600585938 2.1179540157318115234 2.7430074214935302734 2.7625365257263183594 2.7246484756469726562 2.746883392333984375 2.6609086990356445312 2.9430270195007324219 3.2136697769165039062 2.7477626800537109375 3.3119611740112304688 2.8148128986358642578 3.356128692626953125 3.006702423095703125 2.4696946144104003906 7.6540465354919433594 5.8348569869995117188 2.1918461322784423828 2.6881406307220458984 2.5541584491729736328 1.7233937978744506836 2.7802641391754150391 1.1299039125442504883 2.6102268695831298828 3.6504199504852294922 8.2549448013305664062 5.8111281394958496094 4.1237850189208984375 6.0417871475219726562 11.761631965637207031 7.4093317985534667969 5.6053524017333984375 1.995230555534362793 2.1104528903961181641 5.0595979690551757812 3.2503995895385742188 4.6972775459289550781 3.5327498912811279297 9.4928979873657226562 2.7543559074401855469 4.6482257843017578125 3.3795118331909179688 4.1842093467712402344 3.5257380008697509766 2.8374202251434326172 4.1278772354125976562 2.7014131546020507812 3.3680996894836425781 3.2855446338653564453 3.4926621913909912109 12.513421058654785156 11.305830001831054688 14.486050605773925781 2.7957105636596679688 2.779911041259765625 2.626552581787109375 2.4434826374053955078 2.6187601089477539062 1.8107373714447021484 2.1901423931121826172 2.6232285499572753906 2.7949156761169433594 2.7774517536163330078 2.7796781063079833984 0.6739171147346496582 0.82613343000411987305 0.82568138837814331055 1.2538936138153076172 2.4371163845062255859 1.3713259696960449219 0.4715830683708190918 4.9403977394104003906 4.5501375198364257812 4.5535640716552734375 3.468021392822265625 2.3271908760070800781 2.9495112895965576172 2.8117940425872802734 3.6529531478881835938 3.9302222728729248047 
2.6704540252685546875 3.17779541015625 2.2475268840789794922 11.60760498046875 9.4227933883666992188 3.9006035327911376953 6.8740901947021484375 2.0767495632171630859 1.4497812986373901367 2.7504255771636962891 2.7718136310577392578 2.7203390598297119141 2.7185115814208984375 2.7276453971862792969 2.6914668083190917969 2.7072017192840576172 2.7989516258239746094 3.3923246860504150391 3.2157526016235351562 4.5537014007568359375 3.8999857902526855469 5.7336459159851074219 5.1236410140991210938 2.2660427093505859375 1.9534537792205810547 2.4530491828918457031 2.6226174831390380859 2.6010963916778564453 3.0845162868499755859 1.4369974136352539062 1.6936279535293579102 2.3832840919494628906 4.6689620018005371094 6.113986968994140625 3.4029707908630371094 3.1022677421569824219 5.8875789642333984375 11.844960212707519531 4.2011551856994628906 3.7235972881317138672 2.7634510993957519531 2.6378293037414550781 1.9677400588989257812 3.0066597461700439453 1.5200326442718505859 2.9520640373229980469 1.7997715473175048828 2.5239651203155517578 4.2732768058776855469 1.8573356866836547852 2.3239634037017822266 2.3422026634216308594 2.5086946487426757812 3.1338679790496826172 7.8927750587463378906 6.2972469329833984375 5.8002042770385742188 7.8011431694030761719 10.241738319396972656 8.6508893966674804688 7.2070488929748535156 2.76729583740234375 3.1846380233764648438 2.5206339359283447266 2.3977875709533691406 2.5875885486602783203 2.7620136737823486328 2.7892084121704101562 3.0357542037963867188 3.8112652301788330078 2.9057936668395996094 0.37209799885749816895 0.37209799885749816895 1.5826774835586547852 5.0671124458312988281 1.4017711877822875977 0.789600372314453125 0.44925749301910400391 1.584284663200378418 2.3341012001037597656 1.2510024309158325195 2.6459989547729492188 2.7120513916015625 3.2812173366546630859 2.1777501106262207031 3.1425390243530273438 2.6387889385223388672 
1.9388204813003540039 3.6393566131591796875 3.6875112056732177734 9.1809091567993164062 6.2824797630310058594 5.6931610107421875 8.253147125244140625 1.7844216823577880859 2.2431211471557617188 2.7576770782470703125 2.7592298984527587891 2.6650650501251220703 2.7866995334625244141 2.8166735172271728516 2.6637864112854003906 2.7134528160095214844 3.1459140777587890625 4.1656899452209472656 4.1805448532104492188 4.814395904541015625 4.814395904541015625 6.2486310005187988281 4.8050541877746582031 2.7917628288269042969 2.7822787761688232422 2.6087923049926757812 3.2493863105773925781 3.1875793933868408203 3.8507001399993896484 1.0598545074462890625 2.1890139579772949219 2.5369327068328857422 5.49991607666015625 7.2201275825500488281 5.2931933403015136719 2.8519299030303955078 8.2852773666381835938 9.602748870849609375 3.6625297069549560547 6.8865709304809570312 7.1276593208312988281 5.6749434471130371094 4.4194669723510742188 5.2305774688720703125 6.0370721817016601562 6.9006366729736328125 3.3205537796020507812 0.69650000333786010742 5.1065769195556640625 3.2516689300537109375 3.4055333137512207031 2.4182517528533935547 2.7149868011474609375 3.5006687641143798828 2.7828006744384765625 4.5084681510925292969 6.6587319374084472656 12.767127037048339844 11.223052978515625 8.6364316940307617188 9.4383678436279296875 2.3177685737609863281 2.8189368247985839844 2.9201831817626953125 2.7783732414245605469 2.6407980918884277344 2.7764384746551513672 2.7929906845092773438 2.7853281497955322266 4.1833882331848144531 3.0216124057769775391 1.1111404895782470703 1.5824964046478271484 4.8891630172729492188 3.7653765678405761719 2.8060169219970703125 2.3581137657165527344 0.98794186115264892578 2.4903433322906494141 2.2729985713958740234 2.0854475498199462891 2.6149458885192871094 3.3305151462554931641 2.3635625839233398438 2.3635625839233398438 3.1816568374633789062 2.7377769947052001953 
2.4191176891326904297 2.6150860786437988281 10.612038612365722656 6.7239708900451660156 5.8461756706237792969 9.163616180419921875 5.2413210868835449219 0.98129671812057495117 2.2783176898956298828 2.7829251289367675781 2.7844793796539306641 2.7678763866424560547 2.7585756778717041016 2.7858095169067382812 2.68041229248046875 2.6044464111328125 4.1580820083618164062 4.4221568107604980469 4.5492644309997558594 4.814395904541015625 4.0538153648376464844 2.75894927978515625 3.4453127384185791016 2.7911062240600585938 2.7680869102478027344 3.5070240497589111328 6.5694494247436523438 7.8308849334716796875 0.76674997806549072266 1.8972790241241455078 2.7881782054901123047 2.9990000724792480469 3.078830718994140625 5.2489256858825683594 4.8306984901428222656 4.5590214729309082031 3.2023406028747558594 4.9445328712463378906 5.2402777671813964844 4.9024686813354492188 2.7910733222961425781 5.8341345787048339844 5.7960195541381835938 3.0161275863647460938 3.0990974903106689453 6.9511442184448242188 3.5892655849456787109 0.68650001287460327148 10.474989891052246094 4.1153206825256347656 1.81172943115234375 1.0844610929489135742 2.7404818534851074219 3.4786088466644287109 4.8938999176025390625 9.6423425674438476562 8.7969961166381835938 11.185389518737792969 10.48674774169921875 10.645722389221191406 6.3956799507141113281 1.3797105550765991211 1.771759033203125 2.0478041172027587891 1.5216345787048339844 2.6774005889892578125 2.7825257778167724609 2.7146303653717041016 2.7484235763549804688 2.4428822994232177734 3.2415535449981689453 2.7059350013732910156 3.2767698764801025391 4.9273142814636230469 2.5059607028961181641 2.1257627010345458984 1.7003748416900634766 1.734860539436340332 2.0500700473785400391 2.1899042129516601562 2.6228663921356201172 2.8943402767181396484 3.1823341846466064453 3.0211875438690185547 1.8063997030258178711 2.8621032238006591797 2.7508716583251953125 
2.1967594623565673828 9.31472015380859375 9.3739118576049804688 3.7664935588836669922 4.7272934913635253906 7.2254095077514648438 5.1676607131958007812 2.1963226795196533203 2.3048765659332275391 2.756378173828125 2.7107987403869628906 2.6463308334350585938 2.6956055164337158203 2.6500258445739746094 2.6402647495269775391 3.50930023193359375 4.5597467422485351562 4.814395904541015625 4.814395904541015625 4.5542063713073730469 2.9720284938812255859 2.7254998683929443359 2.7927887439727783203 2.7770793437957763672 3.9134485721588134766 7.0367956161499023438 4.9088187217712402344 6.39281463623046875 4.7326002120971679688 1.9849917888641357422 2.7801353931427001953 2.90297698974609375 4.8383364677429199219 7.8853240013122558594 5.9931898117065429688 4.862651824951171875 6.0117855072021484375 3.4612665176391601562 7.2931318283081054688 2.8043670654296875 4.2066397666931152344 3.7788698673248291016 2.7607159614562988281 2.9278261661529541016 2.7682874202728271484 5.0729007720947265625 1.3804180622100830078 7.6635794639587402344 6.6926593780517578125 1.407528996467590332 1.3407866954803466797 2.2567064762115478516 3.6069576740264892578 5.6194143295288085938 4.8062882423400878906 7.0897216796875 10.570240020751953125 9.1367549896240234375 6.0667233467102050781 8.1457948684692382812 7.2805857658386230469 3.2924325466156005859 2.5937786102294921875 2.1169207096099853516 1.6958565711975097656 1.9342663288116455078 1.6719362735748291016 2.0871469974517822266 1.5608046054840087891 1.4383301734924316406 1.6590162515640258789 1.7439649105072021484 2.7987728118896484375 3.2925198078155517578 5.7470598220825195312 1.7802785634994506836 0.55160111188888549805 0.95264470577239990234 1.3802227973937988281 1.581240534782409668 2.4114005565643310547 2.8437476158142089844 3.4347586631774902344 1.7204999923706054688 3.1370365619659423828 2.9129369258880615234 2.7508716583251953125 
3.8840093612670898438 11.288241386413574219 5.9502477645874023438 2.7695577144622802734 7.168521881103515625 7.8870434761047363281 6.2181425094604492188 2.0828092098236083984 2.4669778347015380859 2.7926571369171142578 2.7732913494110107422 2.6923227310180664062 2.6500258445739746094 2.7103211879730224609 2.894588470458984375 4.6851367950439453125 3.6123468875885009766 4.5580010414123535156 4.3933043479919433594 2.8586277961730957031 2.8026154041290283203 2.7953052520751953125 2.7969996929168701172 5.0221734046936035156 4.2509870529174804688 6.9718308448791503906 2.9798564910888671875 12.016509056091308594 2.6673281192779541016 2.4268062114715576172 2.7440056800842285156 4.0584235191345214844 6.8613862991333007812 1.7025891542434692383 3.5383000373840332031 3.6056790351867675781 2.1144926548004150391 4.8646340370178222656 3.6843271255493164062 2.5999388694763183594 3.4544606208801269531 2.6124598979949951172 2.5340597629547119141 2.7109670639038085938 3.4322974681854248047 5.1905894279479980469 3.5407738685607910156 9.5849456787109375 0.37209799885749816895 0.37209799885749816895 0.80015903711318969727 1.8387820720672607422 2.7224435806274414062 2.6772887706756591797 2.70760345458984375 6.3839979171752929688 10.693470954895019531 11.110082626342773438 5.3986501693725585938 4.0858278274536132812 4.1269659996032714844 3.6145417690277099609 2.9232680797576904297 2.2488312721252441406 2.3365528583526611328 2.5092902183532714844 2.9046223163604736328 2.6995906829833984375 3.0223276615142822266 2.7902662754058837891 2.7668907642364501953 3.9421372413635253906 3.2058317661285400391 3.005016326904296875 2.6058704853057861328 2.1815721988677978516 2.2216060161590576172 2.2833683490753173828 1.611414790153503418 1.3788284063339233398 1.8180546760559082031 2.4476671218872070312 2.5532469749450683594 3.0211875438690185547 2.8353750705718994141 2.4364249706268310547 2.7675602436065673828 
5.5163950920104980469 10.109940528869628906 5.3463864326477050781 2.7955389022827148438 4.0143198966979980469 7.9594125747680664062 13.003850936889648438 2.4452617168426513672 2.7145946025848388672 2.7497472763061523438 2.7401647567749023438 2.7402300834655761719 2.6941728591918945312 2.7259919643402099609 3.0445744991302490234 4.0295414924621582031 3.3377790451049804688 4.2828989028930664062 4.9291639328002929688 5.9026188850402832031 2.7968337535858154297 2.8159613609313964844 4.5377144813537597656 4.2932224273681640625 2.7502703666687011719 2.2743959426879882812 2.7918555736541748047 5.2068333625793457031 2.105564117431640625 2.6109766960144042969 2.2871856689453125 8.7500886917114257812 6.8360209465026855469 1.2728694677352905273 1.6431936025619506836 1.5270061492919921875 2.1290037631988525391 2.4758164882659912109 2.7423853874206542969 1.7948411703109741211 2.4586346149444580078 2.7414662837982177734 2.62949371337890625 3.0339968204498291016 5.4014148712158203125 3.4004502296447753906 2.1371738910675048828 3.1260950565338134766 1.1055560111999511719 2.1761319637298583984 0.64734321832656860352 0.80760377645492553711 2.5416288375854492188 2.8519151210784912109 2.7338061332702636719 3.9827213287353515625 11.756931304931640625 12.023629188537597656 8.9586267471313476562 2.4271943569183349609 3.3993098735809326172 2.3865115642547607422 2.6318700313568115234 2.8264701366424560547 1.9943616390228271484 1.3668669462203979492 1.9171007871627807617 2.8238949775695800781 2.7489042282104492188 2.7584736347198486328 2.7476000785827636719 2.7690784931182861328 2.8354351520538330078 2.4500827789306640625 3.1952373981475830078 3.2751078605651855469 2.2581894397735595703 2.377376556396484375 1.7873983383178710938 2.2774951457977294922 2.5982773303985595703 2.8135139942169189453 3.08989715576171875 2.6827714443206787109 1.9216992855072021484 3.1738953590393066406 2.7508716583251953125 
8.8692502975463867188 7.0932526588439941406 3.1210248470306396484 2.7990043163299560547 3.2423002719879150391 6.9539818763732910156 8.5385799407958984375 8.2259769439697265625 2.7776362895965576172 2.7958159446716308594 2.7862870693206787109 2.7829442024230957031 2.733669281005859375 2.588775634765625 2.7351660728454589844 3.2171545028686523438 2.6788074970245361328 3.9009063243865966797 3.8514010906219482422 5.8048419952392578125 2.8105919361114501953 3.5865051746368408203 4.4444155693054199219 5.4800934791564941406 2.701343536376953125 4.0111546516418457031 2.7947216033935546875 2.9433491230010986328 2.1930828094482421875 2.2308373451232910156 1.9353827238082885742 8.7654981613159179688 4.8012766838073730469 2.0932254791259765625 1.5838409662246704102 1.6039999723434448242 1.0469696521759033203 2.7006347179412841797 2.6279046535491943359 3.1123814582824707031 3.0067470073699951172 2.3789496421813964844 2.2291493415832519531 2.4129853248596191406 2.6043713092803955078 1.8099517822265625 1.8832342624664306641 1.8983252048492431641 2.7292609214782714844 0.82906359434127807617 0.78496587276458740234 2.1203031539916992188 2.5401141643524169922 1.8182306289672851562 2.7213063240051269531 5.3953561782836914062 6.6104822158813476562 5.4266681671142578125 4.5295953750610351562 2.6965994834899902344 4.3814563751220703125 4.1223330497741699219 3.2782809734344482422 2.6130504608154296875 2.6226835250854492188 3.7846224308013916016 3.2282512187957763672 2.7769577503204345703 2.7890949249267578125 2.7575917243957519531 2.757389068603515625 2.7780668735504150391 3.7189173698425292969 2.0091452598571777344 0.98912560939788818359 1.7455126047134399414 0.69354540109634399414 0.71942478418350219727 0.77241992950439453125 1.2954094409942626953 1.1662957668304443359 4.4578657150268554688 3.8652279376983642578 3.9242086410522460938 3.0132710933685302734 2.9831156730651855469 2.7889409065246582031 
9.8301715850830078125 4.5965600013732910156 2.7688956260681152344 2.7642469406127929688 2.7973074913024902344 2.7526552677154541016 8.6606731414794921875 10.859938621520996094 6.9340453147888183594 2.7676632404327392578 2.7753531932830810547 2.8022449016571044922 2.7760312557220458984 2.7958748340606689453 2.7323470115661621094 2.761310577392578125 2.7126061916351318359 2.7622621059417724609 2.7070908546447753906 3.2880589962005615234 2.8077800273895263672 3.1031689643859863281 4.0677227973937988281 5.7064003944396972656 4.2987246513366699219 3.1014842987060546875 1.4564348459243774414 2.5617794990539550781 1.7495905160903930664 2.7579755783081054688 4.9851641654968261719 4.6671004295349121094 1.7934165000915527344 2.0204169750213623047 1.8881055116653442383 2.2600061893463134766 0.37209799885749816895 2.4264354705810546875 3.2398335933685302734 2.3702943325042724609 2.804470062255859375 2.4710876941680908203 2.2978682518005371094 2.5829870700836181641 2.7679359912872314453 2.6261878013610839844 2.76161956787109375 2.6050195693969726562 1.1181000471115112305 0.60307961702346801758 2.3351938724517822266 2.7789328098297119141 2.1259479522705078125 1.2619086503982543945 1.9419682025909423828 2.66905975341796875 2.7713444232940673828 5.2476696968078613281 4.8707680702209472656 7.9647583961486816406 7.6981158256530761719 8.0489501953125 8.3184576034545898438 4.038299560546875 4.4110741615295410156 3.4816541671752929688 7.413524627685546875 3.2405681610107421875 2.7141742706298828125 2.7621328830718994141 2.7580456733703613281 2.7921741008758544922 3.3795850276947021484 2.6509289741516113281 1.5754591226577758789 2.1085984706878662109 0.14499999582767486572 0.96896463632583618164 0.3405857384204864502 1.8027379512786865234 2.2574028968811035156 3.3051934242248535156 3.5051178932189941406 5.3474292755126953125 2.8317077159881591797 3.2070000171661376953 3.2070000171661376953 
8.3518390655517578125 3.7410795688629150391 2.5892531871795654297 2.6007511615753173828 2.6427047252655029297 2.7851758003234863281 5.0683574676513671875 9.8970546722412109375 9.017650604248046875 2.7816147804260253906 2.7823431491851806641 2.7834818363189697266 2.7773890495300292969 2.7748444080352783203 2.7773466110229492188 2.7632863521575927734 2.7762694358825683594 2.8298840522766113281 2.7454047203063964844 2.7968299388885498047 2.7981374263763427734 3.096042633056640625 5.5444712638854980469 5.2167840003967285156 8.5413150787353515625 5.7647910118103027344 0.72685933113098144531 2.3829216957092285156 2.0449774265289306641 4.0225915908813476562 8.6832113265991210938 3.9955501556396484375 2.3699336051940917969 1.2245786190032958984 1.3814579248428344727 2.4414155483245849609 1.7143566608428955078 2.7668333053588867188 2.7799096107482910156 2.1052057743072509766 1.8235771656036376953 1.8677071332931518555 2.0273931026458740234 2.2793018817901611328 2.805515289306640625 2.7791182994842529297 2.5978887081146240234 3.2409584522247314453 1.5013414621353149414 1.6023504734039306641 2.7234711647033691406 1.5537562370300292969 0.97458577156066894531 0.88539046049118041992 1.6707193851470947266 2.7090184688568115234 3.2856009006500244141 4.6153612136840820312 7.2470788955688476562 9.2802276611328125 7.7116580009460449219 6.8756670951843261719 5.8505830764770507812 9.2477998733520507812 5.8714599609375 6.6123437881469726562 9.838836669921875 5.7344107627868652344 2.7305104732513427734 3.302288055419921875 2.7036883831024169922 2.7067067623138427734 3.5423128604888916016 2.5079162120819091797 1.4458850622177124023 2.6520946025848388672 1.3969749212265014648 3.9573481082916259766 0.66142004728317260742 2.4797449111938476562 1.6461571455001831055 2.8896582126617431641 2.8864753246307373047 2.9289193153381347656 2.78685760498046875 3.0786879062652587891 3.2070000171661376953 
8.2500905990600585938 3.4083392620086669922 2.6551342010498046875 2.9858641624450683594 2.7058222293853759766 2.6148078441619873047 5.9011483192443847656 4.9136681556701660156 6.2532658576965332031 6.8404412269592285156 3.8424277305603027344 2.7932004928588867188 2.81366729736328125 2.7879862785339355469 2.7219395637512207031 2.7883954048156738281 2.8164756298065185547 2.8433485031127929688 2.7793138027191162109 2.7702820301055908203 2.7781429290771484375 4.1953401565551757812 9.6192922592163085938 4.258068084716796875 7.087802886962890625 3.095142364501953125 1.9639880657196044922 2.4768669605255126953 2.2612683773040771484 5.8224964141845703125 8.5379171371459960938 4.5284600257873535156 7.2364335060119628906 4.9188847541809082031 2.7512452602386474609 2.7662727832794189453 2.7666952610015869141 3.8883597850799560547 2.6052610874176025391 1.4215340614318847656 1.5977268218994140625 1.4847179651260375977 3.4150075912475585938 2.3058123588562011719 2.8206584453582763672 2.7774410247802734375 3.6944899559020996094 2.2019553184509277344 1.6039999723434448242 1.7546887397766113281 2.7865762710571289062 0.77929401397705078125 1.7402337789535522461 1.0907075405120849609 1.8662232160568237305 2.7683651447296142578 2.7922754287719726562 6.3642134666442871094 11.8507843017578125 8.8898534774780273438 7.7770438194274902344 3.737644195556640625 2.7642345428466796875 5.5171942710876464844 7.5649237632751464844 5.4949636459350585938 3.2514851093292236328 5.604671478271484375 7.270442962646484375 7.6489367485046386719 5.1546773910522460938 2.7664270401000976562 2.6364107131958007812 1.7425066232681274414 2.5207335948944091797 1.4556776285171508789 2.8537275791168212891 3.3991611003875732422 2.0627655982971191406 2.9718534946441650391 0.43964973092079162598 3.2399260997772216797 2.74126434326171875 3.0541746616363525391 2.9332158565521240234 3.0783967971801757812 3.2070000171661376953 
5.4125051498413085938 3.8482997417449951172 2.6948421001434326172 3.5142712593078613281 3.0942082405090332031 3.0625314712524414062 4.6672453880310058594 2.7676651477813720703 2.7615580558776855469 8.139438629150390625 7.8057341575622558594 3.4285271167755126953 2.7796511650085449219 2.7829442024230957031 2.6593556404113769531 2.7217633724212646484 2.7252645492553710938 2.7746815681457519531 3.2275061607360839844 2.9796068668365478516 3.8525006771087646484 9.5679607391357421875 6.5720653533935546875 2.4578025341033935547 1.9627852439880371094 2.4971370697021484375 3.0607984066009521484 1.5317724943161010742 2.7083938121795654297 2.7422289848327636719 3.2621009349822998047 4.0093302726745605469 2.1168391704559326172 3.7270965576171875 2.7320244312286376953 2.4713816642761230469 3.5956816673278808594 3.2004518508911132812 1.449879765510559082 1.7490614652633666992 1.6318330764770507812 1.8162875175476074219 0.47969663143157958984 1.7482360601425170898 2.7806956768035888672 2.7866044044494628906 2.533496856689453125 0.83406126499176025391 1.6039999723434448242 2.3292412757873535156 2.8613855838775634766 2.6527616977691650391 2.8117606639862060547 1.6039999723434448242 0.96896940469741821289 1.8862767219543457031 2.7978188991546630859 3.8147947788238525391 8.6915836334228515625 10.551508903503417969 5.7649149894714355469 3.5204851627349853516 3.094905853271484375 3.8254945278167724609 4.296337127685546875 2.7313394546508789062 2.7772338390350341797 2.59969329833984375 3.0305504798889160156 8.9820623397827148438 7.5004649162292480469 2.7769439220428466797 2.6631329059600830078 2.8769941329956054688 3.2913298606872558594 2.540538787841796875 2.5478577613830566406 2.9268953800201416016 2.1578507423400878906 2.7926681041717529297 0.98519921302795410156 1.9104956388473510742 2.3705775737762451172 3.4098477363586425781 3.1950440406799316406 2.9783425331115722656 2.2249026298522949219 
6.8342838287353515625 4.4218363761901855469 3.2549259662628173828 2.9858641624450683594 2.7058222293853759766 3.9852499961853027344 2.7302854061126708984 2.7796039581298828125 2.7693760395050048828 9.4229669570922851562 7.0058574676513671875 2.7839763164520263672 2.7565538883209228516 2.7264044284820556641 2.6967248916625976562 2.7096312046051025391 2.7166409492492675781 2.763080596923828125 3.3403749465942382812 5.0086560249328613281 9.017452239990234375 3.1320366859436035156 2.7804040908813476562 2.6270108222961425781 1.8746433258056640625 4.68282318115234375 3.3007607460021972656 3.53723907470703125 2.4993228912353515625 5.9583458900451660156 2.8788278102874755859 4.6854538917541503906 0.85773748159408569336 2.8533313274383544922 2.5458881855010986328 2.1856229305267333984 2.0729715824127197266 0.58647781610488891602 2.0982217788696289062 1.7761424779891967773 2.6414699554443359375 2.6190409660339355469 2.1613874435424804688 2.4438841342926025391 2.395660400390625 3.1346943378448486328 2.8512628078460693359 1.293890833854675293 1.3273115158081054688 2.6283106803894042969 2.1009919643402099609 1.428013920783996582 1.2960244417190551758 1.7809680700302124023 2.2677237987518310547 1.123170018196105957 1.7385466098785400391 1.734537959098815918 12.987442970275878906 8.501270294189453125 4.3090310096740722656 5.2967972755432128906 4.1729869842529296875 3.1287047863006591797 4.1791100502014160156 3.1315863132476806641 3.0382819175720214844 2.8918719291687011719 2.288608551025390625 2.1653056144714355469 1.229169011116027832 2.7799267768859863281 2.7400071620941162109 2.9603862762451171875 2.6177535057067871094 1.6303105354309082031 1.6363610029220581055 1.8295454978942871094 1.9180442094802856445 2.8211386203765869141 3.6041784286499023438 1.90411376953125 1.2713333368301391602 2.2329192161560058594 3.0495507717132568359 3.9177010059356689453 3.2070000171661376953 
3.8315546512603759766 3.5088741779327392578 2.8185327053070068359 3.2257764339447021484 3.1271488666534423828 2.7774078845977783203 2.6600208282470703125 2.7885935306549072266 2.7687592506408691406 9.7449665069580078125 8.5543451309204101562 4.4514322280883789062 2.7645936012268066406 2.7868454456329345703 2.7431392669677734375 2.7729105949401855469 2.6806566715240478516 2.7540392875671386719 3.8653428554534912109 7.5088787078857421875 5.1493611335754394531 2.7850594520568847656 3.9635112285614013672 3.0543501377105712891 1.9348168373107910156 3.3846423625946044922 1.8801126480102539062 4.0516610145568847656 2.8089146614074707031 2.6956565380096435547 2.5394001007080078125 2.7416689395904541016 0.54932510852813720703 1.3324681520462036133 1.8662737607955932617 2.2428276538848876953 2.9084610939025878906 1.1847540140151977539 1.4184958934783935547 1.4686362743377685547 3.3933837413787841797 0.81039226055145263672 2.0273339748382568359 2.2843778133392333984 2.5045285224914550781 2.7766358852386474609 1.9566328525543212891 1.6039999723434448242 1.8775961399078369141 2.7423787117004394531 2.4768273830413818359 1.8823940753936767578 2.1464927196502685547 2.6875846385955810547 2.6047830581665039062 2.01239776611328125 2.6251575946807861328 2.7690682411193847656 8.5798931121826171875 10.031370162963867188 5.1685628890991210938 7.7295598983764648438 5.1748766899108886719 4.1540102958679199219 3.2584476470947265625 3.1136455535888671875 5.8493371009826660156 3.9453740119934082031 3.9341800212860107422 0.4022706449031829834 0.78928166627883911133 2.5838487148284912109 2.7893807888031005859 2.7355577945709228516 3.1356575489044189453 2.4486126899719238281 2.4466433525085449219 2.4466166496276855469 2.2301278114318847656 2.1776359081268310547 1.9692463874816894531 1.6064620018005371094 2.8666901588439941406 2.5763475894927978516 1.7330107688903808594 2.1585652828216552734 1.7035000324249267578 
3.0856027603149414062 2.9612195491790771484 3.5870416164398193359 3.7531824111938476562 2.8000404834747314453 2.6378977298736572266 2.6862847805023193359 2.7651445865631103516 5.1353578567504882812 8.5631380081176757812 9.0958852767944335938 7.2513446807861328125 3.1331689357757568359 2.7919988632202148438 2.7675185203552246094 2.7212061882019042969 2.7397294044494628906 2.7368538379669189453 3.5005469322204589844 4.0291714668273925781 3.1397762298583984375 2.7718784809112548828 5.1727914810180664062 2.9994394779205322266 6.1644148826599121094 5.11669921875 2.5381081104278564453 5.960071563720703125 6.340122222900390625 2.6964066028594970703 7.2530879974365234375 4.2213978767395019531 1.0063887834548950195 1.6033135652542114258 0.57258790731430053711 0.46464481949806213379 2.3196270465850830078 1.8220834732055664062 2.5512340068817138672 2.9377720355987548828 4.8850541114807128906 0.81991368532180786133 2.5332639217376708984 2.0829775333404541016 2.7327647209167480469 2.2160630226135253906 2.5385215282440185547 1.349702000617980957 2.7958650588989257812 2.6559972763061523438 2.4854395389556884766 2.7306666374206542969 2.6764969825744628906 2.6953170299530029297 3.9785566329956054688 3.4464411735534667969 2.774005889892578125 6.9487128257751464844 12.268219947814941406 12.545210838317871094 7.1081509590148925781 6.5126371383666992188 6.0586218833923339844 4.4064302444458007812 2.9716858863830566406 3.3603813648223876953 6.1452755928039550781 4.9390544891357421875 2.0111279487609863281 2.1648724079132080078 2.2976086139678955078 1.9091342687606811523 2.4488916397094726562 1.7713634967803955078 2.1260917186737060547 1.4855673313140869141 2.3866622447967529297 1.8094743490219116211 1.2749805450439453125 1.3993434906005859375 1.0758173465728759766 2.6196005344390869141 2.7591834068298339844 2.8050653934478759766 2.7412207126617431641 2.7435770034790039062 2.7973842620849609375 
3.7732334136962890625 4.1593108177185058594 4.5569601058959960938 4.6856780052185058594 4.295238494873046875 3.1620087623596191406 4.1177206039428710938 8.2675333023071289062 8.1217403411865234375 7.1721124649047851562 5.0742468833923339844 4.0918855667114257812 3.6162743568420410156 2.7708692550659179688 2.7682118415832519531 2.6206624507904052734 2.7235770225524902344 2.7684118747711181641 3.2551226615905761719 2.8853440284729003906 2.7705080509185791016 3.7429296970367431641 2.9127202033996582031 2.6361200809478759766 1.8481421470642089844 0.53319871425628662109 2.1673040390014648438 4.3589053153991699219 3.9035229682922363281 3.3803629875183105469 3.2128918170928955078 4.7558126449584960938 1.4244378805160522461 2.5141034126281738281 3.0848720073699951172 1.4160971641540527344 2.2077257633209228516 2.1682147979736328125 3.8923134803771972656 6.2674627304077148438 6.3561182022094726562 1.7654019594192504883 1.45034027099609375 1.2962633371353149414 2.0031640529632568359 2.6887006759643554688 2.7337961196899414062 2.4961729049682617188 2.7899324893951416016 2.8095819950103759766 2.7994549274444580078 2.7644090652465820312 2.7215039730072021484 2.7257215976715087891 2.7874057292938232422 7.2017965316772460938 5.9251494407653808594 5.213344573974609375 3.679828643798828125 2.1385657787322998047 1.625054478645324707 1.1044610738754272461 3.1831717491149902344 1.5101244449615478516 2.0985176563262939453 2.1056852340698242188 7.1482496261596679688 3.2587428092956542969 2.1592524051666259766 2.0247716903686523438 3.0120453834533691406 0.85824996232986450195 1.7892583608627319336 1.7551451921463012695 2.4317648410797119141 2.8011648654937744141 2.7557756900787353516 1.6491681337356567383 0.75333547592163085938 0.86160874366760253906 1.1454069614410400391 3.21160125732421875 4.1716647148132324219 2.8284537792205810547 2.8894488811492919922 2.7525508403778076172 2.73309326171875 
4.31842041015625 3.5132420063018798828 4.814395904541015625 4.5569601058959960938 4.5517435073852539062 2.7544651031494140625 5.6999316215515136719 11.414860725402832031 8.576511383056640625 8.38413238525390625 4.3060078620910644531 3.1484220027923583984 2.7671020030975341797 2.7853183746337890625 2.6680622100830078125 1.1228086948394775391 2.4593405723571777344 2.7663805484771728516 2.7536635398864746094 3.2193169593811035156 2.6381657123565673828 3.5297198295593261719 2.6667046546936035156 2.7430536746978759766 2.549407958984375 0.76730591058731079102 2.3137187957763671875 1.649518132209777832 1.7422708272933959961 2.0667273998260498047 6.6026244163513183594 5.4753336906433105469 3.243099212646484375 2.8670606613159179688 3.5523824691772460938 2.5886294841766357422 2.7904584407806396484 2.7771081924438476562 8.48563385009765625 4.7568750381469726562 6.9772458076477050781 1.8173148632049560547 1.5099140405654907227 1.5694121122360229492 1.9038101434707641602 3.9343812465667724609 2.7817347049713134766 2.79459381103515625 2.7795422077178955078 2.7741029262542724609 2.7762820720672607422 2.7055699825286865234 2.7568175792694091797 2.7805089950561523438 3.4779999256134033203 9.9314088821411132812 6.0515475273132324219 3.7533800601959228516 6.702816009521484375 7.7260041236877441406 2.0452368259429931641 1.6403564214706420898 1.2190935611724853516 0.65150606632232666016 2.2032518386840820312 2.0739734172821044922 3.4719102382659912109 2.0128624439239501953 2.1611361503601074219 3.1575963497161865234 3.1979072093963623047 0.57127362489700317383 1.3514083623886108398 1.2363334894180297852 1.7406688928604125977 1.5978713035583496094 0.96501803398132324219 1.2322340011596679688 1.6436780691146850586 1.7555458545684814453 2.2192761898040771484 2.7428638935089111328 2.7666716575622558594 3.3123629093170166016 2.5175185203552246094 2.3984134197235107422 1.4949500560760498047 
4.5592508316040039062 4.0309686660766601562 4.5569601058959960938 4.6856780052185058594 3.7846848964691162109 2.7716884613037109375 6.6955842971801757812 7.8822178840637207031 8.3378467559814453125 4.9791064262390136719 4.4668760299682617188 2.8199100494384765625 2.7408087253570556641 2.4503948688507080078 2.4708042144775390625 2.7669019699096679688 2.7759542465209960938 2.7417478561401367188 2.9693930149078369141 2.6612637042999267578 2.6887247562408447266 2.3627638816833496094 2.8035221099853515625 2.8607470989227294922 2.5663096904754638672 2.8494625091552734375 1.2299948930740356445 1.2846497297286987305 0.33266150951385498047 1.2239897251129150391 3.7235491275787353516 9.8647527694702148438 4.3613185882568359375 3.9757850170135498047 5.1709623336791992188 3.5450997352600097656 2.4134948253631591797 3.6245958805084228516 6.9584822654724121094 1.7517524957656860352 0.96062189340591430664 2.6903021335601806641 2.8555066585540771484 1.6594722270965576172 2.5450966358184814453 3.9349677562713623047 2.7562704086303710938 2.7815725803375244141 2.8122241497039794922 2.7688398361206054688 2.7153685092926025391 2.7594099044799804688 2.7647261619567871094 7.7735490798950195312 6.0827074050903320312 5.6773233413696289062 2.7533702850341796875 4.0042219161987304688 8.7843923568725585938 6.3586339950561523438 1.9079062938690185547 1.2179704904556274414 1.6355562210083007812 2.333370208740234375 1.0977599620819091797 3.3420917987823486328 6.311183929443359375 5.6337819099426269531 3.3074622154235839844 3.0748755931854248047 4.9408311843872070312 3.4110250473022460938 1.0336202383041381836 1.9909538030624389648 0.66551548242568969727 3.4245316982269287109 2.4452943801879882812 1.5731723308563232422 1.5539176464080810547 1.7612487077713012695 3.9667646884918212891 3.5259582996368408203 2.9103429317474365234 3.4990813732147216797 2.8582124710083007812 1.9297620058059692383 0.79351496696472167969 
4.95194244384765625 4.2938146591186523438 4.551250457763671875 4.6890058517456054688 3.0800113677978515625 2.7068767547607421875 6.3515987396240234375 9.8522748947143554688 5.8300409317016601562 4.4182476997375488281 4.4784955978393554688 1.3494112491607666016 1.5393795967102050781 0.79064971208572387695 1.0406572818756103516 2.7633838653564453125 2.7686829566955566406 2.7126708030700683594 2.6670122146606445312 2.6742384433746337891 2.8227446079254150391 2.6130998134613037109 2.8229477405548095703 2.7125291824340820312 1.7754236459732055664 6.0714011192321777344 1.6089837551116943359 1.1633419990539550781 0.36793750524520874023 4.2432432174682617188 8.6800432205200195312 9.064762115478515625 2.0559186935424804688 5.4191222190856933594 4.7104563713073730469 1.6094080209732055664 0.12999999523162841797 1.469411015510559082 6.3033823966979980469 4.5453729629516601562 0.33097034692764282227 1.59862518310546875 2.9160141944885253906 3.6534178256988525391 2.7743058204650878906 2.7970788478851318359 5.7957081794738769531 2.7809016704559326172 2.7871079444885253906 2.7625102996826171875 2.780040740966796875 2.7380747795104980469 2.7611083984375 8.9653882980346679688 5.045131683349609375 3.2724764347076416016 1.80545806884765625 2.1837744712829589844 5.7775368690490722656 4.2516818046569824219 1.920413970947265625 1.6645270586013793945 1.2174155712127685547 1.7768388986587524414 2.4160988330841064453 4.9715104103088378906 6.7797694206237792969 8.1291961669921875 5.0673570632934570312 4.336887359619140625 1.503002166748046875 0.66804772615432739258 0.23399999737739562988 0.23399999737739562988 2.0230233669281005859 3.5889122486114501953 2.2367250919342041016 1.8010469675064086914 0.7895336151123046875 1.3322523832321166992 2.4574291706085205078 2.7484710216522216797 2.7391917705535888672 3.2783591747283935547 2.8730900287628173828 2.1369709968566894531 1.476080775260925293 
5.0807890892028808594 3.6707916259765625 4.0231614112854003906 4.4178442955017089844 2.7654521465301513672 3.5049149990081787109 8.8898944854736328125 6.7347579002380371094 4.3942418098449707031 4.4306693077087402344 3.9097690582275390625 2.5274345874786376953 1.7958828210830688477 2.2580497264862060547 1.5649502277374267578 2.7799286842346191406 2.7918219566345214844 2.7770915031433105469 3.2399489879608154297 4.4069600105285644531 2.8812239170074462891 2.2308640480041503906 1.8112939596176147461 1.4296946525573730469 1.6352242231369018555 1.8458168506622314453 1.3643399477005004883 2.4014735221862792969 2.7111048698425292969 4.6482944488525390625 6.3706102371215820312 4.2247748374938964844 3.6288590431213378906 3.4976067543029785156 2.5588433742523193359 0.82743000984191894531 0.91573262214660644531 2.2645320892333984375 6.1209573745727539062 1.1443332433700561523 0.42581868171691894531 2.7723968029022216797 3.5874614715576171875 4.001220703125 2.8116664886474609375 2.8019196987152099609 2.7928433418273925781 3.7482271194458007812 2.7832393646240234375 2.7697269916534423828 2.7678368091583251953 7.2355237007141113281 8.958972930908203125 3.0443522930145263672 2.1540088653564453125 2.3655683994293212891 1.7251398563385009766 5.9689631462097167969 8.0930585861206054688 8.7829217910766601562 1.4840384721755981445 1.5205633640289306641 0.70880144834518432617 2.8174948692321777344 5.2616934776306152344 4.4700670242309570312 4.3784222602844238281 5.8740282058715820312 6.0824398994445800781 3.8661928176879882812 0.31962499022483825684 0.23399999737739562988 0.23399999737739562988 0.23399999737739562988 0.52027475833892822266 2.1796560287475585938 1.1707552671432495117 1.4385355710983276367 2.5699210166931152344 1.7872735261917114258 1.6231194734573364258 2.7706365585327148438 2.7375829219818115234 3.6708567142486572266 3.1853156089782714844 2.1018395423889160156 2.1336693763732910156 
2.5456171035766601562 2.7004246711730957031 2.6540646553039550781 2.7201635837554931641 3.3699359893798828125 5.9263391494750976562 8.67574310302734375 2.7343506813049316406 3.1100015640258789062 3.3650188446044921875 3.0267214775085449219 1.6382594108581542969 1.8168014287948608398 1.8944748640060424805 2.2903084754943847656 6.3637557029724121094 2.7999644279479980469 6.2679996490478515625 3.0273191928863525391 2.73682403564453125 2.6829967498779296875 2.1753914356231689453 1.2807332277297973633 2.9038686752319335938 2.1426327228546142578 1.8786873817443847656 0.98287469148635864258 1.1170270442962646484 0.95174998044967651367 4.59075927734375 2.0754864215850830078 1.4728358983993530273 1.4576719999313354492 2.8309299945831298828 2.1174893379211425781 1.785601496696472168 1.2576340436935424805 3.6103727817535400391 0.1994148939847946167 0.71679949760437011719 1.4649596214294433594 2.7967061996459960938 2.7542808055877685547 2.7265412807464599609 3.2058246135711669922 2.7985713481903076172 2.7847325801849365234 2.7598087787628173828 8.82506561279296875 5.8727130889892578125 2.8044710159301757812 6.8537778854370117188 9.9226560592651367188 8.1943445205688476562 9.6579408645629882812 2.3141138553619384766 5.008819580078125 9.0139417648315429688 6.2360587120056152344 7.0350446701049804688 1.7873855829238891602 2.4582927227020263672 2.6564311981201171875 2.7479717731475830078 2.7813391685485839844 2.7513744831085205078 4.0813794136047363281 4.314136505126953125 4.0562205314636230469 2.8557910919189453125 0.39320367574691772461 0.23399999737739562988 0.23399999737739562988 0.23399999737739562988 0.23399999737739562988 1.6032239198684692383 1.1709269285202026367 1.873294830322265625 1.8052670955657958984 2.6070718765258789062 1.6054548025131225586 2.7194573879241943359 2.8098239898681640625 2.7334673404693603516 2.7444369792938232422 1.3921728134155273438 1.4752885103225708008 
2.5740599632263183594 2.5892531871795654297 3.0637683868408203125 2.7777092456817626953 7.5465650558471679688 7.6241044998168945312 6.5083966255187988281 2.6287841796875 2.4190146923065185547 2.6846706867218017578 2.7136461734771728516 1.5468133687973022461 2.5951111316680908203 2.2971682548522949219 4.9874358177185058594 4.6432337760925292969 2.7395143508911132812 3.2412064075469970703 3.0395395755767822266 6.6196312904357910156 8.71613311767578125 6.9153466224670410156 2.6321649551391601562 2.9264223575592041016 0.66462469100952148438 0.1123076900839805603 0.18500000238418579102 3.8850395679473876953 1.923989415168762207 2.6477651596069335938 1.9571875333786010742 0.11999999731779098511 0.1257142871618270874 0.11999999731779098511 0.59422832727432250977 1.5771547555923461914 2.9439301490783691406 1.4709495306015014648 1.1340918540954589844 1.6848527193069458008 0.82191324234008789062 1.1675549745559692383 3.1637601852416992188 6.27938079833984375 7.735992431640625 2.7813465595245361328 2.8149480819702148438 2.7909190654754638672 11.361411094665527344 4.6023182868957519531 2.1590445041656494141 6.4342603683471679688 5.4955720901489257812 7.5954918861389160156 7.7507662773132324219 6.4558176994323730469 2.0500342845916748047 8.1911592483520507812 0.73455190658569335938 2.5188722610473632812 7.4455556869506835938 2.6934633255004882812 2.764423370361328125 2.8083519935607910156 2.7889370918273925781 3.2406380176544189453 8.0363416671752929688 4.6864199638366699219 2.7870585918426513672 1.1350423097610473633 3.2187936305999755859 0.66921734809875488281 0.23399999737739562988 0.22312499582767486572 0.23399999737739562988 1.1250612735748291016 1.1195455789566040039 0.70374780893325805664 1.616083979606628418 2.6740300655364990234 1.5020246505737304688 1.8792917728424072266 1.7463845014572143555 1.5936859846115112305 2.3431775569915771484 2.4730348587036132812 1.449618220329284668 
2.8664510250091552734 2.9818689823150634766 2.6837458610534667969 5.8840374946594238281 8.0433826446533203125 10.531122207641601562 3.293422698974609375 2.2253735065460205078 1.7705420255661010742 1.4594873189926147461 1.9573508501052856445 1.1007944345474243164 2.6108515262603759766 2.6384005546569824219 2.4529128074645996094 2.1291100978851318359 2.564289093017578125 3.0848026275634765625 4.0616865158081054688 5.2536725997924804688 5.9738445281982421875 1.8806668519973754883 2.8992748260498046875 2.5755722522735595703 0.84378129243850708008 0.30313724279403686523 2.3302884101867675781 7.3981041908264160156 0.74198824167251586914 3.2656149864196777344 4.2490000724792480469 0.30300974845886230469 0.12999999523162841797 1.5183333158493041992 0.34594893455505371094 0.89591509103775024414 1.6988393068313598633 2.8935461044311523438 2.044017791748046875 1.4511666297912597656 2.639751434326171875 0.059999998658895492554 6.6702818870544433594 8.5382986068725585938 3.5285575389862060547 2.7785673141479492188 2.8070700168609619141 2.8022928237915039062 13.017637252807617188 2.9195427894592285156 8.2640218734741210938 3.1368274688720703125 2.1997187137603759766 1.365473628044128418 1.9719289541244506836 4.6470799446105957031 0.84476101398468017578 5.3725557327270507812 2.3083806037902832031 11.184373855590820312 8.8958187103271484375 2.7410001754760742188 2.7665181159973144531 2.8203966617584228516 2.7839784622192382812 2.7570588588714599609 9.151943206787109375 3.3203437328338623047 3.9861805438995361328 1.909755706787109375 6.4449949264526367188 3.4936869144439697266 0.38528424501419067383 0.20288112759590148926 0.19487500190734863281 0.31749999523162841797 0.52027475833892822266 0.31962499022483825684 0.80654948949813842773 2.077953338623046875 1.0445460081100463867 0.37209799885749816895 0.37209799885749816895 0.37209799885749816895 0.9793141484260559082 2.7921202182769775391 2.7744889259338378906 
2.5749254226684570312 2.7199990749359130859 4.2586660385131835938 11.1507568359375 7.372051239013671875 5.8031411170959472656 2.7045159339904785156 2.0490357875823974609 1.2772128582000732422 2.1436913013458251953 1.3897813558578491211 1.69504547119140625 2.7429728507995605469 2.5590009689331054688 1.6771014928817749023 1.3224205970764160156 2.0073044300079345703 1.372201085090637207 0.27131125330924987793 0.72833079099655151367 1.9457554817199707031 1.7561217546463012695 3.9255721569061279297 2.0190351009368896484 2.4397258758544921875 2.1940114498138427734 5.0815224647521972656 8.6297931671142578125 0.11999999731779098511 9.2188177108764648438 5.9930539131164550781 1.8069494962692260742 1.6822162866592407227 0.12888889014720916748 0.37240800261497497559 0.2268749922513961792 0.23399999737739562988 2.8778202533721923828 1.0217071771621704102 2.4255690574645996094 4.6436219215393066406 1.3917117118835449219 3.69812774658203125 6.3322782516479492188 2.7527415752410888672 2.7874729633331298828 2.7893218994140625 4.7814378738403320312 6.9453458786010742188 1.8766968250274658203 1.5689883232116699219 0.72422832250595092773 0.69689565896987915039 1.0224028825759887695 5.1570839881896972656 7.7947058677673339844 1.0354436635971069336 9.4505720138549804688 9.5185613632202148438 7.81926727294921875 2.5113403797149658203 2.7542676925659179688 6.8389987945556640625 2.773769378662109375 2.7826948165893554688 3.6026065349578857422 4.9063506126403808594 2.9353337287902832031 4.8849267959594726562 2.4618291854858398438 9.79151153564453125 5.1758756637573242188 3.1417584419250488281 5.0017628669738769531 0.34190744161605834961 0.20274999737739562988 0.23399999737739562988 0.23399999737739562988 0.52027475833892822266 2.3260602951049804688 1.1947921514511108398 0.37209799885749816895 0.37209799885749816895 0.524913787841796875 1.7547148466110229492 2.7762544155120849609 2.7319583892822265625 
3.0312073230743408203 2.7338850498199462891 4.7740159034729003906 9.1471376419067382812 6.9699931144714355469 2.9175693988800048828 1.9320594072341918945 2.4095113277435302734 2.4456284046173095703 2.1284570693969726562 2.1399884223937988281 2.6202154159545898438 1.620623469352722168 1.9747294187545776367 1.4117609262466430664 6.6953005790710449219 2.9201507568359375 2.2509565353393554688 2.2730002403259277344 2.186351776123046875 1.2507722377777099609 1.1751165390014648438 0.80347448587417602539 2.9738585948944091797 2.6094467639923095703 2.8355464935302734375 2.8929250240325927734 2.5054302215576171875 2.9604830741882324219 3.5010864734649658203 2.1967170238494873047 2.1536767482757568359 1.792424321174621582 1.2980598211288452148 0.88792449235916137695 0.23399999737739562988 0.65837115049362182617 0.66564649343490600586 0.62143212556838989258 0.34835225343704223633 0.68727868795394897461 3.0400140285491943359 3.6382954120635986328 2.7820696830749511719 2.7780442237854003906 2.451229095458984375 2.2540190219879150391 1.2367763519287109375 2.8087852001190185547 2.7846639156341552734 2.548763275146484375 2.7799689769744873047 2.5051450729370117188 2.7473130226135253906 6.5579600334167480469 9.1634836196899414062 2.5765070915222167969 7.4913949966430664062 6.5371403694152832031 8.1465587615966796875 2.6173980236053466797 4.0498070716857910156 8.6345224380493164062 2.7833335399627685547 2.7342417240142822266 3.1787626743316650391 2.9306290149688720703 2.9243803024291992188 2.5884616374969482422 2.1068408489227294922 5.5407195091247558594 6.2088532447814941406 3.1092932224273681641 3.8738005161285400391 1.2842022180557250977 0.6524327397346496582 0.23399999737739562988 0.99231892824172973633 0.71630084514617919922 2.4204537868499755859 1.0088856220245361328 0.37209799885749816895 0.37209799885749816895 2.1572041511535644531 2.8037288188934326172 3.1032035350799560547 3.7758109569549560547 
2.6932454109191894531 3.2022962570190429688 7.9970960617065429688 7.8536133766174316406 2.8711407184600830078 1.6158947944641113281 0.79740852117538452148 1.7900894880294799805 1.5212528705596923828 0.66234230995178222656 4.9584317207336425781 2.5079834461212158203 2.5575673580169677734 2.7952628135681152344 1.5850008726119995117 3.5953710079193115234 4.49864959716796875 2.2725539207458496094 2.7514121532440185547 2.5932705402374267578 2.7228250503540039062 2.1201395988464355469 1.6926934719085693359 2.564632415771484375 1.4484336376190185547 1.9063216447830200195 1.8163062334060668945 2.1716144084930419922 1.6990512609481811523 1.8973158597946166992 1.0673959255218505859 0.43869999051094055176 0.47461599111557006836 0.7847499847412109375 2.0023188591003417969 0.87439531087875366211 1.3134719133377075195 0.78015631437301635742 0.97346735000610351562 2.12592315673828125 0.79500502347946166992 3.4076845645904541016 1.8898913860321044922 1.991962432861328125 1.1242536306381225586 2.4656488895416259766 2.7657074928283691406 2.6711745262145996094 2.7720663547515869141 2.7330446243286132812 2.7172906398773193359 2.7661054134368896484 2.7205586433410644531 2.6747715473175048828 3.6869275569915771484 3.8566451072692871094 3.5603308677673339844 10.764369964599609375 8.7876234054565429688 7.427486419677734375 4.9401831626892089844 4.3007984161376953125 5.3054032325744628906 2.4921886920928955078 2.6997609138488769531 3.3015103340148925781 3.9042072296142578125 2.9609551429748535156 2.3931305408477783203 1.5454657077789306641 2.7592921257019042969 6.39426422119140625 4.7036004066467285156 1.9754921197891235352 2.385318756103515625 2.7164585590362548828 1.6144747734069824219 1.2735774517059326172 2.8048000335693359375 2.0885450839996337891 1.4007859230041503906 0.37209799885749816895 0.66202676296234130859 6.3159213066101074219 2.766788482666015625 2.6871135234832763672 2.7065885066986083984 
3.6249806880950927734 8.7948207855224609375 5.6603388786315917969 3.1145830154418945312 2.5153136253356933594 1.8667421340942382812 1.7943090200424194336 1.3144700527191162109 2.8409647941589355469 1.3513028621673583984 2.257755279541015625 2.4311318397521972656 2.4901425838470458984 2.636157989501953125 2.2255637645721435547 2.6294264793395996094 3.3164875507354736328 2.6697714328765869141 2.3960602283477783203 2.7805907726287841797 2.4957680702209472656 0.3400065302848815918 2.4002232551574707031 2.5985593795776367188 0.43195211887359619141 2.1262278556823730469 0.49341505765914916992 0.45145460963249206543 0.10000000149011611938 0.0899999961256980896 0.70183038711547851562 1.9434248208999633789 0.13714285194873809814 3.3784148693084716797 2.700366973876953125 0.80923253297805786133 0.3117230534553527832 0.62721031904220581055 0.12624999880790710449 0.79650551080703735352 1.0346304178237915039 1.865012049674987793 2.8211252689361572266 2.7891416549682617188 2.7583415508270263672 2.7760546207427978516 2.7798237800598144531 2.7732105255126953125 2.7944605350494384766 2.7583577632904052734 2.7679483890533447266 2.7787418365478515625 2.7260212898254394531 2.9519689083099365234 4.0360317230224609375 4.2785620689392089844 3.0205326080322265625 5.9950017929077148438 7.4488239288330078125 1.7028765678405761719 2.4955186843872070312 5.8688368797302246094 4.752635955810546875 2.7770073413848876953 2.7951455116271972656 3.73291778564453125 3.0290968418121337891 2.2414643764495849609 1.0131696462631225586 2.0549681186676025391 2.7808017730712890625 7.6615667343139648438 5.1536593437194824219 2.6160936355590820312 3.0768640041351318359 3.6848521232604980469 1.4386789798736572266 3.2097895145416259766 6.2085309028625488281 1.7123134136199951172 1.8573664426803588867 2.0911633968353271484 2.6922130584716796875 5.7571535110473632812 8.12210845947265625 2.7603514194488525391 2.7280716896057128906 
5.7252216339111328125 12.753510475158691406 6.0430836677551269531 6.3501791954040527344 2.7823207378387451172 2.7751669883728027344 3.762714385986328125 4.2462749481201171875 2.7809045314788818359 3.2029509544372558594 4.9378476142883300781 3.735988616943359375 5.77445220947265625 6.0562415122985839844 2.6726007461547851562 1.8786634206771850586 2.4208536148071289062 1.6500189304351806641 2.1957483291625976562 2.7845828533172607422 1.9648616313934326172 0.12749999761581420898 0.13249999284744262695 0.70093142986297607422 1.0282386541366577148 0.95139467716217041016 1.3234944343566894531 1.4037650823593139648 3.0850212574005126953 4.1469326019287109375 1.8588540554046630859 0.32591339945793151855 0.11874999850988388062 1.3355143070220947266 1.8012495040893554688 0.98999732732772827148 0.14499999582767486572 0.12200000137090682983 2.1388866901397705078 2.5621044635772705078 1.8137634992599487305 3.4049520492553710938 2.8460414409637451172 2.7968883514404296875 2.7827684879302978516 2.7489094734191894531 3.8095908164978027344 4.40282440185546875 2.7354443073272705078 2.1508774757385253906 2.4169902801513671875 2.7932000160217285156 1.8418580293655395508 2.1037144660949707031 3.6272997856140136719 4.0126485824584960938 3.4787044525146484375 3.1004886627197265625 2.2977747917175292969 2.1998629570007324219 2.7643191814422607422 4.3882498741149902344 8.4445476531982421875 3.4355340003967285156 3.2798016071319580078 3.2913351058959960938 3.3892810344696044922 1.5597529411315917969 1.8908269405364990234 2.3956282138824462891 4.9505047798156738281 6.0768604278564453125 2.7669560909271240234 2.7634329795837402344 3.21610260009765625 2.2866075038909912109 1.8981097936630249023 2.7216837406158447266 4.0255889892578125 1.2720166444778442383 2.2025988101959228516 3.1706843376159667969 3.7884888648986816406 2.4572052955627441406 3.7443213462829589844 3.5301432609558105469 4.4260110855102539062 
8.0966892242431640625 11.987452507019042969 3.4203960895538330078 2.7165498733520507812 2.7762639522552490234 2.7834949493408203125 2.4613523483276367188 0.97813469171524047852 4.6999912261962890625 5.7787690162658691406 7.0343770980834960938 3.3626215457916259766 3.7868225574493408203 5.6423449516296386719 4.3913488388061523438 2.1346371173858642578 2.2589051723480224609 2.7087569236755371094 2.7674372196197509766 2.7795126438140869141 1.3111237287521362305 1.3056064844131469727 6.4565858840942382812 1.4531719684600830078 2.0732944011688232422 0.99676191806793212891 2.8529253005981445312 3.0240113735198974609 8.1119022369384765625 6.5410718917846679688 9.87192535400390625 1.8649513721466064453 0.74838727712631225586 0.13230769336223602295 0.14133332669734954834 0.32263702154159545898 0.79505676031112670898 0.58860737085342407227 0.73390465974807739258 1.9280529022216796875 3.5918381214141845703 5.5519313812255859375 3.3126535415649414062 5.3450284004211425781 3.2662034034729003906 2.9514710903167724609 5.8525676727294921875 4.7707390785217285156 1.2877504825592041016 1.0973544120788574219 0.37209799885749816895 0.67303436994552612305 0.37209799885749816895 0.37209799885749816895 2.2060234546661376953 2.7526991367340087891 2.7254726886749267578 2.7768943309783935547 2.7552068233489990234 4.24942779541015625 4.8834881782531738281 7.5982046127319335938 12.493814468383789062 8.9777355194091796875 2.7325720787048339844 3.0124661922454833984 3.2450203895568847656 1.9559259414672851562 2.5894029140472412109 4.1690807342529296875 8.3870935440063476562 2.1135969161987304688 1.4910447597503662109 5.0532293319702148438 3.4773731231689453125 1.7797466516494750977 1.7783173322677612305 2.7084534168243408203 2.6758964061737060547 2.3031237125396728516 1.5453511476516723633 1.2113624811172485352 1.2093317508697509766 2.2378296852111816406 2.6451616287231445312 2.6533200740814208984 2.8905301094055175781 
10.628310203552246094 7.4147996902465820312 2.7051355838775634766 2.6703083515167236328 2.7739346027374267578 3.2078831195831298828 4.40061187744140625 2.2127842903137207031 4.7895417213439941406 4.62749481201171875 3.5443863868713378906 2.2459380626678466797 2.083423614501953125 2.8629717826843261719 2.1541039943695068359 2.6005032062530517578 2.5195202827453613281 2.7942712306976318359 5.9890465736389160156 0.73226457834243774414 2.4598927497863769531 2.2054426670074462891 3.1665065288543701172 2.2191607952117919922 0.59143960475921630859 3.6635100841522216797 2.866146087646484375 5.6559205055236816406 1.6615775823593139648 2.9534831047058105469 3.9143481254577636719 0.37968739867210388184 0.12666666507720947266 2.2063381671905517578 0.11599999666213989258 2.0618696212768554688 5.4317412376403808594 2.3969461917877197266 2.7066018581390380859 1.2493851184844970703 3.0988147258758544922 6.7367300987243652344 3.8931803703308105469 5.6727118492126464844 5.2969384193420410156 4.1747217178344726562 4.5396571159362792969 3.4067370891571044922 2.5520734786987304688 1.2186743021011352539 0.37209799885749816895 0.37209799885749816895 0.37209799885749816895 0.37209799885749816895 2.7746367454528808594 2.9420180320739746094 2.9565796852111816406 2.7542693614959716797 2.7546854019165039062 2.810794830322265625 5.3990254402160644531 9.196887969970703125 11.350904464721679688 3.7969403266906738281 2.7286357879638671875 4.0110015869140625 4.4279551506042480469 2.2442090511322021484 2.6004464626312255859 4.7480673789978027344 4.05159759521484375 1.2542928457260131836 1.6625452041625976562 2.3931512832641601562 1.9761654138565063477 2.5947806835174560547 1.5990760326385498047 2.8820211887359619141 3.2701807022094726562 4.4355874061584472656 4.3038506507873535156 1.5384210348129272461 1.4882721900939941406 2.7207391262054443359 2.698902130126953125 2.4948773384094238281 1.4730789661407470703 
9.6056642532348632812 4.352565765380859375 2.5854349136352539062 2.6808278560638427734 2.7620313167572021484 2.8106324672698974609 3.7540187835693359375 1.9769234657287597656 1.5138856172561645508 1.9631199836730957031 4.1173825263977050781 4.1076722145080566406 1.970986485481262207 2.1116657257080078125 1.2265186309814453125 0.12999999523162841797 2.0240612030029296875 1.1333477497100830078 0.48796439170837402344 4.0926866531372070312 6.7431664466857910156 0.12999999523162841797 2.7874925136566162109 1.2630701065063476562 2.9312908649444580078 1.8252063989639282227 0.90347236394882202148 2.4781610965728759766 3.3667767047882080078 2.7784931659698486328 2.7228524684906005859 1.8110173940658569336 1.1760333776473999023 2.1100995540618896484 6.2737708091735839844 1.0956138372421264648 9.1166629791259765625 1.8239901065826416016 1.6691062450408935547 0.35058575868606567383 0.97670322656631469727 3.0569109916687011719 3.8121621608734130859 3.7229502201080322266 4.5541052818298339844 4.29602813720703125 4.814395904541015625 3.8064959049224853516 2.6481027603149414062 0.92258846759796142578 0.37209799885749816895 0.37209799885749816895 0.37209799885749816895 0.37209799885749816895 2.7542798519134521484 2.6941244602203369141 2.8164174556732177734 2.8615491390228271484 2.7504127025604248047 2.7751548290252685547 2.7535774707794189453 9.780620574951171875 11.357789993286132812 2.6668856143951416016 2.7372198104858398438 3.6426579952239990234 3.6367795467376708984 4.5296263694763183594 3.545597076416015625 5.7095165252685546875 1.8006496429443359375 1.4578416347503662109 1.7845047712326049805 2.2458236217498779297 2.4361088275909423828 2.7196404933929443359 2.3340449333190917969 3.1235435009002685547 4.6805834770202636719 4.5528507232666015625 4.3033308982849121094 2.5756032466888427734 1.241748809814453125 2.6686074733734130859 2.7477173805236816406 1.8549047708511352539 0.37209799885749816895 
8.2709836959838867188 2.9840166568756103516 2.6626076698303222656 2.7166562080383300781 4.8326787948608398438 2.8137269020080566406 3.1048951148986816406 3.553028106689453125 4.5241732597351074219 4.5906500816345214844 2.8179616928100585938 4.1166229248046875 2.7655911445617675781 2.5831971168518066406 2.3113222122192382812 2.2349689006805419922 0.78165954351425170898 1.7057460546493530273 2.3547923564910888672 1.4941269159317016602 3.8786110877990722656 1.2330327033996582031 2.7660000324249267578 3.0190625190734863281 3.2070000171661376953 9.8387126922607421875 4.1055936813354492188 3.0991618633270263672 6.0982222557067871094 3.7059624195098876953 3.0673694610595703125 1.6287311315536499023 7.1889677047729492188 9.528400421142578125 2.4538066387176513672 2.3849637508392333984 2.7708005905151367188 1.6039999723434448242 1.6943762302398681641 1.6734204292297363281 1.8888003826141357422 2.7750608921051025391 2.7850000858306884766 2.8095173835754394531 4.4262685775756835938 4.814395904541015625 4.814395904541015625 2.2103071212768554688 1.8704966306686401367 2.0175576210021972656 0.37209799885749816895 0.37209799885749816895 0.37209799885749816895 1.9614663124084472656 2.1141660213470458984 3.4433829784393310547 2.7381048202514648438 2.9253551959991455078 2.7128403186798095703 2.7382059097290039062 2.8475859165191650391 3.5934545993804931641 8.5803289413452148438 3.6151866912841796875 4.8237938880920410156 2.88605499267578125 2.8317282199859619141 4.3022146224975585938 7.6801991462707519531 2.4026415348052978516 1.2398946285247802734 1.5566581487655639648 1.6046432256698608398 2.0409910678863525391 1.7181847095489501953 2.672321319580078125 2.6803672313690185547 3.2822177410125732422 4.4158568382263183594 4.0016727447509765625 3.1404337882995605469 2.6985468864440917969 3.6309683322906494141 3.4989056587219238281 2.9829871654510498047 2.4410736560821533203 2.0331630706787109375 
3.0812687873840332031 2.6496739387512207031 2.7128810882568359375 3.1079545021057128906 6.1257071495056152344 4.0471124649047851562 5.2022380828857421875 6.1330585479736328125 1.2587561607360839844 1.282662510871887207 2.4185800552368164062 2.4340760707855224609 2.7246024608612060547 2.5607821941375732422 1.5755633115768432617 1.9654430150985717773 1.745090484619140625 1.4839003086090087891 3.5145080089569091797 3.1713242530822753906 3.2070000171661376953 3.2070000171661376953 3.2070000171661376953 3.2070000171661376953 4.8106665611267089844 8.7370471954345703125 4.9502339363098144531 4.1624751091003417969 5.7878179550170898438 9.0179920196533203125 7.1969428062438964844 3.9787018299102783203 2.6688306331634521484 4.9460520744323730469 3.0517268180847167969 3.1530206203460693359 6.7021150588989257812 1.6039999723434448242 1.6039999723434448242 1.6039999723434448242 2.5645503997802734375 2.7847228050231933594 2.7803087234497070312 2.7045130729675292969 4.2715945243835449219 4.4059495925903320312 5.6736588478088378906 3.2278609275817871094 0.37209799885749816895 0.37209799885749816895 0.37209799885749816895 0.37209799885749816895 0.37209799885749816895 0.37209799885749816895 2.4698855876922607422 2.7551164627075195312 2.7618882656097412109 2.7363672256469726562 2.7850546836853027344 2.7641713619232177734 2.7119247913360595703 3.2415366172790527344 2.7523930072784423828 2.7491414546966552734 4.1601452827453613281 2.7828946113586425781 2.7708718776702880859 9.9270086288452148438 6.3668088912963867188 1.9979276657104492188 2.7884302139282226562 2.7195048332214355469 2.7121119499206542969 2.7118091583251953125 2.8010175228118896484 2.8345596790313720703 2.2805728912353515625 2.1131711006164550781 4.1190876960754394531 3.2055203914642333984 2.9814743995666503906 3.3139212131500244141 4.0257658958435058594 4.0038170814514160156 3.0732748508453369141 4.6808371543884277344 3.2024965286254882812 
3.3871970176696777344 2.6890087127685546875 2.7950766086578369141 2.786640167236328125 2.7934541702270507812 4.1099796295166015625 5.1236329078674316406 2.4603886604309082031 2.5308198928833007812 2.4493417739868164062 2.5880570411682128906 2.1953966617584228516 2.6144397258758544922 2.2917318344116210938 2.1350104808807373047 1.9594395160675048828 1.8664375543594360352 3.2070000171661376953 3.2070000171661376953 3.2070000171661376953 3.2070000171661376953 3.2070000171661376953 4.2201724052429199219 4.7759728431701660156 10.167451858520507812 8.4854288101196289062 2.1311867237091064453 7.3187246322631835938 13.551837921142578125 5.2477140426635742188 3.5782225131988525391 1.4914344549179077148 2.5587370395660400391 2.3765473365783691406 5.1623463630676269531 7.426395416259765625 9.505496978759765625 2.5657000541687011719 1.6039999723434448242 1.8098247051239013672 2.7739422321319580078 2.7547488212585449219 2.7443177700042724609 1.9236925840377807617 2.9893567562103271484 3.7328321933746337891 4.814395904541015625 3.0231966972351074219 0.37209799885749816895 0.37209799885749816895 0.37209799885749816895 0.37209799885749816895 0.37209799885749816895 0.37209799885749816895 2.1460287570953369141 2.7825880050659179688 2.7443835735321044922 2.7483892440795898438 2.7319550514221191406 2.7375993728637695312 3.8727979660034179688 3.3669359683990478516 3.8260133266448974609 4.69548797607421875 5.9537296295166015625 4.3042254447937011719 7.0317521095275878906 6.874103546142578125 3.7993614673614501953 1.6593774557113647461 2.8008241653442382812 2.6925001144409179688 3.2326691150665283203 2.6822421550750732422 2.6872868537902832031 2.7661836147308349609 1.2728668451309204102 1.9575381278991699219 1.9475603103637695312 2.3467752933502197266 2.6909174919128417969 3.226963043212890625 4.5535640716552734375 4.1659102439880371094 3.9966967105865478516 4.4180192947387695312 2.6682615280151367188 
3.0183241367340087891 3.7103672027587890625 2.7838709354400634766 2.7423768043518066406 2.7534375190734863281 2.7909045219421386719 4.1801280975341796875 2.7738702297210693359 2.7884459495544433594 2.7234220504760742188 2.7432980537414550781 2.7276701927185058594 2.7616286277770996094 2.7097249031066894531 1.6794675588607788086 1.5712434053421020508 3.2070000171661376953 3.2070000171661376953 3.2070000171661376953 7.0408468246459960938 5.7750177383422851562 10.686434745788574219 3.7955782413482666016 4.7253313064575195312 4.464832305908203125 4.5446882247924804688 3.4876427650451660156 5.9723978042602539062 7.0045485496520996094 3.5100891590118408203 2.7254450321197509766 0.79706019163131713867 1.8846411705017089844 2.7639687061309814453 2.6508338451385498047 2.5827884674072265625 1.8923820257186889648 1.6871120929718017578 2.2431826591491699219 2.6884288787841796875 2.7478442192077636719 2.7705924510955810547 2.7364544868469238281 2.1285336017608642578 2.7990634441375732422 2.1937651634216308594 1.9974111318588256836 1.7123991250991821289 0.37209799885749816895 1.097977757453918457 2.3759503364562988281 0.37209799885749816895 1.1266340017318725586 1.4233657121658325195 2.7791950702667236328 2.7476379871368408203 2.7816941738128662109 2.9750933647155761719 2.7508046627044677734 2.7676362991333007812 2.6609933376312255859 7.3333463668823242188 11.939635276794433594 12.477231025695800781 7.8746905326843261719 7.0751962661743164062 5.057865142822265625 2.5811803340911865234 2.1120741367340087891 1.2893029451370239258 2.7840821743011474609 2.7084889411926269531 2.73572540283203125 2.7559895515441894531 2.7720751762390136719 1.4342767000198364258 0.37209799885749816895 1.2642351388931274414 3.7342250347137451172 2.1896958351135253906 2.8110301494598388672 3.8453147411346435547 4.0184793472290039062 3.88326263427734375 3.3080420494079589844 4.5602560043334960938 4.2791461944580078125 
2.7344427108764648438 4.7054729461669921875 5.0927515029907226562 2.7480261325836181641 2.7088437080383300781 2.9790875911712646484 2.7450938224792480469 2.7316825389862060547 2.7331640720367431641 1.8679859638214111328 2.5829889774322509766 2.5336599349975585938 1.4595962762832641602 1.519474029541015625 1.0796493291854858398 3.0190625190734863281 3.2070000171661376953 3.2003622055053710938 6.0333404541015625 11.268593788146972656 8.4214420318603515625 1.3457454442977905273 0.61307448148727416992 2.4114904403686523438 3.7360742092132568359 3.1143565177917480469 2.7804653644561767578 3.3607952594757080078 3.4102065563201904297 4.1384739875793457031 1.4428273439407348633 0.67661750316619873047 2.3019154071807861328 2.7575671672821044922 1.8722084760665893555 2.7778191566467285156 1.9913984537124633789 1.7994353771209716797 2.6266303062438964844 2.7134366035461425781 2.7597248554229736328 2.6818239688873291016 3.0993502140045166016 2.6961333751678466797 3.4994184970855712891 4.1091899871826171875 2.6791036128997802734 1.0650428533554077148 0.6562035679817199707 3.8859829902648925781 4.6253252029418945312 2.8271069526672363281 3.0393335819244384766 3.4246835708618164062 5.1444578170776367188 5.9513645172119140625 6.222042083740234375 4.2895445823669433594 2.7748746871948242188 2.4887266159057617188 5.1375565528869628906 7.0807504653930664062 7.6516866683959960938 5.1059856414794921875 2.6268289089202880859 2.7561471462249755859 3.3583953380584716797 3.1094789505004882812 3.9119627475738525391 2.0826220512390136719 2.7867236137390136719 2.7080774307250976562 2.9735803604125976562 3.7829377651214599609 3.5628879070281982422 2.8798966407775878906 2.9805471897125244141 2.5452790260314941406 3.6157617568969726562 3.7804293632507324219 3.1529283523559570312 2.9912211894989013672 3.0505471229553222656 3.2796809673309326172 2.7770931720733642578 4.5770230293273925781 5.3287105560302734375 
2.9820332527160644531 4.4261898994445800781 3.2585408687591552734 2.7429687976837158203 2.8490126132965087891 2.7851896286010742188 2.9093303680419921875 2.9023768901824951172 2.6030805110931396484 1.6634314060211181641 2.3207790851593017578 2.3543703556060791016 1.1776064634323120117 0.8359661102294921875 4.7899999618530273438 3.2070000171661376953 3.2070000171661376953 3.2070000171661376953 6.2724466323852539062 7.9029603004455566406 10.604508399963378906 3.7558748722076416016 4.7492055892944335938 2.73346710205078125 2.7711577415466308594 2.7470567226409912109 3.1172730922698974609 2.7043235301971435547 2.7568676471710205078 2.8643820285797119141 1.5263686180114746094 2.6007668972015380859 2.7685439586639404297 2.7851636409759521484 2.7772805690765380859 2.5670804977416992188 1.6922105550765991211 2.4105653762817382812 2.7103519439697265625 2.3675563335418701172 2.6526436805725097656 3.0787589550018310547 3.9011197090148925781 5.2699084281921386719 6.0508899688720703125 2.2480750083923339844 1.7454094886779785156 1.0650428533554077148 2.5528943538665771484 9.33344268798828125 5.9193444252014160156 3.0173242092132568359 3.5347411632537841797 4.5983734130859375 4.9318823814392089844 5.85711669921875 5.4637570381164550781 3.5457212924957275391 2.3246724605560302734 2.4844043254852294922 3.6968023777008056641 3.7586970329284667969 5.2238030433654785156 2.7097489833831787109 2.7071123123168945312 2.7365975379943847656 3.2637319564819335938 2.599605560302734375 2.2744028568267822266 2.7008771896362304688 2.758640289306640625 2.7462568283081054688 3.1710271835327148438 3.4274930953979492188 4.4928903579711914062 4.68282318115234375 4.2841858863830566406 3.7724471092224121094 3.7731304168701171875 3.7700452804565429688 3.5802216529846191406 2.9282166957855224609 5.1879534721374511719 7.0643076896667480469 7.7832040786743164062 7.6609654426574707031 5.9636025428771972656 
7.6610484123229980469 5.9102253913879394531 2.8290066719055175781 2.60915374755859375 2.8430435657501220703 2.7138526439666748047 3.7758967876434326172 2.6252744197845458984 5.5059456825256347656 2.3034913539886474609 1.170399785041809082 1.2269768714904785156 0.59165424108505249023 0.91425001621246337891 0.89841669797897338867 3.2070000171661376953 3.2070000171661376953 9.1816778182983398438 12.548420906066894531 5.0138988494873046875 3.171321868896484375 2.4046137332916259766 7.5882253646850585938 5.2064666748046875 2.7452108860015869141 2.6826865673065185547 2.8658699989318847656 3.2401607036590576172 1.9785805940628051758 3.2036290168762207031 2.6360862255096435547 2.1818959712982177734 1.8720721006393432617 2.1773190498352050781 2.7742381095886230469 2.5787875652313232422 2.5457594394683837891 2.7446928024291992188 2.7333953380584716797 2.6403288841247558594 2.790149688720703125 2.8013994693756103516 2.7824335098266601562 4.4181852340698242188 2.7513902187347412109 2.3397061824798583984 1.6774306297302246094 1.5857586860656738281 3.9758398532867431641 3.6965534687042236328 3.6044905185699462891 2.6290838718414306641 2.5507843494415283203 2.6911935806274414062 2.8184614181518554688 4.0392169952392578125 3.6334640979766845703 3.1387953758239746094 3.8513109683990478516 7.557861328125 3.2569420337677001953 3.8990573883056640625 4.1158308982849121094 2.7417423725128173828 2.7300848960876464844 2.7353377342224121094 2.7404048442840576172 2.7658197879791259766 2.6107201576232910156 4.5663142204284667969 2.7967336177825927734 2.8894608020782470703 3.14565277099609375 2.8555715084075927734 3.3314754962921142578 6.2690672874450683594 8.9236669540405273438 6.5051527023315429688 7.7746829986572265625 6.0298595428466796875 4.5063271522521972656 4.8557429313659667969 10.89087677001953125 12.618869781494140625 11.221713066101074219 5.4954285621643066406 3.8711004257202148438 
3.8266701698303222656 2.7226459980010986328 2.6884441375732421875 3.7175397872924804688 2.8761763572692871094 3.0359354019165039062 3.4071531295776367188 5.0565915107727050781 5.6818032264709472656 1.7675631046295166016 0.83720636367797851562 0.97910636663436889648 0.21151225268840789795 0.17714285850524902344 3.7757408618927001953 3.2070000171661376953 5.306873321533203125 10.469794273376464844 5.0738854408264160156 2.4972553253173828125 2.2750351428985595703 2.8007235527038574219 4.6944565773010253906 8.0841398239135742188 3.2550063133239746094 2.7294251918792724609 2.6940696239471435547 3.2652025222778320312 4.2942881584167480469 3.2175118923187255859 3.4790742397308349609 3.9004344940185546875 3.0344839096069335938 2.7396016120910644531 2.7792239189147949219 2.9676597118377685547 3.5100893974304199219 2.7013957500457763672 2.7704155445098876953 2.9344007968902587891 2.5406463146209716797 1.7014299631118774414 1.2583193778991699219 2.4471457004547119141 2.7407870292663574219 2.7353157997131347656 2.0309693813323974609 2.7144091129302978516 3.9578232765197753906 5.2942724227905273438 3.0342783927917480469 1.7508614063262939453 1.6039999723434448242 1.6039999723434448242 1.6808109283447265625 1.7377729415893554688 2.7520811557769775391 2.7934014797210693359 3.8728706836700439453 5.5515546798706054688 2.7767045497894287109 2.8038041591644287109 2.7344243526458740234 2.7242515087127685547 2.7191565036773681641 2.6816987991333007812 2.7094626426696777344 2.5941715240478515625 4.21016693115234375 5.4271645545959472656 4.9617524147033691406 3.4175209999084472656 5.3063154220581054688 5.3727512359619140625 3.8802783489227294922 4.2180881500244140625 3.2916264533996582031 3.3077027797698974609 8.0759420394897460938 7.6125459671020507812 10.974200248718261719 9.4429559707641601562 11.640290260314941406 9.5335474014282226562 9.618618011474609375 4.4908328056335449219 2.5617187023162841797 
2.7049210071563720703 2.699886322021484375 2.6768841743469238281 6.4454998970031738281 5.9429640769958496094 6.7986001968383789062 3.7793095111846923828 2.4895975589752197266 0.83836477994918823242 1.1505042314529418945 2.7827100753784179688 0.65468746423721313477 0.73679947853088378906 2.9564166069030761719 3.1652426719665527344 2.9871230125427246094 2.7302908897399902344 2.6541500091552734375 2.7468905448913574219 2.8040502071380615234 2.88494873046875 2.9724884033203125 4.9504837989807128906 8.5415430068969726562 2.7298018932342529297 2.7409181594848632812 2.7543530464172363281 3.1363065242767333984 3.1456348896026611328 1.6039999723434448242 2.6375329494476318359 3.9484772682189941406 3.5626778602600097656 2.7473955154418945312 2.8535509109497070312 3.1118135452270507812 3.1734290122985839844 2.7919681072235107422 2.9572615623474121094 1.8595585823059082031 0.37209799885749816895 0.37209799885749816895 0.96635705232620239258 2.587612152099609375 2.7382252216339111328 2.740184783935546875 2.7387242317199707031 2.7783198356628417969 2.9122216701507568359 3.9359323978424072266 2.7533178329467773438 1.6747096776962280273 1.6039999723434448242 1.6039999723434448242 1.6039999723434448242 2.4751093387603759766 2.7623052597045898438 2.7870812416076660156 5.7760057449340820312 9.8989706039428710938 2.7792787551879882812 2.5998961925506591797 2.7518930435180664062 2.9637629985809326172 2.7509856224060058594 2.6961767673492431641 2.8544836044311523438 2.9086389541625976562 5.1460170745849609375 6.5447325706481933594 8.2598905563354492188 7.7345037460327148438 6.5433602333068847656 5.3181624412536621094 3.961383819580078125 3.5976886749267578125 3.3530850410461425781 3.6646401882171630859 5.7451987266540527344 8.4114532470703125 7.6549859046936035156 3.0316374301910400391 3.9070675373077392578 6.1352243423461914062 7.3228349685668945312 3.0521199703216552734 2.6175303459167480469 
2.7069363594055175781 2.7080271244049072266 3.5734045505523681641 6.3454504013061523438 3.5788943767547607422 3.0519542694091796875 1.1373115777969360352 0.13500000536441802979 0.47145551443099975586 3.0648777484893798828 0.12249999493360519409 0.21041959524154663086 0.25537499785423278809 1.1526666879653930664 2.3199999332427978516 2.0930047035217285156 1.4814587831497192383 1.418810725212097168 5.1810255050659179688 3.9269917011260986328 1.8405325412750244141 5.4743514060974121094 7.2281122207641601562 4.1041584014892578125 2.6930818557739257812 2.7536826133728027344 2.7044880390167236328 2.7368073463439941406 2.0664627552032470703 1.6039999723434448242 2.3455741405487060547 6.138027191162109375 1.5792244672775268555 2.8267960548400878906 3.2070000171661376953 2.916751861572265625 2.8585996627807617188 2.92578887939453125 1.8675085306167602539 0.37209799885749816895 0.37209799885749816895 0.37209799885749816895 1.5598180294036865234 2.7425723075866699219 2.6040773391723632812 2.7510628700256347656 2.0203604698181152344 2.7740178108215332031 2.7559397220611572266 2.7516045570373535156 2.7353255748748779297 2.1048374176025390625 1.6039999723434448242 1.6039999723434448242 1.6747096776962280273 2.7673361301422119141 2.771625518798828125 2.7885823249816894531 3.9041626453399658203 7.7018823623657226562 2.7760891914367675781 3.2923769950866699219 3.1427259445190429688 4.0304994583129882812 3.7417542934417724609 5.2027788162231445312 2.7272000312805175781 2.7679526805877685547 3.9482157230377197266 3.0548458099365234375 3.9015600681304931641 3.8821730613708496094 3.2630488872528076172 3.9047992229461669922 2.7695624828338623047 3.4660310745239257812 2.7605843544006347656 4.2426099777221679688 5.4586930274963378906 5.097064971923828125 3.8967690467834472656 9.165782928466796875 4.1035289764404296875 2.6775279045104980469 3.8650498390197753906 4.4265661239624023438 2.7135262489318847656 
2.7017066478729248047 2.8625566959381103516 3.7327678203582763672 3.9520471096038818359 3.205318450927734375 2.0076406002044677734 0.16647660732269287109 2.6233160495758056641 4.2997798919677734375 3.7233686447143554688 1.4721720218658447266 1.4489248991012573242 2.0126667022705078125 2.6344285011291503906 3.2070000171661376953 3.8912415504455566406 2.4006049633026123047 2.7637715339660644531 1.7140049934387207031 4.935848236083984375 2.6281054019927978516 6.5606188774108886719 3.1065781116485595703 2.7716462612152099609 2.731220245361328125 2.7657258510589599609 2.7220640182495117188 2.7208049297332763672 1.9967771768569946289 1.6747096776962280273 2.8963999748229980469 1.8627709150314331055 1.2871997356414794922 2.6741991043090820312 3.1809699535369873047 2.9139497280120849609 2.8028049468994140625 1.7219150066375732422 0.37209799885749816895 0.37209799885749816895 0.37209799885749816895 0.51922339200973510742 2.303012847900390625 2.7645180225372314453 2.7751014232635498047 2.6064465045928955078 3.2926759719848632812 4.9893560409545898438 2.7580001354217529297 2.7409358024597167969 2.7520806789398193359 2.761104583740234375 1.824573516845703125 1.6039999723434448242 2.2477619647979736328 2.7857003211975097656 2.7751479148864746094 2.7776663303375244141 7.1069293022155761719 6.4693369865417480469 2.7373344898223876953 4.86150360107421875 3.1931984424591064453 2.6600635051727294922 2.7313148975372314453 4.90734100341796875 3.3297936916351318359 5.8459420204162597656 5.6505045890808105469 4.3048682212829589844 3.1206641197204589844 3.0289990901947021484 4.2618575096130371094 3.1361012458801269531 2.7213213443756103516 2.7397754192352294922 2.7869074344635009766 3.4374797344207763672 3.8582873344421386719 3.1885952949523925781 2.7430965900421142578 3.7104640007019042969 2.6605195999145507812 2.8179838657379150391 4.6808371543884277344 3.7718057632446289062 2.6751298904418945312 
2.9709234237670898438 3.7437722682952880859 2.9688827991485595703 3.763065338134765625 1.2310467958450317383 2.4595921039581298828 0.84364026784896850586 1.6499863862991333008 3.1056742668151855469 2.64582061767578125 1.8082779645919799805 2.4502499103546142578 3.2070000171661376953 3.2070000171661376953 3.2070000171661376953 1.2410347461700439453 1.5395686626434326172 2.8811972141265869141 0.85542386770248413086 3.5942807197570800781 4.273357391357421875 6.4220767021179199219 2.6030664443969726562 3.42910003662109375 2.7771658897399902344 2.7329475879669189453 2.7248270511627197266 2.4404940605163574219 1.6771118640899658203 2.3991992473602294922 2.86693572998046875 1.0907075405120849609 1.2344074249267578125 2.7846052646636962891 3.1059741973876953125 2.867275238037109375 2.7921378612518310547 0.65969222784042358398 0.37209799885749816895 0.83160555362701416016 2.499660491943359375 2.7623660564422607422 2.7767570018768310547 2.6406688690185546875 2.7647092342376708984 2.7716753482818603516 2.4730527400970458984 1.1251769065856933594 2.0390274524688720703 2.7717227935791015625 2.7410950660705566406 2.7499201297760009766 2.71926116943359375 2.5428264141082763672 2.7539732456207275391 4.7501630783081054688 2.7854812145233154297 2.8920073509216308594 4.3487715721130371094 5.0887961387634277344 3.5443966388702392578 2.7753460407257080078 2.7409589290618896484 2.727924346923828125 2.6912901401519775391 2.8172972202301025391 2.7290594577789306641 3.0992908477783203125 3.7415049076080322266 2.7485585212707519531 3.5124094486236572266 3.359859466552734375 4.3000378608703613281 5.3047695159912109375 2.9119870662689208984 2.7687227725982666016 2.8303709030151367188 3.8721597194671630859 4.2616171836853027344 4.3030009269714355469 2.7168431282043457031 2.6874263286590576172 2.6596779823303222656 2.7955470085144042969 3.4844415187835693359 3.1773233413696289062 2.6075179576873779297 
2.8801987171173095703 2.8609676361083984375 2.3658466339111328125 2.1310377120971679688 2.5648317337036132812 2.1538012027740478516 2.8603940010070800781 3.3577189445495605469 2.9209547042846679688 2.2090616226196289062 2.2336809635162353516 3.0190625190734863281 3.2070000171661376953 3.2070000171661376953 3.2070000171661376953 2.3901441097259521484 2.3540728092193603516 2.3148434162139892578 1.445418238639831543 1.3859630823135375977 5.9032640457153320312 4.9833712577819824219 2.8190662860870361328 5.6187338829040527344 3.7925536632537841797 2.7577078342437744141 2.7656147480010986328 2.1774065494537353516 1.9472942352294921875 2.8148012161254882812 1.7521175146102905273 0.97729283571243286133 1.272571563720703125 3.2199766635894775391 3.1816284656524658203 5.2341518402099609375 2.7767364978790283203 0.97334331274032592773 0.37209799885749816895 2.1839902400970458984 2.7625279426574707031 4.5007739067077636719 3.657474517822265625 2.7848722934722900391 2.7549307346343994141 2.7716226577758789062 1.117444157600402832 2.3393387794494628906 1.2746526002883911133 2.7618355751037597656 2.7687020301818847656 2.7723956108093261719 2.7445325851440429688 2.7487797737121582031 2.7576527595520019531 9.4317903518676757812 2.8038780689239501953 3.3640124797821044922 4.16290283203125 3.7443048954010009766 3.2310605049133300781 2.7400052547454833984 2.7198445796966552734 2.7977049350738525391 2.6474707126617431641 2.6818408966064453125 2.7964644432067871094 3.2472391128540039062 3.4996128082275390625 2.8665153980255126953 6.1598372459411621094 6.0886793136596679688 6.5904293060302734375 5.2757763862609863281 2.7754876613616943359 2.8033547401428222656 2.7459721565246582031 3.8270499706268310547 3.9680993556976318359 4.2674131393432617188 2.974170684814453125 2.6352202892303466797 2.6652519702911376953 2.6785891056060791016 3.4943494796752929688 2.8242354393005371094 2.7095174789428710938 
2.7094144821166992188 2.1506900787353515625 1.5519994497299194336 2.1556987762451171875 2.6419010162353515625 7.3419270515441894531 3.9728391170501708984 4.3881483078002929688 2.7590527534484863281 1.9174771308898925781 3.2070000171661376953 3.2070000171661376953 3.1065952777862548828 3.2070000171661376953 3.2070000171661376953 4.1405215263366699219 6.729000091552734375 2.7408077716827392578 3.2616760730743408203 2.7357816696166992188 2.0905804634094238281 2.7901129722595214844 2.7393405437469482422 7.6525831222534179688 2.8269662857055664062 2.8182950019836425781 2.7818892002105712891 2.7692704200744628906 2.6188969612121582031 1.6889901161193847656 2.3699336051940917969 2.0105268955230712891 2.4452500343322753906 2.327129364013671875 4.0433092117309570312 3.7144711017608642578 2.7877421379089355469 1.8705110549926757812 1.2842078208923339844 2.8134820461273193359 2.7500014305114746094 2.7522096633911132812 2.7618138790130615234 2.7803843021392822266 2.7616114616394042969 2.0305263996124267578 2.1865825653076171875 1.4327950477600097656 2.1792857646942138672 2.7862985134124755859 2.9715085029602050781 2.855316162109375 2.7645008563995361328 2.7830972671508789062 2.7594404220581054688 2.7794051170349121094 2.5633871555328369141 3.7698724269866943359 3.9121916294097900391 3.2076456546783447266 4.0090188980102539062 2.9074175357818603516 2.7848207950592041016 2.6654431819915771484 2.6885814666748046875 2.7592306137084960938 2.7794394493103027344 4.0604109764099121094 4.0495934486389160156 3.7653367519378662109 3.97113037109375 3.7617328166961669922 3.0631091594696044922 2.7531981468200683594 2.7819988727569580078 2.7618756294250488281 2.7776575088500976562 3.3626050949096679688 3.4039015769958496094 4.2674131393432617188 5.44890594482421875 2.6633076667785644531 2.8214349746704101562 2.9646947383880615234 3.1708836555480957031 2.9347710609436035156 3.7238814830780029297 
3.0122582912445068359 6.0739502906799316406 1.6104259490966796875 2.1309456825256347656 2.5408337116241455078 5.9933648109436035156 3.3718087673187255859 1.7775766849517822266 2.0431463718414306641 2.9564166069030761719 3.2070000171661376953 3.1755847930908203125 2.8775269985198974609 3.1852099895477294922 3.2070000171661376953 1.9667303562164306641 9.7502050399780273438 3.7766895294189453125 7.0943202972412109375 7.4908618927001953125 3.1769711971282958984 3.2711174488067626953 8.8359975814819335938 6.3421120643615722656 2.7712488174438476562 2.7851519584655761719 2.6468474864959716797 2.7141213417053222656 2.2719197273254394531 2.0039205551147460938 1.1381347179412841797 3.2070000171661376953 3.2070000171661376953 2.020915985107421875 2.7556326389312744141 2.6461102962493896484 2.8141150474548339844 2.7740705013275146484 2.4856221675872802734 2.7788138389587402344 2.7814068794250488281 2.803989410400390625 3.9044420719146728516 6.1401495933532714844 2.7672429084777832031 1.7353333234786987305 1.5882741212844848633 2.9215505123138427734 3.242839813232421875 3.8191289901733398438 2.7724084854125976562 2.763927459716796875 2.7699799537658691406 2.7552337646484375 3.7699053287506103516 2.7434303760528564453 2.2414751052856445312 5.0330333709716796875 3.1081213951110839844 2.5701990127563476562 3.1160504817962646484 2.8124387264251708984 2.7949240207672119141 2.4775378704071044922 2.7237393856048583984 2.7635595798492431641 5.5890130996704101562 8.934146881103515625 5.32935333251953125 3.2419040203094482422 4.0009527206420898438 3.9774029254913330078 2.3321154117584228516 2.0316510200500488281 2.7657847404479980469 2.7753984928131103516 3.2347874641418457031 3.2454485893249511719 4.3912477493286132812 4.2588057518005371094 7.7346735000610351562 4.4986233711242675781 4.1229791641235351562 4.5388131141662597656 7.1261882781982421875 4.6868510246276855469 3.7438969612121582031 
2.5681567192077636719 2.80019378662109375 1.1685173511505126953 2.125408172607421875 2.7464761734008789062 2.7858371734619140625 2.79076385498046875 2.0753495693206787109 2.0178446769714355469 2.9497499465942382812 3.2070000171661376953 3.174068450927734375 2.7168076038360595703 3.1775221824645996094 3.2070000171661376953 6.4227800369262695312 4.9967045783996582031 2.8222076892852783203 4.350681304931640625 6.2569932937622070312 7.0956830978393554688 6.2268199920654296875 5.1769380569458007812 2.8046545982360839844 2.7785379886627197266 2.6609025001525878906 2.7079751491546630859 2.8606672286987304688 1.8928719758987426758 3.0147221088409423828 0.76707196235656738281 1.7204999923706054688 2.9908165931701660156 1.6641752719879150391 2.5047833919525146484 1.2848117351531982422 1.590720057487487793 2.3564155101776123047 2.759654998779296875 2.7872383594512939453 2.8003482818603515625 2.7745602130889892578 5.4182829856872558594 5.6930756568908691406 2.7916083335876464844 2.7933130264282226562 2.7948000431060791016 2.7404515743255615234 2.7707095146179199219 2.7554554939270019531 3.3760006427764892578 2.7678904533386230469 2.768829345703125 2.7639601230621337891 7.3190951347351074219 3.2352192401885986328 2.8935468196868896484 2.8554821014404296875 2.8100805282592773438 2.9476726055145263672 2.3500280380249023438 3.1128413677215576172 3.3734273910522460938 2.71417999267578125 2.6596894264221191406 2.6973853111267089844 5.0585350990295410156 7.2792115211486816406 3.5050494670867919922 4.0467987060546875 3.7243838310241699219 4.5411691665649414062 2.9154250621795654297 2.7945165634155273438 2.7818226814270019531 2.7796127796173095703 2.7584145069122314453 4.2573733329772949219 4.6713881492614746094 6.4304552078247070312 8.1166296005249023438 4.0521006584167480469 5.7145991325378417969 4.0054769515991210938 3.6552398204803466797 4.15235137939453125 3.7405447959899902344 
6.9551167488098144531 2.7970318794250488281 1.8488591909408569336 2.1305983066558837891 1.8845626115798950195 1.9862997531890869141 2.7811720371246337891 2.3730921745300292969 1.2432045936584472656 1.401250004768371582 3.0066249370574951172 7.6251606941223144531 12.662519454956054688 1.4928650856018066406 4.5066423416137695312 2.8313548564910888672 0.35775649547576904297 2.7974097728729248047 2.6710596084594726562 2.7409932613372802734 2.8113772869110107422 4.9175729751586914062 6.3237543106079101562 2.9317033290863037109 2.7050681114196777344 2.7162880897521972656 2.7290637493133544922 2.9497938156127929688 1.2722253799438476562 2.1077508926391601562 1.1630624532699584961 0.71979200839996337891 1.6625914573669433594 2.6315336227416992188 1.8760085105895996094 0.83406126499176025391 0.60307961702346801758 0.7570673823356628418 2.0031116008758544922 2.7731461524963378906 2.8026089668273925781 2.7737057209014892578 2.76235198974609375 2.7498357295989990234 2.752910614013671875 2.7860329151153564453 2.7480831146240234375 2.7780203819274902344 2.7583670616149902344 2.7823362350463867188 5.8101468086242675781 2.792476654052734375 2.7789959907531738281 2.7732546329498291016 3.2535893917083740234 4.5563144683837890625 3.6053831577301025391 3.1132292747497558594 2.9425573348999023438 2.6707355976104736328 0.66352552175521850586 3.6394317150115966797 3.3761320114135742188 2.4168937206268310547 3.19004058837890625 11.557221412658691406 12.438394546508789062 8.7187967300415039062 3.8311512470245361328 5.6626682281494140625 5.9116663932800292969 4.0004258155822753906 2.7818441390991210938 2.7865803241729736328 2.7910735607147216797 2.7840411663055419922 2.7424650192260742188 4.9938201904296875 4.6819539070129394531 5.0915417671203613281 10.088717460632324219 6.56954193115234375 6.1349883079528808594 2.9100902080535888672 2.7468552589416503906 2.7505784034729003906 3.2231278419494628906 
4.693569183349609375 2.8052761554718017578 2.142425537109375 1.7998393774032592773 1.5014902353286743164 1.3064153194427490234 2.4208884239196777344 1.47614288330078125 2.9865000247955322266 2.9497499465942382812 2.6369910240173339844 5.4323744773864746094 1.8106858730316162109 2.2550339698791503906 3.5569071769714355469 2.1179299354553222656 0.79238861799240112305 2.7935342788696289062 2.6522238254547119141 2.7609479427337646484 2.7987291812896728516 3.4126174449920654297 3.2785463333129882812 2.7721858024597167969 2.7836859226226806641 2.7510063648223876953 3.0216791629791259766 2.7329726219177246094 0.88555139303207397461 0.60562497377395629883 1.5077776908874511719 1.7410824298858642578 1.4771289825439453125 2.7947423458099365234 2.6404242515563964844 1.4387341737747192383 1.2190306186676025391 1.5270061492919921875 1.6531419754028320312 3.1601903438568115234 2.7984671592712402344 2.7869610786437988281 2.7471640110015869141 2.7547500133514404297 2.7640242576599121094 2.8085997104644775391 2.7772123813629150391 2.7774875164031982422 2.7650105953216552734 2.7430605888366699219 2.7745506763458251953 2.7902691364288330078 2.7875418663024902344 2.78772735595703125 2.9449799060821533203 3.6303827762603759766 4.0130281448364257812 4.5371890068054199219 4.4225325584411621094 2.1898651123046875 0.37209799885749816895 0.37209799885749816895 0.37209799885749816895 0.37209799885749816895 1.0158418416976928711 5.6841564178466796875 8.9938459396362304688 8.1266870498657226562 2.6774706840515136719 3.7257742881774902344 2.8856115341186523438 3.1591444015502929688 2.7701892852783203125 2.7770345211029052734 2.7784340381622314453 2.7637872695922851562 3.1197943687438964844 3.0316824913024902344 3.6325640678405761719 6.3024206161499023438 5.2894968986511230469 4.5506563186645507812 0.93805593252182006836 2.6217758655548095703 2.7757368087768554688 2.7817127704620361328 2.8031132221221923828 
5.1805644035339355469 4.1646146774291992188 1.8141086101531982422 1.9736034870147705078 2.8993158340454101562 1.8193000555038452148 2.5160191059112548828 1.1531543731689453125 3.2389478683471679688 10.026605606079101562 5.8790183067321777344 5.2069907188415527344 7.4498300552368164062 2.682956695556640625 3.2070000171661376953 3.1057951450347900391 2.4233522415161132812 2.7601170539855957031 2.7290201187133789062 2.7868137359619140625 2.8038358688354492188 2.8038206100463867188 2.88948822021484375 2.7444283962249755859 2.7572274208068847656 2.7659454345703125 2.7963123321533203125 2.7653024196624755859 0.97844225168228149414 1.0777122974395751953 1.7204999923706054688 1.8108348846435546875 2.6240606307983398438 2.8264949321746826172 2.8238284587860107422 2.3555970191955566406 1.2190306186676025391 1.1420366764068603516 2.1728503704071044922 2.7963156700134277344 2.8031075000762939453 2.7791941165924072266 2.7651464939117431641 2.7517278194427490234 2.8089690208435058594 2.9761500358581542969 2.7964010238647460938 2.7995760440826416016 2.8153378963470458984 2.7840089797973632812 2.7798674106597900391 2.7736678123474121094 2.7655203342437744141 2.7841558456420898438 2.7314164638519287109 3.4006457328796386719 3.5147225856781005859 3.3933646678924560547 1.666728973388671875 0.82503646612167358398 1.2791286706924438477 1.2719205617904663086 1.7261908054351806641 2.710414886474609375 4.016658782958984375 4.5719151496887207031 7.1600747108459472656 4.2791094779968261719 2.7787652015686035156 4.8587718009948730469 2.7857115268707275391 2.7917954921722412109 2.7870271205902099609 2.7910528182983398438 2.781826019287109375 2.7352244853973388672 2.702915191650390625 2.7054958343505859375 2.6266193389892578125 2.7906436920166015625 2.6818149089813232422 1.1187151670455932617 0.97211736440658569336 1.7378419637680053711 2.7804903984069824219 2.7824373245239257812 2.7838044166564941406 
2.5987532138824462891 2.0265097618103027344 2.4393401145935058594 2.9480161666870117188 2.1773428916931152344 2.5836882591247558594 2.1456203460693359375 0.75831174850463867188 0.5297819972038269043 7.3098549842834472656 8.7854700088500976562 3.9273457527160644531 0.6992995142936706543 0.684299468994140625 3.2070000171661376953 2.5437469482421875 1.8249117136001586914 2.6550743579864501953 2.7219686508178710938 2.7707998752593994141 2.8057973384857177734 2.7866635322570800781 2.8348810672760009766 2.7256343364715576172 2.5962700843811035156 2.5344278812408447266 1.0752984285354614258 0.094499997794628143311 0.23338112235069274902 0.23399999737739562988 0.23399999737739562988 2.1557669639587402344 2.0817923545837402344 2.8076605796813964844 2.8203685283660888672 2.7909791469573974609 0.90529340505599975586 2.1225287914276123047 3.0626666545867919922 2.7199258804321289062 2.7394006252288818359 2.7729334831237792969 2.7833762168884277344 2.8211078643798828125 2.7930581569671630859 3.4171390533447265625 3.1412990093231201172 2.7462735176086425781 2.03255462646484375 4.424221038818359375 4.0542988777160644531 2.7765612602233886719 2.7315857410430908203 8.8473682403564453125 2.7664752006530761719 2.7904193401336669922 2.7850842475891113281 1.680295109748840332 0.37209799885749816895 1.7284499406814575195 1.1257174015045166016 0.37209799885749816895 2.1545500755310058594 3.7797436714172363281 5.8537607192993164062 2.5041072368621826172 3.5816793441772460938 2.7880549430847167969 2.7856495380401611328 2.7751724720001220703 2.7840812206268310547 2.8049423694610595703 2.7832033634185791016 2.7933723926544189453 2.7688853740692138672 2.7351737022399902344 2.8102002143859863281 2.6834890842437744141 2.9325075149536132812 2.9477398395538330078 3.200160980224609375 2.4111523628234863281 0.37209799885749816895 0.5220088958740234375 2.7820429801940917969 2.7831628322601318359 2.7989327907562255859 
5.8503212928771972656 1.9724310636520385742 2.5597674846649169922 2.6533818244934082031 2.0103962421417236328 3.3655335903167724609 9.0576963424682617188 2.3774428367614746094 1.5238783359527587891 1.9023942947387695312 2.8411066532135009766 1.5104657411575317383 0.096249997615814208984 2.2465162277221679688 3.1752593517303466797 1.5643813610076904297 0.37209799885749816895 2.7429351806640625 2.7554938793182373047 1.8423206806182861328 2.3187677860260009766 2.8079140186309814453 2.6369392871856689453 2.7254326343536376953 2.7976472377777099609 0.91122931241989135742 0.10999999940395355225 0.11374999582767486572 0.45815443992614746094 0.23399999737739562988 0.23399999737739562988 1.6424700021743774414 1.5822205543518066406 2.5967733860015869141 2.6465041637420654297 2.7885477542877197266 2.1681680679321289062 4.6061449050903320312 2.6779968738555908203 2.7279610633850097656 2.7873351573944091797 2.797733306884765625 2.8166508674621582031 2.8139250278472900391 2.7617740631103515625 3.066020965576171875 1.8689643144607543945 1.1249793767929077148 0.67439472675323486328 1.2190306186676025391 1.7950201034545898438 2.7776470184326171875 2.6302101612091064453 4.5103969573974609375 3.4670922756195068359 2.7874703407287597656 2.7699975967407226562 1.41330718994140625 0.37209799885749816895 0.52058482170104980469 0.37209799885749816895 1.7400984764099121094 6.11254119873046875 8.9597520828247070312 5.6666750907897949219 3.4316704273223876953 2.7703166007995605469 2.7858150005340576172 2.7845711708068847656 2.7882173061370849609 2.7870650291442871094 2.8091866970062255859 2.8061878681182861328 2.7626855373382568359 3.2771770954132080078 7.9009265899658203125 4.7770061492919921875 2.9938292503356933594 2.6497321128845214844 3.4758639335632324219 3.0805594921112060547 1.8489780426025390625 1.394490361213684082 1.2702907323837280273 3.10924530029296875 2.7759025096893310547 2.813236236572265625 
1.6825902462005615234 2.4009315967559814453 3.0717227458953857422 2.5495538711547851562 2.1426775455474853516 4.5264434814453125 7.4090890884399414062 1.6492018699645996094 1.810085296630859375 1.281163334846496582 1.6841535568237304688 2.0873801708221435547 0.86437779664993286133 0.87674999237060546875 3.1785485744476318359 2.0749287605285644531 0.37209799885749816895 2.7410678863525390625 2.7497019767761230469 2.6433961391448974609 2.7600116729736328125 2.7787060737609863281 2.8276178836822509766 2.7949538230895996094 4.84290313720703125 1.6081718206405639648 0.29315742850303649902 0.79183888435363769531 0.23399999737739562988 0.23399999737739562988 0.23399999737739562988 1.1303445100784301758 0.91735565662384033203 2.4412403106689453125 4.0200338363647460938 2.4734697341918945312 2.7777385711669921875 2.7108464241027832031 2.7070660591125488281 2.65296173095703125 2.7621490955352783203 2.3140325546264648438 2.8082678318023681641 2.6403031349182128906 1.4199842214584350586 0.9752438664436340332 2.022342681884765625 0.98804897069931030273 1.8236241340637207031 2.0454380512237548828 1.2190306186676025391 2.6300516128540039062 2.7821333408355712891 2.7856898307800292969 5.0008988380432128906 3.3968806266784667969 2.3167440891265869141 0.37209799885749816895 0.82459861040115356445 1.8911129236221313477 1.2701872587203979492 2.5034289360046386719 2.7895460128784179688 3.2615461349487304688 2.7811157703399658203 2.7672519683837890625 2.7876460552215576172 2.7881875038146972656 2.7836732864379882812 2.7755339145660400391 2.7959547042846679688 2.7893984317779541016 2.7990446090698242188 2.7906520366668701172 2.8087911605834960938 4.48847198486328125 3.6342315673828125 3.6237568855285644531 3.3897826671600341797 4.408870697021484375 3.484539031982421875 2.8217041492462158203 3.2303938865661621094 2.8791291713714599609 2.7861714363098144531 2.7393026351928710938 2.6889357566833496094 
1.8810417652130126953 2.7394151687622070312 2.7894649505615234375 2.2735612392425537109 1.8118284940719604492 3.69203948974609375 5.8175368309020996094 2.7260746955871582031 2.5742347240447998047 1.2804942131042480469 2.5358726978302001953 1.767992854118347168 4.3155226707458496094 1.9995723962783813477 3.2070000171661376953 3.8097734451293945312 3.7092528343200683594 2.2163746356964111328 2.8579003810882568359 2.7607605457305908203 2.7312560081481933594 4.1482982635498046875 3.5309324264526367188 2.6055185794830322266 1.2609668970108032227 0.28442719578742980957 0.15125000476837158203 0.21337500214576721191 0.23399999737739562988 0.23399999737739562988 0.23399999737739562988 0.23399999737739562988 0.85027921199798583984 1.2703187465667724609 4.1584467887878417969 2.7995193004608154297 2.76168060302734375 2.6618793010711669922 2.74401092529296875 2.6534361839294433594 2.8031964302062988281 2.7588338851928710938 2.7685959339141845703 2.1604855060577392578 0.98804897069931030273 1.2190306186676025391 0.91105508804321289062 1.5900440216064453125 2.6970767974853515625 2.7651767730712890625 2.6201753616333007812 2.7759699821472167969 2.6130557060241699219 2.7816855907440185547 2.8097019195556640625 2.8123922348022460938 2.4798800945281982422 0.52701908349990844727 1.2828792333602905273 2.8240940570831298828 2.6440351009368896484 2.0292448997497558594 2.7914786338806152344 3.2751283645629882812 2.7763650417327880859 2.7797796726226806641 2.4801604747772216797 2.3438789844512939453 2.7900397777557373047 2.7584650516510009766 2.7830870151519775391 2.8022997379302978516 2.8229291439056396484 2.8120708465576171875 2.7794716358184814453 2.7651460170745849609 2.7682945728302001953 8.1923246383666992188 3.719860076904296875 4.5514812469482421875 3.339458465576171875 4.2003049850463867188 4.6629042625427246094 2.8321027755737304688 2.7523062229156494141 2.7654409408569335938 2.6884782314300537109 
1.287947535514831543 1.921215057373046875 2.1014678478240966797 0.61657929420471191406 0.54408037662506103516 2.8109400272369384766 1.9125783443450927734 0.24533332884311676025 1.3407901525497436523 1.3122884035110473633 2.2021036148071289062 1.5450479984283447266 3.1234159469604492188 2.628925323486328125 2.3046283721923828125 3.209201812744140625 2.5374372005462646484 2.1123175621032714844 2.715511322021484375 2.7008509635925292969 2.7369277477264404297 7.7503561973571777344 4.6253423690795898438 3.2941975593566894531 1.1292784214019775391 0.13325612246990203857 0.31063476204872131348 0.50014972686767578125 0.21762499213218688965 0.35952299833297729492 0.65228450298309326172 0.23399999737739562988 0.89217448234558105469 1.7163712978363037109 2.4670214653015136719 5.6391725540161132812 4.2160868644714355469 2.4805052280426025391 5.2984251976013183594 2.6438670158386230469 2.6482944488525390625 2.7759230136871337891 2.7546284198760986328 2.7705321311950683594 2.4912915229797363281 2.2944536209106445312 2.1351892948150634766 2.7890152931213378906 2.7636427879333496094 2.6835465431213378906 2.7466263771057128906 2.4845426082611083984 2.792362213134765625 2.3495736122131347656 2.0634243488311767578 2.6643478870391845703 2.7917478084564208984 2.7824709415435791016 2.7938077449798583984 2.7914283275604248047 2.0284368991851806641 1.2806198596954345703 2.6287782192230224609 2.7866764068603515625 1.7395868301391601562 2.4798479080200195312 2.7916181087493896484 2.6325716972351074219 2.3203725814819335938 2.7939102649688720703 2.7953643798828125 2.8104605674743652344 2.7864921092987060547 2.7944519519805908203 2.8030576705932617188 2.7811450958251953125 3.9123585224151611328 7.8218832015991210938 4.4666624069213867188 3.7370507717132568359 2.7403655052185058594 7.0279746055603027344 3.5129561424255371094 3.0409493446350097656 2.7897348403930664062 2.7561323642730712891 2.8372862339019775391 
1.9717006683349609375 5.2322564125061035156 8.6811656951904296875 2.3940501213073730469 2.3540074825286865234 3.2634775638580322266 1.073666691780090332 0.14249999821186065674 2.1286132335662841797 1.0725512504577636719 2.1376960277557373047 0.80599999427795410156 3.0140624046325683594 1.2224999666213989258 1.5925999879837036133 3.4004263877868652344 1.8989199399948120117 1.4921071529388427734 3.1058061122894287109 2.7070658206939697266 2.6300938129425048828 7.5858006477355957031 5.8702540397644042969 5.4096546173095703125 2.0580341815948486328 1.3164690732955932617 0.75017011165618896484 0.49726951122283935547 1.307894587516784668 1.153966069221496582 0.49015337228775024414 0.51314973831176757812 0.23399999737739562988 1.9325886964797973633 6.5715351104736328125 6.705013275146484375 3.7003164291381835938 2.5680201053619384766 3.2261464595794677734 3.90576171875 2.999786376953125 2.7831723690032958984 2.7811655998229980469 2.7801635265350341797 2.7919750213623046875 2.8196511268615722656 2.8041696548461914062 2.7590394020080566406 2.7397472858428955078 2.9017629623413085938 5.0389142036437988281 3.3869063854217529297 2.7725560665130615234 2.1910169124603271484 0.97773814201354980469 0.83438277244567871094 5.3096179962158203125 5.9355111122131347656 2.7856812477111816406 2.7659580707550048828 1.4241259098052978516 2.7758374214172363281 2.7585396766662597656 2.7898232936859130859 2.7830369472503662109 2.7854948043823242188 2.4753406047821044922 1.9914093017578125 1.1239055395126342773 2.7980353832244873047 2.7894339561462402344 2.7723739147186279297 2.7921009063720703125 2.7710103988647460938 2.7713315486907958984 2.768482208251953125 4.9078001976013183594 8.6604337692260742188 3.7115590572357177734 2.9353506565093994141 0.82498371601104736328 1.4237140417098999023 2.4720358848571777344 2.8107979297637939453 2.8026385307312011719 2.8078083992004394531 2.7916648387908935547 
2.1019954681396484375 2.9311594963073730469 9.8328847885131835938 1.3188871145248413086 5.5893030166625976562 2.0650632381439208984 1.2857999801635742188 1.7556937932968139648 1.5800958871841430664 1.7442476749420166016 3.625995635986328125 0.58322036266326904297 3.2070000171661376953 2.5896000862121582031 1.5212348699569702148 1.9100983142852783203 1.5253350734710693359 2.8610699176788330078 3.4735331535339355469 2.6534144878387451172 3.2644863128662109375 6.57401275634765625 2.6391160488128662109 2.7454104423522949219 2.6177129745483398438 3.9789950847625732422 7.581172943115234375 1.3138723373413085938 1.0863279104232788086 0.23453675210475921631 0.33527812361717224121 1.3258620500564575195 0.23399999737739562988 2.3396129608154296875 3.8029386997222900391 2.9211142063140869141 2.6181123256683349609 2.7990961074829101562 5.4705400466918945312 2.8193075656890869141 2.7652750015258789062 2.7926571369171142578 2.7768511772155761719 2.7767555713653564453 2.7746722698211669922 2.8159806728363037109 2.7972695827484130859 2.7904670238494873047 2.7575411796569824219 3.0447914600372314453 7.5371036529541015625 4.9759993553161621094 2.8217904567718505859 1.8920025825500488281 1.7281270027160644531 2.5615875720977783203 7.7249822616577148438 6.9852762222290039062 2.8563885688781738281 2.7807404994964599609 1.5612610578536987305 2.7676136493682861328 2.7852063179016113281 2.7507512569427490234 2.7403137683868408203 2.6912150382995605469 2.7600662708282470703 1.5698416233062744141 2.1689145565032958984 2.7912268638610839844 2.7868204116821289062 2.8074889183044433594 3.218479156494140625 2.7650930881500244141 2.7723748683929443359 2.7360641956329345703 2.7715849876403808594 4.0417056083679199219 2.8147904872894287109 2.6296708583831787109 2.1793701648712158203 2.8637299537658691406 2.4983279705047607422 5.7023863792419433594 2.7842991352081298828 2.8032469749450683594 2.7842397689819335938 
1.288158416748046875 3.9714086055755615234 6.3169450759887695312 1.6733026504516601562 3.6885714530944824219 2.5482783317565917969 2.1130018234252929688 2.0823841094970703125 3.7127399444580078125 3.4340150356292724609 2.9239637851715087891 1.6150885820388793945 3.2070000171661376953 3.1494061946868896484 2.8353078365325927734 1.3325155973434448242 2.34287261962890625 2.5618891716003417969 2.6901488304138183594 2.9416882991790771484 2.9750361442565917969 3.2306423187255859375 2.6760439872741699219 2.7186758518218994141 5.9361529350280761719 6.2960839271545410156 3.7070348262786865234 3.6410644054412841797 1.5612851381301879883 2.1644153594970703125 0.32482963800430297852 0.83416712284088134766 0.80654948949813842773 1.2635247707366943359 4.8936467170715332031 2.0040757656097412109 2.2830133438110351562 2.7950615882873535156 4.5097680091857910156 3.1030476093292236328 2.7760269641876220703 2.7547450065612792969 2.7994477748870849609 2.6272919178009033203 2.7926516532897949219 2.8292112350463867188 2.8347871303558349609 2.7872202396392822266 2.7952609062194824219 3.0230882167816162109 5.2000985145568847656 2.4806663990020751953 2.1987402439117431641 0.67078596353530883789 1.4201180934906005859 3.2828547954559326172 3.1260890960693359375 5.423297882080078125 6.2124481201171875 2.4101686477661132812 0.51980155706405639648 0.50972062349319458008 0.52630960941314697266 1.8860150575637817383 1.9880391359329223633 1.7916951179504394531 2.2690989971160888672 1.9646213054656982422 2.7456572055816650391 2.7706432342529296875 2.8089683055877685547 2.8092162609100341797 2.2528507709503173828 2.6545312404632568359 2.7511250972747802734 2.768756866455078125 2.7934019565582275391 3.8566200733184814453 5.4334230422973632812 4.3133535385131835938 5.4028987884521484375 2.8064594268798828125 2.5974733829498291016 3.58209228515625 4.1236743927001953125 3.4218494892120361328 2.8804857730865478516 
1.1320246458053588867 4.5098481178283691406 6.5340909957885742188 2.7637646198272705078 2.3177523612976074219 3.2102034091949462891 1.3106733560562133789 2.1243069171905517578 3.4087042808532714844 3.3943452835083007812 6.0586271286010742188 1.3170295953750610352 3.2070000171661376953 2.9890532493591308594 2.88855743408203125 2.2407751083374023438 2.5511198043823242188 2.3688404560089111328 2.6918179988861083984 2.6438949108123779297 6.0177693367004394531 2.9401621818542480469 2.6857438087463378906 2.7127079963684082031 7.0764222145080566406 4.5957016944885253906 1.246035456657409668 4.0474004745483398438 1.7066777944564819336 2.1559789180755615234 0.31407350301742553711 1.0784840583801269531 1.2635247707366943359 3.2070000171661376953 3.8006250858306884766 3.1753330230712890625 1.9984019994735717773 2.8175208568572998047 2.8140261173248291016 2.7625739574432373047 2.7671954631805419922 2.7683041095733642578 2.7950110435485839844 2.7945692539215087891 2.8247361183166503906 2.8281569480895996094 2.8323969841003417969 2.8265354633331298828 2.8011667728424072266 2.8004813194274902344 3.0388798713684082031 2.6313235759735107422 1.3633286952972412109 0.68007349967956542969 0.91105508804321289062 1.4347891807556152344 2.7881495952606201172 2.8742620944976806641 2.9745635986328125 3.7018544673919677734 3.3183820247650146484 3.74835968017578125 1.132563471794128418 1.2816101312637329102 1.8517850637435913086 1.9535932540893554688 1.7543786764144897461 2.3188605308532714844 3.2682712078094482422 2.8105452060699462891 2.7916152477264404297 2.5352694988250732422 2.0487458705902099609 2.3896775245666503906 2.5971415042877197266 2.7598888874053955078 2.7909519672393798828 2.8056230545043945312 3.1734280586242675781 2.774913787841796875 2.7558231353759765625 2.8572986125946044922 3.0754487514495849609 3.3326046466827392578 4.2946114540100097656 3.2850141525268554688 2.7461996078491210938 
0.94462740421295166016 1.7450727224349975586 4.9785199165344238281 11.088713645935058594 1.9748980998992919922 3.0826425552368164062 4.523571014404296875 2.338348388671875 2.556140899658203125 5.0210995674133300781 3.2032902240753173828 4.5705323219299316406 2.4198136329650878906 3.2070000171661376953 1.8500517606735229492 1.3176250457763671875 1.9580061435699462891 2.6857771873474121094 2.6408524513244628906 2.9783480167388916016 7.0985379219055175781 2.6978197097778320312 2.7049100399017333984 2.9321494102478027344 5.6779489517211914062 2.6008505821228027344 3.0801017284393310547 3.3353834152221679688 4.8146977424621582031 1.5604999065399169922 1.6872873306274414062 2.0852398872375488281 2.0284771919250488281 2.2573125362396240234 3.2070000171661376953 3.2070000171661376953 3.2379977703094482422 2.8124082088470458984 3.2905328273773193359 3.3947706222534179688 2.7327425479888916016 2.7988252639770507812 2.8070533275604248047 2.8231325149536132812 2.8109695911407470703 2.8000838756561279297 2.8122045993804931641 2.8096220493316650391 2.8018159866333007812 2.8132877349853515625 3.1602394580841064453 2.4799304008483886719 0.75290262699127197266 0.7570673823356628418 0.75335109233856201172 2.6900413036346435547 5.2064709663391113281 3.1551461219787597656 2.9795267581939697266 3.4444434642791748047 6.6120653152465820312 6.7075281143188476562 3.4902434349060058594 0.99697321653366088867 2.5376522541046142578 3.2331907749176025391 4.2198443412780761719 3.5802679061889648438 4.0897059440612792969 2.76631927490234375 2.7640435695648193359 2.3425536155700683594 2.2909359931945800781 1.6039999723434448242 2.0955481529235839844 2.6990838050842285156 4.9290251731872558594 5.5600252151489257812 2.7842690944671630859 2.7645280361175537109 2.7815010547637939453 2.7704615592956542969 2.7651860713958740234 2.7640564441680908203 2.7685823440551757812 2.7728090286254882812 2.7851805686950683594 
2.0870366096496582031 1.5555020570755004883 2.5870916843414306641 2.0708057880401611328 2.4592936038970947266 2.6203153133392333984 2.6993334293365478516 3.1442852020263671875 2.5837712287902832031 3.2134950160980224609 6.4940195083618164062 5.7544188499450683594 3.3529956340789794922 3.1534864902496337891 3.0284752845764160156 2.7991847991943359375 1.3360307216644287109 2.6602756977081298828 2.7071847915649414062 3.6344416141510009766 5.0648708343505859375 1.8301302194595336914 1.2437700033187866211 3.4835321903228759766 4.4978499412536621094 3.0444793701171875 2.3144433498382568359 1.1931588649749755859 3.1792399883270263672 2.8542647361755371094 2.7828783988952636719 2.8007893562316894531 2.7794024944305419922 3.4504709243774414062 2.0578718185424804688 2.9218554496765136719 3.6588313579559326172 2.4719173908233642578 3.7824914455413818359 2.7667112350463867188 2.7917647361755371094 2.7377882003784179688 2.7975683212280273438 2.7914853096008300781 2.7921526432037353516 2.7966179847717285156 2.7626836299896240234 2.7849175930023193359 2.78142547607421875 2.7821443080902099609 4.5284414291381835938 3.3971087932586669922 0.67644441127777099609 0.37209799885749816895 2.37516021728515625 5.4884920120239257812 3.728916168212890625 3.2070000171661376953 4.5680451393127441406 2.7442870140075683594 3.2454113960266113281 2.8402345180511474609 4.8360872268676757812 1.1185443401336669922 4.5315051078796386719 4.370006561279296875 2.9039907455444335938 3.6743683815002441406 2.7557413578033447266 2.7975416183471679688 2.7667088508605957031 2.7717032432556152344 4.7196092605590820312 3.7960834503173828125 2.2746112346649169922 2.8260617256164550781 2.8910198211669921875 2.7654335498809814453 2.7731075286865234375 2.770816802978515625 2.764301300048828125 2.7794654369354248047 2.7673404216766357422 2.7768185138702392578 2.7883954048156738281 2.7917845249176025391 2.7990345954895019531 
3.1870093345642089844 2.2201340198516845703 4.3317432403564453125 2.305755615234375 1.643347620964050293 0.90731734037399291992 2.1356527805328369141 2.9732046127319335938 5.4858655929565429688 10.670414924621582031 5.5997366905212402344 5.1307511329650878906 2.6933531761169433594 2.8576264381408691406 2.8767368793487548828 3.4401926994323730469 1.6163691282272338867 1.6593414545059204102 1.9709074497222900391 1.877856135368347168 3.1255645751953125 0.52479648590087890625 0.97959339618682861328 2.6901652812957763672 6.7782745361328125 3.0556433200836181641 2.1657130718231201172 2.8136391639709472656 3.5509586334228515625 3.0125873088836669922 2.7640583515167236328 2.7937221527099609375 2.78778839111328125 4.2088379859924316406 2.1299908161163330078 1.2259814739227294922 2.4598224163055419922 2.1544461250305175781 4.1138825416564941406 2.8118405342102050781 2.7867910861968994141 2.7997303009033203125 2.8284139633178710938 2.8056578636169433594 2.8134810924530029297 2.7905991077423095703 2.7679355144500732422 2.7768948078155517578 2.7767052650451660156 2.781986236572265625 3.2934184074401855469 4.9835939407348632812 0.83569657802581787109 1.7703431844711303711 3.0816445350646972656 3.2070000171661376953 3.6735625267028808594 5.2480235099792480469 5.7643733024597167969 4.1829919815063476562 4.1358122825622558594 1.5091603994369506836 4.806377410888671875 7.1304774284362792969 3.1833698749542236328 2.8729329109191894531 2.7665309906005859375 2.7783329486846923828 2.7697849273681640625 2.7850954532623291016 2.1610410213470458984 2.4731762409210205078 2.3546388149261474609 3.8768956661224365234 2.9449877738952636719 2.7943747043609619141 2.7660250663757324219 2.7736754417419433594 2.7787048816680908203 2.7784018516540527344 2.76459503173828125 2.7840917110443115234 2.7981064319610595703 2.7990806102752685547 2.79742431640625 2.7737932205200195312 2.7582182884216308594 
1.9533613920211791992 3.5090842247009277344 4.2897548675537109375 1.4828528165817260742 1.8726284503936767578 0.37209799885749816895 1.5403761863708496094 1.8025517463684082031 1.3268479108810424805 8.4499406814575195312 6.9930353164672851562 11.022456169128417969 2.9154248237609863281 2.8966250419616699219 2.8361847400665283203 3.2070000171661376953 2.5502889156341552734 1.965607762336730957 2.2232999801635742188 2.2354500293731689453 9.2452363967895507812 0.37209799885749816895 1.2760455608367919922 3.8320102691650390625 4.2300972938537597656 3.4138455390930175781 2.4782207012176513672 4.0274505615234375 2.7807886600494384766 2.7767693996429443359 2.3443660736083984375 2.1989352703094482422 5.7361917495727539062 5.1988162994384765625 1.1294538974761962891 0.67155951261520385742 2.4488971233367919922 5.5608606338500976562 3.8013975620269775391 2.8153808116912841797 2.7949967384338378906 2.8156638145446777344 2.7941296100616455078 5.4558687210083007812 5.9271116256713867188 4.6275911331176757812 4.1767015457153320312 6.03998565673828125 4.1898999214172363281 7.7051148414611816406 4.7583041191101074219 3.7431440353393554688 3.7151772975921630859 3.4939205646514892578 3.7495396137237548828 7.0348696708679199219 9.519680023193359375 7.493610382080078125 9.6177682876586914062 9.2593717575073242188 6.5452241897583007812 3.1061911582946777344 2.7771396636962890625 2.7743599414825439453 2.7357251644134521484 2.7387702465057373047 2.7415206432342529297 2.7504377365112304688 2.7805228233337402344 1.725037693977355957 0.52324634790420532227 2.5052092075347900391 2.0627288818359375 2.7921168804168701172 2.9013566970825195312 2.7775638103485107422 2.7786188125610351562 2.7747826576232910156 2.7703907489776611328 2.7794616222381591797 2.7818136215209960938 2.7721517086029052734 2.8048250675201416016 2.7843286991119384766 2.7950370311737060547 2.6336407661437988281 1.9071184396743774414 
1.8804879188537597656 4.8360643386840820312 3.1863551139831542969 2.4647698402404785156 1.1438915729522705078 1.1356561183929443359 0.6711559295654296875 0.88908284902572631836 0.37209799885749816895 4.4927563667297363281 4.9151515960693359375 10.158100128173828125 2.7522370815277099609 2.8607497215270996094 2.7702937126159667969 2.8941669464111328125 2.0431015491485595703 2.2382502555847167969 1.8455855846405029297 7.2029337882995605469 10.027311325073242188 2.3353369235992431641 1.723563075065612793 8.762165069580078125 4.600830078125 3.9263257980346679688 2.6444387435913085938 3.1040785312652587891 2.72063446044921875 2.7879369258880615234 1.421417236328125 3.9579448699951171875 6.6254572868347167969 9.412097930908203125 0.67744362354278564453 0.37209799885749816895 2.1723508834838867188 3.0603153705596923828 3.7642328739166259766 6.2706456184387207031 3.4021027088165283203 2.7878942489624023438 2.7552716732025146484 2.7591111660003662109 5.4626007080078125 3.6791546344757080078 2.7751822471618652344 3.4171934127807617188 3.1879172325134277344 4.9810891151428222656 4.5773472785949707031 7.8107428550720214844 8.7859926223754882812 5.668567657470703125 3.4141082763671875 5.4050540924072265625 3.7939496040344238281 1.8587442636489868164 3.3900926113128662109 6.0067234039306640625 2.7871601581573486328 2.767547607421875 2.7841665744781494141 2.7722377777099609375 2.7661292552947998047 2.74261474609375 2.7594685554504394531 2.7554690837860107422 2.0132937431335449219 0.8267682194709777832 2.3117411136627197266 2.8013880252838134766 2.4801430702209472656 2.7879757881164550781 3.0044286251068115234 2.8174653053283691406 2.7974495887756347656 2.7881886959075927734 2.7895660400390625 2.7593584060668945312 2.7757923603057861328 2.7839701175689697266 2.7912669181823730469 2.7806403636932373047 2.7998728752136230469 1.6452534198760986328 1.884661555290222168 
1.1054085493087768555 4.7024092674255371094 7.4052023887634277344 4.2713775634765625 9.4038753509521484375 2.8131375312805175781 1.1281319856643676758 3.6385860443115234375 2.8456902503967285156 2.3676207065582275391 5.6256766319274902344 2.8228180408477783203 2.7830576896667480469 2.6920833587646484375 2.8236286640167236328 2.8484370708465576172 2.5215296745300292969 0.84785538911819458008 2.4549183845520019531 15.353848457336425781 4.6212291717529296875 4.4257721900939941406 2.7880597114562988281 2.8041136264801025391 2.7763273715972900391 2.8175127506256103516 2.8038699626922607422 2.8106992244720458984 2.7927107810974121094 1.9760951995849609375 1.5872064828872680664 5.7717766761779785156 8.41527557373046875 4.0659017562866210938 0.79772353172302246094 0.37209799885749816895 1.0960291624069213867 2.1716966629028320312 2.7890245914459228516 3.2702426910400390625 2.7766537666320800781 2.7817296981811523438 2.7555675506591796875 2.7687928676605224609 2.7947747707366943359 2.7758669853210449219 2.7957248687744140625 2.7898206710815429688 2.8126299381256103516 2.6485180854797363281 2.7930533885955810547 2.7873470783233642578 2.7562527656555175781 2.7692434787750244141 2.7633945941925048828 2.7864489555358886719 2.787441253662109375 0.52324634790420532227 2.3175733089447021484 2.0259947776794433594 2.3271851539611816406 2.7474915981292724609 2.7622158527374267578 2.7577912807464599609 2.7574105262756347656 2.7708156108856201172 2.7855324745178222656 2.7756457328796386719 1.5732833147048950195 1.4307521581649780273 1.4192702770233154297 1.2789882421493530273 2.6102418899536132812 2.7577898502349853516 2.8091943264007568359 2.7950761318206787109 2.7932865619659423828 2.7917058467864990234 2.8078160285949707031 2.8006534576416015625 2.7993707656860351562 2.8064305782318115234 2.7983951568603515625 2.4922420978546142578 2.2612290382385253906 2.3602609634399414062 4.0860776901245117188 
2.7308237552642822266 6.1961412429809570312 7.0708570480346679688 8.0719785690307617188 6.2761750221252441406 6.3607687950134277344 1.6683291196823120117 2.8171436786651611328 5.7102313041687011719 3.2159328460693359375 2.3304324150085449219 2.7929155826568603516 2.8583354949951171875 2.09212493896484375 3.0816357135772705078 1.4095406532287597656 1.4859507083892822266 1.1263155937194824219 2.4881966114044189453 1.5328541994094848633 1.9219053983688354492 2.0376255512237548828 2.6782956123352050781 2.4642572402954101562 3.66562652587890625 3.7811934947967529297 3.2789182662963867188 2.82328033447265625 5.8130021095275878906 6.4171848297119140625 3.2390818595886230469 4.6981878280639648438 5.7909708023071289062 0.67428052425384521484 0.7570673823356628418 0.37209799885749816895 1.3476930856704711914 3.0494744777679443359 2.7662632465362548828 2.7767245769500732422 2.7705380916595458984 2.7738575935363769531 1.8687921762466430664 2.7785310745239257812 2.7813355922698974609 2.7812068462371826172 2.8065407276153564453 2.7969310283660888672 2.8115227222442626953 2.809452056884765625 2.7944204807281494141 2.7822372913360595703 2.7859816551208496094 2.7757515907287597656 2.7688193321228027344 1.4248374700546264648 0.52223610877990722656 0.52064788341522216797 2.1594612598419189453 0.37209799885749816895 1.4110164642333984375 2.7532534599304199219 2.7616279125213623047 2.7572257518768310547 2.7457964420318603516 2.7462289333343505859 2.76397705078125 2.6266312599182128906 1.7286589145660400391 0.98438465595245361328 0.67712062597274780273 0.52324634790420532227 2.7562968730926513672 2.7590947151184082031 2.7981457710266113281 2.7888560295104980469 2.8072550296783447266 2.8188617229461669922 2.7722220420837402344 2.8200151920318603516 2.8186998367309570312 2.8033194541931152344 2.7922053337097167969 2.4251666069030761719 2.5000150203704833984 5.9789838790893554688 7.7889928817749023438 
3.0792331695556640625 2.8241527080535888672 3.1484134197235107422 0.87688529491424560547 2.6941213607788085938 2.7706279754638671875 3.1918647289276123047 3.1965322494506835938 4.0786957740783691406 3.3110821247100830078 2.2121987342834472656 2.9495806694030761719 3.1642589569091796875 5.0428204536437988281 2.720661163330078125 2.3022825717926025391 2.2518639564514160156 1.8224117755889892578 3.0361208915710449219 2.8694515228271484375 2.5689189434051513672 2.7755169868469238281 3.0438985824584960938 2.9733552932739257812 3.0120222568511962891 5.5797882080078125 5.8427929878234863281 4.5139665603637695312 4.2466020584106445312 4.9913077354431152344 3.2914574146270751953 4.2535090446472167969 2.2129235267639160156 0.68007349967956542969 0.44909188151359558105 0.37209799885749816895 0.44927942752838134766 3.2683086395263671875 2.7748067378997802734 2.7674946784973144531 2.7817511558532714844 2.7835824489593505859 2.6076848506927490234 2.7690248489379882812 2.787616729736328125 2.8055756092071533203 2.7970035076141357422 2.4818966388702392578 2.7982089519500732422 2.6314949989318847656 2.6380693912506103516 2.770050048828125 2.7705333232879638672 2.7610785961151123047 2.6143715381622314453 0.7570673823356628418 0.44909188151359558105 0.90017932653427124023 1.5635342597961425781 0.37209799885749816895 0.67078596353530883789 2.7667143344879150391 2.7648150920867919922 2.7759580612182617188 2.7551805973052978516 2.7683508396148681641 2.76287841796875 0.97294420003890991211 0.37209799885749816895 2.1859707832336425781 1.7367181777954101562 2.0289947986602783203 2.7670915126800537109 2.7498462200164794922 2.7698826789855957031 2.7784910202026367188 2.7929944992065429688 2.7940061092376708984 3.2933096885681152344 2.8007864952087402344 3.4440848827362060547 2.7931163311004638672 2.7916834354400634766 2.7954187393188476562 2.7627229690551757812 4.2463159561157226562 2.7757458686828613281 
2.4337534904479980469 2.4584848880767822266 2.4215285778045654297 0.87696880102157592773 1.7236856222152709961 2.6472246646881103516 3.4565584659576416016 4.5814275741577148438 2.2577161788940429688 2.5815942287445068359 3.3409497737884521484 4.3800597190856933594 3.1107692718505859375 2.6776087284088134766 3.0348269939422607422 2.8702859878540039062 2.8200826644897460938 1.8917671442031860352 2.6087810993194580078 2.4232854843139648438 2.5012497901916503906 3.2070000171661376953 3.1153812408447265625 2.890655517578125 2.7582752704620361328 2.9802827835083007812 2.1461656093597412109 5.4688444137573242188 5.7903089523315429688 7.1812648773193359375 5.0426511764526367188 5.3588709831237792969 5.4489374160766601562 3.1219882965087890625 2.1583657264709472656 2.3343520164489746094 1.6686815023422241211 2.7565400600433349609 2.7645194530487060547 2.7747683525085449219 2.7768588066101074219 2.7772264480590820312 2.8250529766082763672 2.7650365829467773438 2.7998692989349365234 2.8075947761535644531 2.8051166534423828125 2.6456851959228515625 1.8831706047058105469 2.8004403114318847656 2.7718183994293212891 2.6115498542785644531 2.1743159294128417969 2.4562389850616455078 2.01740264892578125 0.67285466194152832031 0.37209799885749816895 0.51972860097885131836 0.52064788341522216797 0.37209799885749816895 0.37209799885749816895 2.7664055824279785156 2.7842931747436523438 2.7660696506500244141 2.5931138992309570312 2.7816503047943115234 1.8691039085388183594 0.37209799885749816895 1.1272497177124023438 2.0172030925750732422 2.7858283519744873047 2.8011598587036132812 2.7602624893188476562 2.7836902141571044922 2.2974755764007568359 2.9758119583129882812 2.7942402362823486328 4.5341730117797851562 8.7404317855834960938 6.2159852981567382812 3.7925977706909179688 2.7709269523620605469 2.7820301055908203125 2.7843616008758544922 2.7815330028533935547 2.7617573738098144531 2.7584357261657714844 
2.598171234130859375 0.9598458409309387207 2.4869115352630615234 2.0911247730255126953 2.8272228240966796875 2.9942135810852050781 4.8523111343383789062 3.4024701118469238281 2.7890880107879638672 2.9647340774536132812 2.7579777240753173828 3.2605128288269042969 2.1928620338439941406 2.8526372909545898438 1.9667303562164306641 3.1809017658233642578 2.4714941978454589844 1.8060595989227294922 2.8998510837554931641 3.1075818538665771484 3.3053228855133056641 3.0312085151672363281 1.7937067747116088867 1.9300445318222045898 2.7187662124633789062 2.7795443534851074219 2.0970127582550048828 5.7876820564270019531 5.4507513046264648438 4.9604129791259765625 3.1368749141693115234 4.814395904541015625 4.1701679229736328125 4.1461963653564453125 2.8493742942810058594 2.2675068378448486328 2.1527113914489746094 2.775287628173828125 2.7114241123199462891 2.7919449806213378906 2.784496307373046875 2.7700552940368652344 2.8270728588104248047 2.7817144393920898438 2.7949290275573730469 2.8065536022186279297 2.805492401123046875 2.7938263416290283203 2.7845771312713623047 2.7550756931304931641 1.5705780982971191406 2.4932119846343994141 2.8025631904602050781 2.7755651473999023438 2.7793266773223876953 2.6038174629211425781 1.8688565492630004883 2.7637295722961425781 0.8188597559928894043 0.67606484889984130859 1.8722995519638061523 2.4498951435089111328 2.6113617420196533203 2.5576312541961669922 2.4748096466064453125 2.0188717842102050781 1.4228988885879516602 0.37209799885749816895 0.82117736339569091797 2.7840662002563476562 2.7895052433013916016 2.7779364585876464844 2.7879750728607177734 2.8164553642272949219 1.6809751987457275391 1.4429739713668823242 1.8677239418029785156 2.7745044231414794922 2.7746460437774658203 2.7685289382934570312 2.7500514984130859375 2.7622067928314208984 2.8050711154937744141 2.7960917949676513672 2.7694017887115478516 2.7717216014862060547 2.7677164077758789062 
3.0718059539794921875 0.37209799885749816895 0.37209799885749816895 3.9527087211608886719 3.9330780506134033203 2.7579798698425292969 2.7632412910461425781 3.1556627750396728516 2.6946632862091064453 2.9966654777526855469 2.7340714931488037109 3.3620014190673828125 3.2523360252380371094 2.7279875278472900391 2.8575911521911621094 3.2070000171661376953 2.3887455463409423828 1.6075538396835327148 2.7870218753814697266 3.0165226459503173828 2.9649715423583984375 2.7315905094146728516 2.1739940643310546875 1.2234376668930053711 3.759403228759765625 3.0197947025299072266 2.7379677295684814453 5.4309439659118652344 6.0282850265502929688 3.2957637310028076172 2.9053595066070556641 4.5527586936950683594 4.814395904541015625 4.9137711524963378906 4.1732525825500488281 1.6198980808258056641 2.9424467086791992188 2.6978566646575927734 2.7824704647064208984 2.9208395481109619141 2.9125859737396240234 2.7961306571960449219 2.8114678859710693359 2.7915008068084716797 2.3523318767547607422 2.6532962322235107422 2.6252217292785644531 2.7838582992553710938 2.6205153465270996094 1.6992479562759399414 0.82751733064651489258 2.7842884063720703125 2.3357665538787841797 2.7909438610076904297 2.7933146953582763672 2.7803385257720947266 2.1825497150421142578 2.1342952251434326172 0.67290437221527099609 1.2858370542526245117 1.1341997385025024414 2.7849316596984863281 2.7801799774169921875 2.7949292659759521484 1.5415951013565063477 0.37209799885749816895 0.37209799885749816895 1.1214482784271240234 1.1205636262893676758 2.7804338932037353516 2.7805988788604736328 2.7760176658630371094 2.8122489452362060547 2.8049485683441162109 1.8274357318878173828 0.22312499582767486572 2.3389799594879150391 2.7688014507293701172 2.7763085365295410156 2.7835824489593505859 2.7651040554046630859 2.7624402046203613281 2.7570734024047851562 2.7667260169982910156 2.7814946174621582031 2.4762277603149414062 2.1720993518829345703 
3.2143723964691162109 0.37209799885749816895 0.37209799885749816895 1.7674242258071899414 2.76660919189453125 2.7259500026702880859 3.371318817138671875 4.4685468673706054688 3.3594546318054199219 2.5744488239288330078 2.4998128414154052734 3.1674413681030273438 3.3074622154235839844 3.2319931983947753906 2.8540511131286621094 2.9930806159973144531 2.8653786182403564453 2.9787757396697998047 3.0771000385284423828 2.7664358615875244141 2.9599406719207763672 2.6092288494110107422 1.9254937171936035156 2.6706497669219970703 6.7232260704040527344 3.5561804771423339844 2.4574897289276123047 4.1696162223815917969 8.5691080093383789062 3.3061947822570800781 3.1440293788909912109 3.9912688732147216797 4.6785383224487304688 3.7552394866943359375 3.8953244686126708984 2.2917337417602539062 2.8065831661224365234 2.6704385280609130859 2.7428240776062011719 2.791149139404296875 2.7866806983947753906 2.7815005779266357422 2.7615745067596435547 2.7745025157928466797 2.6208095550537109375 2.6396849155426025391 1.7231260538101196289 1.8931838274002075195 0.37209799885749816895 1.4226306676864624023 0.67029941082000732422 2.7670629024505615234 2.7673411369323730469 2.7929937839508056641 2.4691934585571289062 2.4853572845458984375 2.7080948352813720703 1.4010981321334838867 2.1788995265960693359 2.8032736778259277344 2.8033423423767089844 2.7958359718322753906 2.7912614345550537109 2.8045368194580078125 1.7243975400924682617 1.5699533224105834961 1.2700757980346679688 2.7777860164642333984 2.4728651046752929688 2.7909495830535888672 2.7832131385803222656 2.7799375057220458984 2.8063116073608398438 2.8015084266662597656 1.5335025787353515625 1.2556334733963012695 3.0666878223419189453 2.7797455787658691406 2.7846736907958984375 2.7817735671997070312 2.7563216686248779297 2.7594065666198730469 2.7523608207702636719 2.7664549350738525391 1.8771554231643676758 0.52481746673583984375 0.97669148445129394531 
2.1945555210113525391 0.37209799885749816895 0.37209799885749816895 1.5874972343444824219 2.7504777908325195312 2.70565032958984375 3.6564474105834960938 3.2462985515594482422 2.6974034309387207031 1.2362148761749267578 1.8242383003234863281 3.2070000171661376953 3.1809699535369873047 2.9345464706420898438 3.0411098003387451172 3.2070000171661376953 3.1522703170776367188 2.5711252689361572266 2.4493033885955810547 2.9617028236389160156 2.3791003227233886719 2.2366268634796142578 2.7072207927703857422 2.7682557106018066406 4.8836345672607421875 2.98896026611328125 2.6065390110015869141 3.3300874233245849609 7.159534454345703125 4.2643494606018066406 2.9307522773742675781 4.1400594711303710938 4.2899155616760253906 3.4431283473968505859 1.9335417747497558594 4.0386338233947753906 2.6844358444213867188 2.7032709121704101562 2.7663056850433349609 2.7624795436859130859 2.7747428417205810547 2.8145506381988525391 2.8741266727447509766 2.7928242683410644531 2.3566565513610839844 1.7260330915451049805 0.67487263679504394531 0.37209799885749816895 0.37209799885749816895 0.52443641424179077148 0.81960088014602661133 2.7818102836608886719 2.7895476818084716797 2.7830545902252197266 2.7973933219909667969 2.7802166938781738281 2.7968180179595947266 2.7877089977264404297 2.7849001884460449219 2.8115661144256591797 2.7972409725189208984 2.8288133144378662109 2.8088469505310058594 2.8045229911804199219 2.7904996871948242188 2.7939295768737792969 2.7917935848236083984 2.7876391410827636719 2.7726995944976806641 2.7907435894012451172 2.7969727516174316406 2.8057396411895751953 2.8180742263793945312 2.2707800865173339844 0.4198125004768371582 2.6785235404968261719 2.8206267356872558594 2.7681784629821777344 2.77797698974609375 2.7749259471893310547 2.7708938121795654297 2.6140284538269042969 2.7870829105377197266 2.7733166217803955078 2.7761571407318115234 2.7807941436767578125 1.573202967643737793 
0.37209799885749816895 0.37209799885749816895 0.37209799885749816895 1.8829553127288818359 2.7317249774932861328 2.7291681766510009766 2.7626011371612548828 2.6928253173828125 2.3578042984008789062 1.0808235406875610352 2.3941543102264404297 3.2070000171661376953 2.9404742717742919922 2.4349644184112548828 3.0985724925994873047 3.2070000171661376953 2.713191986083984375 2.1193246841430664062 3.0173122882843017578 3.455364227294921875 2.6565489768981933594 2.5996637344360351562 2.6537930965423583984 2.7044916152954101562 2.8004634380340576172 4.0825314521789550781 2.7218344211578369141 3.641330718994140625 7.5074982643127441406 4.1802210807800292969 2.7790400981903076172 4.0035319328308105469 4.2649188041687011719 3.1302049160003662109 2.6822896003723144531 1.5841021537780761719 2.1877374649047851562 2.7747457027435302734 2.7244179248809814453 2.7180306911468505859 2.7866365909576416016 2.7860999107360839844 2.8855273723602294922 2.7887897491455078125 2.415569305419921875 0.37209799885749816895 0.37209799885749816895 0.37209799885749816895 0.37209799885749816895 0.37209799885749816895 0.67677485942840576172 2.7901988029479980469 2.7816133499145507812 2.7973186969757080078 2.7858302593231201172 2.7915720939636230469 2.8253173828125 2.8227214813232421875 3.0670378208160400391 2.8376169204711914062 2.8376169204711914062 2.8379497528076171875 2.8186445236206054688 2.8376169204711914062 2.8105099201202392578 2.8319375514984130859 2.8078188896179199219 2.7836055755615234375 2.7899930477142333984 2.8019413948059082031 2.7846775054931640625 2.7736020088195800781 2.6440172195434570312 0.9629999995231628418 0.40524998307228088379 2.7327356338500976562 2.7793602943420410156 2.7744488716125488281 2.7807893753051757812 1.5843219757080078125 1.5753631591796875 1.2604805231094360352 1.8422715663909912109 2.7742054462432861328 2.7688670158386230469 2.7743716239929199219 0.37209799885749816895 
