ncols        19
nrows        23
xllcorner    508536.404131802963
yllcorner    5265348.997906560078
cellsize     570.000000000000
NODATA_value -9999
0.27599999308586120605 0.27599999308586120605 0.27599999308586120605 0.27599999308586120605 0.27599999308586120605 0.27599999308586120605 0.27599999308586120605 0.28058668971061706543 0.27599999308586120605 0.27599999308586120605 0.27599999308586120605 0.27599999308586120605 0.30198946595191955566 0.34352374076843261719 0.38936409354209899902 0.73645567893981933594 0.61975014209747314453 0.56674820184707641602 0.36798772215843200684 
0.27599999308586120605 0.27599999308586120605 0.27599999308586120605 0.27599999308586120605 0.27599999308586120605 0.27778393030166625977 0.31549665331840515137 0.29383739829063415527 0.27599999308586120605 0.27599999308586120605 0.2887401580810546875 0.29281827807426452637 0.41655334830284118652 0.41909554600715637207 0.3676941990852355957 0.69288361072540283203 0.52113515138626098633 0.63198059797286987305 0.47127541899681091309 
0.27599999308586120605 0.27599999308586120605 0.27599999308586120605 0.27599999308586120605 0.27599999308586120605 0.28517258167266845703 0.33664625883102416992 0.27599999308586120605 0.27599999308586120605 0.28848615288734436035 0.49565398693084716797 0.36416870355606079102 0.39066803455352783203 0.57082599401473999023 0.4102993011474609375 0.47501382231712341309 0.46023350954055786133 0.34250691533088684082 0.45029297471046447754 
0.27599999308586120605 0.27599999308586120605 0.27599999308586120605 0.27829334139823913574 0.29536482691764831543 0.33282324671745300293 0.36824208498001098633 0.29026952385902404785 0.31931909918785095215 0.34123352169990539551 0.36467701196670532227 0.38327616453170776367 0.55045902729034423828 0.57819181680679321289 0.33080211281776428223 0.44451791048049926758 0.4011160433292388916 0.32263129949569702148 0.45836490392684936523 
0.27599999308586120605 0.27599999308586120605 0.29205346107482910156 0.28186064958572387695 0.28389915823936462402 0.36314848065376281738 0.61567032337188720703 0.30657809972763061523 0.31753462553024291992 0.2889944612979888916 0.31447505950927734375 0.37970969080924987793 0.56827586889266967773 0.33546867966651916504 0.39011263847351074219 0.33582517504692077637 0.44884407520294189453 0.27880275249481201172 0.3002052605152130127 
0.29281827807426452637 0.37334069609642028809 0.40850496292114257812 0.2785479128360748291 0.29332658648490905762 0.37436091899871826172 0.55731797218322753906 0.4408664703369140625 0.31396758556365966797 0.30835926532745361328 0.31269362568855285645 0.33882224559783935547 0.57820075750350952148 0.31049484014511108398 0.28081336617469787598 0.27705341577529907227 0.34987413883209228516 0.312183380126953125 0.2840684056282043457 
0.35015207529067993164 0.62586283683776855469 0.34250748157501220703 0.31065538525581359863 0.33078420162200927734 0.43602463603019714355 0.38684570789337158203 0.35753905773162841797 0.34250774979591369629 0.33435291051864624023 0.3162606656551361084 0.30556815862655639648 0.63866126537322998047 0.30607268214225769043 0.27599999308586120605 0.28874546289443969727 0.29899728298187255859 0.29995179176330566406 0.5083929896354675293 
0.47424873709678649902 0.57897782325744628906 0.28058668971061706543 0.32670858502388000488 0.34658503532409667969 0.36696922779083251953 0.34378144145011901855 0.50227922201156616211 0.46864235401153564453 0.48061057925224304199 0.36235031485557556152 0.45309218764305114746 0.84527784585952758789 0.28741928935050964355 0.28377294540405273438 0.31509530544281005859 0.29202508926391601562 0.47169861197471618652 0.33409824967384338379 
0.44800302386283874512 0.56012076139450073242 0.27599999308586120605 0.29230830073356628418 0.34148862957954406738 0.41971743106842041016 0.41334652900695800781 0.41283047199249267578 0.32786318659782409668 0.33712467551231384277 0.30085402727127075195 0.41758808493614196777 0.50846010446548461914 0.36568820476531982422 0.2872257530689239502 0.31753170490264892578 0.27599999308586120605 0.54687005281448364258 0.43577015399932861328 
0.32365235686302185059 0.40672215819358825684 0.35652297735214233398 0.27599999308586120605 0.42608779668807983398 0.34683960676193237305 0.40952408313751220703 0.32262852787971496582 0.28398436307907104492 0.30122256278991699219 0.6257775425910949707 0.32184606790542602539 0.56440269947052001953 0.41089776158332824707 0.4296086430549621582 0.28647974133491516113 0.31141936779022216797 0.40340828895568847656 0.88603156805038452148 
0.27931272983551025391 0.5099232792854309082 0.36060026288032531738 0.27829334139823913574 0.3277282416820526123 0.34709390997886657715 0.41997230052947998047 0.40439212322235107422 0.43351572751998901367 0.29815691709518432617 0.27748835086822509766 0.53803026676177978516 0.38831278681755065918 0.37246853113174438477 0.50584208965301513672 0.3335844874382019043 0.3213545680046081543 0.33868503570556640625 0.27599999308586120605 
0.32951191067695617676 0.42354071140289306641 0.30402824282646179199 0.35626757144927978516 0.37410414218902587891 0.4025751948356628418 0.30089923739433288574 0.30423465371131896973 0.36864641308784484863 0.35119128227233886719 0.28345856070518493652 0.4884223639965057373 0.52542078495025634766 0.35652461647987365723 0.45080497860908508301 0.28950470685958862305 0.28670191764831542969 0.29230803251266479492 0.29213684797286987305 
0.4829127192497253418 0.3244152367115020752 0.37078779935836791992 0.33562493324279785156 0.2968145906925201416 0.27599999308586120605 0.30918544530868530273 0.28897973895072937012 0.33518680930137634277 0.29101213812828063965 0.27599999308586120605 0.34200519323348999023 0.53636711835861206055 0.38802060484886169434 0.34913268685340881348 0.4153855741024017334 0.29816925525665283203 0.35168087482452392578 0.30827718973159790039 
0.42863598465919494629 0.36824238300323486328 0.41068595647811889648 0.29655069112777709961 0.34461104869842529297 0.48407021164894104004 0.48162233829498291016 0.38451874256134033203 0.33268603682518005371 0.30936232209205627441 0.28099945187568664551 0.27599999308586120605 0.39081314206123352051 0.49488779902458190918 0.41487365961074829102 0.31906148791313171387 0.28135067224502563477 0.27599999308586120605 0.34862279891967773438 
0.30606868863105773926 0.37219256162643432617 0.29218879342079162598 1.0204142332077026367 0.85977691411972045898 0.38092499971389770508 0.32286188006401062012 0.56167995929718017578 0.30003657937049865723 0.4207274019718170166 0.35932493209838867188 0.41181743144989013672 0.3310407102108001709 0.47424790263175964355 0.3486232459545135498 0.32416036725044250488 0.34378060698509216309 0.40519249439239501953 0.38574209809303283691 
0.39423543214797973633 0.36306071281433105469 0.32328590750694274902 0.61557656526565551758 0.47151026129722595215 0.2855160832405090332 0.68396705389022827148 0.48378586769104003906 0.31498697400093078613 0.3320553898811340332 0.39091578125953674316 0.51321160793304443359 0.40850496292114257812 0.30581355094909667969 0.39984181523323059082 0.35856091976165771484 0.48291188478469848633 0.58815121650695800781 0.27599999308586120605 
0.31141966581344604492 0.34131249785423278809 1.0176042318344116211 0.34308508038520812988 0.46123835444450378418 0.31624373793601989746 0.59110563993453979492 0.42863517999649047852 0.29893350601196289062 0.31294846534729003906 0.32874709367752075195 0.32237616181373596191 0.30708780884742736816 0.28338918089866638184 0.36595097184181213379 0.32084679603576660156 0.32543462514877319336 0.31804460287094116211 0.27599999308586120605 
0.37512409687042236328 0.3578255772590637207 0.50290668010711669922 0.62809538841247558594 0.30232080817222595215 0.31305971741676330566 0.35983461141586303711 0.37791770696640014648 0.28517284989356994629 0.31269362568855285645 0.30097174644470214844 0.30377507209777832031 0.27829334139823913574 0.4237944483757019043 0.39805760979652404785 0.28084152936935424805 0.34913268685340881348 0.31906425952911376953 0.27599999308586120605 
0.41334652900695800781 0.38290268182754516602 0.40508064627647399902 0.27599999308586120605 0.3476136624813079834 0.30543538928031921387 0.28899472951889038086 0.36034402251243591309 0.29307284951210021973 0.33078032732009887695 0.36517894268035888672 0.29918834567070007324 0.31269362568855285645 0.30428475141525268555 0.27599999308586120605 0.29714986681938171387 0.38913875818252563477 0.31294792890548706055 0.27599999308586120605 
0.49132075905799865723 0.36408373713493347168 0.98940312862396240234 0.27599999308586120605 0.33200529217720031738 0.44723406434059143066 0.31040027737617492676 0.61490660905838012695 0.29562103748321533203 0.27599999308586120605 0.30530413985252380371 0.39907422661781311035 0.55426067113876342773 0.34097504615783691406 0.34785372018814086914 0.39957588911056518555 0.34403628110885620117 0.37257587909698486328 0.36314734816551208496 
0.51552879810333251953 0.40970519185066223145 0.41610613465309143066 0.36111119389533996582 0.4080435335636138916 0.33970442414283752441 0.38710081577301025391 0.36289224028587341309 0.31090995669364929199 0.33384346961975097656 0.43475124239921569824 0.55782771110534667969 0.45080468058586120605 0.30428475141525268555 0.27599999308586120605 0.34021383523941040039 0.27599999308586120605 0.28848502039909362793 0.40187543630599975586 
0.39882186055183410645 0.32718193531036376953 0.47778171300888061523 0.48593741655349731445 0.4801082909107208252 0.42761689424514770508 0.35958087444305419922 0.30785122513771057129 0.28058668971061706543 0.28058668971061706543 0.2785479128360748291 0.28491771221160888672 0.27982187271118164062 0.27599999308586120605 0.27599999308586120605 0.28797590732574462891 0.34021300077438354492 0.28058668971061706543 0.28084209561347961426 
0.28144669532775878906 0.29839208722114562988 0.76680850982666015625 0.79888415336608886719 0.35770064592361450195 0.43516576290130615234 0.3201796114444732666 0.29294538497924804688 0.30868026614189147949 0.27599999308586120605 0.27599999308586120605 0.27599999308586120605 0.27599999308586120605 0.27599999308586120605 0.27599999308586120605 0.31775721907615661621 0.27599999308586120605 0.27599999308586120605 0.27599999308586120605 
