ncols        87
nrows        107
xllcorner    508536.404131802963
yllcorner    5265618.997906560078
cellsize     120.000000000000
NODATA_value -9999
0.0021999999880790710449 0.0021999999880790710449 0.0021999999880790710449 0.0021999999880790710449 0.0021999999880790710449 0.0021999999880790710449 0.0021999999880790710449 0.0021999999880790710449 0.0021999999880790710449 0.0021999999880790710449 0.0021999999880790710449 0.0021999999880790710449 0.0021999999880790710449 0.0021999999880790710449 0.0021999999880790710449 0.0021999999880790710449 0.0021999999880790710449 0.0021999999880790710449 0.0021999999880790710449 0.0021999999880790710449 0.0021999999880790710449 0.0021999999880790710449 0.0021999999880790710449 0.0021999999880790710449 0.0021999999880790710449 0.0021999999880790710449 0.0021999999880790710449 0.0021999999880790710449 0.0021999999880790710449 0.0021999999880790710449 0.0021999999880790710449 0.0021999999880790710449 0.0021999999880790710449 0.0021999999880790710449 0.0021999999880790710449 0.0021999999880790710449 0.0021999999880790710449 0.0021999999880790710449 0.0021999999880790710449 0.0021999999880790710449 0.0021999999880790710449 0.0021999999880790710449 0.0021999999880790710449 0.0021999999880790710449 0.0021999999880790710449 0.0021999999880790710449 0.0021999999880790710449 0.0021999999880790710449 0.0021999999880790710449 0.0021999999880790710449 0.0021999999880790710449 0.0021999999880790710449 0.0021999999880790710449 0.0021999999880790710449 0.0021999999880790710449 0.0021999999880790710449 0.0021999999880790710449 0.0021999999880790710449 0.0021999999880790710449 0.0021999999880790710449 0.0021999999880790710449 0.0021999999880790710449 0.0021999999880790710449 0.0021999999880790710449 0.0021999999880790710449 0.0021999999880790710449 0.0021999999880790710449 0.0021999999880790710449 0.0021999999880790710449 0.0021999999880790710449 0.0034374999813735485077 0.0031999999191612005234 0.0041000000201165676117 0.0070749996230006217957 0.0041999998502433300018 0.0033374999184161424637 0.0046749999746680259705 0.0031999999191612005234 0.0030499999411404132843 0.0060749999247491359711 0.0073999995365738868713 0.0041000000201165676117 0.0055249999277293682098 0.0046250000596046447754 0.0043000001460313796997 0.0034000000450760126114 0.0043000001460313796997 
0.0021999999880790710449 0.0021999999880790710449 0.0021999999880790710449 0.0021999999880790710449 0.0021999999880790710449 0.0021999999880790710449 0.0021999999880790710449 0.0021999999880790710449 0.0021999999880790710449 0.0021999999880790710449 0.0021999999880790710449 0.0021999999880790710449 0.0021999999880790710449 0.0021999999880790710449 0.0021999999880790710449 0.0021999999880790710449 0.0021999999880790710449 0.0021999999880790710449 0.0021999999880790710449 0.0021999999880790710449 0.0021999999880790710449 0.0021999999880790710449 0.0021999999880790710449 0.0021999999880790710449 0.0021999999880790710449 0.0021999999880790710449 0.0021999999880790710449 0.0021999999880790710449 0.0021999999880790710449 0.0021999999880790710449 0.0021999999880790710449 0.0021999999880790710449 0.0021999999880790710449 0.0021999999880790710449 0.0021999999880790710449 0.0021999999880790710449 0.0021999999880790710449 0.0021999999880790710449 0.0021999999880790710449 0.0021999999880790710449 0.0021999999880790710449 0.0021999999880790710449 0.0021999999880790710449 0.0021999999880790710449 0.0021999999880790710449 0.0021999999880790710449 0.0021999999880790710449 0.0021999999880790710449 0.0021999999880790710449 0.0021999999880790710449 0.0021999999880790710449 0.0021999999880790710449 0.0021999999880790710449 0.0021999999880790710449 0.0021999999880790710449 0.0021999999880790710449 0.0021999999880790710449 0.0021999999880790710449 0.0021999999880790710449 0.0021999999880790710449 0.0021999999880790710449 0.0026249999646097421646 0.0026249999646097421646 0.0021999999880790710449 0.0021999999880790710449 0.0021999999880790710449 0.00224999990314245224 0.00224999990314245224 0.0027250000275671482086 0.0027250000275671482086 0.0044749998487532138824 0.0047749998047947883606 0.0069749997928738594055 0.0061749997548758983612 0.0074999998323619365692 0.0049499999731779098511 0.0041000000201165676117 0.004900000058114528656 0.0069749997928738594055 0.0082000000402331352234 0.0052749998867511749268 0.002349999966099858284 0.0027250000275671482086 0.0043750000186264514923 0.0027749999426305294037 0.0037249999586492776871 0.0021999999880790710449 
0.0021999999880790710449 0.0021999999880790710449 0.0021999999880790710449 0.0021999999880790710449 0.0021999999880790710449 0.0021999999880790710449 0.0021999999880790710449 0.0021999999880790710449 0.0021999999880790710449 0.0021999999880790710449 0.0021999999880790710449 0.0021999999880790710449 0.0021999999880790710449 0.0021999999880790710449 0.0021999999880790710449 0.0021999999880790710449 0.0021999999880790710449 0.0021999999880790710449 0.0021999999880790710449 0.0021999999880790710449 0.0021999999880790710449 0.0021999999880790710449 0.0021999999880790710449 0.0021999999880790710449 0.0021999999880790710449 0.0021999999880790710449 0.0021999999880790710449 0.0021999999880790710449 0.0021999999880790710449 0.0021999999880790710449 0.0021999999880790710449 0.0021999999880790710449 0.0021999999880790710449 0.0021999999880790710449 0.0021999999880790710449 0.0021999999880790710449 0.0021999999880790710449 0.0021999999880790710449 0.0021999999880790710449 0.0021999999880790710449 0.0021999999880790710449 0.0021999999880790710449 0.0021999999880790710449 0.0021999999880790710449 0.0021999999880790710449 0.0021999999880790710449 0.0021999999880790710449 0.0021999999880790710449 0.0021999999880790710449 0.0021999999880790710449 0.0021999999880790710449 0.0021999999880790710449 0.0021999999880790710449 0.0021999999880790710449 0.0021999999880790710449 0.0021999999880790710449 0.0021999999880790710449 0.0021999999880790710449 0.0021999999880790710449 0.0021999999880790710449 0.0021999999880790710449 0.0021999999880790710449 0.0021999999880790710449 0.0021999999880790710449 0.0021999999880790710449 0.0021999999880790710449 0.0021999999880790710449 0.0021999999880790710449 0.002349999966099858284 0.0030249999836087226868 0.0061249998398125171661 0.0071249995380640029907 0.0082499999552965164185 0.0082499999552965164185 0.0063249999657273292542 0.0041124997660517692566 0.0052249999716877937317 0.0062249996699392795563 0.0041000000201165676117 0.0074499999172985553741 0.0045249997638165950775 0.0041000000201165676117 0.0061249998398125171661 0.0049499999731779098511 0.0057999999262392520905 0.0027749999426305294037 0.0021999999880790710449 
0.0021999999880790710449 0.0021999999880790710449 0.0021999999880790710449 0.0021999999880790710449 0.0021999999880790710449 0.0021999999880790710449 0.0021999999880790710449 0.0021999999880790710449 0.0021999999880790710449 0.0021999999880790710449 0.0021999999880790710449 0.0021999999880790710449 0.0021999999880790710449 0.0021999999880790710449 0.0021999999880790710449 0.0021999999880790710449 0.0021999999880790710449 0.0021999999880790710449 0.0021999999880790710449 0.0021999999880790710449 0.0021999999880790710449 0.0021999999880790710449 0.0021999999880790710449 0.0021999999880790710449 0.0021999999880790710449 0.0021999999880790710449 0.0021999999880790710449 0.0021999999880790710449 0.0021999999880790710449 0.0021999999880790710449 0.0021999999880790710449 0.0021999999880790710449 0.0021999999880790710449 0.0021999999880790710449 0.0021999999880790710449 0.0021999999880790710449 0.0021999999880790710449 0.0021999999880790710449 0.0021999999880790710449 0.0021999999880790710449 0.0021999999880790710449 0.0021999999880790710449 0.0021999999880790710449 0.0021999999880790710449 0.0021999999880790710449 0.0021999999880790710449 0.0021999999880790710449 0.0021999999880790710449 0.0021999999880790710449 0.0021999999880790710449 0.0021999999880790710449 0.0021999999880790710449 0.0021999999880790710449 0.0021999999880790710449 0.0021999999880790710449 0.0021999999880790710449 0.0021999999880790710449 0.0021999999880790710449 0.0036249998956918716431 0.0021999999880790710449 0.0021999999880790710449 0.0021999999880790710449 0.0030499999411404132843 0.0068749999627470970154 0.0038999998942017555237 0.0044666663743555545807 0.0032500000670552253723 0.0021999999880790710449 0.002450000029057264328 0.0039249998517334461212 0.0031250000465661287308 0.00674999970942735672 0.0078750001266598701477 0.00674999970942735672 0.0058999997563660144806 0.0046749999746680259705 0.0040500001050531864166 0.0052000000141561031342 0.0039499998092651367188 0.0043000001460313796997 0.0058499998413026332855 0.0053749997168779373169 0.0029249999206513166428 0.0062249996699392795563 0.0044249999336898326874 0.0031999999191612005234 0.0021999999880790710449 
0.0021999999880790710449 0.0021999999880790710449 0.0021999999880790710449 0.0021999999880790710449 0.0021999999880790710449 0.0021999999880790710449 0.0021999999880790710449 0.0021999999880790710449 0.0021999999880790710449 0.0021999999880790710449 0.0021999999880790710449 0.0021999999880790710449 0.0021999999880790710449 0.0021999999880790710449 0.0021999999880790710449 0.0021999999880790710449 0.0021999999880790710449 0.0021999999880790710449 0.0021999999880790710449 0.0021999999880790710449 0.0021999999880790710449 0.0021999999880790710449 0.0021999999880790710449 0.0021999999880790710449 0.0021999999880790710449 0.0021999999880790710449 0.0021999999880790710449 0.0021999999880790710449 0.0021999999880790710449 0.0021999999880790710449 0.0021999999880790710449 0.0021999999880790710449 0.0021999999880790710449 0.0021999999880790710449 0.0035249998327344655991 0.0026749998796731233597 0.0021999999880790710449 0.0021999999880790710449 0.0021999999880790710449 0.0021999999880790710449 0.0021999999880790710449 0.0021999999880790710449 0.0021999999880790710449 0.0021999999880790710449 0.0021999999880790710449 0.0021999999880790710449 0.0021999999880790710449 0.0021999999880790710449 0.0021999999880790710449 0.0021999999880790710449 0.0021999999880790710449 0.0021999999880790710449 0.0021999999880790710449 0.0021999999880790710449 0.0021999999880790710449 0.0021999999880790710449 0.0021999999880790710449 0.0026249999646097421646 0.0030499999411404132843 0.0026750001125037670135 0.0031500000040978193283 0.0040500001050531864166 0.0024375000502914190292 0.0048153842799365520477 0.0085749998688697814941 0.0084333326667547225952 0.0021999999880790710449 0.0021999999880790710449 0.0035874999593943357468 0.0043000001460313796997 0.0042499997653067111969 0.0057500000111758708954 0.0061749997548758983612 0.0049999998882412910461 0.0058999997563660144806 0.0071249995380640029907 0.0062749995850026607513 0.0050499998033046722412 0.00224999990314245224 0.0037249999586492776871 0.0039499998092651367188 0.0071249995380640029907 0.0056499997153878211975 0.0065124998800456523895 0.0037624998949468135834 0.0026750001125037670135 0.0021999999880790710449 
0.0021999999880790710449 0.0021999999880790710449 0.0021999999880790710449 0.0021999999880790710449 0.0021999999880790710449 0.0021999999880790710449 0.0021999999880790710449 0.0021999999880790710449 0.0021999999880790710449 0.0021999999880790710449 0.0021999999880790710449 0.0021999999880790710449 0.0021999999880790710449 0.0021999999880790710449 0.0021999999880790710449 0.0021999999880790710449 0.0021999999880790710449 0.0021999999880790710449 0.0021999999880790710449 0.0021999999880790710449 0.0021999999880790710449 0.0021999999880790710449 0.0021999999880790710449 0.0021999999880790710449 0.0021999999880790710449 0.0021999999880790710449 0.0021999999880790710449 0.0021999999880790710449 0.0021999999880790710449 0.0021999999880790710449 0.0021999999880790710449 0.0021999999880790710449 0.0021999999880790710449 0.00224999990314245224 0.00224999990314245224 0.002550000092014670372 0.0021999999880790710449 0.0021999999880790710449 0.0021999999880790710449 0.0021999999880790710449 0.0021999999880790710449 0.0021999999880790710449 0.0021999999880790710449 0.0021999999880790710449 0.0021999999880790710449 0.0021999999880790710449 0.0021999999880790710449 0.0021999999880790710449 0.0021999999880790710449 0.0021999999880790710449 0.0021999999880790710449 0.0021999999880790710449 0.0021999999880790710449 0.0021999999880790710449 0.0021999999880790710449 0.0021999999880790710449 0.0021999999880790710449 0.0023000000510364770889 0.0021999999880790710449 0.0021999999880790710449 0.00224999990314245224 0.0033875000663101673126 0.0021999999880790710449 0.0021999999880790710449 0.007724999450147151947 0.00899999961256980896 0.0021999999880790710449 0.0021999999880790710449 0.0021999999880790710449 0.0036249998956918716431 0.0027749999426305294037 0.007724999450147151947 0.00899999961256980896 0.0071249995380640029907 0.0052499999292194843292 0.0074499999172985553741 0.0062249996699392795563 0.0033499998971819877625 0.0021999999880790710449 0.00224999990314245224 0.0073499996215105056763 0.00899999961256980896 0.0046250000596046447754 0.0028750000055879354477 0.0024375000502914190292 0.0021999999880790710449 0.0021999999880790710449 
0.0021999999880790710449 0.0021999999880790710449 0.0021999999880790710449 0.0021999999880790710449 0.0021999999880790710449 0.0021999999880790710449 0.0021999999880790710449 0.0021999999880790710449 0.0021999999880790710449 0.0021999999880790710449 0.0021999999880790710449 0.0021999999880790710449 0.0021999999880790710449 0.0021999999880790710449 0.0021999999880790710449 0.0021999999880790710449 0.0021999999880790710449 0.0021999999880790710449 0.0021999999880790710449 0.0021999999880790710449 0.0021999999880790710449 0.0021999999880790710449 0.0021999999880790710449 0.0021999999880790710449 0.0021999999880790710449 0.0021999999880790710449 0.0021999999880790710449 0.0021999999880790710449 0.0021999999880790710449 0.0021999999880790710449 0.0021999999880790710449 0.0038250000216066837311 0.0023000000510364770889 0.0024375000502914190292 0.0021999999880790710449 0.0030499999411404132843 0.0030499999411404132843 0.0021999999880790710449 0.0021999999880790710449 0.0021999999880790710449 0.0021999999880790710449 0.0021999999880790710449 0.0021999999880790710449 0.0021999999880790710449 0.0021999999880790710449 0.0021999999880790710449 0.0021999999880790710449 0.0021999999880790710449 0.0021999999880790710449 0.0021999999880790710449 0.0021999999880790710449 0.0021999999880790710449 0.0021999999880790710449 0.0021999999880790710449 0.0021999999880790710449 0.0021999999880790710449 0.0021999999880790710449 0.0030999998562037944794 0.0049499999731779098511 0.0039499998092651367188 0.0021999999880790710449 0.0021999999880790710449 0.0021999999880790710449 0.0021999999880790710449 0.0049499999731779098511 0.0055999998003244400024 0.0021999999880790710449 0.0021999999880790710449 0.0021999999880790710449 0.0021999999880790710449 0.0021999999880790710449 0.0050499998033046722412 0.0063749998807907104492 0.0063249999657273292542 0.0059499996714293956757 0.0082000000402331352234 0.00674999970942735672 0.0023000000510364770889 0.0030999998562037944794 0.0052249999716877937317 0.0078750001266598701477 0.0086249997839331626892 0.0055249999277293682098 0.0027749999426305294037 0.0049999998882412910461 0.0035249998327344655991 0.0024000001139938831329 
0.0021999999880790710449 0.0021999999880790710449 0.0021999999880790710449 0.0021999999880790710449 0.0021999999880790710449 0.0021999999880790710449 0.0021999999880790710449 0.0021999999880790710449 0.0021999999880790710449 0.0021999999880790710449 0.0021999999880790710449 0.0021999999880790710449 0.0021999999880790710449 0.0021999999880790710449 0.0021999999880790710449 0.0021999999880790710449 0.0021999999880790710449 0.0021999999880790710449 0.0021999999880790710449 0.0021999999880790710449 0.0021999999880790710449 0.0021999999880790710449 0.0021999999880790710449 0.0021999999880790710449 0.0021999999880790710449 0.0021999999880790710449 0.0021999999880790710449 0.0021999999880790710449 0.0021999999880790710449 0.0030499999411404132843 0.0031500000040978193283 0.0027250000275671482086 0.0021999999880790710449 0.0021999999880790710449 0.0021999999880790710449 0.0021999999880790710449 0.0021999999880790710449 0.0021999999880790710449 0.0021999999880790710449 0.0021999999880790710449 0.0021999999880790710449 0.0021999999880790710449 0.0021999999880790710449 0.0021999999880790710449 0.0021999999880790710449 0.0021999999880790710449 0.0021999999880790710449 0.0021999999880790710449 0.0021999999880790710449 0.0021999999880790710449 0.0021999999880790710449 0.0021999999880790710449 0.0031500000040978193283 0.0041000000201165676117 0.0021999999880790710449 0.0021999999880790710449 0.0021999999880790710449 0.0021999999880790710449 0.004900000058114528656 0.0074499999172985553741 0.0021999999880790710449 0.0021999999880790710449 0.0021999999880790710449 0.0039666667580604553223 0.0084999995306134223938 0.0052222218364477157593 0.0021999999880790710449 0.0029555554501712322235 0.0023230768274515867233 0.0023000000510364770889 0.0043750000186264514923 0.0061749997548758983612 0.0060000000521540641785 0.0052249999716877937317 0.0024000001139938831329 0.0044749998487532138824 0.0078750001266598701477 0.0021999999880790710449 0.0031500000040978193283 0.0062249996699392795563 0.0070749996230006217957 0.0074499999172985553741 0.0053749997168779373169 0.0055999998003244400024 0.006549999583512544632 0.0074499999172985553741 0.00899999961256980896 
0.0021999999880790710449 0.0021999999880790710449 0.0021999999880790710449 0.0021999999880790710449 0.0021999999880790710449 0.0021999999880790710449 0.0021999999880790710449 0.0021999999880790710449 0.0021999999880790710449 0.0021999999880790710449 0.0021999999880790710449 0.0021999999880790710449 0.0021999999880790710449 0.0021999999880790710449 0.0021999999880790710449 0.0021999999880790710449 0.0021999999880790710449 0.0021999999880790710449 0.0021999999880790710449 0.0021999999880790710449 0.0021999999880790710449 0.0021999999880790710449 0.0021999999880790710449 0.0021999999880790710449 0.0021999999880790710449 0.0021999999880790710449 0.0021999999880790710449 0.0021999999880790710449 0.0021999999880790710449 0.0052249999716877937317 0.0024874999653548002243 0.0021999999880790710449 0.0021999999880790710449 0.0021999999880790710449 0.0021999999880790710449 0.0021999999880790710449 0.0021999999880790710449 0.0021999999880790710449 0.0021999999880790710449 0.0021999999880790710449 0.0021999999880790710449 0.0021999999880790710449 0.0021999999880790710449 0.0021999999880790710449 0.0021999999880790710449 0.0021999999880790710449 0.0021999999880790710449 0.0021999999880790710449 0.0021999999880790710449 0.0021999999880790710449 0.0026750001125037670135 0.0021999999880790710449 0.0021999999880790710449 0.0021999999880790710449 0.0023000000510364770889 0.0021999999880790710449 0.0021999999880790710449 0.0021999999880790710449 0.0030999998562037944794 0.0082000000402331352234 0.0031500000040978193283 0.0021999999880790710449 0.0040333331562578678131 0.0029249999206513166428 0.0081500001251697540283 0.0081500001251697540283 0.0021999999880790710449 0.0041666664183139801025 0.0037249999586492776871 0.0036749998107552528381 0.0049999998882412910461 0.0049999998882412910461 0.0051499996334314346313 0.0036249998956918716431 0.0027250000275671482086 0.0026749998796731233597 0.006549999583512544632 0.0021999999880790710449 0.00224999990314245224 0.0021999999880790710449 0.0035249998327344655991 0.0050499998033046722412 0.0070749996230006217957 0.0043750000186264514923 0.0027749999426305294037 0.0021999999880790710449 0.0041000000201165676117 
0.0021999999880790710449 0.0021999999880790710449 0.0021999999880790710449 0.0021999999880790710449 0.0021999999880790710449 0.0021999999880790710449 0.0021999999880790710449 0.0021999999880790710449 0.0021999999880790710449 0.0021999999880790710449 0.0021999999880790710449 0.0021999999880790710449 0.0021999999880790710449 0.0021999999880790710449 0.0021999999880790710449 0.0021999999880790710449 0.0021999999880790710449 0.0021999999880790710449 0.0021999999880790710449 0.0021999999880790710449 0.0021999999880790710449 0.0021999999880790710449 0.0021999999880790710449 0.0021999999880790710449 0.0026000000070780515671 0.0021999999880790710449 0.0021999999880790710449 0.0021999999880790710449 0.0021999999880790710449 0.00224999990314245224 0.0021999999880790710449 0.0021999999880790710449 0.0021999999880790710449 0.0021999999880790710449 0.0021999999880790710449 0.0021999999880790710449 0.0021999999880790710449 0.0021999999880790710449 0.0021999999880790710449 0.0021999999880790710449 0.0021999999880790710449 0.0021999999880790710449 0.0021999999880790710449 0.0021999999880790710449 0.0021999999880790710449 0.0021999999880790710449 0.0021999999880790710449 0.0021999999880790710449 0.0021999999880790710449 0.0032999999821186065674 0.0049999998882412910461 0.0028249998576939105988 0.0021999999880790710449 0.0026249999646097421646 0.002450000029057264328 0.0021999999880790710449 0.0021999999880790710449 0.0023000000510364770889 0.0036249998956918716431 0.0055749998427927494049 0.0021999999880790710449 0.0021999999880790710449 0.0024000001139938831329 0.0041384613141417503357 0.0058666663244366645813 0.0080500002950429916382 0.0021999999880790710449 0.0037999998312443494797 0.0027846153825521469116 0.0031500000040978193283 0.0021999999880790710449 0.0057999999262392520905 0.0052499999292194843292 0.0028249998576939105988 0.0023000000510364770889 0.0069249998778104782104 0.0045249997638165950775 0.0021999999880790710449 0.0023000000510364770889 0.0021999999880790710449 0.0035249998327344655991 0.0042874999344348907471 0.0054624998010694980621 0.0049999998882412910461 0.0021999999880790710449 0.0030499999411404132843 0.00899999961256980896 
0.0021999999880790710449 0.0021999999880790710449 0.0021999999880790710449 0.0021999999880790710449 0.0021999999880790710449 0.0021999999880790710449 0.0021999999880790710449 0.0021999999880790710449 0.0021999999880790710449 0.0021999999880790710449 0.0021999999880790710449 0.0021999999880790710449 0.0021999999880790710449 0.0021999999880790710449 0.0021999999880790710449 0.0021999999880790710449 0.0021999999880790710449 0.0021999999880790710449 0.0021999999880790710449 0.0021999999880790710449 0.0021999999880790710449 0.0021999999880790710449 0.0021999999880790710449 0.0021999999880790710449 0.0021999999880790710449 0.0021999999880790710449 0.0021999999880790710449 0.0038624999579042196274 0.002912499941885471344 0.002450000029057264328 0.00224999990314245224 0.0021999999880790710449 0.0021999999880790710449 0.0021999999880790710449 0.0021999999880790710449 0.0021999999880790710449 0.0021999999880790710449 0.0021999999880790710449 0.0021999999880790710449 0.0021999999880790710449 0.0021999999880790710449 0.0021999999880790710449 0.0021999999880790710449 0.0021999999880790710449 0.0021999999880790710449 0.0021999999880790710449 0.0021999999880790710449 0.0030999998562037944794 0.0028249998576939105988 0.0044749998487532138824 0.0029750000685453414917 0.0041999998502433300018 0.00224999990314245224 0.0046250000596046447754 0.003474999917671084404 0.0021999999880790710449 0.0021999999880790710449 0.0029249999206513166428 0.0026749998796731233597 0.0041999998502433300018 0.0021999999880790710449 0.0032500000670552253723 0.0060000000521540641785 0.0057999999262392520905 0.0073666665703058242798 0.0096428571268916130066 0.0027666667010635137558 0.0031999999191612005234 0.0043714283965528011322 0.0043500000610947608948 0.0035249998327344655991 0.0056999996304512023926 0.0066999997943639755249 0.0041499999351799488068 0.0036249998956918716431 0.0026749998796731233597 0.00224999990314245224 0.0021999999880790710449 0.0039999997243285179138 0.003474999917671084404 0.0055999998003244400024 0.0043750000186264514923 0.0029624998569488525391 0.0032500000670552253723 0.00224999990314245224 0.0021999999880790710449 0.0072999997064471244812 
0.0021999999880790710449 0.0021999999880790710449 0.0021999999880790710449 0.0021999999880790710449 0.0021999999880790710449 0.0021999999880790710449 0.0021999999880790710449 0.0021999999880790710449 0.0021999999880790710449 0.0021999999880790710449 0.0021999999880790710449 0.0021999999880790710449 0.0021999999880790710449 0.0021999999880790710449 0.0021999999880790710449 0.0021999999880790710449 0.0021999999880790710449 0.0021999999880790710449 0.0021999999880790710449 0.0021999999880790710449 0.0021999999880790710449 0.0021999999880790710449 0.0021999999880790710449 0.0021999999880790710449 0.0021999999880790710449 0.0021999999880790710449 0.0021999999880790710449 0.0021999999880790710449 0.0024375000502914190292 0.00224999990314245224 0.0027250000275671482086 0.0021999999880790710449 0.0021999999880790710449 0.0021999999880790710449 0.0021999999880790710449 0.0021999999880790710449 0.0021999999880790710449 0.0021999999880790710449 0.0021999999880790710449 0.0021999999880790710449 0.0021999999880790710449 0.0021999999880790710449 0.0021999999880790710449 0.0021999999880790710449 0.0021999999880790710449 0.0021999999880790710449 0.0026749998796731233597 0.0021999999880790710449 0.0021999999880790710449 0.0026249999646097421646 0.0023000000510364770889 0.0045749996788799762726 0.0030249999836087226868 0.0023000000510364770889 0.0030499999411404132843 0.0021999999880790710449 0.0027749999426305294037 0.0021999999880790710449 0.0044249999336898326874 0.0038250000216066837311 0.0029666665941476821899 0.0021999999880790710449 0.0047333333641290664673 0.0024000001139938831329 0.0059199999086558818817 0.0079999994486570358276 0.0027250000275671482086 0.0021999999880790710449 0.0041142855770885944366 0.0051499996334314346313 0.002349999966099858284 0.0030999998562037944794 0.0039749997667968273163 0.0040500001050531864166 0.0030999998562037944794 0.0021999999880790710449 0.0021999999880790710449 0.0026749998796731233597 0.0026749998796731233597 0.0064499997533857822418 0.0044249999336898326874 0.003474999917671084404 0.0021999999880790710449 0.0021999999880790710449 0.003012500004842877388 0.002349999966099858284 0.0055999998003244400024 
0.0021999999880790710449 0.0021999999880790710449 0.0021999999880790710449 0.0021999999880790710449 0.0021999999880790710449 0.0021999999880790710449 0.0021999999880790710449 0.0021999999880790710449 0.0021999999880790710449 0.0021999999880790710449 0.0021999999880790710449 0.0021999999880790710449 0.0021999999880790710449 0.0021999999880790710449 0.0021999999880790710449 0.0021999999880790710449 0.0021999999880790710449 0.0021999999880790710449 0.0021999999880790710449 0.0021999999880790710449 0.0021999999880790710449 0.0021999999880790710449 0.0021999999880790710449 0.0021999999880790710449 0.0021999999880790710449 0.0021999999880790710449 0.0021999999880790710449 0.0021999999880790710449 0.0026249999646097421646 0.0043249996379017829895 0.0021999999880790710449 0.0021999999880790710449 0.0021999999880790710449 0.0021999999880790710449 0.0021999999880790710449 0.0021999999880790710449 0.0021999999880790710449 0.0021999999880790710449 0.0021999999880790710449 0.0021999999880790710449 0.0021999999880790710449 0.0021999999880790710449 0.0021999999880790710449 0.0021999999880790710449 0.0021999999880790710449 0.0021999999880790710449 0.0021999999880790710449 0.0021999999880790710449 0.00224999990314245224 0.0064499997533857822418 0.0060249995440244674683 0.0066999997943639755249 0.002550000092014670372 0.0028750000055879354477 0.0044499998912215232849 0.0026749998796731233597 0.0031500000040978193283 0.00224999990314245224 0.0039499998092651367188 0.0036249998956918716431 0.0022666666191071271896 0.0021999999880790710449 0.0022533333394676446915 0.0068222219124436378479 0.00899999961256980896 0.0074923075735569000244 0.0051499996334314346313 0.0040333331562578678131 0.0045249997638165950775 0.0031500000040978193283 0.0021999999880790710449 0.0021999999880790710449 0.0021999999880790710449 0.0024000001139938831329 0.0036249998956918716431 0.00224999990314245224 0.0026749998796731233597 0.0052249999716877937317 0.0024999999441206455231 0.0041000000201165676117 0.003474999917671084404 0.0021999999880790710449 0.0021999999880790710449 0.0021999999880790710449 0.0021999999880790710449 0.0027375000063329935074 0.0052499999292194843292 
0.0021999999880790710449 0.0021999999880790710449 0.0021999999880790710449 0.0021999999880790710449 0.0021999999880790710449 0.0021999999880790710449 0.0021999999880790710449 0.0021999999880790710449 0.0021999999880790710449 0.0021999999880790710449 0.0021999999880790710449 0.0021999999880790710449 0.0021999999880790710449 0.0021999999880790710449 0.0021999999880790710449 0.0021999999880790710449 0.0021999999880790710449 0.0021999999880790710449 0.0021999999880790710449 0.0021999999880790710449 0.0021999999880790710449 0.0021999999880790710449 0.0021999999880790710449 0.0021999999880790710449 0.0021999999880790710449 0.0021999999880790710449 0.0021999999880790710449 0.0021999999880790710449 0.003474999917671084404 0.0060249995440244674683 0.0021999999880790710449 0.0026249999646097421646 0.0026249999646097421646 0.0021999999880790710449 0.0021999999880790710449 0.0021999999880790710449 0.0021999999880790710449 0.0021999999880790710449 0.0021999999880790710449 0.0021999999880790710449 0.0021999999880790710449 0.0021999999880790710449 0.0021999999880790710449 0.0021999999880790710449 0.00224999990314245224 0.0021999999880790710449 0.0021999999880790710449 0.0021999999880790710449 0.0055999998003244400024 0.0052249999716877937317 0.0048499996773898601532 0.0063749998807907104492 0.0047749998047947883606 0.0027250000275671482086 0.0028750000055879354477 0.0027250000275671482086 0.0045749996788799762726 0.0031500000040978193283 0.0026249999646097421646 0.0028333333320915699005 0.0026749998796731233597 0.0021999999880790710449 0.0026249999646097421646 0.0069999997504055500031 0.0070249997079372406006 0.0039999997243285179138 0.0026249999646097421646 0.0028999999631196260452 0.0023000000510364770889 0.0021999999880790710449 0.0021999999880790710449 0.0026249999646097421646 0.0031500000040978193283 0.0044749998487532138824 0.0043249996379017829895 0.0049499999731779098511 0.0039499998092651367188 0.0026749998796731233597 0.0027749999426305294037 0.0069749997928738594055 0.0052249999716877937317 0.0021999999880790710449 0.0021999999880790710449 0.0021999999880790710449 0.0021999999880790710449 0.0021999999880790710449 0.0021999999880790710449 
0.0021999999880790710449 0.0021999999880790710449 0.0021999999880790710449 0.0021999999880790710449 0.0021999999880790710449 0.0021999999880790710449 0.0021999999880790710449 0.0021999999880790710449 0.0021999999880790710449 0.0021999999880790710449 0.0021999999880790710449 0.0021999999880790710449 0.0021999999880790710449 0.0021999999880790710449 0.0021999999880790710449 0.0021999999880790710449 0.0021999999880790710449 0.0021999999880790710449 0.0026249999646097421646 0.0021999999880790710449 0.0021999999880790710449 0.0021999999880790710449 0.0021999999880790710449 0.0021999999880790710449 0.0021999999880790710449 0.0021999999880790710449 0.0021999999880790710449 0.0021999999880790710449 0.0042874999344348907471 0.00224999990314245224 0.0021999999880790710449 0.0026249999646097421646 0.0021999999880790710449 0.0021999999880790710449 0.0021999999880790710449 0.0021999999880790710449 0.0021999999880790710449 0.0021999999880790710449 0.0021999999880790710449 0.0021999999880790710449 0.0021999999880790710449 0.0026249999646097421646 0.0039499998092651367188 0.0026749998796731233597 0.0031999999191612005234 0.0021999999880790710449 0.0021999999880790710449 0.0026749998796731233597 0.003474999917671084404 0.0026749998796731233597 0.0053249998018145561218 0.0041999998502433300018 0.0024000001139938831329 0.002349999966099858284 0.002349999966099858284 0.0021999999880790710449 0.0036749998107552528381 0.0043500000610947608948 0.005424999631941318512 0.0037749998737126588821 0.0021999999880790710449 0.0021999999880790710449 0.0021999999880790710449 0.0063333329744637012482 0.0058999997563660144806 0.0021999999880790710449 0.0021999999880790710449 0.0026749998796731233597 0.0021999999880790710449 0.0021999999880790710449 0.0021999999880790710449 0.0030999998562037944794 0.0031999999191612005234 0.0074499999172985553741 0.0082499999552965164185 0.0058499998413026332855 0.0026749998796731233597 0.0021999999880790710449 0.0026249999646097421646 0.0052249999716877937317 0.0030499999411404132843 0.0026249999646097421646 0.0021999999880790710449 0.0021999999880790710449 0.0026750001125037670135 0.0021999999880790710449 0.0055999998003244400024 
0.0021999999880790710449 0.0021999999880790710449 0.0021999999880790710449 0.0021999999880790710449 0.0021999999880790710449 0.0021999999880790710449 0.0021999999880790710449 0.0021999999880790710449 0.0021999999880790710449 0.0021999999880790710449 0.0021999999880790710449 0.0021999999880790710449 0.0021999999880790710449 0.0021999999880790710449 0.0021999999880790710449 0.0021999999880790710449 0.0021999999880790710449 0.0021999999880790710449 0.0021999999880790710449 0.0021999999880790710449 0.0021999999880790710449 0.0021999999880790710449 0.0021999999880790710449 0.0036249998956918716431 0.0024375000502914190292 0.0021999999880790710449 0.0028249998576939105988 0.0021999999880790710449 0.0048499996773898601532 0.0027749999426305294037 0.0033875000663101673126 0.0024375000502914190292 0.0021999999880790710449 0.0021999999880790710449 0.0021999999880790710449 0.0021999999880790710449 0.0021999999880790710449 0.0021999999880790710449 0.0021999999880790710449 0.0021999999880790710449 0.0021999999880790710449 0.0028249998576939105988 0.0041000000201165676117 0.0039499998092651367188 0.0021999999880790710449 0.0021999999880790710449 0.003474999917671084404 0.0071249995380640029907 0.0039499998092651367188 0.0034000000450760126114 0.0021999999880790710449 0.0021999999880790710449 0.0021999999880790710449 0.0021999999880790710449 0.0024375000502914190292 0.0047999997623264789581 0.0030999998562037944794 0.0055749998427927494049 0.0027749999426305294037 0.0030499999411404132843 0.0038999998942017555237 0.0021999999880790710449 0.0055999998003244400024 0.0051666665822267532349 0.0071249995380640029907 0.0024000001139938831329 0.0021999999880790710449 0.0057500000111758708954 0.003012500004842877388 0.0021999999880790710449 0.0021999999880790710449 0.0021999999880790710449 0.0021999999880790710449 0.0051750000566244125366 0.0069749997928738594055 0.0028750000055879354477 0.0049499999731779098511 0.0021999999880790710449 0.0021999999880790710449 0.0044749998487532138824 0.0021999999880790710449 0.0021999999880790710449 0.0021999999880790710449 0.0021999999880790710449 0.002349999966099858284 0.0026749998796731233597 0.0055999998003244400024 
0.0021999999880790710449 0.0021999999880790710449 0.0021999999880790710449 0.0021999999880790710449 0.0021999999880790710449 0.0021999999880790710449 0.0021999999880790710449 0.0021999999880790710449 0.0021999999880790710449 0.0021999999880790710449 0.0021999999880790710449 0.0021999999880790710449 0.0021999999880790710449 0.0021999999880790710449 0.0021999999880790710449 0.0021999999880790710449 0.0021999999880790710449 0.0021999999880790710449 0.0021999999880790710449 0.0021999999880790710449 0.0021999999880790710449 0.0021999999880790710449 0.0031999999191612005234 0.0033875000663101673126 0.0026750001125037670135 0.0021999999880790710449 0.00224999990314245224 0.0021999999880790710449 0.0056499997153878211975 0.0023000000510364770889 0.0033875000663101673126 0.0021999999880790710449 0.0021999999880790710449 0.0021999999880790710449 0.0021999999880790710449 0.0021999999880790710449 0.0021999999880790710449 0.0021999999880790710449 0.0021999999880790710449 0.00224999990314245224 0.0021999999880790710449 0.0021999999880790710449 0.0021999999880790710449 0.0021999999880790710449 0.0021999999880790710449 0.0021999999880790710449 0.00224999990314245224 0.0039999997243285179138 0.0060749999247491359711 0.0027250000275671482086 0.0021999999880790710449 0.0021999999880790710449 0.0021999999880790710449 0.0021999999880790710449 0.002912499941885471344 0.0052375001832842826843 0.0053874999284744262695 0.0071249995380640029907 0.0035249998327344655991 0.0047499998472630977631 0.0079999994486570358276 0.0031500000040978193283 0.0077199996449053287506 0.0052285711281001567841 0.0074999998323619365692 0.0023333332501351833344 0.0039999997243285179138 0.0031500000040978193283 0.002349999966099858284 0.0021999999880790710449 0.0021999999880790710449 0.0021999999880790710449 0.0021999999880790710449 0.0061249998398125171661 0.006549999583512544632 0.0027250000275671482086 0.0035249998327344655991 0.0021999999880790710449 0.0045249997638165950775 0.0045249997638165950775 0.0021999999880790710449 0.0021999999880790710449 0.002912499941885471344 0.0021999999880790710449 0.0021999999880790710449 0.0047999997623264789581 0.0027999999001622200012 
0.0021999999880790710449 0.0021999999880790710449 0.0021999999880790710449 0.0021999999880790710449 0.0021999999880790710449 0.0021999999880790710449 0.0021999999880790710449 0.0021999999880790710449 0.0021999999880790710449 0.0021999999880790710449 0.0021999999880790710449 0.0021999999880790710449 0.0021999999880790710449 0.0021999999880790710449 0.0021999999880790710449 0.0021999999880790710449 0.0021999999880790710449 0.0021999999880790710449 0.0021999999880790710449 0.0021999999880790710449 0.0021999999880790710449 0.0021999999880790710449 0.0021999999880790710449 0.0021999999880790710449 0.0021999999880790710449 0.0021999999880790710449 0.0026249999646097421646 0.0038999998942017555237 0.004900000058114528656 0.0026750001125037670135 0.0044249999336898326874 0.0021999999880790710449 0.0021999999880790710449 0.0021999999880790710449 0.0021999999880790710449 0.0021999999880790710449 0.0021999999880790710449 0.0036749998107552528381 0.0027250000275671482086 0.0036249998956918716431 0.0021999999880790710449 0.0021999999880790710449 0.0021999999880790710449 0.0021999999880790710449 0.0052749998867511749268 0.0021999999880790710449 0.0021999999880790710449 0.0021999999880790710449 0.0026249999646097421646 0.0021999999880790710449 0.0021999999880790710449 0.0021999999880790710449 0.0021999999880790710449 0.0021999999880790710449 0.0021999999880790710449 0.0028249998576939105988 0.0054750000126659870148 0.0043000001460313796997 0.0047749998047947883606 0.0037999998312443494797 0.0043199998326599597931 0.0028999999631196260452 0.0074888886883854866028 0.0064999996684491634369 0.0082444436848163604736 0.0034666666761040687561 0.00224999990314245224 0.00224999990314245224 0.0029249999206513166428 0.0021999999880790710449 0.0021999999880790710449 0.0021999999880790710449 0.0021999999880790710449 0.002912499941885471344 0.00224999990314245224 0.0021999999880790710449 0.0027250000275671482086 0.0036249998956918716431 0.0045249997638165950775 0.0030499999411404132843 0.0021999999880790710449 0.0021999999880790710449 0.0021999999880790710449 0.0021999999880790710449 0.003474999917671084404 0.003574999980628490448 0.0038999998942017555237 
0.0021999999880790710449 0.0021999999880790710449 0.0021999999880790710449 0.0021999999880790710449 0.0021999999880790710449 0.0021999999880790710449 0.0021999999880790710449 0.0021999999880790710449 0.0021999999880790710449 0.0021999999880790710449 0.0021999999880790710449 0.0021999999880790710449 0.0021999999880790710449 0.0021999999880790710449 0.0021999999880790710449 0.0021999999880790710449 0.0021999999880790710449 0.0021999999880790710449 0.0021999999880790710449 0.0021999999880790710449 0.0021999999880790710449 0.0021999999880790710449 0.0021999999880790710449 0.0031500000040978193283 0.0021999999880790710449 0.0021999999880790710449 0.0027250000275671482086 0.0030499999411404132843 0.0039999997243285179138 0.0041499999351799488068 0.0038999998942017555237 0.0021999999880790710449 0.0021999999880790710449 0.0021999999880790710449 0.0021999999880790710449 0.002912499941885471344 0.0021999999880790710449 0.0026749998796731233597 0.0021999999880790710449 0.0031500000040978193283 0.003574999980628490448 0.0021999999880790710449 0.0021999999880790710449 0.0021999999880790710449 0.0030499999411404132843 0.0021999999880790710449 0.0021999999880790710449 0.0021999999880790710449 0.0021999999880790710449 0.0021999999880790710449 0.0021999999880790710449 0.0021999999880790710449 0.0021999999880790710449 0.0031500000040978193283 0.0021999999880790710449 0.0028750000055879354477 0.0046749999746680259705 0.0037249999586492776871 0.0025076922029256820679 0.0026749998796731233597 0.0061666662804782390594 0.0064499997533857822418 0.0062749995850026607513 0.0030249999836087226868 0.0031500000040978193283 0.0022533333394676446915 0.0051599997095763683319 0.002349999966099858284 0.00224999990314245224 0.0021999999880790710449 0.0021999999880790710449 0.0021999999880790710449 0.0021999999880790710449 0.0024375000502914190292 0.0021999999880790710449 0.0021999999880790710449 0.0021999999880790710449 0.003474999917671084404 0.0057999999262392520905 0.0026749998796731233597 0.0021999999880790710449 0.0021999999880790710449 0.0021999999880790710449 0.0026749998796731233597 0.0049499999731779098511 0.003474999917671084404 0.0038999998942017555237 
0.0021999999880790710449 0.0021999999880790710449 0.0021999999880790710449 0.0021999999880790710449 0.0021999999880790710449 0.0021999999880790710449 0.0021999999880790710449 0.0021999999880790710449 0.0021999999880790710449 0.0021999999880790710449 0.0021999999880790710449 0.0021999999880790710449 0.0021999999880790710449 0.0021999999880790710449 0.0021999999880790710449 0.0021999999880790710449 0.0021999999880790710449 0.0021999999880790710449 0.0021999999880790710449 0.0021999999880790710449 0.0021999999880790710449 0.002912499941885471344 0.0021999999880790710449 0.0021999999880790710449 0.0021999999880790710449 0.0021999999880790710449 0.0026749998796731233597 0.0021999999880790710449 0.0064999996684491634369 0.0048499996773898601532 0.0051750000566244125366 0.0026249999646097421646 0.0021999999880790710449 0.0021999999880790710449 0.0028750000055879354477 0.0024375000502914190292 0.0021999999880790710449 0.0021999999880790710449 0.0021999999880790710449 0.002912499941885471344 0.0029624998569488525391 0.0021999999880790710449 0.0021999999880790710449 0.0021999999880790710449 0.0021999999880790710449 0.0024375000502914190292 0.0024375000502914190292 0.0021999999880790710449 0.0021999999880790710449 0.0021999999880790710449 0.0024375000502914190292 0.0021999999880790710449 0.00224999990314245224 0.0036249998956918716431 0.0021999999880790710449 0.003574999980628490448 0.0045749996788799762726 0.0041000000201165676117 0.0028222221881151199341 0.0027846153825521469116 0.0051230769604444503784 0.0064399996772408485413 0.0029249999206513166428 0.0021999999880790710449 0.0021999999880790710449 0.0021999999880790710449 0.0064285714179277420044 0.0060933330096304416656 0.0062749995850026607513 0.0039499998092651367188 0.0027846153825521469116 0.0021999999880790710449 0.0021999999880790710449 0.0021999999880790710449 0.0031500000040978193283 0.0047499998472630977631 0.0051750000566244125366 0.0044749998487532138824 0.0074499999172985553741 0.0039999997243285179138 0.0024375000502914190292 0.0024375000502914190292 0.0021999999880790710449 0.0021999999880790710449 0.00224999990314245224 0.0021999999880790710449 0.0021999999880790710449 
0.0021999999880790710449 0.0021999999880790710449 0.0021999999880790710449 0.0021999999880790710449 0.0021999999880790710449 0.0021999999880790710449 0.0021999999880790710449 0.0021999999880790710449 0.0021999999880790710449 0.0021999999880790710449 0.0021999999880790710449 0.0021999999880790710449 0.0021999999880790710449 0.0021999999880790710449 0.0021999999880790710449 0.0021999999880790710449 0.0021999999880790710449 0.0021999999880790710449 0.0021999999880790710449 0.0021999999880790710449 0.0021999999880790710449 0.0021999999880790710449 0.0021999999880790710449 0.0021999999880790710449 0.0021999999880790710449 0.0021999999880790710449 0.004900000058114528656 0.0029249999206513166428 0.0061249998398125171661 0.0081500001251697540283 0.00899999961256980896 0.00899999961256980896 0.0047499998472630977631 0.0027749999426305294037 0.0027250000275671482086 0.0021999999880790710449 0.0021999999880790710449 0.0021999999880790710449 0.0021999999880790710449 0.0026750001125037670135 0.0026750001125037670135 0.0021999999880790710449 0.0021999999880790710449 0.0021999999880790710449 0.0021999999880790710449 0.0021999999880790710449 0.0024375000502914190292 0.0021999999880790710449 0.0021999999880790710449 0.0024375000502914190292 0.0033875000663101673126 0.0027250000275671482086 0.0030999998562037944794 0.0021999999880790710449 0.0038999998942017555237 0.0039499998092651367188 0.0040124999359250068665 0.0021999999880790710449 0.0038999998942017555237 0.0083200000226497650146 0.0074499999172985553741 0.0026749998796731233597 0.0021999999880790710449 0.0021999999880790710449 0.0033999998122453689575 0.0071142856031656265259 0.0082499999552965164185 0.0082499999552965164185 0.0028571428265422582626 0.0026750001125037670135 0.0033875000663101673126 0.0021999999880790710449 0.0021999999880790710449 0.0021999999880790710449 0.0039999997243285179138 0.0035250000655651092529 0.00224999990314245224 0.003474999917671084404 0.0043750000186264514923 0.0036749998107552528381 0.0026750001125037670135 0.0021999999880790710449 0.0021999999880790710449 0.0021999999880790710449 0.0021999999880790710449 0.002912499941885471344 0.0021999999880790710449 
0.0021999999880790710449 0.0021999999880790710449 0.0021999999880790710449 0.0021999999880790710449 0.0021999999880790710449 0.0021999999880790710449 0.0021999999880790710449 0.0021999999880790710449 0.0021999999880790710449 0.0021999999880790710449 0.0021999999880790710449 0.0021999999880790710449 0.0021999999880790710449 0.0021999999880790710449 0.0021999999880790710449 0.0021999999880790710449 0.0021999999880790710449 0.0021999999880790710449 0.0021999999880790710449 0.0021999999880790710449 0.0021999999880790710449 0.0021999999880790710449 0.0021999999880790710449 0.0021999999880790710449 0.0021999999880790710449 0.0021999999880790710449 0.0030499999411404132843 0.0062249996699392795563 0.002450000029057264328 0.0060749999247491359711 0.0081500001251697540283 0.0066999997943639755249 0.0038999998942017555237 0.0021999999880790710449 0.0021999999880790710449 0.0021999999880790710449 0.0021999999880790710449 0.0021999999880790710449 0.0026749998796731233597 0.0021999999880790710449 0.0021999999880790710449 0.0021999999880790710449 0.0021999999880790710449 0.0021999999880790710449 0.0021999999880790710449 0.0026750001125037670135 0.0024375000502914190292 0.0021999999880790710449 0.0021999999880790710449 0.0033875000663101673126 0.0038624999579042196274 0.0021999999880790710449 0.0044249999336898326874 0.0021999999880790710449 0.0051750000566244125366 0.0038250000216066837311 0.0032999999821186065674 0.0044769230298697948456 0.0033333331812173128128 0.0056249997578561306 0.0052749998867511749268 0.0021999999880790710449 0.0021999999880790710449 0.0021999999880790710449 0.0051846150308847427368 0.0026533333584666252136 0.0041428571566939353943 0.0027230768464505672455 0.0037199999205768108368 0.0021999999880790710449 0.0021999999880790710449 0.0021999999880790710449 0.0021999999880790710449 0.0021999999880790710449 0.0021999999880790710449 0.0021999999880790710449 0.0021999999880790710449 0.0030499999411404132843 0.0026749998796731233597 0.0021999999880790710449 0.0021999999880790710449 0.0021999999880790710449 0.0021999999880790710449 0.0021999999880790710449 0.0021999999880790710449 0.0021999999880790710449 0.0021999999880790710449 
0.0021999999880790710449 0.0021999999880790710449 0.0021999999880790710449 0.0021999999880790710449 0.0021999999880790710449 0.0021999999880790710449 0.0021999999880790710449 0.0021999999880790710449 0.0021999999880790710449 0.0021999999880790710449 0.0021999999880790710449 0.0021999999880790710449 0.0021999999880790710449 0.0030499999411404132843 0.0030499999411404132843 0.0026249999646097421646 0.0024375000502914190292 0.0021999999880790710449 0.0021999999880790710449 0.0021999999880790710449 0.0021999999880790710449 0.0021999999880790710449 0.0021999999880790710449 0.0024000001139938831329 0.0026249999646097421646 0.0021999999880790710449 0.00224999990314245224 0.0027749999426305294037 0.0053749997168779373169 0.0051874998025596141815 0.0026750001125037670135 0.0029249999206513166428 0.0032500000670552253723 0.0021999999880790710449 0.0027749999426305294037 0.0021999999880790710449 0.0026249999646097421646 0.0030999998562037944794 0.0039499998092651367188 0.0021999999880790710449 0.0021999999880790710449 0.0028750000055879354477 0.0045249997638165950775 0.0021999999880790710449 0.0021999999880790710449 0.00224999990314245224 0.0021999999880790710449 0.0021999999880790710449 0.0021999999880790710449 0.0021999999880790710449 0.0030499999411404132843 0.0026249999646097421646 0.0021999999880790710449 0.0021999999880790710449 0.0021999999880790710449 0.0030499999411404132843 0.0021999999880790710449 0.002550000092014670372 0.0021999999880790710449 0.0058999997563660144806 0.0039999997243285179138 0.0038999998942017555237 0.002349999966099858284 0.0029555554501712322235 0.0077749998308718204498 0.0041999998502433300018 0.0021999999880790710449 0.0021999999880790710449 0.0021999999880790710449 0.0021999999880790710449 0.0021999999880790710449 0.0021999999880790710449 0.0021999999880790710449 0.0021999999880790710449 0.0029555554501712322235 0.0021999999880790710449 0.0038999998942017555237 0.0055999998003244400024 0.0023000000510364770889 0.0021999999880790710449 0.0021999999880790710449 0.0021999999880790710449 0.0021999999880790710449 0.0021999999880790710449 0.0021999999880790710449 0.0021999999880790710449 0.0021999999880790710449 
0.0021999999880790710449 0.0021999999880790710449 0.0021999999880790710449 0.0021999999880790710449 0.0021999999880790710449 0.0021999999880790710449 0.0021999999880790710449 0.0021999999880790710449 0.0021999999880790710449 0.0021999999880790710449 0.0021999999880790710449 0.0021999999880790710449 0.003474999917671084404 0.003474999917671084404 0.0021999999880790710449 0.0021999999880790710449 0.0021999999880790710449 0.0021999999880790710449 0.0021999999880790710449 0.0021999999880790710449 0.0021999999880790710449 0.0021999999880790710449 0.0027250000275671482086 0.0023000000510364770889 0.0041499999351799488068 0.0024000001139938831329 0.002349999966099858284 0.0032999999821186065674 0.0027250000275671482086 0.0041000000201165676117 0.0053375000134110450745 0.0046250000596046447754 0.0021999999880790710449 0.00224999990314245224 0.00224999990314245224 0.0023000000510364770889 0.0052749998867511749268 0.0026249999646097421646 0.0021999999880790710449 0.0021999999880790710449 0.0021999999880790710449 0.0026749998796731233597 0.00224999990314245224 0.0021999999880790710449 0.0021999999880790710449 0.0026750001125037670135 0.002912499941885471344 0.0021999999880790710449 0.0021999999880790710449 0.0021999999880790710449 0.0021999999880790710449 0.0021999999880790710449 0.0026249999646097421646 0.0021999999880790710449 0.0021999999880790710449 0.0021999999880790710449 0.0021999999880790710449 0.00224999990314245224 0.0044666663743555545807 0.0052499999292194843292 0.0049999998882412910461 0.0026000000070780515671 0.0037111109122633934021 0.0022799998987466096878 0.003246153704822063446 0.0056799999438226222992 0.0021999999880790710449 0.0021999999880790710449 0.0021999999880790710449 0.0021999999880790710449 0.0021999999880790710449 0.0028333333320915699005 0.0021999999880790710449 0.0021999999880790710449 0.0021999999880790710449 0.0026249999646097421646 0.0060749999247491359711 0.0040500001050531864166 0.0021999999880790710449 0.0021999999880790710449 0.0021999999880790710449 0.0030499999411404132843 0.0021999999880790710449 0.0021999999880790710449 0.0021999999880790710449 0.0021999999880790710449 0.0021999999880790710449 
0.0021999999880790710449 0.0021999999880790710449 0.0021999999880790710449 0.0021999999880790710449 0.0021999999880790710449 0.0021999999880790710449 0.0021999999880790710449 0.0027749999426305294037 0.00224999990314245224 0.0021999999880790710449 0.0021999999880790710449 0.0021999999880790710449 0.0068749999627470970154 0.0021999999880790710449 0.0021999999880790710449 0.0021999999880790710449 0.0021999999880790710449 0.0021999999880790710449 0.0021999999880790710449 0.0021999999880790710449 0.0021999999880790710449 0.0021999999880790710449 0.0021999999880790710449 0.002450000029057264328 0.0023000000510364770889 0.0021999999880790710449 0.0031999999191612005234 0.0035249998327344655991 0.0043750000186264514923 0.0050499998033046722412 0.0050999997183680534363 0.0049999998882412910461 0.0053249998018145561218 0.0045249997638165950775 0.0057500000111758708954 0.0060749999247491359711 0.0052749998867511749268 0.0043249996379017829895 0.0026749998796731233597 0.0031500000040978193283 0.0030499999411404132843 0.0021999999880790710449 0.0021999999880790710449 0.0021999999880790710449 0.0021999999880790710449 0.0033875000663101673126 0.0038624999579042196274 0.0031500000040978193283 0.0021999999880790710449 0.0021999999880790710449 0.0021999999880790710449 0.0038999998942017555237 0.0052249999716877937317 0.0021999999880790710449 0.0021999999880790710449 0.0021999999880790710449 0.0022666666191071271896 0.0021999999880790710449 0.005923076532781124115 0.00674999970942735672 0.0050800000317394733429 0.0026000000070780515671 0.0021999999880790710449 0.0024666667450219392776 0.0021999999880790710449 0.0021999999880790710449 0.0021999999880790710449 0.0021999999880790710449 0.0021999999880790710449 0.0021999999880790710449 0.0021999999880790710449 0.0021999999880790710449 0.0021999999880790710449 0.0021999999880790710449 0.0021999999880790710449 0.0021999999880790710449 0.0031714285723865032196 0.0035599998664110898972 0.0021999999880790710449 0.0021999999880790710449 0.0021999999880790710449 0.0055999998003244400024 0.0021999999880790710449 0.0021999999880790710449 0.0021999999880790710449 0.0021999999880790710449 0.0021999999880790710449 
0.0021999999880790710449 0.0021999999880790710449 0.0021999999880790710449 0.0021999999880790710449 0.0021999999880790710449 0.0021999999880790710449 0.00224999990314245224 0.0049999998882412910461 0.0041000000201165676117 0.0021999999880790710449 0.0021999999880790710449 0.0038999998942017555237 0.0043249996379017829895 0.0021999999880790710449 0.0021999999880790710449 0.0021999999880790710449 0.0021999999880790710449 0.0021999999880790710449 0.0021999999880790710449 0.0021999999880790710449 0.0026750001125037670135 0.0024375000502914190292 0.0021999999880790710449 0.0032500000670552253723 0.0021999999880790710449 0.0021999999880790710449 0.0039499998092651367188 0.0036749998107552528381 0.0063749998807907104492 0.0064999996684491634369 0.0062249996699392795563 0.0038999998942017555237 0.0057500000111758708954 0.0021999999880790710449 0.0021999999880790710449 0.0023000000510364770889 0.0045749996788799762726 0.0041000000201165676117 0.003474999917671084404 0.0039499998092651367188 0.00224999990314245224 0.0021999999880790710449 0.0021999999880790710449 0.0021999999880790710449 0.0026750001125037670135 0.0026750001125037670135 0.0021999999880790710449 0.0021999999880790710449 0.0021999999880790710449 0.0021999999880790710449 0.0021999999880790710449 0.003474999917671084404 0.0030499999411404132843 0.0021999999880790710449 0.0021999999880790710449 0.0028571428265422582626 0.0072999997064471244812 0.0046250000596046447754 0.0064399996772408485413 0.00674999970942735672 0.0034666666761040687561 0.0021999999880790710449 0.0021999999880790710449 0.0021999999880790710449 0.0028249998576939105988 0.0021999999880790710449 0.0021999999880790710449 0.0021999999880790710449 0.0021999999880790710449 0.002880000043660402298 0.0021999999880790710449 0.0021999999880790710449 0.002349999966099858284 0.0026000000070780515671 0.0021999999880790710449 0.0021999999880790710449 0.0081500001251697540283 0.0033333331812173128128 0.0021999999880790710449 0.0021999999880790710449 0.0021999999880790710449 0.0030499999411404132843 0.0021999999880790710449 0.0021999999880790710449 0.0021999999880790710449 0.0021999999880790710449 0.0021999999880790710449 
0.0021999999880790710449 0.0021999999880790710449 0.0021999999880790710449 0.0021999999880790710449 0.0021999999880790710449 0.0021999999880790710449 0.0030499999411404132843 0.0030499999411404132843 0.0021999999880790710449 0.00224999990314245224 0.0047499998472630977631 0.0060249995440244674683 0.0021999999880790710449 0.0021999999880790710449 0.0021999999880790710449 0.0021999999880790710449 0.0021999999880790710449 0.0024375000502914190292 0.0024375000502914190292 0.0026750001125037670135 0.0031500000040978193283 0.0021999999880790710449 0.0021999999880790710449 0.0021999999880790710449 0.0021999999880790710449 0.0021999999880790710449 0.0031999999191612005234 0.004900000058114528656 0.0056249997578561306 0.0062249996699392795563 0.0048499996773898601532 0.004237500019371509552 0.0047999997623264789581 0.0021999999880790710449 0.0021999999880790710449 0.0031500000040978193283 0.0030499999411404132843 0.0040500001050531864166 0.0021999999880790710449 0.0021999999880790710449 0.0021999999880790710449 0.0021999999880790710449 0.0021999999880790710449 0.0021999999880790710449 0.0021999999880790710449 0.0021999999880790710449 0.0023000000510364770889 0.0035249998327344655991 0.0021999999880790710449 0.0021999999880790710449 0.0021999999880790710449 0.0021999999880790710449 0.0021999999880790710449 0.0021999999880790710449 0.0021999999880790710449 0.0021999999880790710449 0.00334285711869597435 0.0027230768464505672455 0.0053384611383080482483 0.0051499996334314346313 0.0021999999880790710449 0.0021999999880790710449 0.0021999999880790710449 0.0022666666191071271896 0.0021999999880790710449 0.0021999999880790710449 0.0021999999880790710449 0.0021999999880790710449 0.0021999999880790710449 0.0021999999880790710449 0.0021999999880790710449 0.0021999999880790710449 0.0029555554501712322235 0.0026249999646097421646 0.0021999999880790710449 0.0021999999880790710449 0.00899999961256980896 0.0044666663743555545807 0.0021999999880790710449 0.003474999917671084404 0.0021999999880790710449 0.0026249999646097421646 0.0021999999880790710449 0.002912499941885471344 0.0021999999880790710449 0.0021999999880790710449 0.0021999999880790710449 
0.0021999999880790710449 0.0021999999880790710449 0.0041499999351799488068 0.0032999999821186065674 0.0021999999880790710449 0.0021999999880790710449 0.0021999999880790710449 0.0056499997153878211975 0.0043750000186264514923 0.0038749999366700649261 0.003474999917671084404 0.007724999450147151947 0.0021999999880790710449 0.0021999999880790710449 0.0021999999880790710449 0.0021999999880790710449 0.0021999999880790710449 0.0021999999880790710449 0.0021999999880790710449 0.0021999999880790710449 0.0021999999880790710449 0.0021999999880790710449 0.0021999999880790710449 0.0021999999880790710449 0.0021999999880790710449 0.00224999990314245224 0.0024000001139938831329 0.0043750000186264514923 0.0038749999366700649261 0.0025375001132488250732 0.0037624998949468135834 0.0027250000275671482086 0.0044249999336898326874 0.0021999999880790710449 0.0021999999880790710449 0.0031999999191612005234 0.0032500000670552253723 0.0041000000201165676117 0.0021999999880790710449 0.0021999999880790710449 0.00224999990314245224 0.0026249999646097421646 0.0021999999880790710449 0.0021999999880790710449 0.0021999999880790710449 0.0021999999880790710449 0.0023000000510364770889 0.0024874999653548002243 0.0021999999880790710449 0.0021999999880790710449 0.0021999999880790710449 0.0021999999880790710449 0.0021999999880790710449 0.0021999999880790710449 0.0053749997168779373169 0.0030499999411404132843 0.0050800000317394733429 0.0041000000201165676117 0.0062444442883133888245 0.0035999999381601810455 0.0021999999880790710449 0.0021999999880790710449 0.004377777688205242157 0.0021999999880790710449 0.0034666666761040687561 0.0021999999880790710449 0.0021999999880790710449 0.004377777688205242157 0.0021999999880790710449 0.0021999999880790710449 0.0021999999880790710449 0.0021999999880790710449 0.0021999999880790710449 0.0021999999880790710449 0.0021999999880790710449 0.0021999999880790710449 0.00899999961256980896 0.0026533333584666252136 0.0030499999411404132843 0.0026249999646097421646 0.0021999999880790710449 0.0021999999880790710449 0.0021999999880790710449 0.0021999999880790710449 0.0024375000502914190292 0.0021999999880790710449 0.0031500000040978193283 
0.0021999999880790710449 0.0021999999880790710449 0.0021999999880790710449 0.0023000000510364770889 0.0021999999880790710449 0.0021999999880790710449 0.0021999999880790710449 0.0039499998092651367188 0.0051750000566244125366 0.0041499999351799488068 0.0021999999880790710449 0.0038999998942017555237 0.0021999999880790710449 0.0021999999880790710449 0.0021999999880790710449 0.0021999999880790710449 0.0021999999880790710449 0.0021999999880790710449 0.0021999999880790710449 0.0021999999880790710449 0.0021999999880790710449 0.003574999980628490448 0.0021999999880790710449 0.0021999999880790710449 0.0021999999880790710449 0.0023000000510364770889 0.0026249999646097421646 0.002349999966099858284 0.0028750000055879354477 0.002349999966099858284 0.0027749999426305294037 0.0026749998796731233597 0.0056999996304512023926 0.0021999999880790710449 0.0021999999880790710449 0.0024375000502914190292 0.0050499998033046722412 0.0048124999739229679108 0.0024375000502914190292 0.0021999999880790710449 0.002912499941885471344 0.0027250000275671482086 0.0021999999880790710449 0.0021999999880790710449 0.0021999999880790710449 0.0021999999880790710449 0.0021999999880790710449 0.0036749998107552528381 0.0031500000040978193283 0.0021999999880790710449 0.0021999999880790710449 0.0021999999880790710449 0.0021999999880790710449 0.0039777779020369052887 0.003474999917671084404 0.0021999999880790710449 0.003574999980628490448 0.0053666667081415653229 0.0066923075355589389801 0.0071249995380640029907 0.0023600000422447919846 0.0021999999880790710449 0.0021999999880790710449 0.0021999999880790710449 0.0021999999880790710449 0.0021999999880790710449 0.0021999999880790710449 0.0021999999880790710449 0.0021999999880790710449 0.0034250000026077032089 0.0021999999880790710449 0.0021999999880790710449 0.0021999999880790710449 0.0021999999880790710449 0.0021999999880790710449 0.0021999999880790710449 0.0021999999880790710449 0.0021999999880790710449 0.0026249999646097421646 0.0026249999646097421646 0.0021999999880790710449 0.0021999999880790710449 0.0021999999880790710449 0.0021999999880790710449 0.0024375000502914190292 0.0024375000502914190292 0.0021999999880790710449 
0.0021999999880790710449 0.0021999999880790710449 0.0021999999880790710449 0.0021999999880790710449 0.0021999999880790710449 0.0024375000502914190292 0.0026749998796731233597 0.0051750000566244125366 0.0056499997153878211975 0.0048499996773898601532 0.003474999917671084404 0.0021999999880790710449 0.0021999999880790710449 0.0021999999880790710449 0.0021999999880790710449 0.0021999999880790710449 0.0021999999880790710449 0.0021999999880790710449 0.0021999999880790710449 0.0047499998472630977631 0.0021999999880790710449 0.0021999999880790710449 0.0027749999426305294037 0.0021999999880790710449 0.0021999999880790710449 0.0021999999880790710449 0.0036249998956918716431 0.0048499996773898601532 0.0023000000510364770889 0.002912499941885471344 0.003675000043585896492 0.0027250000275671482086 0.0053249998018145561218 0.0029750000685453414917 0.0021999999880790710449 0.0026750001125037670135 0.0038624999579042196274 0.0026750001125037670135 0.0021999999880790710449 0.0028250000905245542526 0.0027250000275671482086 0.002349999966099858284 0.0021999999880790710449 0.0021999999880790710449 0.0021999999880790710449 0.002912499941885471344 0.0021999999880790710449 0.0044749998487532138824 0.0021999999880790710449 0.0021999999880790710449 0.0021999999880790710449 0.0021999999880790710449 0.0021999999880790710449 0.0030999998562037944794 0.00224999990314245224 0.0021999999880790710449 0.0022571429144591093063 0.0047846152447164058685 0.0063666664063930511475 0.0070923073217272758484 0.0022666666191071271896 0.0021999999880790710449 0.0026249999646097421646 0.0026249999646097421646 0.0021999999880790710449 0.0021999999880790710449 0.0021999999880790710449 0.0021999999880790710449 0.0021999999880790710449 0.0021999999880790710449 0.0021999999880790710449 0.0021999999880790710449 0.0021999999880790710449 0.0021999999880790710449 0.0021999999880790710449 0.0021999999880790710449 0.0021999999880790710449 0.0021999999880790710449 0.0021999999880790710449 0.0021999999880790710449 0.0021999999880790710449 0.0021999999880790710449 0.0021999999880790710449 0.002912499941885471344 0.0021999999880790710449 0.0021999999880790710449 0.0021999999880790710449 
0.0021999999880790710449 0.0021999999880790710449 0.00224999990314245224 0.0021999999880790710449 0.0026750001125037670135 0.0024375000502914190292 0.003574999980628490448 0.0085749998688697814941 0.0082499999552965164185 0.0085749998688697814941 0.0030499999411404132843 0.0021999999880790710449 0.0032500000670552253723 0.0021999999880790710449 0.0021999999880790710449 0.0021999999880790710449 0.0021999999880790710449 0.0021999999880790710449 0.003474999917671084404 0.003474999917671084404 0.0021999999880790710449 0.0021999999880790710449 0.002912499941885471344 0.0021999999880790710449 0.0024375000502914190292 0.0026750001125037670135 0.0045749996788799762726 0.0053749997168779373169 0.0026499999221414327621 0.0034374999813735485077 0.0031999999191612005234 0.0026749998796731233597 0.0040500001050531864166 0.0050499998033046722412 0.0021999999880790710449 0.0021999999880790710449 0.0021999999880790710449 0.0021999999880790710449 0.0021999999880790710449 0.0026749998796731233597 0.0021999999880790710449 0.0021999999880790710449 0.0021999999880790710449 0.0021999999880790710449 0.0021999999880790710449 0.0024375000502914190292 0.0021999999880790710449 0.0033374999184161424637 0.0021999999880790710449 0.0021999999880790710449 0.0021999999880790710449 0.0021999999880790710449 0.0021999999880790710449 0.0021999999880790710449 0.0021999999880790710449 0.0030499999411404132843 0.0021999999880790710449 0.0050857141613960266113 0.0050800000317394733429 0.0074999998323619365692 0.0047333333641290664673 0.0021999999880790710449 0.0021999999880790710449 0.0030499999411404132843 0.0026857142802327871323 0.0042399996891617774963 0.0021999999880790710449 0.0021999999880790710449 0.0021999999880790710449 0.0021999999880790710449 0.0021999999880790710449 0.0021999999880790710449 0.0021999999880790710449 0.0021999999880790710449 0.0021999999880790710449 0.0039999997243285179138 0.0021999999880790710449 0.0021999999880790710449 0.0038999998942017555237 0.0021999999880790710449 0.0021999999880790710449 0.0021999999880790710449 0.0021999999880790710449 0.0026750001125037670135 0.0026750001125037670135 0.003474999917671084404 0.0055999998003244400024 
0.0021999999880790710449 0.0024000001139938831329 0.0041499999351799488068 0.0023000000510364770889 0.0026249999646097421646 0.0028625000268220901489 0.0055999998003244400024 0.0073999995365738868713 0.0082499999552965164185 0.007724999450147151947 0.0021999999880790710449 0.0021999999880790710449 0.0028249998576939105988 0.0021999999880790710449 0.0021999999880790710449 0.0021999999880790710449 0.0026249999646097421646 0.0021999999880790710449 0.00224999990314245224 0.0024000001139938831329 0.0021999999880790710449 0.0021999999880790710449 0.0026750001125037670135 0.0041000000201165676117 0.0038624999579042196274 0.0021999999880790710449 0.0031500000040978193283 0.0040500001050531864166 0.0042499997653067111969 0.0027749999426305294037 0.0021999999880790710449 0.00224999990314245224 0.0021999999880790710449 0.0030999998562037944794 0.0026249999646097421646 0.0021999999880790710449 0.0021999999880790710449 0.0026249999646097421646 0.0030499999411404132843 0.0027749999426305294037 0.0023000000510364770889 0.0026749998796731233597 0.0021999999880790710449 0.0021999999880790710449 0.0030499999411404132843 0.0030999998562037944794 0.0021999999880790710449 0.0021999999880790710449 0.0021999999880790710449 0.003474999917671084404 0.0021999999880790710449 0.0021999999880790710449 0.0021999999880790710449 0.0021999999880790710449 0.0021999999880790710449 0.0021999999880790710449 0.0039999997243285179138 0.0077999997884035110474 0.0069333328865468502045 0.0060933330096304416656 0.0022888889070600271225 0.0021999999880790710449 0.0021999999880790710449 0.0028125001117587089539 0.0021999999880790710449 0.0021999999880790710449 0.0021999999880790710449 0.0021999999880790710449 0.0021999999880790710449 0.0021999999880790710449 0.0021999999880790710449 0.0021999999880790710449 0.0021999999880790710449 0.0021999999880790710449 0.0021999999880790710449 0.0036571428645402193069 0.003474999917671084404 0.0042923074215650558472 0.0033333331812173128128 0.0021999999880790710449 0.0021999999880790710449 0.0021999999880790710449 0.0021999999880790710449 0.0021999999880790710449 0.0021999999880790710449 0.0047499998472630977631 0.0021999999880790710449 
0.0021999999880790710449 0.0026249999646097421646 0.0040500001050531864166 0.0038999998942017555237 0.0072999997064471244812 0.0037624998949468135834 0.0055124997161328792572 0.0072999997064471244812 0.0044249999336898326874 0.0021999999880790710449 0.0021999999880790710449 0.0038999998942017555237 0.0026249999646097421646 0.0021999999880790710449 0.0021999999880790710449 0.0021999999880790710449 0.002349999966099858284 0.0032500000670552253723 0.0043249996379017829895 0.0030499999411404132843 0.0021999999880790710449 0.0021999999880790710449 0.0021999999880790710449 0.0033875000663101673126 0.0042874999344348907471 0.002450000029057264328 0.0063249999657273292542 0.0039625000208616256714 0.0032999999821186065674 0.0031500000040978193283 0.0021999999880790710449 0.0044749998487532138824 0.0032500000670552253723 0.0023000000510364770889 0.0021999999880790710449 0.0045749996788799762726 0.0023000000510364770889 0.0037249999586492776871 0.0056999996304512023926 0.002450000029057264328 0.0041000000201165676117 0.0021999999880790710449 0.0021999999880790710449 0.0021999999880790710449 0.0035249998327344655991 0.0050499998033046722412 0.0043249996379017829895 0.0024375000502914190292 0.002349999966099858284 0.002349999966099858284 0.0021999999880790710449 0.0021999999880790710449 0.0021999999880790710449 0.0021999999880790710449 0.0021999999880790710449 0.0021999999880790710449 0.0028571428265422582626 0.0071999998763203620911 0.0069999997504055500031 0.0030307692941278219223 0.0022615385241806507111 0.0021999999880790710449 0.0021999999880790710449 0.0021999999880790710449 0.0021999999880790710449 0.0021999999880790710449 0.0024714285973459482193 0.0021999999880790710449 0.0021999999880790710449 0.0021999999880790710449 0.0021999999880790710449 0.0021999999880790710449 0.0021999999880790710449 0.0021999999880790710449 0.0021999999880790710449 0.0021999999880790710449 0.0021999999880790710449 0.0021999999880790710449 0.0021999999880790710449 0.0021999999880790710449 0.0021999999880790710449 0.0021999999880790710449 0.0021999999880790710449 0.0021999999880790710449 0.0021999999880790710449 0.0060249995440244674683 0.0021999999880790710449 
0.0021999999880790710449 0.0021999999880790710449 0.0038999998942017555237 0.005424999631941318512 0.0041999998502433300018 0.0065624997951090335846 0.0063749998807907104492 0.0063249999657273292542 0.0037749998737126588821 0.0021999999880790710449 0.0021999999880790710449 0.0030999998562037944794 0.0021999999880790710449 0.0021999999880790710449 0.0021999999880790710449 0.0021999999880790710449 0.002349999966099858284 0.0055999998003244400024 0.0038999998942017555237 0.003474999917671084404 0.0021999999880790710449 0.0021999999880790710449 0.0021999999880790710449 0.0035249998327344655991 0.0040500001050531864166 0.0027250000275671482086 0.0044749998487532138824 0.0031999999191612005234 0.0023000000510364770889 0.0024375000502914190292 0.0021999999880790710449 0.0039499998092651367188 0.002450000029057264328 0.0021999999880790710449 0.0030499999411404132843 0.0038999998942017555237 0.0030999998562037944794 0.0053749997168779373169 0.0036749998107552528381 0.0069749997928738594055 0.0055749998427927494049 0.0021999999880790710449 0.0026249999646097421646 0.0036249998956918716431 0.003474999917671084404 0.0078249992802739143372 0.0034000000450760126114 0.0034874998964369297028 0.0021999999880790710449 0.0021999999880790710449 0.0021999999880790710449 0.00224999990314245224 0.0026750001125037670135 0.0026249999646097421646 0.0043249996379017829895 0.0035249998327344655991 0.0037999998312443494797 0.0048666666261851787567 0.0079999994486570358276 0.0046615381725132465363 0.0022615385241806507111 0.0021999999880790710449 0.0021999999880790710449 0.003246153704822063446 0.0044666663743555545807 0.0021999999880790710449 0.0021999999880790710449 0.0021999999880790710449 0.0021999999880790710449 0.0021999999880790710449 0.0021999999880790710449 0.0021999999880790710449 0.0021999999880790710449 0.0021999999880790710449 0.0021999999880790710449 0.0031799999997019767761 0.0021999999880790710449 0.0021999999880790710449 0.0024999999441206455231 0.0021999999880790710449 0.0021999999880790710449 0.0021999999880790710449 0.0021999999880790710449 0.0021999999880790710449 0.0021999999880790710449 0.0047499998472630977631 0.0021999999880790710449 
0.0021999999880790710449 0.0021999999880790710449 0.0021999999880790710449 0.0047999997623264789581 0.0055749998427927494049 0.0086249997839331626892 0.0082499999552965164185 0.0047249998897314071655 0.0021999999880790710449 0.0021999999880790710449 0.0021999999880790710449 0.0021999999880790710449 0.0021999999880790710449 0.0021999999880790710449 0.0021999999880790710449 0.0021999999880790710449 0.0021999999880790710449 0.0047499998472630977631 0.003474999917671084404 0.0021999999880790710449 0.0021999999880790710449 0.0026249999646097421646 0.0049999998882412910461 0.0041000000201165676117 0.0024375000502914190292 0.0036249998956918716431 0.0026249999646097421646 0.0021999999880790710449 0.0021999999880790710449 0.0021999999880790710449 0.0021999999880790710449 0.0030499999411404132843 0.0050999997183680534363 0.0041499999351799488068 0.003474999917671084404 0.0048499996773898601532 0.0056249997578561306 0.0054750000126659870148 0.0048499996773898601532 0.0030999998562037944794 0.0023000000510364770889 0.0043249996379017829895 0.0030499999411404132843 0.0040500001050531864166 0.0028249998576939105988 0.006549999583512544632 0.0026749998796731233597 0.0039499998092651367188 0.0021999999880790710449 0.0021999999880790710449 0.0021999999880790710449 0.0031500000040978193283 0.003012500004842877388 0.0021999999880790710449 0.0026249999646097421646 0.0026249999646097421646 0.0023000000510364770889 0.0060000000521540641785 0.0072857141494750976562 0.0074999998323619365692 0.0021999999880790710449 0.0021999999880790710449 0.0021999999880790710449 0.0021999999880790710449 0.0021999999880790710449 0.0021999999880790710449 0.0021999999880790710449 0.0021999999880790710449 0.0021999999880790710449 0.0021999999880790710449 0.0021999999880790710449 0.0021999999880790710449 0.0021999999880790710449 0.0021999999880790710449 0.0021999999880790710449 0.0021999999880790710449 0.0046500000171363353729 0.0021999999880790710449 0.0027250000275671482086 0.0021999999880790710449 0.0021999999880790710449 0.0021999999880790710449 0.0021999999880790710449 0.0026249999646097421646 0.0043249996379017829895 0.0060249995440244674683 0.0038999998942017555237 
0.0021999999880790710449 0.0026749998796731233597 0.00224999990314245224 0.0078249992802739143372 0.0060000000521540641785 0.0086249997839331626892 0.0062749995850026607513 0.0024874999653548002243 0.0021999999880790710449 0.0021999999880790710449 0.0021999999880790710449 0.0021999999880790710449 0.0021999999880790710449 0.0021999999880790710449 0.0021999999880790710449 0.0021999999880790710449 0.0021999999880790710449 0.0038999998942017555237 0.0021999999880790710449 0.0021999999880790710449 0.0021999999880790710449 0.0039499998092651367188 0.0041499999351799488068 0.0023000000510364770889 0.0021999999880790710449 0.0021999999880790710449 0.0021999999880790710449 0.0021999999880790710449 0.0043750000186264514923 0.0021999999880790710449 0.0021999999880790710449 0.0021999999880790710449 0.0030499999411404132843 0.0044249999336898326874 0.0021999999880790710449 0.0023000000510364770889 0.0041499999351799488068 0.0070749996230006217957 0.0043750000186264514923 0.0030499999411404132843 0.0021999999880790710449 0.0021999999880790710449 0.00224999990314245224 0.0033374999184161424637 0.0021999999880790710449 0.0026749998796731233597 0.0021999999880790710449 0.0027666667010635137558 0.0032857141923159360886 0.0021999999880790710449 0.0028125001117587089539 0.0021999999880790710449 0.0026750001125037670135 0.0033374999184161424637 0.0064999996684491634369 0.0052285711281001567841 0.0045999996364116668701 0.0048666666261851787567 0.0072999997064471244812 0.0060000000521540641785 0.0041999998502433300018 0.0021999999880790710449 0.0021999999880790710449 0.0021999999880790710449 0.0021999999880790710449 0.0021999999880790710449 0.0021999999880790710449 0.0021999999880790710449 0.0021999999880790710449 0.0021999999880790710449 0.0021999999880790710449 0.0021999999880790710449 0.0021999999880790710449 0.00224999990314245224 0.0035999999381601810455 0.0021999999880790710449 0.0021999999880790710449 0.0021999999880790710449 0.0021999999880790710449 0.0021999999880790710449 0.0021999999880790710449 0.0021999999880790710449 0.0021999999880790710449 0.0047499998472630977631 0.0066874995827674865723 0.0026249999646097421646 0.0021999999880790710449 
0.0024375000502914190292 0.0026249999646097421646 0.003574999980628490448 0.0073499996215105056763 0.0063749998807907104492 0.0078750001266598701477 0.0057999999262392520905 0.0021999999880790710449 0.0021999999880790710449 0.0021999999880790710449 0.0021999999880790710449 0.0021999999880790710449 0.0021999999880790710449 0.0021999999880790710449 0.0021999999880790710449 0.0021999999880790710449 0.0021999999880790710449 0.0021999999880790710449 0.0021999999880790710449 0.0021999999880790710449 0.0021999999880790710449 0.0039499998092651367188 0.0028750000055879354477 0.0021999999880790710449 0.0021999999880790710449 0.0021999999880790710449 0.0026249999646097421646 0.0030499999411404132843 0.0032999999821186065674 0.0021999999880790710449 0.0021999999880790710449 0.0021999999880790710449 0.003474999917671084404 0.0058999997563660144806 0.0028249998576939105988 0.0021999999880790710449 0.0052749998867511749268 0.0066499998793005943298 0.0031999999191612005234 0.0064499997533857822418 0.0056999996304512023926 0.0031999999191612005234 0.0038999998942017555237 0.0045249997638165950775 0.0058374996297061443329 0.004900000058114528656 0.0030399998649954795837 0.0036249998956918716431 0.0057333330623805522919 0.0023000000510364770889 0.0023230768274515867233 0.0021999999880790710449 0.0021999999880790710449 0.0026749998796731233597 0.0021999999880790710449 0.0032133331988006830215 0.0056999996304512023926 0.0079999994486570358276 0.0072999997064471244812 0.0057999999262392520905 0.0060666664503514766693 0.00224999990314245224 0.0026249999646097421646 0.0027230768464505672455 0.0021999999880790710449 0.0021999999880790710449 0.0021999999880790710449 0.0021999999880790710449 0.0021999999880790710449 0.0021999999880790710449 0.0021999999880790710449 0.0021999999880790710449 0.0021999999880790710449 0.0031999999191612005234 0.0036133332177996635437 0.0021999999880790710449 0.0021999999880790710449 0.0021999999880790710449 0.0033875000663101673126 0.0024375000502914190292 0.0021999999880790710449 0.0021999999880790710449 0.003474999917671084404 0.0071124997921288013458 0.0071124997921288013458 0.0028625000268220901489 0.0021999999880790710449 
0.0024375000502914190292 0.0026749998796731233597 0.0078249992802739143372 0.0038250000216066837311 0.0049499999731779098511 0.00674999970942735672 0.0035249998327344655991 0.0021999999880790710449 0.0021999999880790710449 0.0021999999880790710449 0.0021999999880790710449 0.0021999999880790710449 0.0021999999880790710449 0.0021999999880790710449 0.0021999999880790710449 0.0021999999880790710449 0.0021999999880790710449 0.0021999999880790710449 0.0021999999880790710449 0.0021999999880790710449 0.0021999999880790710449 0.0021999999880790710449 0.0023000000510364770889 0.0021999999880790710449 0.0021999999880790710449 0.0026749998796731233597 0.0048499996773898601532 0.0049499999731779098511 0.0038624999579042196274 0.0021999999880790710449 0.0021999999880790710449 0.0021999999880790710449 0.0021999999880790710449 0.0032999999821186065674 0.0024000001139938831329 0.0038999998942017555237 0.0026249999646097421646 0.0051750000566244125366 0.0047499998472630977631 0.003574999980628490448 0.0021999999880790710449 0.0047999997623264789581 0.0051750000566244125366 0.0026249999646097421646 0.0023000000510364770889 0.0058666663244366645813 0.0037249999586492776871 0.0036249998956918716431 0.0084999995306134223938 0.0035249998327344655991 0.0021999999880790710449 0.0021999999880790710449 0.0021999999880790710449 0.0030499999411404132843 0.0043249996379017829895 0.0073499996215105056763 0.00899999961256980896 0.00899999961256980896 0.0060000000521540641785 0.0078666666522622108459 0.0040333331562578678131 0.0021999999880790710449 0.00224999990314245224 0.0026750001125037670135 0.0028333333320915699005 0.0021999999880790710449 0.0021999999880790710449 0.0021999999880790710449 0.0026750001125037670135 0.0031500000040978193283 0.0021999999880790710449 0.0021999999880790710449 0.0026249999646097421646 0.003574999980628490448 0.0021999999880790710449 0.0021999999880790710449 0.0036249998956918716431 0.0021999999880790710449 0.0024375000502914190292 0.0021999999880790710449 0.0021999999880790710449 0.0021999999880790710449 0.0030499999411404132843 0.0085749998688697814941 0.0052249999716877937317 0.0021999999880790710449 0.0021999999880790710449 
0.0026750001125037670135 0.0069249998778104782104 0.0058499998413026332855 0.002349999966099858284 0.0035249998327344655991 0.0074999998323619365692 0.0046250000596046447754 0.0033875000663101673126 0.0021999999880790710449 0.0021999999880790710449 0.0021999999880790710449 0.0021999999880790710449 0.0021999999880790710449 0.0021999999880790710449 0.0021999999880790710449 0.0021999999880790710449 0.0021999999880790710449 0.0021999999880790710449 0.0021999999880790710449 0.0021999999880790710449 0.0021999999880790710449 0.0021999999880790710449 0.0021999999880790710449 0.0021999999880790710449 0.0027250000275671482086 0.0046250000596046447754 0.0029249999206513166428 0.0038749999366700649261 0.0053375000134110450745 0.0021999999880790710449 0.0021999999880790710449 0.0021999999880790710449 0.0043750000186264514923 0.0057999999262392520905 0.0044749998487532138824 0.0029249999206513166428 0.0052249999716877937317 0.0028249998576939105988 0.0060249995440244674683 0.0021999999880790710449 0.0027749999426305294037 0.0030499999411404132843 0.0021999999880790710449 0.0021999999880790710449 0.0021999999880790710449 0.0035999999381601810455 0.0027428572066128253937 0.0043999999761581420898 0.0041000000201165676117 0.0022666666191071271896 0.0021999999880790710449 0.0021999999880790710449 0.0026749998796731233597 0.0043750000186264514923 0.004013333003968000412 0.0060599995777010917664 0.00899999961256980896 0.0069999997504055500031 0.0042266664095222949982 0.0054888888262212276459 0.0040153847075998783112 0.0023600000422447919846 0.0028125001117587089539 0.0050874999724328517914 0.0028333333320915699005 0.0021999999880790710449 0.0021999999880790710449 0.0021999999880790710449 0.0030166667420417070389 0.0039666667580604553223 0.0021999999880790710449 0.0021999999880790710449 0.0021999999880790710449 0.0023000000510364770889 0.0045999996364116668701 0.0021999999880790710449 0.0021999999880790710449 0.0021999999880790710449 0.0021999999880790710449 0.0021999999880790710449 0.0021999999880790710449 0.0021999999880790710449 0.0047499998472630977631 0.0055999998003244400024 0.0062624998390674591064 0.0026249999646097421646 0.0021999999880790710449 
0.0026749998796731233597 0.0063249999657273292542 0.0034000000450760126114 0.0021999999880790710449 0.0048499996773898601532 0.0082499999552965164185 0.0044749998487532138824 0.0026750001125037670135 0.0021999999880790710449 0.0021999999880790710449 0.0021999999880790710449 0.0021999999880790710449 0.0021999999880790710449 0.0021999999880790710449 0.0021999999880790710449 0.0021999999880790710449 0.0021999999880790710449 0.0021999999880790710449 0.0021999999880790710449 0.0026249999646097421646 0.0021999999880790710449 0.0021999999880790710449 0.0021999999880790710449 0.0031999999191612005234 0.003474999917671084404 0.0041999998502433300018 0.0026249999646097421646 0.0085749998688697814941 0.0026249999646097421646 0.0021999999880790710449 0.0021999999880790710449 0.0043249996379017829895 0.0041000000201165676117 0.0021999999880790710449 0.0028750000055879354477 0.0030999998562037944794 0.0026249999646097421646 0.0039999997243285179138 0.003474999917671084404 0.0021999999880790710449 0.0026749998796731233597 0.0021999999880790710449 0.0021999999880790710449 0.0021999999880790710449 0.0030499999411404132843 0.0072599998675286769867 0.0047499998472630977631 0.0057999999262392520905 0.0021999999880790710449 0.0021999999880790710449 0.0021999999880790710449 0.0021999999880790710449 0.0021999999880790710449 0.0021999999880790710449 0.0021999999880790710449 0.0043199998326599597931 0.0074999998323619365692 0.0069999997504055500031 0.0039999997243285179138 0.0033333331812173128128 0.0030999998562037944794 0.0023333332501351833344 0.0021999999880790710449 0.0038999998942017555237 0.0021999999880790710449 0.0021999999880790710449 0.0021999999880790710449 0.0021999999880790710449 0.0021999999880790710449 0.0021999999880790710449 0.0021999999880790710449 0.0028333333320915699005 0.0024285714607685804367 0.00224999990314245224 0.0021999999880790710449 0.0021999999880790710449 0.0021999999880790710449 0.0021999999880790710449 0.0021999999880790710449 0.0021999999880790710449 0.0021999999880790710449 0.0021999999880790710449 0.0038999998942017555237 0.0085749998688697814941 0.0081500001251697540283 0.0047499998472630977631 0.0021999999880790710449 
0.003574999980628490448 0.0060000000521540641785 0.0036749998107552528381 0.0021999999880790710449 0.0030999998562037944794 0.0074499999172985553741 0.0070249997079372406006 0.0021999999880790710449 0.0021999999880790710449 0.0021999999880790710449 0.0021999999880790710449 0.0021999999880790710449 0.0021999999880790710449 0.0021999999880790710449 0.0021999999880790710449 0.0021999999880790710449 0.0021999999880790710449 0.0021999999880790710449 0.0039499998092651367188 0.0047999997623264789581 0.0021999999880790710449 0.0021999999880790710449 0.0028249998576939105988 0.0027749999426305294037 0.0021999999880790710449 0.0021999999880790710449 0.003474999917671084404 0.0036749998107552528381 0.0030499999411404132843 0.0021999999880790710449 0.0021999999880790710449 0.0077749998308718204498 0.0045749996788799762726 0.0021999999880790710449 0.0031500000040978193283 0.005762500222772359848 0.0036249998956918716431 0.0031500000040978193283 0.0021999999880790710449 0.0021999999880790710449 0.0021999999880790710449 0.0021999999880790710449 0.0021999999880790710449 0.0026749998796731233597 0.0043750000186264514923 0.0027666667010635137558 0.0033333331812173128128 0.0033333331812173128128 0.0021999999880790710449 0.0021999999880790710449 0.0021999999880790710449 0.0021999999880790710449 0.0021999999880790710449 0.0021999999880790710449 0.0021999999880790710449 0.0031714285723865032196 0.0084999995306134223938 0.00899999961256980896 0.007228570990264415741 0.0027666667010635137558 0.0021999999880790710449 0.0030166667420417070389 0.0041428571566939353943 0.0030499999411404132843 0.0021999999880790710449 0.0021999999880790710449 0.0021999999880790710449 0.0021999999880790710449 0.0021999999880790710449 0.0021999999880790710449 0.0021999999880790710449 0.0021999999880790710449 0.0021999999880790710449 0.0021999999880790710449 0.0021999999880790710449 0.0021999999880790710449 0.0021999999880790710449 0.0021999999880790710449 0.0021999999880790710449 0.0021999999880790710449 0.0021999999880790710449 0.0038999998942017555237 0.003474999917671084404 0.0043750000186264514923 0.0041374997235834598541 0.0021999999880790710449 0.0021999999880790710449 
0.0057999999262392520905 0.0039749997667968273163 0.00224999990314245224 0.0021999999880790710449 0.0026249999646097421646 0.0053249998018145561218 0.0063749998807907104492 0.0062249996699392795563 0.0021999999880790710449 0.0021999999880790710449 0.0021999999880790710449 0.0021999999880790710449 0.0021999999880790710449 0.0021999999880790710449 0.0021999999880790710449 0.0021999999880790710449 0.0021999999880790710449 0.0021999999880790710449 0.003474999917671084404 0.0047999997623264789581 0.0021999999880790710449 0.0026749998796731233597 0.0028249998576939105988 0.0036749998107552528381 0.0021999999880790710449 0.0038999998942017555237 0.003474999917671084404 0.0026749998796731233597 0.0026249999646097421646 0.0021999999880790710449 0.0021999999880790710449 0.0070249997079372406006 0.003574999980628490448 0.0021999999880790710449 0.0026750001125037670135 0.0060000000521540641785 0.0033875000663101673126 0.0021999999880790710449 0.0021999999880790710449 0.0030999998562037944794 0.0021999999880790710449 0.0025800000876188278198 0.0021999999880790710449 0.0021999999880790710449 0.0021999999880790710449 0.0026533333584666252136 0.0021999999880790710449 0.0021999999880790710449 0.0021999999880790710449 0.0021999999880790710449 0.0021999999880790710449 0.0021999999880790710449 0.0021999999880790710449 0.0021999999880790710449 0.0021999999880790710449 0.0045199999585747718811 0.005114285741001367569 0.0036153844557702541351 0.0024666667450219392776 0.0021999999880790710449 0.0044666663743555545807 0.0029599999543279409409 0.0026249999646097421646 0.0021999999880790710449 0.0030499999411404132843 0.0028133334126323461533 0.0027999999001622200012 0.0021999999880790710449 0.0021999999880790710449 0.0021999999880790710449 0.0021999999880790710449 0.0021999999880790710449 0.0027230768464505672455 0.0021999999880790710449 0.0021999999880790710449 0.0021999999880790710449 0.0021999999880790710449 0.0021999999880790710449 0.0021999999880790710449 0.0021999999880790710449 0.0021999999880790710449 0.0036249998956918716431 0.0035249998327344655991 0.0035249998327344655991 0.0051750000566244125366 0.003474999917671084404 0.0021999999880790710449 
0.0060000000521540641785 0.0028249998576939105988 0.0021999999880790710449 0.0021999999880790710449 0.0021999999880790710449 0.0021999999880790710449 0.0062249996699392795563 0.0082499999552965164185 0.0045749996788799762726 0.0021999999880790710449 0.0021999999880790710449 0.0021999999880790710449 0.0021999999880790710449 0.0021999999880790710449 0.0021999999880790710449 0.0021999999880790710449 0.0021999999880790710449 0.0021999999880790710449 0.0021999999880790710449 0.0026249999646097421646 0.0021999999880790710449 0.0021999999880790710449 0.003574999980628490448 0.0037249999586492776871 0.0027749999426305294037 0.00224999990314245224 0.00224999990314245224 0.0021999999880790710449 0.0021999999880790710449 0.0021999999880790710449 0.0039499998092651367188 0.0038999998942017555237 0.0021999999880790710449 0.0021999999880790710449 0.0021999999880790710449 0.0021999999880790710449 0.0021999999880790710449 0.0021999999880790710449 0.0026249999646097421646 0.0026249999646097421646 0.0021999999880790710449 0.0021999999880790710449 0.0021999999880790710449 0.0021999999880790710449 0.0021999999880790710449 0.0021999999880790710449 0.0021999999880790710449 0.0021999999880790710449 0.0026750001125037670135 0.002912499941885471344 0.0030499999411404132843 0.0030499999411404132843 0.0021999999880790710449 0.0026750001125037670135 0.0024375000502914190292 0.0021999999880790710449 0.0021999999880790710449 0.0036249998956918716431 0.0039666667580604553223 0.006233333144336938858 0.0044249999336898326874 0.0061749997548758983612 0.0058499998413026332855 0.0028333333320915699005 0.0031500000040978193283 0.0026249999646097421646 0.0060749999247491359711 0.0026249999646097421646 0.0021999999880790710449 0.0021999999880790710449 0.0021999999880790710449 0.0030499999411404132843 0.0044666663743555545807 0.0021999999880790710449 0.0021999999880790710449 0.0036249998956918716431 0.0021999999880790710449 0.0021999999880790710449 0.0021999999880790710449 0.0021999999880790710449 0.0021999999880790710449 0.0038999998942017555237 0.0026749998796731233597 0.0073999995365738868713 0.003474999917671084404 0.00899999961256980896 0.00899999961256980896 
0.0040750000625848770142 0.002349999966099858284 0.0021999999880790710449 0.0021999999880790710449 0.0021999999880790710449 0.0021999999880790710449 0.003574999980628490448 0.0082499999552965164185 0.0066999997943639755249 0.0021999999880790710449 0.0021999999880790710449 0.0021999999880790710449 0.0021999999880790710449 0.0021999999880790710449 0.0021999999880790710449 0.0021999999880790710449 0.0021999999880790710449 0.0021999999880790710449 0.0021999999880790710449 0.0021999999880790710449 0.0021999999880790710449 0.0021999999880790710449 0.0061249998398125171661 0.0033499998971819877625 0.0048499996773898601532 0.0047999997623264789581 0.0021999999880790710449 0.0039499998092651367188 0.00224999990314245224 0.0024000001139938831329 0.0077749998308718204498 0.0027749999426305294037 0.0030499999411404132843 0.0021999999880790710449 0.0021999999880790710449 0.0021999999880790710449 0.0021999999880790710449 0.0021999999880790710449 0.0021999999880790710449 0.0021999999880790710449 0.0021999999880790710449 0.0041000000201165676117 0.0025166666600853204727 0.0021999999880790710449 0.0021999999880790710449 0.0021999999880790710449 0.0021999999880790710449 0.0023000000510364770889 0.0056833336129784584045 0.0055249999277293682098 0.0048769228160381317139 0.0021999999880790710449 0.0021999999880790710449 0.0037833333481103181839 0.0031500000040978193283 0.0021999999880790710449 0.0026249999646097421646 0.003574999980628490448 0.0041384613141417503357 0.0060000000521540641785 0.0040400000289082527161 0.0049199997447431087494 0.0044666663743555545807 0.0063666664063930511475 0.0035999999381601810455 0.0046444442123174667358 0.0081500001251697540283 0.0043538459576666355133 0.0021999999880790710449 0.0027230768464505672455 0.0021999999880790710449 0.0021999999880790710449 0.0021999999880790710449 0.0021999999880790710449 0.0021999999880790710449 0.0021999999880790710449 0.0026749998796731233597 0.0026249999646097421646 0.0021999999880790710449 0.0021999999880790710449 0.0026750001125037670135 0.0037124999798834323883 0.0021999999880790710449 0.0047499998472630977631 0.0021999999880790710449 0.0068749999627470970154 0.00899999961256980896 
0.0047749998047947883606 0.0023000000510364770889 0.0021999999880790710449 0.0021999999880790710449 0.0021999999880790710449 0.0021999999880790710449 0.0037249999586492776871 0.003574999980628490448 0.0041499999351799488068 0.0045749996788799762726 0.0027250000275671482086 0.0021999999880790710449 0.0021999999880790710449 0.0021999999880790710449 0.0021999999880790710449 0.0021999999880790710449 0.0021999999880790710449 0.0021999999880790710449 0.0021999999880790710449 0.0021999999880790710449 0.0021999999880790710449 0.003474999917671084404 0.0070749996230006217957 0.0030499999411404132843 0.0056499997153878211975 0.00224999990314245224 0.0021999999880790710449 0.0030499999411404132843 0.0021999999880790710449 0.0044749998487532138824 0.0068749999627470970154 0.0026749998796731233597 0.0045249997638165950775 0.002550000092014670372 0.0021999999880790710449 0.0021999999880790710449 0.0021999999880790710449 0.0030499999411404132843 0.0021999999880790710449 0.0021999999880790710449 0.0021999999880790710449 0.0021999999880790710449 0.0033333331812173128128 0.0021999999880790710449 0.0021999999880790710449 0.0021999999880790710449 0.0030499999411404132843 0.0021999999880790710449 0.0060000000521540641785 0.0055249999277293682098 0.0021999999880790710449 0.0021999999880790710449 0.0031500000040978193283 0.0044166669249534606934 0.0036249998956918716431 0.0021999999880790710449 0.0021999999880790710449 0.0037199999205768108368 0.0074999998323619365692 0.0053999996744096279144 0.003933333326131105423 0.0023000000510364770889 0.0021999999880790710449 0.0043249996379017829895 0.0064499997533857822418 0.0043249996379017829895 0.0026249999646097421646 0.0043199998326599597931 0.0065714283846318721771 0.0064499997533857822418 0.0035599998664110898972 0.0021999999880790710449 0.0021999999880790710449 0.0021999999880790710449 0.0021999999880790710449 0.0021999999880790710449 0.0030999998562037944794 0.00224999990314245224 0.0021999999880790710449 0.0021999999880790710449 0.0021999999880790710449 0.0021999999880790710449 0.0026249999646097421646 0.0064499997533857822418 0.0043249996379017829895 0.0068749999627470970154 0.00899999961256980896 
0.0026000000070780515671 0.0030499999411404132843 0.0021999999880790710449 0.0021999999880790710449 0.0021999999880790710449 0.0021999999880790710449 0.0028249998576939105988 0.0021999999880790710449 0.0021999999880790710449 0.0061749997548758983612 0.0053249998018145561218 0.0023000000510364770889 0.0021999999880790710449 0.0021999999880790710449 0.0021999999880790710449 0.0021999999880790710449 0.0021999999880790710449 0.0021999999880790710449 0.0021999999880790710449 0.0021999999880790710449 0.0030499999411404132843 0.0069749997928738594055 0.0055999998003244400024 0.0021999999880790710449 0.0021999999880790710449 0.0021999999880790710449 0.002450000029057264328 0.0026249999646097421646 0.0026750001125037670135 0.0021999999880790710449 0.0026249999646097421646 0.0030999998562037944794 0.0021999999880790710449 0.0027749999426305294037 0.0026750001125037670135 0.0031500000040978193283 0.0030999998562037944794 0.0026249999646097421646 0.0021999999880790710449 0.0021999999880790710449 0.0021999999880790710449 0.0021999999880790710449 0.0021999999880790710449 0.0021999999880790710449 0.0021999999880790710449 0.0021999999880790710449 0.0026749998796731233597 0.0036249998956918716431 0.0060000000521540641785 0.0047125001437962055206 0.0033333331812173128128 0.0035250000655651092529 0.0027666667010635137558 0.0060000000521540641785 0.0031500000040978193283 0.0021999999880790710449 0.0021999999880790710449 0.0023600000422447919846 0.00449999980628490448 0.0060000000521540641785 0.0026666666381061077118 0.0026249999646097421646 0.0021999999880790710449 0.00224999990314245224 0.0026249999646097421646 0.0021999999880790710449 0.0021999999880790710449 0.0021999999880790710449 0.0032500000670552253723 0.0058714281767606735229 0.0043199998326599597931 0.0021999999880790710449 0.0021999999880790710449 0.0021999999880790710449 0.0021999999880790710449 0.003474999917671084404 0.0021999999880790710449 0.0021999999880790710449 0.0021999999880790710449 0.0021999999880790710449 0.0021999999880790710449 0.0021999999880790710449 0.0021999999880790710449 0.0021999999880790710449 0.0026249999646097421646 0.003474999917671084404 0.0038999998942017555237 
0.0031749999616295099258 0.0031500000040978193283 0.0021999999880790710449 0.0021999999880790710449 0.0021999999880790710449 0.0021999999880790710449 0.0021999999880790710449 0.0021999999880790710449 0.0021999999880790710449 0.005424999631941318512 0.0035500000230967998505 0.0021999999880790710449 0.0021999999880790710449 0.0021999999880790710449 0.0021999999880790710449 0.0021999999880790710449 0.0021999999880790710449 0.0021999999880790710449 0.0021999999880790710449 0.0030999998562037944794 0.0057500000111758708954 0.00224999990314245224 0.0021999999880790710449 0.0021999999880790710449 0.0021999999880790710449 0.0021999999880790710449 0.0026749998796731233597 0.0021999999880790710449 0.0026750001125037670135 0.0050375000573694705963 0.00224999990314245224 0.0043249996379017829895 0.0021999999880790710449 0.0021999999880790710449 0.0031500000040978193283 0.0041000000201165676117 0.0021999999880790710449 0.0021999999880790710449 0.0021999999880790710449 0.0021999999880790710449 0.0021999999880790710449 0.0021999999880790710449 0.0021999999880790710449 0.0021999999880790710449 0.0021999999880790710449 0.0026249999646097421646 0.003474999917671084404 0.0041000000201165676117 0.0043111112900078296661 0.0021999999880790710449 0.0031500000040978193283 0.0054571428336203098297 0.0050499998033046722412 0.0024533332325518131256 0.0021999999880790710449 0.0021999999880790710449 0.0021999999880790710449 0.0021999999880790710449 0.005666666664183139801 0.0047846152447164058685 0.0028999999631196260452 0.0036249998956918716431 0.0030999998562037944794 0.0021999999880790710449 0.0021999999880790710449 0.0021999999880790710449 0.0021999999880790710449 0.0021999999880790710449 0.004037499893456697464 0.0048153847455978393555 0.0021999999880790710449 0.0021999999880790710449 0.0021999999880790710449 0.0021999999880790710449 0.0021999999880790710449 0.0021999999880790710449 0.0021999999880790710449 0.0021999999880790710449 0.0021999999880790710449 0.0043249996379017829895 0.0030499999411404132843 0.0021999999880790710449 0.0038999998942017555237 0.0043249996379017829895 0.0021999999880790710449 0.0043249996379017829895 0.00899999961256980896 
0.0030999998562037944794 0.0021999999880790710449 0.0021999999880790710449 0.0021999999880790710449 0.0021999999880790710449 0.0021999999880790710449 0.0021999999880790710449 0.0021999999880790710449 0.0021999999880790710449 0.0062749995850026607513 0.0046749999746680259705 0.002450000029057264328 0.0021999999880790710449 0.0021999999880790710449 0.0021999999880790710449 0.0021999999880790710449 0.0021999999880790710449 0.0021999999880790710449 0.0021999999880790710449 0.0048499996773898601532 0.0047999997623264789581 0.0021999999880790710449 0.0023000000510364770889 0.0023000000510364770889 0.0021999999880790710449 0.0021999999880790710449 0.0021999999880790710449 0.0021999999880790710449 0.0021999999880790710449 0.0021999999880790710449 0.0021999999880790710449 0.0021999999880790710449 0.0021999999880790710449 0.0021999999880790710449 0.0021999999880790710449 0.0033875000663101673126 0.0025375001132488250732 0.0021999999880790710449 0.0021999999880790710449 0.0021999999880790710449 0.0021999999880790710449 0.0021999999880790710449 0.0021999999880790710449 0.0021999999880790710449 0.0021999999880790710449 0.0021999999880790710449 0.0043374998494982719421 0.0060000000521540641785 0.0025166666600853204727 0.0021999999880790710449 0.0026750001125037670135 0.0036249998956918716431 0.0024375000502914190292 0.0021999999880790710449 0.0021999999880790710449 0.0021999999880790710449 0.0021999999880790710449 0.0021999999880790710449 0.0053666667081415653229 0.0067333332262933254242 0.003574999980628490448 0.0050499998033046722412 0.0028249998576939105988 0.0026749998796731233597 0.0021999999880790710449 0.0021999999880790710449 0.0028750000055879354477 0.002349999966099858284 0.0036249998956918716431 0.0021999999880790710449 0.0026750001125037670135 0.0021999999880790710449 0.0021999999880790710449 0.0021999999880790710449 0.0021999999880790710449 0.0021999999880790710449 0.0021999999880790710449 0.0021999999880790710449 0.0021999999880790710449 0.0030499999411404132843 0.0026249999646097421646 0.0021999999880790710449 0.0038999998942017555237 0.0021999999880790710449 0.0021999999880790710449 0.0038999998942017555237 0.0055999998003244400024 
0.0021999999880790710449 0.0021999999880790710449 0.0021999999880790710449 0.0021999999880790710449 0.0021999999880790710449 0.0021999999880790710449 0.0021999999880790710449 0.0021999999880790710449 0.0047499998472630977631 0.0062249996699392795563 0.0074999998323619365692 0.0039249998517334461212 0.00224999990314245224 0.0021999999880790710449 0.0021999999880790710449 0.0021999999880790710449 0.0021999999880790710449 0.0021999999880790710449 0.0021999999880790710449 0.0031999999191612005234 0.0023000000510364770889 0.0021999999880790710449 0.0024000001139938831329 0.0021999999880790710449 0.0039999997243285179138 0.0035249998327344655991 0.0021999999880790710449 0.0043249996379017829895 0.0045749996788799762726 0.0030999998562037944794 0.0041499999351799488068 0.0031500000040978193283 0.0021999999880790710449 0.003474999917671084404 0.0021999999880790710449 0.0021999999880790710449 0.0036249998956918716431 0.0037199999205768108368 0.0021999999880790710449 0.0026749998796731233597 0.0032666665501892566681 0.0021999999880790710449 0.0021999999880790710449 0.0021999999880790710449 0.0026249999646097421646 0.0021999999880790710449 0.0025800000876188278198 0.0029599999543279409409 0.0021999999880790710449 0.0021999999880790710449 0.0021999999880790710449 0.0021999999880790710449 0.0021999999880790710449 0.0021999999880790710449 0.0029599999543279409409 0.0027666667010635137558 0.0021999999880790710449 0.004900000058114528656 0.0084999995306134223938 0.00899999961256980896 0.0065692304633557796478 0.0044249999336898326874 0.0045384615659713745117 0.0040333331562578678131 0.003246153704822063446 0.0021999999880790710449 0.0043750000186264514923 0.0036249998956918716431 0.0021999999880790710449 0.0030499999411404132843 0.00443750014528632164 0.0048124999739229679108 0.0026750001125037670135 0.0021999999880790710449 0.0021999999880790710449 0.0021999999880790710449 0.0026249999646097421646 0.0021999999880790710449 0.0021999999880790710449 0.0021999999880790710449 0.0021999999880790710449 0.0021999999880790710449 0.0021999999880790710449 0.0021999999880790710449 0.0026249999646097421646 0.0021999999880790710449 0.0021999999880790710449 
0.0021999999880790710449 0.0021999999880790710449 0.0021999999880790710449 0.0021999999880790710449 0.0021999999880790710449 0.0021999999880790710449 0.0027749999426305294037 0.0050499998033046722412 0.0078750001266598701477 0.0049499999731779098511 0.0036249998956918716431 0.0027250000275671482086 0.0026749998796731233597 0.0021999999880790710449 0.0021999999880790710449 0.0021999999880790710449 0.0021999999880790710449 0.0021999999880790710449 0.0026249999646097421646 0.0021999999880790710449 0.0021999999880790710449 0.0021999999880790710449 0.0021999999880790710449 0.0021999999880790710449 0.00224999990314245224 0.0021999999880790710449 0.0030999998562037944794 0.0043249996379017829895 0.0030999998562037944794 0.0021999999880790710449 0.0026249999646097421646 0.0037624998949468135834 0.0021999999880790710449 0.0064499997533857822418 0.0024375000502914190292 0.0038285714108496904373 0.0041000000201165676117 0.0026750001125037670135 0.002880000043660402298 0.0047999997623264789581 0.0055999998003244400024 0.0021999999880790710449 0.0021999999880790710449 0.0021999999880790710449 0.0021999999880790710449 0.0021999999880790710449 0.0021999999880790710449 0.0026750001125037670135 0.0021999999880790710449 0.0021999999880790710449 0.0021999999880790710449 0.0021999999880790710449 0.0021999999880790710449 0.0021999999880790710449 0.0021999999880790710449 0.0052285711281001567841 0.0044166664592921733856 0.0042399996891617774963 0.0038999998942017555237 0.0021999999880790710449 0.0021999999880790710449 0.0021999999880790710449 0.0032285712659358978271 0.00224999990314245224 0.0021999999880790710449 0.0021999999880790710449 0.0050499998033046722412 0.003675000043585896492 0.0026249999646097421646 0.0030499999411404132843 0.0032500000670552253723 0.0041000000201165676117 0.0052875000983476638794 0.0021999999880790710449 0.0021999999880790710449 0.0026249999646097421646 0.0043249996379017829895 0.0021999999880790710449 0.0024375000502914190292 0.0033875000663101673126 0.0021999999880790710449 0.0026249999646097421646 0.0027749999426305294037 0.0030499999411404132843 0.0043249996379017829895 0.0021999999880790710449 0.0021999999880790710449 
0.00224999990314245224 0.0021999999880790710449 0.0021999999880790710449 0.0021999999880790710449 0.0021999999880790710449 0.0021999999880790710449 0.0044249999336898326874 0.0078750001266598701477 0.0078750001266598701477 0.0062249996699392795563 0.0024000001139938831329 0.0021999999880790710449 0.0021999999880790710449 0.0021999999880790710449 0.0021999999880790710449 0.0021999999880790710449 0.0021999999880790710449 0.0021999999880790710449 0.0021999999880790710449 0.0021999999880790710449 0.0021999999880790710449 0.0021999999880790710449 0.0021999999880790710449 0.0021999999880790710449 0.0021999999880790710449 0.0021999999880790710449 0.0023000000510364770889 0.002349999966099858284 0.0021999999880790710449 0.0023000000510364770889 0.0052749998867511749268 0.0054624998010694980621 0.0028249998576939105988 0.0051750000566244125366 0.0052249999716877937317 0.002912499941885471344 0.0021999999880790710449 0.0021999999880790710449 0.0064399996772408485413 0.0057999999262392520905 0.0043142857030034065247 0.0023000000510364770889 0.0021999999880790710449 0.0021999999880790710449 0.0021999999880790710449 0.0027250000275671482086 0.0021999999880790710449 0.0021999999880790710449 0.0021999999880790710449 0.0021999999880790710449 0.0021999999880790710449 0.0021999999880790710449 0.0021999999880790710449 0.0021999999880790710449 0.0033333331812173128128 0.0063599999994039535522 0.0041666664183139801025 0.0030499999411404132843 0.0045999996364116668701 0.0062799998559057712555 0.0023142856080085039139 0.0021999999880790710449 0.0021999999880790710449 0.0021999999880790710449 0.0021999999880790710449 0.0021999999880790710449 0.0030999998562037944794 0.0027250000275671482086 0.0055999998003244400024 0.00224999990314245224 0.003112500067800283432 0.0021999999880790710449 0.0021999999880790710449 0.0021999999880790710449 0.0021999999880790710449 0.0021999999880790710449 0.0021999999880790710449 0.0024375000502914190292 0.0048124999739229679108 0.0021999999880790710449 0.0021999999880790710449 0.0021999999880790710449 0.0021999999880790710449 0.0047499998472630977631 0.0021999999880790710449 0.0021999999880790710449 0.0021999999880790710449 
0.002349999966099858284 0.0021999999880790710449 0.0021999999880790710449 0.0021999999880790710449 0.0021999999880790710449 0.0021999999880790710449 0.0043249996379017829895 0.0050999997183680534363 0.0051499996334314346313 0.0024000001139938831329 0.00224999990314245224 0.0021999999880790710449 0.0021999999880790710449 0.0021999999880790710449 0.0021999999880790710449 0.0021999999880790710449 0.0021999999880790710449 0.0021999999880790710449 0.0021999999880790710449 0.0021999999880790710449 0.0021999999880790710449 0.0021999999880790710449 0.0055999998003244400024 0.003474999917671084404 0.0021999999880790710449 0.0021999999880790710449 0.0021999999880790710449 0.0030999998562037944794 0.0021999999880790710449 0.003474999917671084404 0.0055999998003244400024 0.0049999998882412910461 0.0029249999206513166428 0.0031999999191612005234 0.0049499999731779098511 0.0021999999880790710449 0.0021999999880790710449 0.002880000043660402298 0.0059777777642011642456 0.0047499998472630977631 0.0021999999880790710449 0.0021999999880790710449 0.0021999999880790710449 0.0048000002279877662659 0.0029625000897794961929 0.0027846153825521469116 0.0021999999880790710449 0.0021999999880790710449 0.0021999999880790710449 0.0021999999880790710449 0.0021999999880790710449 0.0021999999880790710449 0.0021999999880790710449 0.0052333329804241657257 0.0044769230298697948456 0.0043538459576666355133 0.0021999999880790710449 0.0030999998562037944794 0.0059846150688827037811 0.0040333331562578678131 0.0021999999880790710449 0.0021999999880790710449 0.0021999999880790710449 0.0021999999880790710449 0.0021999999880790710449 0.0035249998327344655991 0.0060749999247491359711 0.0066999997943639755249 0.0085749998688697814941 0.0077749998308718204498 0.0032999999821186065674 0.0021999999880790710449 0.0024375000502914190292 0.0021999999880790710449 0.0026750001125037670135 0.0043249996379017829895 0.0026249999646097421646 0.0021999999880790710449 0.002912499941885471344 0.0026750001125037670135 0.0021999999880790710449 0.0021999999880790710449 0.0021999999880790710449 0.0055999998003244400024 0.0021999999880790710449 0.0021999999880790710449 0.0021999999880790710449 
0.0027250000275671482086 0.0021999999880790710449 0.0021999999880790710449 0.0021999999880790710449 0.0021999999880790710449 0.0021999999880790710449 0.0048499996773898601532 0.0070749996230006217957 0.0036249998956918716431 0.0021999999880790710449 0.003474999917671084404 0.0021999999880790710449 0.0033875000663101673126 0.0031500000040978193283 0.0024375000502914190292 0.0021999999880790710449 0.0021999999880790710449 0.0021999999880790710449 0.0021999999880790710449 0.0021999999880790710449 0.0021999999880790710449 0.0021999999880790710449 0.0026249999646097421646 0.0024375000502914190292 0.0033875000663101673126 0.0039999997243285179138 0.00224999990314245224 0.0021999999880790710449 0.0026249999646097421646 0.0082000000402331352234 0.0086249997839331626892 0.0061749997548758983612 0.0022571429144591093063 0.0063333329744637012482 0.0043249996379017829895 0.0021999999880790710449 0.0021999999880790710449 0.0021999999880790710449 0.0067333332262933254242 0.0045333332382142543793 0.0021999999880790710449 0.0021999999880790710449 0.0021999999880790710449 0.0023333332501351833344 0.0021999999880790710449 0.0021999999880790710449 0.0041999998502433300018 0.0021999999880790710449 0.0021999999880790710449 0.0021999999880790710449 0.0021999999880790710449 0.0021999999880790710449 0.0021999999880790710449 0.0059846150688827037811 0.0038923076353967189789 0.0026533333584666252136 0.0021999999880790710449 0.0021999999880790710449 0.0044666663743555545807 0.0038307690992951393127 0.0021999999880790710449 0.0021999999880790710449 0.0021999999880790710449 0.0021999999880790710449 0.0030499999411404132843 0.0044749998487532138824 0.0064999996684491634369 0.0058499998413026332855 0.0041999998502433300018 0.0050999997183680534363 0.002912499941885471344 0.0021999999880790710449 0.0021999999880790710449 0.0021999999880790710449 0.0024375000502914190292 0.0023000000510364770889 0.0021999999880790710449 0.0021999999880790710449 0.0021999999880790710449 0.0021999999880790710449 0.0021999999880790710449 0.0021999999880790710449 0.0021999999880790710449 0.0043249996379017829895 0.0026750001125037670135 0.0021999999880790710449 0.0021999999880790710449 
0.0040500001050531864166 0.0021999999880790710449 0.0021999999880790710449 0.0021999999880790710449 0.0021999999880790710449 0.0026749998796731233597 0.0066999997943639755249 0.0041999998502433300018 0.0026749998796731233597 0.0021999999880790710449 0.0021999999880790710449 0.0021999999880790710449 0.0021999999880790710449 0.0032875000033527612686 0.0021999999880790710449 0.0021999999880790710449 0.0021999999880790710449 0.0021999999880790710449 0.0026249999646097421646 0.0028249998576939105988 0.0026249999646097421646 0.003474999917671084404 0.0021999999880790710449 0.002912499941885471344 0.0021999999880790710449 0.0021999999880790710449 0.0021999999880790710449 0.0021999999880790710449 0.0064499997533857822418 0.00899999961256980896 0.0052249999716877937317 0.0028133334126323461533 0.0024999999441206455231 0.0044153844937682151794 0.0021999999880790710449 0.0021999999880790710449 0.0021999999880790710449 0.0027999999001622200012 0.0053249998018145561218 0.0023000000510364770889 0.0021999999880790710449 0.0021999999880790710449 0.002880000043660402298 0.0030499999411404132843 0.0021999999880790710449 0.0021999999880790710449 0.0021999999880790710449 0.0027428572066128253937 0.0021999999880790710449 0.0021999999880790710449 0.0021999999880790710449 0.0055999998003244400024 0.0061749997548758983612 0.0030153845436871051788 0.0030833333730697631836 0.0021999999880790710449 0.0021999999880790710449 0.0043750000186264514923 0.0062444442883133888245 0.0063866665586829185486 0.0021999999880790710449 0.0021999999880790710449 0.0021999999880790710449 0.0027846153825521469116 0.0043750000186264514923 0.0039499998092651367188 0.0039999997243285179138 0.0030749998986721038818 0.0027499999850988388062 0.0050375000573694705963 0.0024375000502914190292 0.0021999999880790710449 0.0021999999880790710449 0.0021999999880790710449 0.0021999999880790710449 0.0021999999880790710449 0.0021999999880790710449 0.0021999999880790710449 0.0021999999880790710449 0.0021999999880790710449 0.0021999999880790710449 0.0021999999880790710449 0.0021999999880790710449 0.0021999999880790710449 0.0030499999411404132843 0.0021999999880790710449 0.0021999999880790710449 
0.0021999999880790710449 0.0021999999880790710449 0.0021999999880790710449 0.0021999999880790710449 0.0026249999646097421646 0.0041000000201165676117 0.0053249998018145561218 0.0021999999880790710449 0.0021999999880790710449 0.0021999999880790710449 0.0021999999880790710449 0.0026750001125037670135 0.0021999999880790710449 0.0021999999880790710449 0.00224999990314245224 0.0043750000186264514923 0.0021999999880790710449 0.0048499996773898601532 0.00224999990314245224 0.0021999999880790710449 0.0021999999880790710449 0.0028625000268220901489 0.0021999999880790710449 0.0021999999880790710449 0.0021999999880790710449 0.0021999999880790710449 0.0021999999880790710449 0.0021999999880790710449 0.0038999998942017555237 0.0061999997124075889587 0.0030499999411404132843 0.0021999999880790710449 0.0021999999880790710449 0.0035599998664110898972 0.0021999999880790710449 0.0021999999880790710449 0.0021999999880790710449 0.0024000001139938831329 0.002880000043660402298 0.0021999999880790710449 0.0021999999880790710449 0.0021999999880790710449 0.0021999999880790710449 0.0021999999880790710449 0.0026249999646097421646 0.0021999999880790710449 0.0021999999880790710449 0.0021999999880790710449 0.0072999997064471244812 0.0047499998472630977631 0.0021999999880790710449 0.0056499997153878211975 0.0073999995365738868713 0.0072999997064471244812 0.0073666665703058242798 0.0021999999880790710449 0.0033999998122453689575 0.0071142856031656265259 0.0048499996773898601532 0.0057142856530845165253 0.0021999999880790710449 0.0021999999880790710449 0.0021999999880790710449 0.0021999999880790710449 0.0021999999880790710449 0.0021999999880790710449 0.003474999917671084404 0.0043750000186264514923 0.0021999999880790710449 0.00224999990314245224 0.0021999999880790710449 0.0021999999880790710449 0.0021999999880790710449 0.0021999999880790710449 0.0021999999880790710449 0.002912499941885471344 0.0021999999880790710449 0.0021999999880790710449 0.0026249999646097421646 0.0021999999880790710449 0.0021999999880790710449 0.0021999999880790710449 0.0021999999880790710449 0.0021999999880790710449 0.0021999999880790710449 0.0021999999880790710449 0.0021999999880790710449 
0.0021999999880790710449 0.0021999999880790710449 0.0021999999880790710449 0.0021999999880790710449 0.0056499997153878211975 0.0043500000610947608948 0.0037749998737126588821 0.0021999999880790710449 0.0021999999880790710449 0.0021999999880790710449 0.0024375000502914190292 0.0024375000502914190292 0.0021999999880790710449 0.0021999999880790710449 0.0036249998956918716431 0.0038999998942017555237 0.0021999999880790710449 0.0030499999411404132843 0.0060249995440244674683 0.0051874998025596141815 0.0062249996699392795563 0.0056499997153878211975 0.0021999999880790710449 0.0021999999880790710449 0.0021999999880790710449 0.0021999999880790710449 0.0021999999880790710449 0.0056999996304512023926 0.0037111109122633934021 0.0028333333320915699005 0.0026249999646097421646 0.0021999999880790710449 0.0021999999880790710449 0.0021999999880790710449 0.0021999999880790710449 0.0038999998942017555237 0.0049199997447431087494 0.0021999999880790710449 0.0021999999880790710449 0.0021999999880790710449 0.0021999999880790710449 0.0021999999880790710449 0.0021999999880790710449 0.0045555555261671543121 0.0064499997533857822418 0.0021999999880790710449 0.0021999999880790710449 0.0021999999880790710449 0.00899999961256980896 0.0040333331562578678131 0.0021999999880790710449 0.0052249999716877937317 0.0043249996379017829895 0.0062999995425343513489 0.0051599997095763683319 0.0040333331562578678131 0.0030499999411404132843 0.0045599997974932193756 0.0021999999880790710449 0.0029555554501712322235 0.0052333329804241657257 0.0021999999880790710449 0.0021999999880790710449 0.0021999999880790710449 0.0021999999880790710449 0.0026249999646097421646 0.0060749999247491359711 0.0036249998956918716431 0.0027749999426305294037 0.00224999990314245224 0.0027749999426305294037 0.00224999990314245224 0.0021999999880790710449 0.0021999999880790710449 0.0021999999880790710449 0.0032875000033527612686 0.0024375000502914190292 0.0024375000502914190292 0.0030499999411404132843 0.0021999999880790710449 0.0021999999880790710449 0.0021999999880790710449 0.0021999999880790710449 0.0021999999880790710449 0.0021999999880790710449 0.0026750001125037670135 0.0021999999880790710449 
0.0021999999880790710449 0.0026249999646097421646 0.0021999999880790710449 0.0044249999336898326874 0.0054750000126659870148 0.0048750001005828380585 0.00224999990314245224 0.0021999999880790710449 0.0021999999880790710449 0.0021999999880790710449 0.0021999999880790710449 0.0021999999880790710449 0.0021999999880790710449 0.0021999999880790710449 0.0021999999880790710449 0.0021999999880790710449 0.0021999999880790710449 0.00224999990314245224 0.0038999998942017555237 0.0038999998942017555237 0.004237500019371509552 0.0027250000275671482086 0.00224999990314245224 0.0021999999880790710449 0.0021999999880790710449 0.0034250000026077032089 0.0041875001043081283569 0.006257142871618270874 0.0021999999880790710449 0.0036666665691882371902 0.0025555556640028953552 0.0021999999880790710449 0.0021999999880790710449 0.0029555554501712322235 0.0021999999880790710449 0.0026249999646097421646 0.0031714285723865032196 0.0030499999411404132843 0.0021999999880790710449 0.0021999999880790710449 0.0027846153825521469116 0.0021999999880790710449 0.0048499996773898601532 0.0076399995014071464539 0.0026749998796731233597 0.0021999999880790710449 0.0021999999880790710449 0.0021999999880790710449 0.0077999997884035110474 0.002349999966099858284 0.0056799999438226222992 0.0033333331812173128128 0.0021999999880790710449 0.0022666666191071271896 0.0027846153825521469116 0.0037249999586492776871 0.0021999999880790710449 0.0044153844937682151794 0.003246153704822063446 0.0076399995014071464539 0.0065692304633557796478 0.0021999999880790710449 0.0021999999880790710449 0.0021999999880790710449 0.0021999999880790710449 0.0021999999880790710449 0.0072999997064471244812 0.0040500001050531864166 0.0036249998956918716431 0.0026249999646097421646 0.0056999996304512023926 0.0035249998327344655991 0.0021999999880790710449 0.0021999999880790710449 0.0021999999880790710449 0.0024375000502914190292 0.0021999999880790710449 0.0024375000502914190292 0.0021999999880790710449 0.0021999999880790710449 0.0021999999880790710449 0.0021999999880790710449 0.0021999999880790710449 0.0021999999880790710449 0.0021999999880790710449 0.0021999999880790710449 0.0021999999880790710449 
0.0026249999646097421646 0.0026249999646097421646 0.0030499999411404132843 0.0063749998807907104492 0.0053749997168779373169 0.0044249999336898326874 0.0021999999880790710449 0.0021999999880790710449 0.0021999999880790710449 0.003474999917671084404 0.0024375000502914190292 0.0024375000502914190292 0.0021999999880790710449 0.0021999999880790710449 0.0021999999880790710449 0.0021999999880790710449 0.0021999999880790710449 0.0021999999880790710449 0.0021999999880790710449 0.0021999999880790710449 0.0021999999880790710449 0.0030499999411404132843 0.0037714284844696521759 0.0021999999880790710449 0.0021999999880790710449 0.0021999999880790710449 0.0059166667051613330841 0.0076399995014071464539 0.0021999999880790710449 0.0076933330856263637543 0.0049199997447431087494 0.0022888889070600271225 0.0027666667010635137558 0.0021999999880790710449 0.0021999999880790710449 0.0021999999880790710449 0.0021999999880790710449 0.0043750000186264514923 0.0021999999880790710449 0.0027666667010635137558 0.0038923076353967189789 0.0046285712160170078278 0.0030499999411404132843 0.0044249999336898326874 0.0021999999880790710449 0.0021999999880790710449 0.0021999999880790710449 0.0038999998942017555237 0.0058799996040761470795 0.0026249999646097421646 0.0021999999880790710449 0.0021999999880790710449 0.0021999999880790710449 0.0021999999880790710449 0.0037199999205768108368 0.0069076921790838241577 0.0021999999880790710449 0.0080153839662671089172 0.0063333329744637012482 0.0069076921790838241577 0.0022888889070600271225 0.0021999999880790710449 0.0059777777642011642456 0.0021999999880790710449 0.0021999999880790710449 0.0030499999411404132843 0.0047499998472630977631 0.0030499999411404132843 0.0029249999206513166428 0.0026249999646097421646 0.0081500001251697540283 0.0052749998867511749268 0.003474999917671084404 0.0047999997623264789581 0.0021999999880790710449 0.0021999999880790710449 0.0021999999880790710449 0.0021999999880790710449 0.0021999999880790710449 0.0021999999880790710449 0.0021999999880790710449 0.0021999999880790710449 0.0021999999880790710449 0.0021999999880790710449 0.0026249999646097421646 0.0021999999880790710449 0.0021999999880790710449 
0.0021999999880790710449 0.0021999999880790710449 0.0038999998942017555237 0.0059499996714293956757 0.0037749998737126588821 0.0021999999880790710449 0.0021999999880790710449 0.0021999999880790710449 0.0021999999880790710449 0.0021999999880790710449 0.0021999999880790710449 0.0032875000033527612686 0.0033875000663101673126 0.0021999999880790710449 0.0021999999880790710449 0.0032999999821186065674 0.0026249999646097421646 0.0021999999880790710449 0.0021999999880790710449 0.0021999999880790710449 0.0021999999880790710449 0.0021999999880790710449 0.0021999999880790710449 0.0021999999880790710449 0.0021999999880790710449 0.0021999999880790710449 0.0021999999880790710449 0.0022666666191071271896 0.0022666666191071271896 0.0037111109122633934021 0.0021999999880790710449 0.0027666667010635137558 0.0021999999880790710449 0.0024533332325518131256 0.0024375000502914190292 0.0021999999880790710449 0.0021999999880790710449 0.0021999999880790710449 0.0021999999880790710449 0.0021999999880790710449 0.0021999999880790710449 0.0047499998472630977631 0.0030499999411404132843 0.0021999999880790710449 0.0021999999880790710449 0.0021999999880790710449 0.0021999999880790710449 0.0021999999880790710449 0.0021999999880790710449 0.0021999999880790710449 0.0021999999880790710449 0.0021999999880790710449 0.0021999999880790710449 0.0021999999880790710449 0.0058615384623408317566 0.0068222219124436378479 0.0021999999880790710449 0.005923076532781124115 0.0053733331151306629181 0.0069749997928738594055 0.0021999999880790710449 0.0030499999411404132843 0.0070249997079372406006 0.0021999999880790710449 0.0021999999880790710449 0.0026249999646097421646 0.0021999999880790710449 0.0021999999880790710449 0.0021999999880790710449 0.0021999999880790710449 0.0043750000186264514923 0.0060249995440244674683 0.0023000000510364770889 0.0027250000275671482086 0.0021999999880790710449 0.0021999999880790710449 0.0021999999880790710449 0.0021999999880790710449 0.0021999999880790710449 0.0021999999880790710449 0.0021999999880790710449 0.0021999999880790710449 0.0021999999880790710449 0.0026249999646097421646 0.0026249999646097421646 0.0021999999880790710449 0.0021999999880790710449 
0.0021999999880790710449 0.0026249999646097421646 0.005424999631941318512 0.004900000058114528656 0.0021999999880790710449 0.0021999999880790710449 0.0021999999880790710449 0.0021999999880790710449 0.003474999917671084404 0.0026249999646097421646 0.0041000000201165676117 0.003574999980628490448 0.002912499941885471344 0.0021999999880790710449 0.0021999999880790710449 0.0030499999411404132843 0.0031999999191612005234 0.0021999999880790710449 0.0021999999880790710449 0.0021999999880790710449 0.0021999999880790710449 0.0021999999880790710449 0.0021999999880790710449 0.0021999999880790710449 0.0021999999880790710449 0.0021999999880790710449 0.0021999999880790710449 0.0021999999880790710449 0.0035999999381601810455 0.0021999999880790710449 0.0021999999880790710449 0.002880000043660402298 0.0027666667010635137558 0.0041499999351799488068 0.0038600000552833080292 0.0021999999880790710449 0.0021999999880790710449 0.0021999999880790710449 0.0021999999880790710449 0.0021999999880790710449 0.0021999999880790710449 0.0055999998003244400024 0.0021999999880790710449 0.0021999999880790710449 0.0021999999880790710449 0.0021999999880790710449 0.0021999999880790710449 0.0021999999880790710449 0.0021999999880790710449 0.0021999999880790710449 0.0021999999880790710449 0.0021999999880790710449 0.0021999999880790710449 0.0021999999880790710449 0.0030499999411404132843 0.0030499999411404132843 0.0027666667010635137558 0.008571428246796131134 0.0043000001460313796997 0.005379999987781047821 0.003574999980628490448 0.0030499999411404132843 0.0043249996379017829895 0.0031500000040978193283 0.0024375000502914190292 0.0021999999880790710449 0.0021999999880790710449 0.0021999999880790710449 0.0021999999880790710449 0.0021999999880790710449 0.0021999999880790710449 0.0048499996773898601532 0.003574999980628490448 0.0021999999880790710449 0.0028249998576939105988 0.0027250000275671482086 0.0021999999880790710449 0.0021999999880790710449 0.0030999998562037944794 0.0021999999880790710449 0.0021999999880790710449 0.0021999999880790710449 0.0021999999880790710449 0.0041999998502433300018 0.0021999999880790710449 0.0021999999880790710449 0.0021999999880790710449 
0.0030499999411404132843 0.0053249998018145561218 0.0032999999821186065674 0.00224999990314245224 0.0021999999880790710449 0.0024375000502914190292 0.0021999999880790710449 0.0026249999646097421646 0.0055999998003244400024 0.002912499941885471344 0.0038624999579042196274 0.0033875000663101673126 0.0031500000040978193283 0.0021999999880790710449 0.0021999999880790710449 0.0021999999880790710449 0.00224999990314245224 0.0024375000502914190292 0.002912499941885471344 0.0021999999880790710449 0.0031500000040978193283 0.0027066667098551988602 0.0021999999880790710449 0.0021999999880790710449 0.0021999999880790710449 0.0021999999880790710449 0.0021999999880790710449 0.0021999999880790710449 0.0021999999880790710449 0.0021999999880790710449 0.0021999999880790710449 0.0061666662804782390594 0.0021999999880790710449 0.0050333333201706409454 0.0021999999880790710449 0.0021999999880790710449 0.0021999999880790710449 0.0021999999880790710449 0.0021999999880790710449 0.0021999999880790710449 0.0021999999880790710449 0.0021999999880790710449 0.0021999999880790710449 0.0021999999880790710449 0.0021999999880790710449 0.0021999999880790710449 0.0021999999880790710449 0.0021999999880790710449 0.0021999999880790710449 0.0021999999880790710449 0.0021999999880790710449 0.0021999999880790710449 0.0021999999880790710449 0.0021999999880790710449 0.0021999999880790710449 0.0021999999880790710449 0.0021999999880790710449 0.0050333333201706409454 0.0055866665206849575043 0.0056833336129784584045 0.002912499941885471344 0.0048499996773898601532 0.0031999999191612005234 0.0021999999880790710449 0.0021999999880790710449 0.00224999990314245224 0.0021999999880790710449 0.0021999999880790710449 0.0021999999880790710449 0.0021999999880790710449 0.0021999999880790710449 0.0064499997533857822418 0.0039499998092651367188 0.0021999999880790710449 0.0036249998956918716431 0.0031999999191612005234 0.0021999999880790710449 0.0026249999646097421646 0.0044749998487532138824 0.0021999999880790710449 0.0021999999880790710449 0.0021999999880790710449 0.0021999999880790710449 0.0043750000186264514923 0.0073499996215105056763 0.0021999999880790710449 0.0021999999880790710449 
0.0044249999336898326874 0.0086249997839331626892 0.0047999997623264789581 0.0041499999351799488068 0.0021999999880790710449 0.0021999999880790710449 0.0027250000275671482086 0.0035249998327344655991 0.0021999999880790710449 0.0026249999646097421646 0.003574999980628490448 0.0023000000510364770889 0.0054124998860061168671 0.0044749998487532138824 0.0021999999880790710449 0.0021999999880790710449 0.0021999999880790710449 0.0067250002175569534302 0.0049875001423060894012 0.0021999999880790710449 0.0021999999880790710449 0.0021999999880790710449 0.0021999999880790710449 0.0021999999880790710449 0.0031799999997019767761 0.0021999999880790710449 0.0021999999880790710449 0.0021999999880790710449 0.0053999996744096279144 0.0046666665002703666687 0.0049199997447431087494 0.0021999999880790710449 0.0021999999880790710449 0.0021999999880790710449 0.0021999999880790710449 0.0021999999880790710449 0.0021999999880790710449 0.0021999999880790710449 0.0022666666191071271896 0.0021999999880790710449 0.0021999999880790710449 0.0026249999646097421646 0.0021999999880790710449 0.0021999999880790710449 0.0021999999880790710449 0.0021999999880790710449 0.0031714285723865032196 0.0031500000040978193283 0.0021999999880790710449 0.0021999999880790710449 0.0021999999880790710449 0.0021999999880790710449 0.0021999999880790710449 0.0021999999880790710449 0.0021999999880790710449 0.0021999999880790710449 0.0021999999880790710449 0.0021999999880790710449 0.0036249998956918716431 0.0045384615659713745117 0.0021999999880790710449 0.0038999998942017555237 0.0058999997563660144806 0.0023000000510364770889 0.0026249999646097421646 0.0021999999880790710449 0.0021999999880790710449 0.0021999999880790710449 0.0021999999880790710449 0.0021999999880790710449 0.0043249996379017829895 0.0051750000566244125366 0.0021999999880790710449 0.0021999999880790710449 0.0027250000275671482086 0.0021999999880790710449 0.0021999999880790710449 0.0021999999880790710449 0.0027250000275671482086 0.0021999999880790710449 0.0021999999880790710449 0.0026249999646097421646 0.003474999917671084404 0.00224999990314245224 0.0030499999411404132843 0.0044249999336898326874 0.0038999998942017555237 
0.0060749999247491359711 0.0077749998308718204498 0.0023000000510364770889 0.0021999999880790710449 0.0021999999880790710449 0.0021999999880790710449 0.0028625000268220901489 0.0021999999880790710449 0.0051750000566244125366 0.0047999997623264789581 0.004900000058114528656 0.0033875000663101673126 0.0026249999646097421646 0.0047999997623264789581 0.0032500000670552253723 0.0021999999880790710449 0.0021999999880790710449 0.0021999999880790710449 0.0021999999880790710449 0.0021999999880790710449 0.0021999999880790710449 0.0021999999880790710449 0.0047999997623264789581 0.0021999999880790710449 0.0021999999880790710449 0.0021999999880790710449 0.0030999998562037944794 0.0022799998987466096878 0.0072999997064471244812 0.0061666662804782390594 0.0069111110642552375793 0.0022666666191071271896 0.0021999999880790710449 0.0021999999880790710449 0.0021999999880790710449 0.0021999999880790710449 0.0021999999880790710449 0.0021999999880790710449 0.0021999999880790710449 0.0021999999880790710449 0.003474999917671084404 0.0044249999336898326874 0.0030499999411404132843 0.0039999997243285179138 0.0021999999880790710449 0.0021999999880790710449 0.0036571428645402193069 0.003474999917671084404 0.0021999999880790710449 0.0021999999880790710449 0.0021999999880790710449 0.0021999999880790710449 0.0021999999880790710449 0.0021999999880790710449 0.0021999999880790710449 0.0021999999880790710449 0.0021999999880790710449 0.0021999999880790710449 0.0021999999880790710449 0.003474999917671084404 0.0035249998327344655991 0.0064499997533857822418 0.00899999961256980896 0.0072999997064471244812 0.0021999999880790710449 0.0021999999880790710449 0.0021999999880790710449 0.0021999999880790710449 0.0021999999880790710449 0.003474999917671084404 0.0075374995358288288116 0.0038624999579042196274 0.0021999999880790710449 0.0039499998092651367188 0.0028249998576939105988 0.0021999999880790710449 0.0021999999880790710449 0.0021999999880790710449 0.0021999999880790710449 0.0021999999880790710449 0.0021999999880790710449 0.0021999999880790710449 0.0021999999880790710449 0.0021999999880790710449 0.0021999999880790710449 0.0026249999646097421646 0.0055999998003244400024 
0.0069749997928738594055 0.0045249997638165950775 0.0021999999880790710449 0.0021999999880790710449 0.0021999999880790710449 0.0026249999646097421646 0.003574999980628490448 0.0024375000502914190292 0.0031999999191612005234 0.003574999980628490448 0.0029249999206513166428 0.005100000184029340744 0.0038624999579042196274 0.00224999990314245224 0.0026249999646097421646 0.0021999999880790710449 0.0021999999880790710449 0.0021999999880790710449 0.0046857139095664024353 0.0021999999880790710449 0.0026249999646097421646 0.0021999999880790710449 0.0021999999880790710449 0.0021999999880790710449 0.0021999999880790710449 0.0029555554501712322235 0.0035599998664110898972 0.00334285711869597435 0.0022888889070600271225 0.0038999998942017555237 0.0028333333320915699005 0.0021999999880790710449 0.0021999999880790710449 0.002880000043660402298 0.0021999999880790710449 0.0030444443691521883011 0.0027333332691341638565 0.0026857142802327871323 0.0026749998796731233597 0.0021999999880790710449 0.0026533333584666252136 0.0039428570307791233063 0.0021999999880790710449 0.0035249998327344655991 0.0030499999411404132843 0.0021999999880790710449 0.0021999999880790710449 0.0021999999880790710449 0.0021999999880790710449 0.0021999999880790710449 0.0021999999880790710449 0.0021999999880790710449 0.0021999999880790710449 0.0021999999880790710449 0.0021999999880790710449 0.0021999999880790710449 0.0021999999880790710449 0.0021999999880790710449 0.0021999999880790710449 0.0021999999880790710449 0.0039999997243285179138 0.007724999450147151947 0.00899999961256980896 0.0030499999411404132843 0.0021999999880790710449 0.0021999999880790710449 0.0021999999880790710449 0.0021999999880790710449 0.0021999999880790710449 0.0038999998942017555237 0.003474999917671084404 0.0031500000040978193283 0.0036249998956918716431 0.0021999999880790710449 0.0021999999880790710449 0.0021999999880790710449 0.0021999999880790710449 0.0021999999880790710449 0.0021999999880790710449 0.0021999999880790710449 0.0021999999880790710449 0.0021999999880790710449 0.0021999999880790710449 0.0021999999880790710449 0.0021999999880790710449 0.0021999999880790710449 0.0021999999880790710449 
0.0057999999262392520905 0.0027749999426305294037 0.0021999999880790710449 0.0021999999880790710449 0.0021999999880790710449 0.0021999999880790710449 0.0027250000275671482086 0.0021999999880790710449 0.0026750001125037670135 0.0021999999880790710449 0.0043249996379017829895 0.0040500001050531864166 0.0021999999880790710449 0.0021999999880790710449 0.0021999999880790710449 0.0021999999880790710449 0.0021999999880790710449 0.0021999999880790710449 0.0021999999880790710449 0.0038999998942017555237 0.0052285711281001567841 0.0021999999880790710449 0.0021999999880790710449 0.0038999998942017555237 0.0075428569689393043518 0.0033999998122453689575 0.0021999999880790710449 0.0021999999880790710449 0.0027666667010635137558 0.0021999999880790710449 0.0021999999880790710449 0.0021999999880790710449 0.0021999999880790710449 0.0033333331812173128128 0.0049199997447431087494 0.0021999999880790710449 0.0058999997563660144806 0.0021999999880790710449 0.0021999999880790710449 0.0021999999880790710449 0.0021999999880790710449 0.0021999999880790710449 0.0021999999880790710449 0.0021999999880790710449 0.0021999999880790710449 0.0021999999880790710449 0.0021999999880790710449 0.0021999999880790710449 0.0021999999880790710449 0.0021999999880790710449 0.0021999999880790710449 0.0021999999880790710449 0.0021999999880790710449 0.0021999999880790710449 0.0021999999880790710449 0.0021999999880790710449 0.0021999999880790710449 0.0021999999880790710449 0.0021999999880790710449 0.0021999999880790710449 0.0021999999880790710449 0.0081500001251697540283 0.00899999961256980896 0.0021999999880790710449 0.0021999999880790710449 0.0021999999880790710449 0.0021999999880790710449 0.0027250000275671482086 0.00224999990314245224 0.0047999997623264789581 0.0036249998956918716431 0.0043374998494982719421 0.0021999999880790710449 0.0021999999880790710449 0.0021999999880790710449 0.0024375000502914190292 0.002912499941885471344 0.0021999999880790710449 0.0021999999880790710449 0.0021999999880790710449 0.0021999999880790710449 0.0021999999880790710449 0.0021999999880790710449 0.0021999999880790710449 0.0021999999880790710449 0.0021999999880790710449 0.0021999999880790710449 
0.0060249995440244674683 0.00224999990314245224 0.0021999999880790710449 0.0021999999880790710449 0.0027749999426305294037 0.0021999999880790710449 0.00224999990314245224 0.0030999998562037944794 0.0048500001430511474609 0.0030499999411404132843 0.0021999999880790710449 0.0028461539186537265778 0.0021999999880790710449 0.0021999999880790710449 0.0021999999880790710449 0.0021999999880790710449 0.0021999999880790710449 0.0021999999880790710449 0.0021999999880790710449 0.0022888889070600271225 0.0038888887502253055573 0.0044666663743555545807 0.008028571493923664093 0.0085749998688697814941 0.00899999961256980896 0.00899999961256980896 0.0037999998312443494797 0.0027666667010635137558 0.0052222218364477157593 0.003246153704822063446 0.0027230768464505672455 0.0021999999880790710449 0.0057333330623805522919 0.0060933330096304416656 0.0021999999880790710449 0.0021999999880790710449 0.0021999999880790710449 0.0060000000521540641785 0.0057076923549175262451 0.0052875000983476638794 0.0041000000201165676117 0.0021999999880790710449 0.0021999999880790710449 0.0021999999880790710449 0.0021999999880790710449 0.0021999999880790710449 0.0021999999880790710449 0.0021999999880790710449 0.0021999999880790710449 0.0021999999880790710449 0.0021999999880790710449 0.0021999999880790710449 0.0021999999880790710449 0.0021999999880790710449 0.0021999999880790710449 0.0021999999880790710449 0.0021999999880790710449 0.0021999999880790710449 0.0021999999880790710449 0.0021999999880790710449 0.0021999999880790710449 0.0030499999411404132843 0.0060249995440244674683 0.0030499999411404132843 0.003574999980628490448 0.0021999999880790710449 0.0021999999880790710449 0.0030999998562037944794 0.0061249998398125171661 0.0026749998796731233597 0.002912499941885471344 0.0021999999880790710449 0.0021999999880790710449 0.0021999999880790710449 0.0021999999880790710449 0.0021999999880790710449 0.0024375000502914190292 0.0021999999880790710449 0.0021999999880790710449 0.0021999999880790710449 0.0021999999880790710449 0.0021999999880790710449 0.0021999999880790710449 0.0021999999880790710449 0.0021999999880790710449 0.0021999999880790710449 0.0021999999880790710449 
0.00224999990314245224 0.0021999999880790710449 0.0021999999880790710449 0.0026249999646097421646 0.0041499999351799488068 0.0030999998562037944794 0.0043750000186264514923 0.0056499997153878211975 0.0050499998033046722412 0.0033875000663101673126 0.0021999999880790710449 0.0021999999880790710449 0.0021999999880790710449 0.0021999999880790710449 0.0021999999880790710449 0.0025166666600853204727 0.0024923076853156089783 0.0021999999880790710449 0.0055999998003244400024 0.0084333326667547225952 0.00899999961256980896 0.00899999961256980896 0.00899999961256980896 0.00899999961256980896 0.0059777777642011642456 0.0071866665966808795929 0.0038307690992951393127 0.0035599998664110898972 0.0050333333201706409454 0.0047999997623264789581 0.005666666664183139801 0.0039499998092651367188 0.0030499999411404132843 0.0030333332251757383347 0.0039777779020369052887 0.0026249999646097421646 0.0048499996773898601532 0.0060000000521540641785 0.0060000000521540641785 0.0060000000521540641785 0.002912499941885471344 0.0021999999880790710449 0.0021999999880790710449 0.0021999999880790710449 0.0021999999880790710449 0.002349999966099858284 0.0030499999411404132843 0.0021999999880790710449 0.0021999999880790710449 0.0021999999880790710449 0.0021999999880790710449 0.0021999999880790710449 0.0021999999880790710449 0.0021999999880790710449 0.0021999999880790710449 0.0021999999880790710449 0.0021999999880790710449 0.0021999999880790710449 0.0021999999880790710449 0.0021999999880790710449 0.0021999999880790710449 0.0021999999880790710449 0.0021999999880790710449 0.0021999999880790710449 0.0030999998562037944794 0.0021999999880790710449 0.0021999999880790710449 0.0081500001251697540283 0.0045249997638165950775 0.0021999999880790710449 0.0021999999880790710449 0.0021999999880790710449 0.0021999999880790710449 0.0021999999880790710449 0.0021999999880790710449 0.0021999999880790710449 0.0021999999880790710449 0.0021999999880790710449 0.0021999999880790710449 0.00224999990314245224 0.0021999999880790710449 0.0021999999880790710449 0.0021999999880790710449 0.0021999999880790710449 0.0021999999880790710449 0.0021999999880790710449 0.0021999999880790710449 
0.0026249999646097421646 0.0021999999880790710449 0.0021999999880790710449 0.0021999999880790710449 0.0021999999880790710449 0.0030999998562037944794 0.0036249998956918716431 0.0021999999880790710449 0.0024375000502914190292 0.0021999999880790710449 0.0021999999880790710449 0.0021999999880790710449 0.0021999999880790710449 0.0021999999880790710449 0.0021999999880790710449 0.0021999999880790710449 0.0060249995440244674683 0.00899999961256980896 0.00899999961256980896 0.00899999961256980896 0.00899999961256980896 0.00899999961256980896 0.006549999583512544632 0.0059777777642011642456 0.00899999961256980896 0.0053749997168779373169 0.0021999999880790710449 0.0055999998003244400024 0.00899999961256980896 0.0054166666232049465179 0.0040666665881872177124 0.0021999999880790710449 0.0021999999880790710449 0.0021999999880790710449 0.003574999980628490448 0.0043866666965186595917 0.0058666663244366645813 0.0059199999086558818817 0.0060000000521540641785 0.0053666667081415653229 0.0021999999880790710449 0.0021999999880790710449 0.0021999999880790710449 0.0021999999880790710449 0.0024375000502914190292 0.0044749998487532138824 0.0021999999880790710449 0.0021999999880790710449 0.0021999999880790710449 0.0021999999880790710449 0.0021999999880790710449 0.0021999999880790710449 0.0021999999880790710449 0.0021999999880790710449 0.0021999999880790710449 0.0021999999880790710449 0.0021999999880790710449 0.0021999999880790710449 0.0021999999880790710449 0.0021999999880790710449 0.0027250000275671482086 0.0023000000510364770889 0.0026249999646097421646 0.0038999998942017555237 0.0040500001050531864166 0.003474999917671084404 0.0052749998867511749268 0.0052249999716877937317 0.0028249998576939105988 0.0021999999880790710449 0.0021999999880790710449 0.0021999999880790710449 0.0021999999880790710449 0.0021999999880790710449 0.0021999999880790710449 0.0021999999880790710449 0.0021999999880790710449 0.0021999999880790710449 0.0021999999880790710449 0.0033875000663101673126 0.0021999999880790710449 0.0021999999880790710449 0.0021999999880790710449 0.0021999999880790710449 0.0021999999880790710449 0.0021999999880790710449 0.0021999999880790710449 
0.00224999990314245224 0.0030499999411404132843 0.0021999999880790710449 0.0021999999880790710449 0.0021999999880790710449 0.0026249999646097421646 0.003474999917671084404 0.0021999999880790710449 0.0021999999880790710449 0.0021999999880790710449 0.0021999999880790710449 0.0021999999880790710449 0.0021999999880790710449 0.0021999999880790710449 0.0021999999880790710449 0.0038999998942017555237 0.00899999961256980896 0.00899999961256980896 0.00899999961256980896 0.00899999961256980896 0.0060666664503514766693 0.0062999995425343513489 0.0038999998942017555237 0.003574999980628490448 0.0023000000510364770889 0.00224999990314245224 0.0021999999880790710449 0.0043249996379017829895 0.0059777777642011642456 0.0022615385241806507111 0.0026249999646097421646 0.0021999999880790710449 0.0021999999880790710449 0.0021999999880790710449 0.0021999999880790710449 0.0021999999880790710449 0.0041000000201165676117 0.005728571675717830658 0.003953846171498298645 0.0024375000502914190292 0.0021999999880790710449 0.0021999999880790710449 0.0021999999880790710449 0.0021999999880790710449 0.0024375000502914190292 0.0031500000040978193283 0.0036249998956918716431 0.0031500000040978193283 0.0021999999880790710449 0.0021999999880790710449 0.0021999999880790710449 0.0021999999880790710449 0.0021999999880790710449 0.0021999999880790710449 0.0021999999880790710449 0.0021999999880790710449 0.0021999999880790710449 0.0021999999880790710449 0.0021999999880790710449 0.0021999999880790710449 0.0021999999880790710449 0.0051750000566244125366 0.0086249997839331626892 0.0086249997839331626892 0.0064499997533857822418 0.0047999997623264789581 0.0046624997630715370178 0.0023000000510364770889 0.0023000000510364770889 0.0021999999880790710449 0.0021999999880790710449 0.0021999999880790710449 0.0021999999880790710449 0.0021999999880790710449 0.0021999999880790710449 0.0021999999880790710449 0.0021999999880790710449 0.0021999999880790710449 0.00224999990314245224 0.0024375000502914190292 0.0043249996379017829895 0.0021999999880790710449 0.0021999999880790710449 0.0021999999880790710449 0.0021999999880790710449 0.0021999999880790710449 0.0021999999880790710449 
0.0021999999880790710449 0.0027250000275671482086 0.0036249998956918716431 0.0021999999880790710449 0.0021999999880790710449 0.0055999998003244400024 0.0021999999880790710449 0.0021999999880790710449 0.0021999999880790710449 0.0041000000201165676117 0.0021999999880790710449 0.0021999999880790710449 0.0021999999880790710449 0.0021999999880790710449 0.0021999999880790710449 0.0085749998688697814941 0.00899999961256980896 0.0068749999627470970154 0.0072999997064471244812 0.0081428568810224533081 0.0057599996216595172882 0.0021999999880790710449 0.0021999999880790710449 0.0021999999880790710449 0.0021999999880790710449 0.0021999999880790710449 0.0021999999880790710449 0.0021999999880790710449 0.0021999999880790710449 0.0021999999880790710449 0.0021999999880790710449 0.0021999999880790710449 0.0021999999880790710449 0.0021999999880790710449 0.0021999999880790710449 0.0021999999880790710449 0.0047333333641290664673 0.0053666667081415653229 0.0026750001125037670135 0.0021999999880790710449 0.0021999999880790710449 0.0021999999880790710449 0.0021999999880790710449 0.0021999999880790710449 0.0030499999411404132843 0.003474999917671084404 0.0024375000502914190292 0.0043374998494982719421 0.0021999999880790710449 0.0021999999880790710449 0.0030499999411404132843 0.0021999999880790710449 0.0043249996379017829895 0.0055999998003244400024 0.0055999998003244400024 0.0064499997533857822418 0.0055999998003244400024 0.0030499999411404132843 0.0021999999880790710449 0.0021999999880790710449 0.0038999998942017555237 0.0052249999716877937317 0.0052249999716877937317 0.003574999980628490448 0.0021999999880790710449 0.0021999999880790710449 0.0026249999646097421646 0.00224999990314245224 0.0027250000275671482086 0.00224999990314245224 0.0021999999880790710449 0.0021999999880790710449 0.0021999999880790710449 0.0026249999646097421646 0.0047499998472630977631 0.0047499998472630977631 0.0021999999880790710449 0.0021999999880790710449 0.0021999999880790710449 0.0021999999880790710449 0.0081500001251697540283 0.0047499998472630977631 0.0021999999880790710449 0.00224999990314245224 0.0021999999880790710449 0.002349999966099858284 0.0026000000070780515671 
0.0021999999880790710449 0.0021999999880790710449 0.0021999999880790710449 0.0021999999880790710449 0.0038999998942017555237 0.0030499999411404132843 0.00224999990314245224 0.0021999999880790710449 0.0021999999880790710449 0.0038888889830559492111 0.0034666666761040687561 0.0034666666761040687561 0.0021999999880790710449 0.0021999999880790710449 0.00899999961256980896 0.00899999961256980896 0.00899999961256980896 0.00899999961256980896 0.0082499999552965164185 0.0063866665586829185486 0.0078750001266598701477 0.0027749999426305294037 0.0039999997243285179138 0.0026249999646097421646 0.0021999999880790710449 0.0021999999880790710449 0.0021999999880790710449 0.0021999999880790710449 0.0021999999880790710449 0.0021999999880790710449 0.0021999999880790710449 0.0021999999880790710449 0.0021999999880790710449 0.0021999999880790710449 0.0021999999880790710449 0.0029599999543279409409 0.005728571675717830658 0.0033875000663101673126 0.0021999999880790710449 0.0021999999880790710449 0.0021999999880790710449 0.0021999999880790710449 0.0021999999880790710449 0.0043249996379017829895 0.0051750000566244125366 0.0038624999579042196274 0.0055249999277293682098 0.0043374998494982719421 0.0030999998562037944794 0.0072999997064471244812 0.0060749999247491359711 0.0043249996379017829895 0.0021999999880790710449 0.0038999998942017555237 0.0043249996379017829895 0.0044249999336898326874 0.0043249996379017829895 0.0021999999880790710449 0.0021999999880790710449 0.0021999999880790710449 0.0030499999411404132843 0.002349999966099858284 0.0039499998092651367188 0.0021999999880790710449 0.0021999999880790710449 0.0021999999880790710449 0.0021999999880790710449 0.0021999999880790710449 0.0021999999880790710449 0.0027250000275671482086 0.0021999999880790710449 0.0021999999880790710449 0.0026249999646097421646 0.0043249996379017829895 0.0030499999411404132843 0.0021999999880790710449 0.0021999999880790710449 0.0021999999880790710449 0.0021999999880790710449 0.0038999998942017555237 0.0068749999627470970154 0.0026249999646097421646 0.0039999997243285179138 0.0046250000596046447754 0.0064999996684491634369 0.0064499997533857822418 0.0055999998003244400024 
0.0056999996304512023926 0.0039999997243285179138 0.0021999999880790710449 0.0021999999880790710449 0.0043249996379017829895 0.0021999999880790710449 0.0029624998569488525391 0.0023000000510364770889 0.0051750000566244125366 0.0031999999191612005234 0.0041000000201165676117 0.0038624999579042196274 0.0026750001125037670135 0.0038999998942017555237 0.0038999998942017555237 0.00899999961256980896 0.00899999961256980896 0.00899999961256980896 0.00899999961256980896 0.0039499998092651367188 0.0037166667170822620392 0.0034666666761040687561 0.0064499997533857822418 0.0036249998956918716431 0.0021999999880790710449 0.0021999999880790710449 0.0021999999880790710449 0.0021999999880790710449 0.0047333333641290664673 0.0021999999880790710449 0.0021999999880790710449 0.0021999999880790710449 0.0021999999880790710449 0.0021999999880790710449 0.0021999999880790710449 0.0028333333320915699005 0.004900000058114528656 0.0021999999880790710449 0.0021999999880790710449 0.0021999999880790710449 0.0026249999646097421646 0.0026249999646097421646 0.0021999999880790710449 0.003474999917671084404 0.0021999999880790710449 0.0036249998956918716431 0.005762500222772359848 0.0041000000201165676117 0.003474999917671084404 0.0064499997533857822418 0.0051750000566244125366 0.0026750001125037670135 0.002912499941885471344 0.0024375000502914190292 0.0024375000502914190292 0.0026749998796731233597 0.0021999999880790710449 0.0021999999880790710449 0.0030499999411404132843 0.0056999996304512023926 0.0026249999646097421646 0.0030499999411404132843 0.0030999998562037944794 0.0021999999880790710449 0.0021999999880790710449 0.0021999999880790710449 0.0021999999880790710449 0.0021999999880790710449 0.0021999999880790710449 0.0036249998956918716431 0.0021999999880790710449 0.0021999999880790710449 0.0021999999880790710449 0.0021999999880790710449 0.0021999999880790710449 0.0038999998942017555237 0.0052749998867511749268 0.0051750000566244125366 0.0056499997153878211975 0.0032500000670552253723 0.0027749999426305294037 0.0028750000055879354477 0.0086249997839331626892 0.00899999961256980896 0.0086249997839331626892 0.0047499998472630977631 0.0024000001139938831329 
0.0030499999411404132843 0.0021999999880790710449 0.0021999999880790710449 0.0030499999411404132843 0.0026249999646097421646 0.00224999990314245224 0.0029624998569488525391 0.003574999980628490448 0.0047999997623264789581 0.0025166666600853204727 0.0026750001125037670135 0.0021999999880790710449 0.0021999999880790710449 0.0021999999880790710449 0.0057333330623805522919 0.00899999961256980896 0.0056999996304512023926 0.0081500001251697540283 0.0039499998092651367188 0.003474999917671084404 0.0038624999579042196274 0.0033875000663101673126 0.0041374997235834598541 0.0061249998398125171661 0.0026249999646097421646 0.0021999999880790710449 0.0021999999880790710449 0.0021999999880790710449 0.0021999999880790710449 0.0021999999880790710449 0.0021999999880790710449 0.0021999999880790710449 0.0021999999880790710449 0.0021999999880790710449 0.0021999999880790710449 0.0051750000566244125366 0.0038999998942017555237 0.0021999999880790710449 0.0021999999880790710449 0.0043249996379017829895 0.003474999917671084404 0.0021999999880790710449 0.0021999999880790710449 0.0021999999880790710449 0.0021999999880790710449 0.0021999999880790710449 0.0045750001445412635803 0.0036249998956918716431 0.003474999917671084404 0.0028750000055879354477 0.0021999999880790710449 0.0055249999277293682098 0.0060000000521540641785 0.0060000000521540641785 0.005762500222772359848 0.0055249999277293682098 0.0021999999880790710449 0.0021999999880790710449 0.0026249999646097421646 0.0036749998107552528381 0.0021999999880790710449 0.0024375000502914190292 0.0021999999880790710449 0.0021999999880790710449 0.0021999999880790710449 0.0021999999880790710449 0.0021999999880790710449 0.0021999999880790710449 0.0028249998576939105988 0.0041499999351799488068 0.0039499998092651367188 0.0026249999646097421646 0.0035249998327344655991 0.0039999997243285179138 0.0030499999411404132843 0.003474999917671084404 0.0021999999880790710449 0.0026249999646097421646 0.0064999996684491634369 0.0060249995440244674683 0.0082000000402331352234 0.0073499996215105056763 0.0082499999552965164185 0.007724999450147151947 0.00899999961256980896 0.0031999999191612005234 0.0021999999880790710449 
0.0021999999880790710449 0.0021999999880790710449 0.0021999999880790710449 0.0061249998398125171661 0.0041000000201165676117 0.0056499997153878211975 0.0038999998942017555237 0.0030499999411404132843 0.0021999999880790710449 0.0021999999880790710449 0.0021999999880790710449 0.0021999999880790710449 0.0021999999880790710449 0.0084333326667547225952 0.0083200000226497650146 0.0055999998003244400024 0.0021999999880790710449 0.0021999999880790710449 0.0022666666191071271896 0.0027428572066128253937 0.0027428572066128253937 0.0029599999543279409409 0.0041374997235834598541 0.0057999999262392520905 0.0021999999880790710449 0.0021999999880790710449 0.0021999999880790710449 0.0021999999880790710449 0.0021999999880790710449 0.0060000000521540641785 0.0035571428015828132629 0.0047499998472630977631 0.0032500000670552253723 0.0021999999880790710449 0.0038999998942017555237 0.0051750000566244125366 0.0026249999646097421646 0.0021999999880790710449 0.0051750000566244125366 0.0021999999880790710449 0.0021999999880790710449 0.0021999999880790710449 0.0021999999880790710449 0.0021999999880790710449 0.0021999999880790710449 0.0021999999880790710449 0.0021999999880790710449 0.0021999999880790710449 0.0021999999880790710449 0.0021999999880790710449 0.0021999999880790710449 0.005762500222772359848 0.0060000000521540641785 0.0060000000521540641785 0.0060000000521540641785 0.0031500000040978193283 0.0021999999880790710449 0.0021999999880790710449 0.0043249996379017829895 0.0061749997548758983612 0.0021999999880790710449 0.0026750001125037670135 0.0021999999880790710449 0.0021999999880790710449 0.0021999999880790710449 0.0021999999880790710449 0.0021999999880790710449 0.0026249999646097421646 0.0029750000685453414917 0.0055999998003244400024 0.0064999996684491634369 0.0060249995440244674683 0.0047999997623264789581 0.0027250000275671482086 0.0026249999646097421646 0.0021999999880790710449 0.0021999999880790710449 0.0026749998796731233597 0.0043249996379017829895 0.0064499997533857822418 0.0060249995440244674683 0.00224999990314245224 0.0030999998562037944794 0.0051750000566244125366 0.0056999996304512023926 0.0021999999880790710449 0.0021999999880790710449 
0.0021999999880790710449 0.0021999999880790710449 0.0026249999646097421646 0.0073499996215105056763 0.0027749999426305294037 0.0026249999646097421646 0.00224999990314245224 0.0021999999880790710449 0.0021999999880790710449 0.0030499999411404132843 0.0021999999880790710449 0.0021999999880790710449 0.0034250000026077032089 0.0087999999523162841797 0.0074874996207654476166 0.0043249996379017829895 0.0021999999880790710449 0.0021999999880790710449 0.0045999996364116668701 0.0037199999205768108368 0.0021999999880790710449 0.0055399998091161251068 0.0055999998003244400024 0.0030999998562037944794 0.0021999999880790710449 0.0021999999880790710449 0.0021999999880790710449 0.0021999999880790710449 0.0050499998033046722412 0.0060000000521540641785 0.0035571428015828132629 0.0052399998530745506287 0.0024375000502914190292 0.003474999917671084404 0.00899999961256980896 0.0038999998942017555237 0.0030499999411404132843 0.0043249996379017829895 0.0021999999880790710449 0.0021999999880790710449 0.0021999999880790710449 0.0021999999880790710449 0.0021999999880790710449 0.0021999999880790710449 0.0021999999880790710449 0.0021999999880790710449 0.0021999999880790710449 0.0021999999880790710449 0.0021999999880790710449 0.0021999999880790710449 0.0021999999880790710449 0.0043374998494982719421 0.0060000000521540641785 0.0060000000521540641785 0.005762500222772359848 0.0021999999880790710449 0.0021999999880790710449 0.0021999999880790710449 0.003474999917671084404 0.0060749999247491359711 0.0021999999880790710449 0.00224999990314245224 0.0026249999646097421646 0.0021999999880790710449 0.0026249999646097421646 0.0032500000670552253723 0.0021999999880790710449 0.0021999999880790710449 0.0027250000275671482086 0.0030499999411404132843 0.0030499999411404132843 0.0027250000275671482086 0.0026249999646097421646 0.0021999999880790710449 0.0021999999880790710449 0.0021999999880790710449 0.0021999999880790710449 0.0031500000040978193283 0.003574999980628490448 0.003574999980628490448 0.0030499999411404132843 0.0069749997928738594055 0.003474999917671084404 0.0021999999880790710449 0.0021999999880790710449 0.0021999999880790710449 0.0021999999880790710449 
0.0021999999880790710449 0.0021999999880790710449 0.0026249999646097421646 0.0030499999411404132843 0.00224999990314245224 0.0030499999411404132843 0.0021999999880790710449 0.0026857142802327871323 0.0030999998562037944794 0.0027846153825521469116 0.0021999999880790710449 0.0050333333201706409454 0.0069833332672715187073 0.0098571423441171646118 0.00899999961256980896 0.0039499998092651367188 0.0021999999880790710449 0.0021999999880790710449 0.0021999999880790710449 0.0036666665691882371902 0.0026249999646097421646 0.0048499996773898601532 0.0026249999646097421646 0.0021999999880790710449 0.0021999999880790710449 0.0021999999880790710449 0.0021999999880790710449 0.0021999999880790710449 0.0047333333641290664673 0.005762500222772359848 0.0043249996379017829895 0.0029624998569488525391 0.0038624999579042196274 0.0061249998398125171661 0.0085749998688697814941 0.0038999998942017555237 0.0021999999880790710449 0.0021999999880790710449 0.0021999999880790710449 0.0021999999880790710449 0.0021999999880790710449 0.0021999999880790710449 0.0021999999880790710449 0.0021999999880790710449 0.0021999999880790710449 0.0021999999880790710449 0.0030499999411404132843 0.003474999917671084404 0.0021999999880790710449 0.0021999999880790710449 0.0021999999880790710449 0.0021999999880790710449 0.0052875000983476638794 0.0060000000521540641785 0.0038624999579042196274 0.0021999999880790710449 0.0021999999880790710449 0.0021999999880790710449 0.0056499997153878211975 0.0052249999716877937317 0.0021999999880790710449 0.0038999998942017555237 0.0026249999646097421646 0.0021999999880790710449 0.0021999999880790710449 0.003574999980628490448 0.0026249999646097421646 0.0043750000186264514923 0.0036249998956918716431 0.0035249998327344655991 0.0021999999880790710449 0.00224999990314245224 0.0030499999411404132843 0.0021999999880790710449 0.0021999999880790710449 0.0021999999880790710449 0.0021999999880790710449 0.00224999990314245224 0.0026749998796731233597 0.00224999990314245224 0.0021999999880790710449 0.0030499999411404132843 0.0021999999880790710449 0.0021999999880790710449 0.0021999999880790710449 0.0021999999880790710449 0.0021999999880790710449 
0.0021999999880790710449 0.0021999999880790710449 0.0021999999880790710449 0.0021999999880790710449 0.0021999999880790710449 0.0031500000040978193283 0.0022666666191071271896 0.0047499998472630977631 0.0031500000040978193283 0.0021999999880790710449 0.0026249999646097421646 0.0072999997064471244812 0.00899999961256980896 0.00899999961256980896 0.00899999961256980896 0.00224999990314245224 0.0021999999880790710449 0.0021999999880790710449 0.0030499999411404132843 0.0028999999631196260452 0.003474999917671084404 0.0041000000201165676117 0.0036249998956918716431 0.0021999999880790710449 0.0021999999880790710449 0.0021999999880790710449 0.0021999999880790710449 0.0031500000040978193283 0.005762500222772359848 0.0034666666761040687561 0.0038999998942017555237 0.0044166669249534606934 0.0045750001445412635803 0.0041875001043081283569 0.0072999997064471244812 0.0030499999411404132843 0.0021999999880790710449 0.0021999999880790710449 0.0021999999880790710449 0.0021999999880790710449 0.0021999999880790710449 0.0021999999880790710449 0.0021999999880790710449 0.0021999999880790710449 0.0021999999880790710449 0.0021999999880790710449 0.0021999999880790710449 0.0021999999880790710449 0.0021999999880790710449 0.0021999999880790710449 0.0021999999880790710449 0.0021999999880790710449 0.0024375000502914190292 0.002912499941885471344 0.0021999999880790710449 0.0038999998942017555237 0.0021999999880790710449 0.0021999999880790710449 0.003474999917671084404 0.0038999998942017555237 0.0026749998796731233597 0.0021999999880790710449 0.0021999999880790710449 0.0021999999880790710449 0.0024375000502914190292 0.0021999999880790710449 0.0021999999880790710449 0.0026749998796731233597 0.0026249999646097421646 0.0021999999880790710449 0.0021999999880790710449 0.0021999999880790710449 0.0021999999880790710449 0.0030999998562037944794 0.0021999999880790710449 0.0021999999880790710449 0.0021999999880790710449 0.0021999999880790710449 0.0021999999880790710449 0.0021999999880790710449 0.0021999999880790710449 0.0021999999880790710449 0.0021999999880790710449 0.0021999999880790710449 0.0021999999880790710449 0.0021999999880790710449 0.0021999999880790710449 
0.0021999999880790710449 0.0021999999880790710449 0.0021999999880790710449 0.0021999999880790710449 0.0021999999880790710449 0.0026249999646097421646 0.0030499999411404132843 0.0032285712659358978271 0.0021999999880790710449 0.0021999999880790710449 0.0064499997533857822418 0.0085749998688697814941 0.00899999961256980896 0.00899999961256980896 0.00899999961256980896 0.0055999998003244400024 0.0024375000502914190292 0.0036249998956918716431 0.0021999999880790710449 0.0026533333584666252136 0.0043249996379017829895 0.003574999980628490448 0.0024714285973459482193 0.0037199999205768108368 0.002349999966099858284 0.0021999999880790710449 0.0021999999880790710449 0.0041000000201165676117 0.0048307692632079124451 0.0021999999880790710449 0.0024923076853156089783 0.0041000000201165676117 0.0024375000502914190292 0.0051750000566244125366 0.0085749998688697814941 0.0072999997064471244812 0.0021999999880790710449 0.0021999999880790710449 0.0021999999880790710449 0.0021999999880790710449 0.0021999999880790710449 0.003474999917671084404 0.0030499999411404132843 0.0021999999880790710449 0.0021999999880790710449 0.0021999999880790710449 0.0021999999880790710449 0.0021999999880790710449 0.0021999999880790710449 0.0021999999880790710449 0.0026249999646097421646 0.0026249999646097421646 0.0021999999880790710449 0.0021999999880790710449 0.0021999999880790710449 0.0047499998472630977631 0.0021999999880790710449 0.0021999999880790710449 0.0021999999880790710449 0.00224999990314245224 0.0021999999880790710449 0.0021999999880790710449 0.0021999999880790710449 0.0021999999880790710449 0.0026750001125037670135 0.0024375000502914190292 0.0021999999880790710449 0.0026249999646097421646 0.0021999999880790710449 0.0021999999880790710449 0.0041000000201165676117 0.0043750000186264514923 0.0051750000566244125366 0.003474999917671084404 0.0021999999880790710449 0.0021999999880790710449 0.0021999999880790710449 0.0021999999880790710449 0.0021999999880790710449 0.0021999999880790710449 0.0021999999880790710449 0.0021999999880790710449 0.0021999999880790710449 0.0021999999880790710449 0.0021999999880790710449 0.0021999999880790710449 0.0021999999880790710449 
0.0021999999880790710449 0.0021999999880790710449 0.0021999999880790710449 0.0026249999646097421646 0.0030499999411404132843 0.0061749997548758983612 0.0027428572066128253937 0.0038999998942017555237 0.0021999999880790710449 0.0033333331812173128128 0.00899999961256980896 0.00899999961256980896 0.0072999997064471244812 0.00899999961256980896 0.00899999961256980896 0.0073499996215105056763 0.0038799999747425317764 0.0021999999880790710449 0.0026249999646097421646 0.0021999999880790710449 0.0021999999880790710449 0.0021999999880790710449 0.0021999999880790710449 0.0057142856530845165253 0.0026249999646097421646 0.0026249999646097421646 0.0021999999880790710449 0.0021999999880790710449 0.0025800000876188278198 0.0021999999880790710449 0.0042399996891617774963 0.0051750000566244125366 0.0072999997064471244812 0.0051750000566244125366 0.0051750000566244125366 0.0030499999411404132843 0.0021999999880790710449 0.0021999999880790710449 0.0021999999880790710449 0.0021999999880790710449 0.0021999999880790710449 0.0021999999880790710449 0.0021999999880790710449 0.0021999999880790710449 0.0021999999880790710449 0.0021999999880790710449 0.0021999999880790710449 0.0021999999880790710449 0.0021999999880790710449 0.0026249999646097421646 0.0055999998003244400024 0.003474999917671084404 0.0021999999880790710449 0.0021999999880790710449 0.0021999999880790710449 0.0021999999880790710449 0.0021999999880790710449 0.0021999999880790710449 0.0021999999880790710449 0.0021999999880790710449 0.0021999999880790710449 0.0021999999880790710449 0.0021999999880790710449 0.0021999999880790710449 0.0021999999880790710449 0.0021999999880790710449 0.0021999999880790710449 0.0024000001139938831329 0.0030999998562037944794 0.0026749998796731233597 0.0023000000510364770889 0.0021999999880790710449 0.0026750001125037670135 0.0026750001125037670135 0.0021999999880790710449 0.0021999999880790710449 0.0021999999880790710449 0.0021999999880790710449 0.0021999999880790710449 0.0021999999880790710449 0.0047999997623264789581 0.0021999999880790710449 0.0021999999880790710449 0.00224999990314245224 0.0026249999646097421646 0.0021999999880790710449 0.0021999999880790710449 
0.0030499999411404132843 0.0045249997638165950775 0.0021999999880790710449 0.0030499999411404132843 0.003474999917671084404 0.0041999998502433300018 0.0033999998122453689575 0.0021999999880790710449 0.0021999999880790710449 0.0084333326667547225952 0.00899999961256980896 0.0085142850875854492188 0.0038999998942017555237 0.0085749998688697814941 0.00899999961256980896 0.0060249995440244674683 0.0069999997504055500031 0.002349999966099858284 0.0035333333071321249008 0.0045285713858902454376 0.0027250000275671482086 0.0026857142802327871323 0.0068666664883494377136 0.0047999997623264789581 0.0021999999880790710449 0.003474999917671084404 0.0021999999880790710449 0.0021999999880790710449 0.0031714285723865032196 0.0021999999880790710449 0.0038999998942017555237 0.00899999961256980896 0.00899999961256980896 0.0030499999411404132843 0.0021999999880790710449 0.0021999999880790710449 0.0021999999880790710449 0.0021999999880790710449 0.0021999999880790710449 0.0021999999880790710449 0.0021999999880790710449 0.0021999999880790710449 0.0051750000566244125366 0.0047999997623264789581 0.0021999999880790710449 0.0021999999880790710449 0.0021999999880790710449 0.0021999999880790710449 0.0055999998003244400024 0.0026249999646097421646 0.0021999999880790710449 0.0021999999880790710449 0.0021999999880790710449 0.0021999999880790710449 0.0030499999411404132843 0.0021999999880790710449 0.0021999999880790710449 0.0031500000040978193283 0.00224999990314245224 0.003474999917671084404 0.0021999999880790710449 0.0021999999880790710449 0.0021999999880790710449 0.0021999999880790710449 0.0021999999880790710449 0.0021999999880790710449 0.003474999917671084404 0.0065999999642372131348 0.0047499998472630977631 0.0021999999880790710449 0.0021999999880790710449 0.0021999999880790710449 0.0026750001125037670135 0.0026750001125037670135 0.0021999999880790710449 0.0021999999880790710449 0.0026249999646097421646 0.0021999999880790710449 0.0021999999880790710449 0.0021999999880790710449 0.0052749998867511749268 0.0026249999646097421646 0.0021999999880790710449 0.0031999999191612005234 0.0052249999716877937317 0.0021999999880790710449 0.0021999999880790710449 
0.0021999999880790710449 0.0021999999880790710449 0.0021999999880790710449 0.0021999999880790710449 0.0021999999880790710449 0.0021999999880790710449 0.0021999999880790710449 0.0021999999880790710449 0.0021999999880790710449 0.0084333326667547225952 0.00899999961256980896 0.0084769222885370254517 0.0049199997447431087494 0.0085749998688697814941 0.00899999961256980896 0.00899999961256980896 0.0053111109882593154907 0.0021999999880790710449 0.0028571428265422582626 0.0046266666613519191742 0.005923076532781124115 0.0046444442123174667358 0.003574999980628490448 0.0021999999880790710449 0.0021999999880790710449 0.0021999999880790710449 0.0021999999880790710449 0.0036571428645402193069 0.0021999999880790710449 0.0058266664855182170868 0.0030499999411404132843 0.0055999998003244400024 0.0060249995440244674683 0.0021999999880790710449 0.0021999999880790710449 0.0021999999880790710449 0.0021999999880790710449 0.0021999999880790710449 0.0021999999880790710449 0.0021999999880790710449 0.0021999999880790710449 0.0021999999880790710449 0.0043249996379017829895 0.0043249996379017829895 0.0021999999880790710449 0.0021999999880790710449 0.0021999999880790710449 0.0021999999880790710449 0.0021999999880790710449 0.0021999999880790710449 0.0026249999646097421646 0.0021999999880790710449 0.0021999999880790710449 0.0021999999880790710449 0.0047499998472630977631 0.0021999999880790710449 0.0021999999880790710449 0.0021999999880790710449 0.0021999999880790710449 0.0021999999880790710449 0.0021999999880790710449 0.0026249999646097421646 0.0026249999646097421646 0.0021999999880790710449 0.0021999999880790710449 0.0021999999880790710449 0.0038999998942017555237 0.0053749997168779373169 0.0026249999646097421646 0.0021999999880790710449 0.0021999999880790710449 0.0021999999880790710449 0.0021999999880790710449 0.0021999999880790710449 0.0021999999880790710449 0.0021999999880790710449 0.0021999999880790710449 0.0030499999411404132843 0.0021999999880790710449 0.0037249999586492776871 0.0068749999627470970154 0.0026249999646097421646 0.0038999998942017555237 0.0024874999653548002243 0.0021999999880790710449 0.0021999999880790710449 0.0021999999880790710449 
0.004900000058114528656 0.0021999999880790710449 0.0030499999411404132843 0.0051750000566244125366 0.0026249999646097421646 0.0026249999646097421646 0.0021999999880790710449 0.0021999999880790710449 0.0038999998942017555237 0.0050333333201706409454 0.0086249997839331626892 0.0077499998733401298523 0.006549999583512544632 0.003474999917671084404 0.00899999961256980896 0.0064499997533857822418 0.0021999999880790710449 0.0021999999880790710449 0.0021999999880790710449 0.0021999999880790710449 0.0021999999880790710449 0.003574999980628490448 0.0041499999351799488068 0.0044666663743555545807 0.0021999999880790710449 0.0021999999880790710449 0.0033333331812173128128 0.0047499998472630977631 0.0021999999880790710449 0.0047499998472630977631 0.0043249996379017829895 0.0021999999880790710449 0.0021999999880790710449 0.0021999999880790710449 0.0026750001125037670135 0.0036249998956918716431 0.002912499941885471344 0.0033875000663101673126 0.0026750001125037670135 0.0021999999880790710449 0.0021999999880790710449 0.0021999999880790710449 0.0021999999880790710449 0.0021999999880790710449 0.0021999999880790710449 0.0021999999880790710449 0.0021999999880790710449 0.0021999999880790710449 0.0021999999880790710449 0.0021999999880790710449 0.0039499998092651367188 0.0021999999880790710449 0.0021999999880790710449 0.0021999999880790710449 0.0021999999880790710449 0.0021999999880790710449 0.0021999999880790710449 0.0021999999880790710449 0.0021999999880790710449 0.0021999999880790710449 0.0021999999880790710449 0.0030499999411404132843 0.0030499999411404132843 0.0021999999880790710449 0.0030999998562037944794 0.0070249997079372406006 0.0082499999552965164185 0.0065999999642372131348 0.0030499999411404132843 0.0035249998327344655991 0.0039499998092651367188 0.0021999999880790710449 0.0021999999880790710449 0.0021999999880790710449 0.0021999999880790710449 0.0021999999880790710449 0.0021999999880790710449 0.0031999999191612005234 0.0021999999880790710449 0.003474999917671084404 0.0073499996215105056763 0.0045249997638165950775 0.0039999997243285179138 0.0021999999880790710449 0.0021999999880790710449 0.0021999999880790710449 0.0021999999880790710449 
0.0038999998942017555237 0.0021999999880790710449 0.0021999999880790710449 0.0021999999880790710449 0.003474999917671084404 0.0021999999880790710449 0.0021999999880790710449 0.0021999999880790710449 0.0085142850875854492188 0.0084333326667547225952 0.0074333329685032367706 0.0050800000317394733429 0.0021999999880790710449 0.0021999999880790710449 0.0072999997064471244812 0.0060249995440244674683 0.0026750001125037670135 0.0021999999880790710449 0.0021999999880790710449 0.0021999999880790710449 0.0021999999880790710449 0.0026249999646097421646 0.0026249999646097421646 0.0021999999880790710449 0.0026249999646097421646 0.0027230768464505672455 0.0059777777642011642456 0.0021999999880790710449 0.0024923076853156089783 0.0030499999411404132843 0.0047499998472630977631 0.003474999917671084404 0.0021999999880790710449 0.0021999999880790710449 0.0021999999880790710449 0.0021999999880790710449 0.0048124999739229679108 0.005762500222772359848 0.002912499941885471344 0.00224999990314245224 0.0021999999880790710449 0.0021999999880790710449 0.0021999999880790710449 0.0021999999880790710449 0.0021999999880790710449 0.0026249999646097421646 0.0021999999880790710449 0.0021999999880790710449 0.0021999999880790710449 0.0021999999880790710449 0.0021999999880790710449 0.0021999999880790710449 0.0021999999880790710449 0.0021999999880790710449 0.0021999999880790710449 0.0021999999880790710449 0.0021999999880790710449 0.0021999999880790710449 0.0021999999880790710449 0.0021999999880790710449 0.0021999999880790710449 0.0021999999880790710449 0.0021999999880790710449 0.0021999999880790710449 0.0026249999646097421646 0.0044749998487532138824 0.0056999996304512023926 0.0056499997153878211975 0.0026249999646097421646 0.0026749998796731233597 0.0021999999880790710449 0.0021999999880790710449 0.0021999999880790710449 0.0021999999880790710449 0.0021999999880790710449 0.0021999999880790710449 0.0026249999646097421646 0.00224999990314245224 0.00224999990314245224 0.0047999997623264789581 0.0043249996379017829895 0.003474999917671084404 0.0021999999880790710449 0.0021999999880790710449 0.0021999999880790710449 0.0021999999880790710449 0.0021999999880790710449 
0.0029249999206513166428 0.0035249998327344655991 0.0021999999880790710449 0.0026249999646097421646 0.0021999999880790710449 0.0021999999880790710449 0.0021999999880790710449 0.0021999999880790710449 0.0038999998942017555237 0.00899999961256980896 0.0048499996773898601532 0.0084333326667547225952 0.0043999999761581420898 0.0027666667010635137558 0.00899999961256980896 0.0060249995440244674683 0.0021999999880790710449 0.0021999999880790710449 0.0021999999880790710449 0.0021999999880790710449 0.0021999999880790710449 0.0021999999880790710449 0.0021999999880790710449 0.0021999999880790710449 0.0021999999880790710449 0.0026249999646097421646 0.0027666667010635137558 0.0021999999880790710449 0.0021999999880790710449 0.003474999917671084404 0.0055999998003244400024 0.0026249999646097421646 0.0021999999880790710449 0.0021999999880790710449 0.0021999999880790710449 0.0021999999880790710449 0.0048124999739229679108 0.0045750001445412635803 0.0021999999880790710449 0.0021999999880790710449 0.0021999999880790710449 0.0021999999880790710449 0.0021999999880790710449 0.0021999999880790710449 0.0026249999646097421646 0.0051750000566244125366 0.0021999999880790710449 0.0021999999880790710449 0.0021999999880790710449 0.0021999999880790710449 0.0021999999880790710449 0.0021999999880790710449 0.0021999999880790710449 0.0021999999880790710449 0.0021999999880790710449 0.0021999999880790710449 0.0021999999880790710449 0.0021999999880790710449 0.0021999999880790710449 0.0021999999880790710449 0.0021999999880790710449 0.0021999999880790710449 0.0021999999880790710449 0.0031500000040978193283 0.0035249998327344655991 0.0031500000040978193283 0.0048499996773898601532 0.003474999917671084404 0.0021999999880790710449 0.0031999999191612005234 0.0021999999880790710449 0.0021999999880790710449 0.0021999999880790710449 0.0021999999880790710449 0.0021999999880790710449 0.0021999999880790710449 0.0021999999880790710449 0.0021999999880790710449 0.0021999999880790710449 0.0021999999880790710449 0.0021999999880790710449 0.0021999999880790710449 0.0021999999880790710449 0.0021999999880790710449 0.0021999999880790710449 0.0021999999880790710449 0.0021999999880790710449 
0.00224999990314245224 0.0021999999880790710449 0.0021999999880790710449 0.0051750000566244125366 0.0021999999880790710449 0.0021999999880790710449 0.0043000001460313796997 0.0021999999880790710449 0.0021999999880790710449 0.005839999765157699585 0.0081500001251697540283 0.0078666666522622108459 0.0021999999880790710449 0.0021999999880790710449 0.00899999961256980896 0.0021999999880790710449 0.0021999999880790710449 0.0021999999880790710449 0.0021999999880790710449 0.0021999999880790710449 0.0021999999880790710449 0.0021999999880790710449 0.0021999999880790710449 0.0021999999880790710449 0.0021999999880790710449 0.0021999999880790710449 0.0021999999880790710449 0.0021999999880790710449 0.0021999999880790710449 0.0021999999880790710449 0.0021999999880790710449 0.0021999999880790710449 0.0021999999880790710449 0.0021999999880790710449 0.0021999999880790710449 0.0021999999880790710449 0.0033875000663101673126 0.003574999980628490448 0.00224999990314245224 0.0021999999880790710449 0.0021999999880790710449 0.0021999999880790710449 0.0021999999880790710449 0.0021999999880790710449 0.0021999999880790710449 0.0043249996379017829895 0.0021999999880790710449 0.0021999999880790710449 0.0021999999880790710449 0.003474999917671084404 0.0026749998796731233597 0.0021999999880790710449 0.0021999999880790710449 0.0064499997533857822418 0.0021999999880790710449 0.0021999999880790710449 0.0021999999880790710449 0.0021999999880790710449 0.0021999999880790710449 0.0021999999880790710449 0.0021999999880790710449 0.0021999999880790710449 0.0021999999880790710449 0.0030499999411404132843 0.0044249999336898326874 0.0021999999880790710449 0.0026749998796731233597 0.0021999999880790710449 0.0021999999880790710449 0.0021999999880790710449 0.0021999999880790710449 0.0021999999880790710449 0.0021999999880790710449 0.0021999999880790710449 0.0021999999880790710449 0.0021999999880790710449 0.0021999999880790710449 0.0021999999880790710449 0.0021999999880790710449 0.0021999999880790710449 0.0021999999880790710449 0.0021999999880790710449 0.0021999999880790710449 0.0021999999880790710449 0.0021999999880790710449 0.0021999999880790710449 0.0021999999880790710449 
0.0055999998003244400024 0.0030499999411404132843 0.0021999999880790710449 0.0055999998003244400024 0.0021999999880790710449 0.0026749998796731233597 0.006799999624490737915 0.0024000001139938831329 0.0021999999880790710449 0.0027846153825521469116 0.003474999917671084404 0.0048153842799365520477 0.0021999999880790710449 0.0024399999529123306274 0.0084333326667547225952 0.0021999999880790710449 0.0021999999880790710449 0.0021999999880790710449 0.0021999999880790710449 0.0021999999880790710449 0.0021999999880790710449 0.0021999999880790710449 0.0021999999880790710449 0.0021999999880790710449 0.0021999999880790710449 0.0045846155844628810883 0.0021999999880790710449 0.0021999999880790710449 0.0024375000502914190292 0.0021999999880790710449 0.0021999999880790710449 0.0021999999880790710449 0.0021999999880790710449 0.0021999999880790710449 0.0021999999880790710449 0.0021999999880790710449 0.0026750001125037670135 0.0031999999191612005234 0.0021999999880790710449 0.0021999999880790710449 0.0021999999880790710449 0.0021999999880790710449 0.0021999999880790710449 0.0021999999880790710449 0.0021999999880790710449 0.0026249999646097421646 0.0021999999880790710449 0.0021999999880790710449 0.0021999999880790710449 0.0048124999739229679108 0.002912499941885471344 0.0021999999880790710449 0.0021999999880790710449 0.003474999917671084404 0.0023000000510364770889 0.0021999999880790710449 0.0021999999880790710449 0.0021999999880790710449 0.0021999999880790710449 0.0021999999880790710449 0.0021999999880790710449 0.00224999990314245224 0.0038999998942017555237 0.0060249995440244674683 0.0043750000186264514923 0.0023000000510364770889 0.0021999999880790710449 0.0021999999880790710449 0.0021999999880790710449 0.0021999999880790710449 0.0021999999880790710449 0.0021999999880790710449 0.0021999999880790710449 0.0021999999880790710449 0.0026249999646097421646 0.0056499997153878211975 0.0038999998942017555237 0.0021999999880790710449 0.0021999999880790710449 0.0021999999880790710449 0.0021999999880790710449 0.0021999999880790710449 0.0021999999880790710449 0.0026750001125037670135 0.0021999999880790710449 0.0021999999880790710449 0.0021999999880790710449 
0.0021999999880790710449 0.0021999999880790710449 0.0047499998472630977631 0.0038999998942017555237 0.0021999999880790710449 0.0038999998942017555237 0.0053999996744096279144 0.0028333333320915699005 0.0021999999880790710449 0.0021999999880790710449 0.0021999999880790710449 0.0052222218364477157593 0.0025833332911133766174 0.0038999998942017555237 0.0085466662421822547913 0.0038999998942017555237 0.0021999999880790710449 0.0021999999880790710449 0.0021999999880790710449 0.0021999999880790710449 0.0021999999880790710449 0.0021999999880790710449 0.0033333331812173128128 0.0021999999880790710449 0.0038307690992951393127 0.002349999966099858284 0.0021999999880790710449 0.0021999999880790710449 0.0021999999880790710449 0.0021999999880790710449 0.0021999999880790710449 0.0021999999880790710449 0.0021999999880790710449 0.0021999999880790710449 0.0030499999411404132843 0.0021999999880790710449 0.0021999999880790710449 0.0021999999880790710449 0.0021999999880790710449 0.0021999999880790710449 0.0021999999880790710449 0.0021999999880790710449 0.0021999999880790710449 0.0021999999880790710449 0.0021999999880790710449 0.0021999999880790710449 0.0026750001125037670135 0.0041000000201165676117 0.0048124999739229679108 0.0045750001445412635803 0.0048124999739229679108 0.0021999999880790710449 0.0021999999880790710449 0.0021999999880790710449 0.0038999998942017555237 0.0026249999646097421646 0.0021999999880790710449 0.0021999999880790710449 0.0021999999880790710449 0.0021999999880790710449 0.0021999999880790710449 0.0021999999880790710449 0.0021999999880790710449 0.0026249999646097421646 0.0021999999880790710449 0.0021999999880790710449 0.0021999999880790710449 0.0021999999880790710449 0.0021999999880790710449 0.0021999999880790710449 0.0021999999880790710449 0.0021999999880790710449 0.0021999999880790710449 0.0021999999880790710449 0.0021999999880790710449 0.0031500000040978193283 0.0026249999646097421646 0.0021999999880790710449 0.0021999999880790710449 0.0021999999880790710449 0.0021999999880790710449 0.0021999999880790710449 0.0021999999880790710449 0.0030999998562037944794 0.0024375000502914190292 0.0021999999880790710449 0.0021999999880790710449 
0.0021999999880790710449 0.0021999999880790710449 0.0051750000566244125366 0.0021999999880790710449 0.0030499999411404132843 0.0045333332382142543793 0.0058933333493769168854 0.0031500000040978193283 0.0021999999880790710449 0.0021999999880790710449 0.0021999999880790710449 0.0026533333584666252136 0.0051666665822267532349 0.0021999999880790710449 0.00899999961256980896 0.0064499997533857822418 0.0021999999880790710449 0.0021999999880790710449 0.0021999999880790710449 0.0021999999880790710449 0.0021999999880790710449 0.0033076922409236431122 0.0026749998796731233597 0.0021999999880790710449 0.0021999999880790710449 0.0021999999880790710449 0.0021999999880790710449 0.0021999999880790710449 0.0021999999880790710449 0.0021999999880790710449 0.0021999999880790710449 0.0021999999880790710449 0.0031500000040978193283 0.0021999999880790710449 0.0030999998562037944794 0.0021999999880790710449 0.0021999999880790710449 0.0021999999880790710449 0.0021999999880790710449 0.0021999999880790710449 0.0021999999880790710449 0.0021999999880790710449 0.0021999999880790710449 0.0021999999880790710449 0.0041000000201165676117 0.0048124999739229679108 0.0038624999579042196274 0.0041000000201165676117 0.0024375000502914190292 0.0021999999880790710449 0.0021999999880790710449 0.0021999999880790710449 0.0021999999880790710449 0.0021999999880790710449 0.0021999999880790710449 0.0021999999880790710449 0.0021999999880790710449 0.0021999999880790710449 0.0021999999880790710449 0.0026249999646097421646 0.0047499998472630977631 0.0021999999880790710449 0.0021999999880790710449 0.0026249999646097421646 0.0021999999880790710449 0.0021999999880790710449 0.0021999999880790710449 0.0021999999880790710449 0.0021999999880790710449 0.0021999999880790710449 0.0021999999880790710449 0.0021999999880790710449 0.0021999999880790710449 0.0021999999880790710449 0.0021999999880790710449 0.0021999999880790710449 0.0021999999880790710449 0.0060749999247491359711 0.0021999999880790710449 0.0021999999880790710449 0.0021999999880790710449 0.0030999998562037944794 0.0026249999646097421646 0.0021999999880790710449 0.0021999999880790710449 0.0021999999880790710449 0.0021999999880790710449 
0.0021999999880790710449 0.0026249999646097421646 0.0047499998472630977631 0.0021999999880790710449 0.0021999999880790710449 0.0030499999411404132843 0.0033400000538676977158 0.0025166666600853204727 0.0025166666600853204727 0.0021999999880790710449 0.0021999999880790710449 0.0033333331812173128128 0.007724999450147151947 0.0047499998472630977631 0.0050333333201706409454 0.0047499998472630977631 0.0021999999880790710449 0.0021999999880790710449 0.0021999999880790710449 0.0021999999880790710449 0.0021999999880790710449 0.0059799998998641967773 0.0038999998942017555237 0.0022799998987466096878 0.0021999999880790710449 0.0021999999880790710449 0.0021999999880790710449 0.0021999999880790710449 0.0021999999880790710449 0.0021999999880790710449 0.0021999999880790710449 0.0021999999880790710449 0.0024375000502914190292 0.0024874999653548002243 0.0021999999880790710449 0.0040500001050531864166 0.0038999998942017555237 0.0021999999880790710449 0.0040500001050531864166 0.0021999999880790710449 0.0021999999880790710449 0.0021999999880790710449 0.0021999999880790710449 0.0021999999880790710449 0.0026750001125037670135 0.002912499941885471344 0.002912499941885471344 0.0021999999880790710449 0.0021999999880790710449 0.0021999999880790710449 0.0021999999880790710449 0.0031500000040978193283 0.0021999999880790710449 0.0021999999880790710449 0.0021999999880790710449 0.0021999999880790710449 0.0021999999880790710449 0.0021999999880790710449 0.0021999999880790710449 0.0021999999880790710449 0.0021999999880790710449 0.0021999999880790710449 0.0021999999880790710449 0.0021999999880790710449 0.0021999999880790710449 0.0021999999880790710449 0.0021999999880790710449 0.0021999999880790710449 0.0021999999880790710449 0.0021999999880790710449 0.0021999999880790710449 0.0021999999880790710449 0.0021999999880790710449 0.0021999999880790710449 0.0021999999880790710449 0.0021999999880790710449 0.0030499999411404132843 0.0060749999247491359711 0.0030499999411404132843 0.00224999990314245224 0.0021999999880790710449 0.0052749998867511749268 0.0021999999880790710449 0.0021999999880790710449 0.0021999999880790710449 0.0021999999880790710449 0.0021999999880790710449 
0.0021999999880790710449 0.004900000058114528656 0.0082000000402331352234 0.0026749998796731233597 0.00224999990314245224 0.0045624999329447746277 0.0054000001400709152222 0.0021999999880790710449 0.0021999999880790710449 0.0046500000171363353729 0.0022666666191071271896 0.0037111109122633934021 0.0085749998688697814941 0.0046285712160170078278 0.0053733331151306629181 0.0038999998942017555237 0.0021999999880790710449 0.0021999999880790710449 0.0021999999880790710449 0.0021999999880790710449 0.0021999999880790710449 0.0044769230298697948456 0.0037199999205768108368 0.0048153842799365520477 0.0025166666600853204727 0.0031500000040978193283 0.0024375000502914190292 0.0021999999880790710449 0.0021999999880790710449 0.0021999999880790710449 0.0021999999880790710449 0.0021999999880790710449 0.0021999999880790710449 0.0032500000670552253723 0.0055999998003244400024 0.0055999998003244400024 0.003474999917671084404 0.0021999999880790710449 0.0026249999646097421646 0.0030999998562037944794 0.0021999999880790710449 0.0021999999880790710449 0.0021999999880790710449 0.0021999999880790710449 0.0021999999880790710449 0.0021999999880790710449 0.0021999999880790710449 0.0021999999880790710449 0.0021999999880790710449 0.0021999999880790710449 0.003574999980628490448 0.0026249999646097421646 0.0021999999880790710449 0.0021999999880790710449 0.0021999999880790710449 0.0021999999880790710449 0.0038999998942017555237 0.0047499998472630977631 0.0021999999880790710449 0.0021999999880790710449 0.0021999999880790710449 0.0021999999880790710449 0.0021999999880790710449 0.0021999999880790710449 0.0021999999880790710449 0.0021999999880790710449 0.0021999999880790710449 0.0021999999880790710449 0.0021999999880790710449 0.0021999999880790710449 0.0021999999880790710449 0.0021999999880790710449 0.0021999999880790710449 0.0021999999880790710449 0.0021999999880790710449 0.0021999999880790710449 0.0038999998942017555237 0.0072999997064471244812 0.0030499999411404132843 0.003474999917671084404 0.0021999999880790710449 0.0021999999880790710449 0.0021999999880790710449 0.0021999999880790710449 0.0021999999880790710449 0.0021999999880790710449 0.0021999999880790710449 
0.0021999999880790710449 0.0051750000566244125366 0.0074999998323619365692 0.0021999999880790710449 0.0053249998018145561218 0.00556250009685754776 0.0056400001049041748047 0.0030142858158797025681 0.0021999999880790710449 0.0021999999880790710449 0.002349999966099858284 0.0027666667010635137558 0.00899999961256980896 0.0076399995014071464539 0.0048153842799365520477 0.0021999999880790710449 0.0021999999880790710449 0.0021999999880790710449 0.0021999999880790710449 0.0021999999880790710449 0.0029555554501712322235 0.0046266666613519191742 0.0022571429144591093063 0.0021999999880790710449 0.0021999999880790710449 0.003675000043585896492 0.0040500001050531864166 0.0021999999880790710449 0.0021999999880790710449 0.0021999999880790710449 0.0021999999880790710449 0.0024375000502914190292 0.0021999999880790710449 0.00556250009685754776 0.0043249996379017829895 0.0043249996379017829895 0.0021999999880790710449 0.0021999999880790710449 0.0031999999191612005234 0.00224999990314245224 0.0021999999880790710449 0.0021999999880790710449 0.0021999999880790710449 0.0021999999880790710449 0.0021999999880790710449 0.0021999999880790710449 0.0021999999880790710449 0.0021999999880790710449 0.0021999999880790710449 0.0021999999880790710449 0.0056499997153878211975 0.0030499999411404132843 0.0021999999880790710449 0.0021999999880790710449 0.0021999999880790710449 0.0030499999411404132843 0.0053249998018145561218 0.0060749999247491359711 0.003474999917671084404 0.0021999999880790710449 0.0021999999880790710449 0.0021999999880790710449 0.0021999999880790710449 0.0021999999880790710449 0.0021999999880790710449 0.0021999999880790710449 0.0021999999880790710449 0.0021999999880790710449 0.0021999999880790710449 0.0021999999880790710449 0.0021999999880790710449 0.0021999999880790710449 0.0026249999646097421646 0.0021999999880790710449 0.0021999999880790710449 0.0021999999880790710449 0.0021999999880790710449 0.0030499999411404132843 0.0021999999880790710449 0.0021999999880790710449 0.0021999999880790710449 0.0021999999880790710449 0.0021999999880790710449 0.0047999997623264789581 0.0021999999880790710449 0.0021999999880790710449 0.0021999999880790710449 
0.0021999999880790710449 0.0061249998398125171661 0.0077749998308718204498 0.0026749998796731233597 0.0030499999411404132843 0.002912499941885471344 0.0029599999543279409409 0.0024714285973459482193 0.002349999966099858284 0.0026249999646097421646 0.0035250000655651092529 0.0021999999880790710449 0.00899999961256980896 0.0081500001251697540283 0.0067333332262933254242 0.0026249999646097421646 0.0021999999880790710449 0.0021999999880790710449 0.0021999999880790710449 0.0026249999646097421646 0.00224999990314245224 0.0021999999880790710449 0.0021999999880790710449 0.0021999999880790710449 0.0051750000566244125366 0.00556250009685754776 0.0030499999411404132843 0.0036749998107552528381 0.0021999999880790710449 0.0021999999880790710449 0.0021999999880790710449 0.0021999999880790710449 0.0021999999880790710449 0.0038999998942017555237 0.0074499999172985553741 0.0026749998796731233597 0.0026249999646097421646 0.0021999999880790710449 0.0030499999411404132843 0.00224999990314245224 0.0021999999880790710449 0.0021999999880790710449 0.0021999999880790710449 0.0021999999880790710449 0.0021999999880790710449 0.0021999999880790710449 0.0021999999880790710449 0.0021999999880790710449 0.0021999999880790710449 0.0021999999880790710449 0.0038999998942017555237 0.0021999999880790710449 0.0021999999880790710449 0.0021999999880790710449 0.0021999999880790710449 0.0026249999646097421646 0.00224999990314245224 0.0043249996379017829895 0.0052249999716877937317 0.003474999917671084404 0.0021999999880790710449 0.0021999999880790710449 0.0021999999880790710449 0.0021999999880790710449 0.0021999999880790710449 0.0024375000502914190292 0.0038624999579042196274 0.0048124999739229679108 0.0021999999880790710449 0.0021999999880790710449 0.0021999999880790710449 0.0026249999646097421646 0.0048624998889863491058 0.0026750001125037670135 0.0021999999880790710449 0.0021999999880790710449 0.0021999999880790710449 0.0027250000275671482086 0.0039999997243285179138 0.003474999917671084404 0.0043750000186264514923 0.0026249999646097421646 0.0043249996379017829895 0.0068749999627470970154 0.0066499998793005943298 0.0064499997533857822418 0.0038999998942017555237 
0.0021999999880790710449 0.0032500000670552253723 0.0070749996230006217957 0.0027749999426305294037 0.0021999999880790710449 0.00224999990314245224 0.0060666669160127639771 0.0021999999880790710449 0.0026249999646097421646 0.0026249999646097421646 0.0044749998487532138824 0.0022888889070600271225 0.00899999961256980896 0.0055999998003244400024 0.0038999998942017555237 0.0047499998472630977631 0.0021999999880790710449 0.0021999999880790710449 0.0021999999880790710449 0.0021999999880790710449 0.0044769230298697948456 0.0021999999880790710449 0.0021999999880790710449 0.0021999999880790710449 0.0060749999247491359711 0.0027375000063329935074 0.0021999999880790710449 0.0032999999821186065674 0.0021999999880790710449 0.0021999999880790710449 0.0021999999880790710449 0.0021999999880790710449 0.0038999998942017555237 0.00899999961256980896 0.00899999961256980896 0.0085749998688697814941 0.0026249999646097421646 0.0021999999880790710449 0.0021999999880790710449 0.0021999999880790710449 0.0021999999880790710449 0.0021999999880790710449 0.0021999999880790710449 0.0021999999880790710449 0.0021999999880790710449 0.0021999999880790710449 0.0021999999880790710449 0.0021999999880790710449 0.0021999999880790710449 0.0021999999880790710449 0.0021999999880790710449 0.0021999999880790710449 0.0024375000502914190292 0.0031500000040978193283 0.0038624999579042196274 0.0021999999880790710449 0.0021999999880790710449 0.0038999998942017555237 0.0051750000566244125366 0.0073999995365738868713 0.0040500001050531864166 0.002550000092014670372 0.0021999999880790710449 0.0021999999880790710449 0.0021999999880790710449 0.0048124999739229679108 0.0055249999277293682098 0.0057124998420476913452 0.0026249999646097421646 0.0021999999880790710449 0.0021999999880790710449 0.0033875000663101673126 0.0045750001445412635803 0.0033875000663101673126 0.0026750001125037670135 0.0021999999880790710449 0.0021999999880790710449 0.0021999999880790710449 0.0026249999646097421646 0.0021999999880790710449 0.0021999999880790710449 0.003474999917671084404 0.0030499999411404132843 0.00224999990314245224 0.0024000001139938831329 0.0021999999880790710449 0.0021999999880790710449 
0.0021999999880790710449 0.0032875000033527612686 0.0052749998867511749268 0.0062249996699392795563 0.0021999999880790710449 0.00224999990314245224 0.0057333330623805522919 0.0021999999880790710449 0.0021999999880790710449 0.0037714284844696521759 0.002349999966099858284 0.0033999998122453689575 0.0021999999880790710449 0.00899999961256980896 0.0027666667010635137558 0.0047499998472630977631 0.0021999999880790710449 0.0021999999880790710449 0.0021999999880790710449 0.0026249999646097421646 0.0056799999438226222992 0.0021999999880790710449 0.0021999999880790710449 0.00224999990314245224 0.0068874997086822986603 0.0039125001057982444763 0.0035375000443309545517 0.003112500067800283432 0.003474999917671084404 0.0021999999880790710449 0.0021999999880790710449 0.0021999999880790710449 0.0038999998942017555237 0.0068749999627470970154 0.00899999961256980896 0.00899999961256980896 0.0053249998018145561218 0.0021999999880790710449 0.0026249999646097421646 0.0026249999646097421646 0.0021999999880790710449 0.0021999999880790710449 0.0021999999880790710449 0.0021999999880790710449 0.0021999999880790710449 0.0021999999880790710449 0.0021999999880790710449 0.0021999999880790710449 0.0021999999880790710449 0.0021999999880790710449 0.00224999990314245224 0.0021999999880790710449 0.0024375000502914190292 0.0033875000663101673126 0.002912499941885471344 0.0030999998562037944794 0.0052249999716877937317 0.0081500001251697540283 0.0051750000566244125366 0.0023000000510364770889 0.0072999997064471244812 0.0069749997928738594055 0.002349999966099858284 0.00224999990314245224 0.003574999980628490448 0.0038624999579042196274 0.0038999998942017555237 0.0039499998092651367188 0.0027250000275671482086 0.0021999999880790710449 0.0021999999880790710449 0.0036249998956918716431 0.0038624999579042196274 0.0060000000521540641785 0.0043374998494982719421 0.0024375000502914190292 0.0043249996379017829895 0.0043750000186264514923 0.0021999999880790710449 0.0021999999880790710449 0.0021999999880790710449 0.0021999999880790710449 0.0021999999880790710449 0.0021999999880790710449 0.0021999999880790710449 0.0021999999880790710449 0.0021999999880790710449 
0.0021999999880790710449 0.0039999997243285179138 0.0068749999627470970154 0.0023000000510364770889 0.0021999999880790710449 0.0026249999646097421646 0.009399999864399433136 0.0023000000510364770889 0.0021999999880790710449 0.002880000043660402298 0.0040500001050531864166 0.0026666666381061077118 0.0072999997064471244812 0.0081500001251697540283 0.0061666662804782390594 0.0038999998942017555237 0.0021999999880790710449 0.0021999999880790710449 0.0021999999880790710449 0.003246153704822063446 0.0043249996379017829895 0.0021999999880790710449 0.0021999999880790710449 0.0030499999411404132843 0.0035874999593943357468 0.0033875000663101673126 0.0028250000905245542526 0.0026750001125037670135 0.0026249999646097421646 0.0021999999880790710449 0.0021999999880790710449 0.0021999999880790710449 0.0021999999880790710449 0.002349999966099858284 0.003474999917671084404 0.0068749999627470970154 0.0065999999642372131348 0.0021999999880790710449 0.0030499999411404132843 0.0021999999880790710449 0.0021999999880790710449 0.0021999999880790710449 0.0021999999880790710449 0.0021999999880790710449 0.0021999999880790710449 0.0021999999880790710449 0.0021999999880790710449 0.0021999999880790710449 0.0021999999880790710449 0.0021999999880790710449 0.002450000029057264328 0.0026249999646097421646 0.0021999999880790710449 0.0021999999880790710449 0.00224999990314245224 0.0055999998003244400024 0.0082499999552965164185 0.00899999961256980896 0.0045749996788799762726 0.0021999999880790710449 0.0026249999646097421646 0.003474999917671084404 0.0024999999441206455231 0.0021999999880790710449 0.003574999980628490448 0.003474999917671084404 0.0026249999646097421646 0.0021999999880790710449 0.0021999999880790710449 0.0021999999880790710449 0.0021999999880790710449 0.0021999999880790710449 0.0024999999441206455231 0.0039625000208616256714 0.0038624999579042196274 0.0030499999411404132843 0.0038999998942017555237 0.0021999999880790710449 0.0021999999880790710449 0.0021999999880790710449 0.0021999999880790710449 0.0021999999880790710449 0.0021999999880790710449 0.0021999999880790710449 0.0021999999880790710449 0.0021999999880790710449 0.0021999999880790710449 
0.0027250000275671482086 0.0039499998092651367188 0.0056499997153878211975 0.0026749998796731233597 0.003474999917671084404 0.0045125000178813934326 0.0043999999761581420898 0.0022571429144591093063 0.0051750000566244125366 0.0074999998323619365692 0.0044249999336898326874 0.0044666663743555545807 0.0065714283846318721771 0.0038999998942017555237 0.0037692305631935596466 0.0072999997064471244812 0.0021999999880790710449 0.0021999999880790710449 0.0021999999880790710449 0.0021999999880790710449 0.0026249999646097421646 0.0021999999880790710449 0.0021999999880790710449 0.003474999917671084404 0.0047999997623264789581 0.0026249999646097421646 0.0021999999880790710449 0.0021999999880790710449 0.0021999999880790710449 0.0021999999880790710449 0.0021999999880790710449 0.0021999999880790710449 0.0021999999880790710449 0.0026749998796731233597 0.0021999999880790710449 0.0026249999646097421646 0.0047499998472630977631 0.0021999999880790710449 0.0030999998562037944794 0.0021999999880790710449 0.0021999999880790710449 0.0021999999880790710449 0.0021999999880790710449 0.0021999999880790710449 0.0021999999880790710449 0.0021999999880790710449 0.0021999999880790710449 0.0021999999880790710449 0.0021999999880790710449 0.0021999999880790710449 0.0026249999646097421646 0.0043249996379017829895 0.0021999999880790710449 0.0026249999646097421646 0.0068749999627470970154 0.00899999961256980896 0.00899999961256980896 0.00899999961256980896 0.0047999997623264789581 0.0047499998472630977631 0.0043249996379017829895 0.0021999999880790710449 0.0035249998327344655991 0.0056499997153878211975 0.0026749998796731233597 0.0021999999880790710449 0.0021999999880790710449 0.0021999999880790710449 0.0021999999880790710449 0.0021999999880790710449 0.0021999999880790710449 0.0021999999880790710449 0.0021999999880790710449 0.0043249996379017829895 0.0047499998472630977631 0.0021999999880790710449 0.0021999999880790710449 0.0021999999880790710449 0.0021999999880790710449 0.0021999999880790710449 0.0021999999880790710449 0.0021999999880790710449 0.0021999999880790710449 0.0021999999880790710449 0.0021999999880790710449 0.0021999999880790710449 0.0021999999880790710449 
0.0021999999880790710449 0.0052749998867511749268 0.0032999999821186065674 0.0021999999880790710449 0.0026249999646097421646 0.0021999999880790710449 0.0021999999880790710449 0.0021999999880790710449 0.0029599999543279409409 0.0074888886883854866028 0.0060249995440244674683 0.0084999995306134223938 0.0042399996891617774963 0.0046285712160170078278 0.0031066664960235357285 0.00899999961256980896 0.0021999999880790710449 0.0021999999880790710449 0.003259999910369515419 0.0036615384742617607117 0.0077749998308718204498 0.0021999999880790710449 0.0021999999880790710449 0.0038999998942017555237 0.0030999998562037944794 0.0024000001139938831329 0.0021999999880790710449 0.003474999917671084404 0.0021999999880790710449 0.0021999999880790710449 0.0021999999880790710449 0.00224999990314245224 0.0047999997623264789581 0.0036249998956918716431 0.0021999999880790710449 0.0021999999880790710449 0.0026249999646097421646 0.0051750000566244125366 0.0030499999411404132843 0.0021999999880790710449 0.0021999999880790710449 0.0021999999880790710449 0.0021999999880790710449 0.0039499998092651367188 0.0047499998472630977631 0.0038999998942017555237 0.003474999917671084404 0.0047999997623264789581 0.003474999917671084404 0.0056999996304512023926 0.0057999999262392520905 0.0073999995365738868713 0.0061249998398125171661 0.0082000000402331352234 0.0081500001251697540283 0.0062249996699392795563 0.0069749997928738594055 0.0056999996304512023926 0.0068749999627470970154 0.0072999997064471244812 0.0041999998502433300018 0.00224999990314245224 0.0021999999880790710449 0.0021999999880790710449 0.0021999999880790710449 0.0021999999880790710449 0.0021999999880790710449 0.0021999999880790710449 0.0021999999880790710449 0.0021999999880790710449 0.0021999999880790710449 0.0021999999880790710449 0.0021999999880790710449 0.0021999999880790710449 0.0043249996379017829895 0.0021999999880790710449 0.0021999999880790710449 0.0021999999880790710449 0.0021999999880790710449 0.0021999999880790710449 0.0021999999880790710449 0.0021999999880790710449 0.0021999999880790710449 0.0021999999880790710449 0.0021999999880790710449 0.0026750001125037670135 0.0050499998033046722412 
0.0021999999880790710449 0.0056999996304512023926 0.0031999999191612005234 0.0030499999411404132843 0.0021999999880790710449 0.0021999999880790710449 0.0021999999880790710449 0.0021999999880790710449 0.0021999999880790710449 0.0041000000201165676117 0.0039666667580604553223 0.00899999961256980896 0.0021999999880790710449 0.0038999998942017555237 0.0021999999880790710449 0.0021999999880790710449 0.0021999999880790710449 0.0021999999880790710449 0.0021999999880790710449 0.0047333333641290664673 0.0085749998688697814941 0.0026249999646097421646 0.0021999999880790710449 0.0073499996215105056763 0.0035249998327344655991 0.0030499999411404132843 0.0021999999880790710449 0.0026249999646097421646 0.0021999999880790710449 0.0021999999880790710449 0.0021999999880790710449 0.0028249998576939105988 0.0047499998472630977631 0.0056499997153878211975 0.0021999999880790710449 0.0021999999880790710449 0.0021999999880790710449 0.0055999998003244400024 0.0035249998327344655991 0.0047499998472630977631 0.0026249999646097421646 0.0021999999880790710449 0.0021999999880790710449 0.0021999999880790710449 0.0043750000186264514923 0.0030499999411404132843 0.0021999999880790710449 0.0026249999646097421646 0.0026249999646097421646 0.0043249996379017829895 0.0038999998942017555237 0.0064999996684491634369 0.0072999997064471244812 0.0047499998472630977631 0.0026249999646097421646 0.0043249996379017829895 0.0030499999411404132843 0.0021999999880790710449 0.0026249999646097421646 0.0047999997623264789581 0.0021999999880790710449 0.0021999999880790710449 0.0021999999880790710449 0.0021999999880790710449 0.0021999999880790710449 0.0021999999880790710449 0.0021999999880790710449 0.0021999999880790710449 0.0021999999880790710449 0.0021999999880790710449 0.0021999999880790710449 0.0021999999880790710449 0.0021999999880790710449 0.0021999999880790710449 0.0060249995440244674683 0.0026249999646097421646 0.0021999999880790710449 0.0021999999880790710449 0.0021999999880790710449 0.0021999999880790710449 0.0021999999880790710449 0.0021999999880790710449 0.0021999999880790710449 0.0021999999880790710449 0.0021999999880790710449 0.002912499941885471344 0.0031500000040978193283 
0.0028625000268220901489 0.0064999996684491634369 0.0057500000111758708954 0.0039999997243285179138 0.0058999997563660144806 0.00556250009685754776 0.0041000000201165676117 0.003216666635125875473 0.0027666667010635137558 0.0021999999880790710449 0.0047499998472630977631 0.0021999999880790710449 0.0021999999880790710449 0.0079333335161209106445 0.0027666667010635137558 0.003474999917671084404 0.0021999999880790710449 0.0021999999880790710449 0.0021999999880790710449 0.0073999995365738868713 0.003474999917671084404 0.0024999999441206455231 0.0021999999880790710449 0.0021999999880790710449 0.0021999999880790710449 0.0021999999880790710449 0.0021999999880790710449 0.0021999999880790710449 0.0021999999880790710449 0.0026249999646097421646 0.0021999999880790710449 0.0036249998956918716431 0.0062249996699392795563 0.0047999997623264789581 0.0021999999880790710449 0.0021999999880790710449 0.0021999999880790710449 0.0026249999646097421646 0.0021999999880790710449 0.0026249999646097421646 0.0021999999880790710449 0.0021999999880790710449 0.0021999999880790710449 0.0021999999880790710449 0.0021999999880790710449 0.0021999999880790710449 0.0021999999880790710449 0.0021999999880790710449 0.0021999999880790710449 0.0021999999880790710449 0.0021999999880790710449 0.0021999999880790710449 0.0021999999880790710449 0.0021999999880790710449 0.0021999999880790710449 0.0021999999880790710449 0.0021999999880790710449 0.0021999999880790710449 0.0021999999880790710449 0.0021999999880790710449 0.0021999999880790710449 0.0021999999880790710449 0.0021999999880790710449 0.0021999999880790710449 0.0021999999880790710449 0.0021999999880790710449 0.0021999999880790710449 0.0021999999880790710449 0.0021999999880790710449 0.0021999999880790710449 0.0021999999880790710449 0.0021999999880790710449 0.0021999999880790710449 0.0021999999880790710449 0.0030499999411404132843 0.0021999999880790710449 0.0021999999880790710449 0.0021999999880790710449 0.0021999999880790710449 0.0021999999880790710449 0.0021999999880790710449 0.0021999999880790710449 0.0021999999880790710449 0.0031500000040978193283 0.0024375000502914190292 0.00224999990314245224 0.0024000001139938831329 
0.0047499998472630977631 0.0070749996230006217957 0.0047999997623264789581 0.0073999995365738868713 0.0048499996773898601532 0.0041499999351799488068 0.0021999999880790710449 0.0026249999646097421646 0.0033499998971819877625 0.0027666667010635137558 0.0021999999880790710449 0.0021999999880790710449 0.0036571428645402193069 0.0064499997533857822418 0.0050333333201706409454 0.0021999999880790710449 0.0021999999880790710449 0.0021999999880790710449 0.0021999999880790710449 0.0021999999880790710449 0.0021999999880790710449 0.0021999999880790710449 0.0021999999880790710449 0.0021999999880790710449 0.0026749998796731233597 0.0027250000275671482086 0.003474999917671084404 0.0026249999646097421646 0.0036749998107552528381 0.0041000000201165676117 0.00224999990314245224 0.0027250000275671482086 0.0043750000186264514923 0.0021999999880790710449 0.0033875000663101673126 0.0021999999880790710449 0.0021999999880790710449 0.0026249999646097421646 0.0021999999880790710449 0.0021999999880790710449 0.0021999999880790710449 0.0021999999880790710449 0.0021999999880790710449 0.0021999999880790710449 0.0021999999880790710449 0.0021999999880790710449 0.0021999999880790710449 0.0021999999880790710449 0.0021999999880790710449 0.0021999999880790710449 0.0021999999880790710449 0.0021999999880790710449 0.0021999999880790710449 0.0021999999880790710449 0.0021999999880790710449 0.0021999999880790710449 0.0021999999880790710449 0.0021999999880790710449 0.0021999999880790710449 0.0021999999880790710449 0.0021999999880790710449 0.0021999999880790710449 0.0021999999880790710449 0.0021999999880790710449 0.0021999999880790710449 0.0021999999880790710449 0.0021999999880790710449 0.0021999999880790710449 0.0021999999880790710449 0.0021999999880790710449 0.0021999999880790710449 0.0021999999880790710449 0.0021999999880790710449 0.0021999999880790710449 0.0021999999880790710449 0.0021999999880790710449 0.0021999999880790710449 0.0021999999880790710449 0.0021999999880790710449 0.0021999999880790710449 0.0021999999880790710449 0.0021999999880790710449 0.0021999999880790710449 0.0024375000502914190292 0.0021999999880790710449 0.0041000000201165676117 0.0043000001460313796997 
0.0068749999627470970154 0.0026249999646097421646 0.003474999917671084404 0.0030499999411404132843 0.0030499999411404132843 0.0021999999880790710449 0.0021999999880790710449 0.0026249999646097421646 0.0031714285723865032196 0.0026533333584666252136 0.0026249999646097421646 0.0048153842799365520477 0.0083200000226497650146 0.0050999997183680534363 0.0055999998003244400024 0.0033333331812173128128 0.0031500000040978193283 0.0021999999880790710449 0.0021999999880790710449 0.0021999999880790710449 0.0021999999880790710449 0.0030499999411404132843 0.0064499997533857822418 0.0055999998003244400024 0.0060249995440244674683 0.0069749997928738594055 0.0052749998867511749268 0.003574999980628490448 0.0031999999191612005234 0.0031999999191612005234 0.0026249999646097421646 0.0030499999411404132843 0.0021999999880790710449 0.0031500000040978193283 0.0024375000502914190292 0.0021999999880790710449 0.0021999999880790710449 0.0026249999646097421646 0.0021999999880790710449 0.0021999999880790710449 0.0021999999880790710449 0.0021999999880790710449 0.0021999999880790710449 0.0021999999880790710449 0.0021999999880790710449 0.0021999999880790710449 0.0021999999880790710449 0.0021999999880790710449 0.0021999999880790710449 0.0021999999880790710449 0.0021999999880790710449 0.0021999999880790710449 0.0021999999880790710449 0.0021999999880790710449 0.0021999999880790710449 0.0033875000663101673126 0.0024375000502914190292 0.002912499941885471344 0.0021999999880790710449 0.0021999999880790710449 0.0021999999880790710449 0.0021999999880790710449 0.0021999999880790710449 0.0021999999880790710449 0.0021999999880790710449 0.0021999999880790710449 0.0021999999880790710449 0.0021999999880790710449 0.0021999999880790710449 0.0021999999880790710449 0.0021999999880790710449 0.0021999999880790710449 0.0021999999880790710449 0.0021999999880790710449 0.0021999999880790710449 0.0021999999880790710449 0.0021999999880790710449 0.0021999999880790710449 0.0026249999646097421646 0.0021999999880790710449 0.0026249999646097421646 0.0021999999880790710449 0.0021999999880790710449 0.0021999999880790710449 0.0021999999880790710449 0.0031500000040978193283 0.0021999999880790710449 
0.0026249999646097421646 0.0021999999880790710449 0.003474999917671084404 0.0030499999411404132843 0.0021999999880790710449 0.0021999999880790710449 0.0021999999880790710449 0.0035599998664110898972 0.0021999999880790710449 0.003246153704822063446 0.0084333326667547225952 0.0033333331812173128128 0.0036499998532235622406 0.0049199997447431087494 0.0060249995440244674683 0.0043249996379017829895 0.0021999999880790710449 0.0021999999880790710449 0.0021999999880790710449 0.0021999999880790710449 0.0021999999880790710449 0.00899999961256980896 0.007724999450147151947 0.0047499998472630977631 0.0026249999646097421646 0.0021999999880790710449 0.0021999999880790710449 0.0043249996379017829895 0.0033499998971819877625 0.0049499999731779098511 0.003574999980628490448 0.0030999998562037944794 0.0038999998942017555237 0.0024375000502914190292 0.0021999999880790710449 0.0026249999646097421646 0.0021999999880790710449 0.0021999999880790710449 0.0021999999880790710449 0.0021999999880790710449 0.0021999999880790710449 0.0021999999880790710449 0.0030499999411404132843 0.0021999999880790710449 0.0021999999880790710449 0.0021999999880790710449 0.0021999999880790710449 0.0021999999880790710449 0.0021999999880790710449 0.0021999999880790710449 0.0021999999880790710449 0.0021999999880790710449 0.0021999999880790710449 0.0021999999880790710449 0.0021999999880790710449 0.0021999999880790710449 0.0021999999880790710449 0.0021999999880790710449 0.0021999999880790710449 0.0021999999880790710449 0.0021999999880790710449 0.0021999999880790710449 0.0021999999880790710449 0.0021999999880790710449 0.0021999999880790710449 0.0021999999880790710449 0.0021999999880790710449 0.0021999999880790710449 0.0021999999880790710449 0.0021999999880790710449 0.0021999999880790710449 0.0021999999880790710449 0.0021999999880790710449 0.0021999999880790710449 0.0021999999880790710449 0.0026750001125037670135 0.0021999999880790710449 0.003474999917671084404 0.0064999996684491634369 0.0051750000566244125366 0.0030499999411404132843 0.0021999999880790710449 0.0021999999880790710449 0.0021999999880790710449 0.0021999999880790710449 0.0021999999880790710449 0.0021999999880790710449 
0.0021999999880790710449 0.0021999999880790710449 0.0043750000186264514923 0.0055999998003244400024 0.0038999998942017555237 0.00224999990314245224 0.0035249998327344655991 0.0026249999646097421646 0.0021999999880790710449 0.0059777777642011642456 0.0026249999646097421646 0.0021999999880790710449 0.0054124998860061168671 0.0081500001251697540283 0.0060249995440244674683 0.0085749998688697814941 0.0030499999411404132843 0.0021999999880790710449 0.0021999999880790710449 0.0038999998942017555237 0.0043249996379017829895 0.0060249995440244674683 0.0021999999880790710449 0.0021999999880790710449 0.0021999999880790710449 0.0021999999880790710449 0.0021999999880790710449 0.0044249999336898326874 0.0030249999836087226868 0.0028750000055879354477 0.0021999999880790710449 0.0021999999880790710449 0.0021999999880790710449 0.0021999999880790710449 0.0021999999880790710449 0.0021999999880790710449 0.0021999999880790710449 0.0021999999880790710449 0.0021999999880790710449 0.0021999999880790710449 0.0021999999880790710449 0.0021999999880790710449 0.0030499999411404132843 0.0021999999880790710449 0.0021999999880790710449 0.0021999999880790710449 0.0021999999880790710449 0.0021999999880790710449 0.0021999999880790710449 0.0021999999880790710449 0.0021999999880790710449 0.0021999999880790710449 0.0021999999880790710449 0.0021999999880790710449 0.0021999999880790710449 0.0021999999880790710449 0.0021999999880790710449 0.0021999999880790710449 0.0021999999880790710449 0.0021999999880790710449 0.0021999999880790710449 0.0021999999880790710449 0.0021999999880790710449 0.0021999999880790710449 0.0021999999880790710449 0.0021999999880790710449 0.0021999999880790710449 0.0021999999880790710449 0.0021999999880790710449 0.0021999999880790710449 0.0021999999880790710449 0.0021999999880790710449 0.0021999999880790710449 0.0021999999880790710449 0.0021999999880790710449 0.0024375000502914190292 0.0036249998956918716431 0.0021999999880790710449 0.0021999999880790710449 0.0021999999880790710449 0.0021999999880790710449 0.0021999999880790710449 0.0021999999880790710449 0.0021999999880790710449 0.0021999999880790710449 0.0021999999880790710449 0.0021999999880790710449 
0.0021999999880790710449 0.0021999999880790710449 0.0021999999880790710449 0.0039999997243285179138 0.003474999917671084404 0.0021999999880790710449 0.0021999999880790710449 0.0026249999646097421646 0.0021999999880790710449 0.0060249995440244674683 0.0021999999880790710449 0.0055999998003244400024 0.0051750000566244125366 0.0064499997533857822418 0.0060249995440244674683 0.00899999961256980896 0.0038999998942017555237 0.0021999999880790710449 0.0021999999880790710449 0.0060249995440244674683 0.0051750000566244125366 0.0021999999880790710449 0.0021999999880790710449 0.0021999999880790710449 0.0038999998942017555237 0.0021999999880790710449 0.0021999999880790710449 0.0039999997243285179138 0.0043750000186264514923 0.0027250000275671482086 0.0021999999880790710449 0.0021999999880790710449 0.0021999999880790710449 0.0026249999646097421646 0.0021999999880790710449 0.0021999999880790710449 0.0047499998472630977631 0.0021999999880790710449 0.0021999999880790710449 0.0021999999880790710449 0.0021999999880790710449 0.0021999999880790710449 0.0021999999880790710449 0.0021999999880790710449 0.0021999999880790710449 0.0021999999880790710449 0.0021999999880790710449 0.0021999999880790710449 0.0021999999880790710449 0.0026750001125037670135 0.0021999999880790710449 0.0021999999880790710449 0.0021999999880790710449 0.0021999999880790710449 0.0021999999880790710449 0.0021999999880790710449 0.0021999999880790710449 0.0021999999880790710449 0.0021999999880790710449 0.0021999999880790710449 0.0021999999880790710449 0.0021999999880790710449 0.0021999999880790710449 0.0021999999880790710449 0.0021999999880790710449 0.0021999999880790710449 0.0021999999880790710449 0.0021999999880790710449 0.0021999999880790710449 0.0021999999880790710449 0.0021999999880790710449 0.0021999999880790710449 0.0021999999880790710449 0.0021999999880790710449 0.0021999999880790710449 0.0021999999880790710449 0.0024375000502914190292 0.0021999999880790710449 0.0021999999880790710449 0.0021999999880790710449 0.0021999999880790710449 0.0021999999880790710449 0.0021999999880790710449 0.0021999999880790710449 0.0021999999880790710449 0.0021999999880790710449 0.0021999999880790710449 
0.0021999999880790710449 0.0021999999880790710449 0.0021999999880790710449 0.0026249999646097421646 0.0021999999880790710449 0.0021999999880790710449 0.0026249999646097421646 0.0026749998796731233597 0.0021999999880790710449 0.0047499998472630977631 0.003474999917671084404 0.0085749998688697814941 0.0085749998688697814941 0.0051750000566244125366 0.0060249995440244674683 0.0081500001251697540283 0.003474999917671084404 0.0047499998472630977631 0.003474999917671084404 0.0021999999880790710449 0.0051750000566244125366 0.0021999999880790710449 0.0021999999880790710449 0.0021999999880790710449 0.0043750000186264514923 0.0043249996379017829895 0.0021999999880790710449 0.0031500000040978193283 0.0055749998427927494049 0.00224999990314245224 0.0021999999880790710449 0.0021999999880790710449 0.0021999999880790710449 0.0021999999880790710449 0.0026249999646097421646 0.0021999999880790710449 0.0030499999411404132843 0.0021999999880790710449 0.0021999999880790710449 0.0021999999880790710449 0.0021999999880790710449 0.0021999999880790710449 0.0021999999880790710449 0.0021999999880790710449 0.0021999999880790710449 0.0021999999880790710449 0.0021999999880790710449 0.0021999999880790710449 0.0021999999880790710449 0.0021999999880790710449 0.0021999999880790710449 0.0021999999880790710449 0.0021999999880790710449 0.0021999999880790710449 0.0021999999880790710449 0.0021999999880790710449 0.0024375000502914190292 0.0021999999880790710449 0.0021999999880790710449 0.0021999999880790710449 0.0021999999880790710449 0.0021999999880790710449 0.0021999999880790710449 0.0021999999880790710449 0.0021999999880790710449 0.0021999999880790710449 0.0021999999880790710449 0.0021999999880790710449 0.0021999999880790710449 0.0021999999880790710449 0.0021999999880790710449 0.0021999999880790710449 0.0021999999880790710449 0.0021999999880790710449 0.0041374997235834598541 0.0021999999880790710449 0.0021999999880790710449 0.0021999999880790710449 0.0021999999880790710449 0.0021999999880790710449 0.0021999999880790710449 0.0021999999880790710449 0.0021999999880790710449 0.0021999999880790710449 0.0021999999880790710449 0.0021999999880790710449 0.0021999999880790710449 
0.0021999999880790710449 0.0021999999880790710449 0.0021999999880790710449 0.0021999999880790710449 0.0021999999880790710449 0.0021999999880790710449 0.0030499999411404132843 0.0021999999880790710449 0.00224999990314245224 0.0038999998942017555237 0.0038999998942017555237 0.00899999961256980896 0.0085749998688697814941 0.0047499998472630977631 0.0064499997533857822418 0.00899999961256980896 0.0081500001251697540283 0.0043249996379017829895 0.0055999998003244400024 0.0051750000566244125366 0.003474999917671084404 0.0021999999880790710449 0.0021999999880790710449 0.0021999999880790710449 0.0031999999191612005234 0.0051750000566244125366 0.0021999999880790710449 0.00224999990314245224 0.0041499999351799488068 0.0026249999646097421646 0.0021999999880790710449 0.0021999999880790710449 0.0021999999880790710449 0.0021999999880790710449 0.0021999999880790710449 0.0030999998562037944794 0.0021999999880790710449 0.0021999999880790710449 0.0021999999880790710449 0.0021999999880790710449 0.0021999999880790710449 0.0026249999646097421646 0.003474999917671084404 0.0021999999880790710449 0.0021999999880790710449 0.0021999999880790710449 0.0021999999880790710449 0.0021999999880790710449 0.0021999999880790710449 0.0021999999880790710449 0.0021999999880790710449 0.0021999999880790710449 0.0021999999880790710449 0.0021999999880790710449 0.0021999999880790710449 0.0021999999880790710449 0.0021999999880790710449 0.0021999999880790710449 0.0021999999880790710449 0.0021999999880790710449 0.0021999999880790710449 0.0021999999880790710449 0.0021999999880790710449 0.0021999999880790710449 0.0021999999880790710449 0.0021999999880790710449 0.0021999999880790710449 0.0021999999880790710449 0.0021999999880790710449 0.0021999999880790710449 0.0021999999880790710449 0.0021999999880790710449 0.0021999999880790710449 0.0032875000033527612686 0.0026249999646097421646 0.0021999999880790710449 0.0021999999880790710449 0.0021999999880790710449 0.0021999999880790710449 0.0021999999880790710449 0.0021999999880790710449 0.0021999999880790710449 0.0021999999880790710449 0.0021999999880790710449 0.0021999999880790710449 0.0021999999880790710449 0.0021999999880790710449 
0.0021999999880790710449 0.0021999999880790710449 0.0021999999880790710449 0.0021999999880790710449 0.0021999999880790710449 0.0021999999880790710449 0.0021999999880790710449 0.0021999999880790710449 0.0021999999880790710449 0.0038999998942017555237 0.0055999998003244400024 0.00899999961256980896 0.0065500000491738319397 0.0021999999880790710449 0.0072999997064471244812 0.00899999961256980896 0.0064499997533857822418 0.0021999999880790710449 0.0021999999880790710449 0.0021999999880790710449 0.0021999999880790710449 0.0021999999880790710449 0.0021999999880790710449 0.0021999999880790710449 0.0021999999880790710449 0.0081500001251697540283 0.0021999999880790710449 0.0023000000510364770889 0.0043000001460313796997 0.0033499998971819877625 0.0021999999880790710449 0.0021999999880790710449 0.0021999999880790710449 0.0021999999880790710449 0.0021999999880790710449 0.0021999999880790710449 0.0021999999880790710449 0.0021999999880790710449 0.0021999999880790710449 0.0021999999880790710449 0.0021999999880790710449 0.0021999999880790710449 0.0038999998942017555237 0.0021999999880790710449 0.0021999999880790710449 0.0021999999880790710449 0.0021999999880790710449 0.0021999999880790710449 0.0021999999880790710449 0.0021999999880790710449 0.0021999999880790710449 0.0021999999880790710449 0.0021999999880790710449 0.0021999999880790710449 0.0021999999880790710449 0.0021999999880790710449 0.0021999999880790710449 0.0021999999880790710449 0.0021999999880790710449 0.0021999999880790710449 0.0021999999880790710449 0.0021999999880790710449 0.0021999999880790710449 0.0021999999880790710449 0.0021999999880790710449 0.0021999999880790710449 0.0021999999880790710449 0.0021999999880790710449 0.0021999999880790710449 0.0021999999880790710449 0.0021999999880790710449 0.0021999999880790710449 0.0026750001125037670135 0.0038999998942017555237 0.0026750001125037670135 0.0021999999880790710449 0.0021999999880790710449 0.0021999999880790710449 0.0021999999880790710449 0.0021999999880790710449 0.0021999999880790710449 0.0021999999880790710449 0.0021999999880790710449 0.0021999999880790710449 0.0021999999880790710449 0.0021999999880790710449 0.0021999999880790710449 
