ncols        19
nrows        23
xllcorner    508536.404131802963
yllcorner    5265348.997906560078
cellsize     570.000000000000
NODATA_value -9999
0.064999997615814208984 0.064999997615814208984 0.064999997615814208984 0.064999997615814208984 0.064999997615814208984 0.064999997615814208984 0.064999997615814208984 0.066080883145332336426 0.064999997615814208984 0.064999997615814208984 0.064999997615814208984 0.064999997615814208984 0.071125485002994537354 0.080912411212921142578 0.091719411313533782959 0.17351496219635009766 0.1460113525390625 0.13352133333683013916 0.086682453751564025879 
0.064999997615814208984 0.064999997615814208984 0.064999997615814208984 0.064999997615814208984 0.064999997615814208984 0.065420776605606079102 0.074308581650257110596 0.069204151630401611328 0.064999997615814208984 0.064999997615814208984 0.068002767860889434814 0.068963989615440368652 0.098124019801616668701 0.098724447190761566162 0.086610607802867889404 0.1632470935583114624 0.12277008593082427979 0.14889280498027801514 0.11101929843425750732 
0.064999997615814208984 0.064999997615814208984 0.064999997615814208984 0.064999997615814208984 0.064999997615814208984 0.067162044346332550049 0.079292520880699157715 0.064999997615814208984 0.064999997615814208984 0.067942656576633453369 0.11676620692014694214 0.085781164467334747314 0.092025347054004669189 0.13448050618171691895 0.096651919186115264893 0.11190221458673477173 0.10841745138168334961 0.080674238502979278564 0.1060771942138671875 
0.064999997615814208984 0.064999997615814208984 0.064999997615814208984 0.065540440380573272705 0.069564260542392730713 0.078391686081886291504 0.086739607155323028564 0.068363152444362640381 0.075209416449069976807 0.080373406410217285156 0.085898615419864654541 0.090283930301666259766 0.1296786963939666748 0.13621719181537628174 0.077916413545608520508 0.10471372306346893311 0.094486147165298461914 0.075989745557308197021 0.10797718912363052368 
0.064999997615814208984 0.064999997615814208984 0.068783096969127655029 0.066381163895130157471 0.066862046718597412109 0.08553905785083770752 0.145048484206199646 0.072206921875476837158 0.074789196252822875977 0.06806287914514541626 0.074068143963813781738 0.089442104101181030273 0.13388045132160186768 0.079016156494617462158 0.09189335256814956665 0.079099245369434356689 0.10573314130306243896 0.065660662949085235596 0.0707052573561668396 
0.068963989615440368652 0.087940163910388946533 0.096226036548614501953 0.06560055166482925415 0.069083929061889648438 0.088182270526885986328 0.13129833340644836426 0.10385456681251525879 0.073947921395301818848 0.072627142071723937988 0.073647364974021911621 0.079805485904216766357 0.13622070848941802979 0.07312794029712677002 0.06613429635763168335 0.065248474478721618652 0.082408919930458068848 0.07352714240550994873 0.066901750862598419189 
0.082475341856479644775 0.14744931459426879883 0.080673404037952423096 0.073167309165000915527 0.07791163027286529541 0.10271523147821426392 0.091124929487705230713 0.084218002855777740479 0.080674789845943450928 0.078752353787422180176 0.07448863983154296875 0.071968451142311096191 0.15046963095664978027 0.072086155414581298828 0.064999997615814208984 0.068003609776496887207 0.070419579744338989258 0.070644870400428771973 0.11976490914821624756 
0.11172132939100265503 0.13640221953392028809 0.066080883145332336426 0.076949857175350189209 0.081635177135467529297 0.08643878251314163208 0.080974511802196502686 0.11832742393016815186 0.11039888858795166016 0.1132205575704574585 0.085349999368190765381 0.10673443228006362915 0.19915820658206939697 0.067691035568714141846 0.066832110285758972168 0.07421312481164932251 0.068777352571487426758 0.1111180037260055542 0.07869122922420501709 
0.10553711652755737305 0.13195788860321044922 0.064999997615814208984 0.068843208253383636475 0.080434069037437438965 0.098870359361171722412 0.097367867827415466309 0.097249582409858703613 0.077222250401973724365 0.079405263066291809082 0.070857137441635131836 0.098366767168045043945 0.11978378146886825562 0.086136072874069213867 0.06764542311429977417 0.074788428843021392822 0.064999997615814208984 0.12883296608924865723 0.10265087336301803589 
0.076232410967350006104 0.095807477831840515137 0.083977282047271728516 0.064999997615814208984 0.10037036240100860596 0.081694737076759338379 0.096467308700084686279 0.075990304350852966309 0.06688193976879119873 0.070944190025329589844 0.1474421769380569458 0.075805954635143280029 0.13297297060489654541 0.096790097653865814209 0.10119743645191192627 0.067469619214534759521 0.0733470916748046875 0.095024652779102325439 0.20875789225101470947 
0.065780885517597198486 0.1201279759407043457 0.084939055144786834717 0.065540440380573272705 0.077190853655338287354 0.081754848361015319824 0.098929919302463531494 0.095258608460426330566 0.10212054848670959473 0.070222258567810058594 0.065350808203220367432 0.12675151228904724121 0.091468602418899536133 0.087734833359718322754 0.11916786432266235352 0.078572295606136322021 0.0756894722580909729 0.079772301018238067627 0.064999997615814208984 
0.077611081302165985107 0.099772021174430847168 0.071605816483497619629 0.083916068077087402344 0.088120222091674804688 0.09482800215482711792 0.070867665112018585205 0.071654453873634338379 0.086833566427230834961 0.08271999657154083252 0.066757656633853912354 0.1150598675012588501 0.12377986311912536621 0.083976559340953826904 0.10619750618934631348 0.068182826042175292969 0.067522160708904266357 0.068843208253383636475 0.068803504109382629395 
0.11376287788152694702 0.07640969008207321167 0.087339885532855987549 0.079049579799175262451 0.06990547478199005127 0.064999997615814208984 0.072819620370864868164 0.068058282136917114258 0.078948058187961578369 0.068537846207618713379 0.064999997615814208984 0.08055486530065536499 0.12636020779609680176 0.091399423778057098389 0.082234621047973632812 0.097848474979400634766 0.070224650204181671143 0.082835175096988677979 0.072607018053531646729 
0.10097091645002365112 0.086739331483840942383 0.096742406487464904785 0.069842904806137084961 0.081169612705707550049 0.11403333395719528198 0.11345647275447845459 0.090574219822883605957 0.078361622989177703857 0.072862319648265838623 0.066178262233734130859 0.064999997615814208984 0.092056766152381896973 0.11658255010843276978 0.097727976739406585693 0.075149305164813995361 0.066261216998100280762 0.064999997615814208984 0.082114033401012420654 
0.072086423635482788086 0.087669715285301208496 0.068815596401691436768 0.24042606353759765625 0.20257307589054107666 0.089726872742176055908 0.076044149696826934814 0.13233529031276702881 0.070665501058101654053 0.099110245704650878906 0.084636285901069641113 0.097006373107433319092 0.077971190214157104492 0.11171911656856536865 0.082115232944488525391 0.076349303126335144043 0.080973409116268157959 0.095445707440376281738 0.090863153338432312012 
0.092863708734512329102 0.085516959428787231445 0.076144367456436157227 0.14502446353435516357 0.11107620596885681152 0.06724252551794052124 0.16115529835224151611 0.11396647244691848755 0.07418753206729888916 0.078211911022663116455 0.092084206640720367432 0.12091163545846939087 0.096226312220096588135 0.072026312351226806641 0.094185598194599151611 0.084456510841846466064 0.11376121640205383301 0.13856150209903717041 0.064999997615814208984 
0.0733470916748046875 0.080391995608806610107 0.23976385593414306641 0.08081159740686416626 0.10865376889705657959 0.074484996497631072998 0.13925921916961669922 0.10096953064203262329 0.070404432713985443115 0.073707200586795806885 0.077430188655853271484 0.075929082930088043213 0.072326317429542541504 0.066741548478603363037 0.08619861304759979248 0.075568974018096923828 0.07664985954761505127 0.074908584356307983398 0.064999997615814208984 
0.088359832763671875 0.084280230104923248291 0.11847333610057830811 0.14797356724739074707 0.071203179657459259033 0.073732733726501464844 0.084756232798099517822 0.089022159576416015625 0.067162044346332550049 0.073647089302539825439 0.070885039865970611572 0.071545429527759552002 0.065540440380573272705 0.099829919636249542236 0.093764267861843109131 0.066140994429588317871 0.082234621047973632812 0.075148753821849822998 0.064999997615814208984 
0.09736703336238861084 0.090194590389728546143 0.095419354736804962158 0.064999997615814208984 0.081876546144485473633 0.071937538683414459229 0.06806287914514541626 0.084876731038093566895 0.069023542106151580811 0.077911905944347381592 0.086019113659858703613 0.070464543998241424561 0.073647089302539825439 0.071665652096271514893 0.064999997615814208984 0.069984205067157745361 0.091662049293518066406 0.073707476258277893066 0.064999997615814208984 
0.11574348807334899902 0.085759364068508148193 0.2331180870532989502 0.064999997615814208984 0.07819852977991104126 0.10535678267478942871 0.073106646537780761719 0.14486648142337799072 0.069624096155166625977 0.064999997615814208984 0.07190608978271484375 0.094004988670349121094 0.13057507574558258057 0.080314405262470245361 0.081935174763202667236 0.09412714838981628418 0.08103351294994354248 0.087759278714656829834 0.085536837577819824219 
0.12144847959280014038 0.096508920192718505859 0.098016925156116485596 0.08505700528621673584 0.096118018031120300293 0.080012738704681396484 0.091182827949523925781 0.085477285087108612061 0.073226869106292724609 0.078631296753883361816 0.10241135954856872559 0.13141496479511260986 0.10619445890188217163 0.071665652096271514893 0.064999997615814208984 0.080132409930229187012 0.064999997615814208984 0.067942656576633453369 0.094668418169021606445 
0.09394404292106628418 0.07706165313720703125 0.11255161464214324951 0.1144733130931854248 0.11309944838285446167 0.10073102265596389771 0.084698058664798736572 0.072506368160247802734 0.066080883145332336426 0.066080883145332336426 0.06560055166482925415 0.067101933062076568604 0.065900824964046478271 0.064999997615814208984 0.064999997615814208984 0.067822434008121490479 0.080132685601711273193 0.066080883145332336426 0.066142104566097259521 
0.066283553838729858398 0.070276968181133270264 0.180662497878074646 0.18822105228900909424 0.084253288805484771729 0.10250987112522125244 0.07541249692440032959 0.068993419408798217773 0.072701312601566314697 0.064999997615814208984 0.064999997615814208984 0.064999997615814208984 0.064999997615814208984 0.064999997615814208984 0.064999997615814208984 0.074840784072875976562 0.064999997615814208984 0.064999997615814208984 0.064999997615814208984 
