ncols        87
nrows        107
xllcorner    508536.404131802963
yllcorner    5265618.997906560078
cellsize     120.000000000000
NODATA_value -9999
0.064999997615814208984 0.064999997615814208984 0.064999997615814208984 0.064999997615814208984 0.064999997615814208984 0.064999997615814208984 0.064999997615814208984 0.064999997615814208984 0.064999997615814208984 0.064999997615814208984 0.064999997615814208984 0.064999997615814208984 0.064999997615814208984 0.064999997615814208984 0.064999997615814208984 0.064999997615814208984 0.064999997615814208984 0.064999997615814208984 0.064999997615814208984 0.064999997615814208984 0.064999997615814208984 0.064999997615814208984 0.064999997615814208984 0.064999997615814208984 0.064999997615814208984 0.064999997615814208984 0.064999997615814208984 0.064999997615814208984 0.064999997615814208984 0.064999997615814208984 0.064999997615814208984 0.064999997615814208984 0.064999997615814208984 0.064999997615814208984 0.064999997615814208984 0.064999997615814208984 0.064999997615814208984 0.064999997615814208984 0.064999997615814208984 0.064999997615814208984 0.064999997615814208984 0.064999997615814208984 0.064999997615814208984 0.064999997615814208984 0.064999997615814208984 0.064999997615814208984 0.064999997615814208984 0.064999997615814208984 0.064999997615814208984 0.064999997615814208984 0.064999997615814208984 0.064999997615814208984 0.064999997615814208984 0.064999997615814208984 0.064999997615814208984 0.064999997615814208984 0.064999997615814208984 0.064999997615814208984 0.064999997615814208984 0.064999997615814208984 0.064999997615814208984 0.064999997615814208984 0.064999997615814208984 0.064999997615814208984 0.064999997615814208984 0.064999997615814208984 0.064999997615814208984 0.064999997615814208984 0.064999997615814208984 0.064999997615814208984 0.10023124516010284424 0.093456245958805084229 0.11919999867677688599 0.20455625653266906738 0.1219125017523765564 0.097518749535083770752 0.13546250760555267334 0.093456245958805084229 0.089387498795986175537 0.17610000073909759521 0.21403750777244567871 0.11919999867677688599 0.15985000133514404297 0.13410624861717224121 0.12462499737739562988 0.098881252110004425049 0.12462499737739562988 
0.064999997615814208984 0.064999997615814208984 0.064999997615814208984 0.064999997615814208984 0.064999997615814208984 0.064999997615814208984 0.064999997615814208984 0.064999997615814208984 0.064999997615814208984 0.064999997615814208984 0.064999997615814208984 0.064999997615814208984 0.064999997615814208984 0.064999997615814208984 0.064999997615814208984 0.064999997615814208984 0.064999997615814208984 0.064999997615814208984 0.064999997615814208984 0.064999997615814208984 0.064999997615814208984 0.064999997615814208984 0.064999997615814208984 0.064999997615814208984 0.064999997615814208984 0.064999997615814208984 0.064999997615814208984 0.064999997615814208984 0.064999997615814208984 0.064999997615814208984 0.064999997615814208984 0.064999997615814208984 0.064999997615814208984 0.064999997615814208984 0.064999997615814208984 0.064999997615814208984 0.064999997615814208984 0.064999997615814208984 0.064999997615814208984 0.064999997615814208984 0.064999997615814208984 0.064999997615814208984 0.064999997615814208984 0.064999997615814208984 0.064999997615814208984 0.064999997615814208984 0.064999997615814208984 0.064999997615814208984 0.064999997615814208984 0.064999997615814208984 0.064999997615814208984 0.064999997615814208984 0.064999997615814208984 0.064999997615814208984 0.064999997615814208984 0.064999997615814208984 0.064999997615814208984 0.064999997615814208984 0.064999997615814208984 0.064999997615814208984 0.064999997615814208984 0.077193751931190490723 0.077193751931190490723 0.064999997615814208984 0.064999997615814208984 0.064999997615814208984 0.066356249153614044189 0.066356249153614044189 0.079906247556209564209 0.079906247556209564209 0.13003750145435333252 0.1381749957799911499 0.20184375345706939697 0.17881250381469726562 0.21675001084804534912 0.14358749985694885254 0.11919999867677688599 0.14223125576972961426 0.20184375345706939697 0.23706875741481781006 0.15306875109672546387 0.069068744778633117676 0.079906247556209564209 0.12732499837875366211 0.081262499094009399414 0.10836250334978103638 0.064999997615814208984 
0.064999997615814208984 0.064999997615814208984 0.064999997615814208984 0.064999997615814208984 0.064999997615814208984 0.064999997615814208984 0.064999997615814208984 0.064999997615814208984 0.064999997615814208984 0.064999997615814208984 0.064999997615814208984 0.064999997615814208984 0.064999997615814208984 0.064999997615814208984 0.064999997615814208984 0.064999997615814208984 0.064999997615814208984 0.064999997615814208984 0.064999997615814208984 0.064999997615814208984 0.064999997615814208984 0.064999997615814208984 0.064999997615814208984 0.064999997615814208984 0.064999997615814208984 0.064999997615814208984 0.064999997615814208984 0.064999997615814208984 0.064999997615814208984 0.064999997615814208984 0.064999997615814208984 0.064999997615814208984 0.064999997615814208984 0.064999997615814208984 0.064999997615814208984 0.064999997615814208984 0.064999997615814208984 0.064999997615814208984 0.064999997615814208984 0.064999997615814208984 0.064999997615814208984 0.064999997615814208984 0.064999997615814208984 0.064999997615814208984 0.064999997615814208984 0.064999997615814208984 0.064999997615814208984 0.064999997615814208984 0.064999997615814208984 0.064999997615814208984 0.064999997615814208984 0.064999997615814208984 0.064999997615814208984 0.064999997615814208984 0.064999997615814208984 0.064999997615814208984 0.064999997615814208984 0.064999997615814208984 0.064999997615814208984 0.064999997615814208984 0.064999997615814208984 0.064999997615814208984 0.064999997615814208984 0.064999997615814208984 0.064999997615814208984 0.064999997615814208984 0.064999997615814208984 0.064999997615814208984 0.069068744778633117676 0.088043749332427978516 0.17745625972747802734 0.20591250061988830566 0.23842500150203704834 0.23842500150203704834 0.18288125097751617432 0.11920624971389770508 0.15171250700950622559 0.18016874790191650391 0.11919999867677688599 0.21539375185966491699 0.1313937455415725708 0.11919999867677688599 0.17745625972747802734 0.14358749985694885254 0.16797500848770141602 0.081262499094009399414 0.064999997615814208984 
0.064999997615814208984 0.064999997615814208984 0.064999997615814208984 0.064999997615814208984 0.064999997615814208984 0.064999997615814208984 0.064999997615814208984 0.064999997615814208984 0.064999997615814208984 0.064999997615814208984 0.064999997615814208984 0.064999997615814208984 0.064999997615814208984 0.064999997615814208984 0.064999997615814208984 0.064999997615814208984 0.064999997615814208984 0.064999997615814208984 0.064999997615814208984 0.064999997615814208984 0.064999997615814208984 0.064999997615814208984 0.064999997615814208984 0.064999997615814208984 0.064999997615814208984 0.064999997615814208984 0.064999997615814208984 0.064999997615814208984 0.064999997615814208984 0.064999997615814208984 0.064999997615814208984 0.064999997615814208984 0.064999997615814208984 0.064999997615814208984 0.064999997615814208984 0.064999997615814208984 0.064999997615814208984 0.064999997615814208984 0.064999997615814208984 0.064999997615814208984 0.064999997615814208984 0.064999997615814208984 0.064999997615814208984 0.064999997615814208984 0.064999997615814208984 0.064999997615814208984 0.064999997615814208984 0.064999997615814208984 0.064999997615814208984 0.064999997615814208984 0.064999997615814208984 0.064999997615814208984 0.064999997615814208984 0.064999997615814208984 0.064999997615814208984 0.064999997615814208984 0.064999997615814208984 0.064999997615814208984 0.10565000027418136597 0.064999997615814208984 0.064999997615814208984 0.064999997615814208984 0.089387498795986175537 0.19913125038146972656 0.11377499997615814209 0.13003332912921905518 0.094812497496604919434 0.064999997615814208984 0.071781247854232788086 0.11378750205039978027 0.090756252408027648926 0.19507500529289245605 0.22758750617504119873 0.19507500529289245605 0.17068749666213989258 0.13546250760555267334 0.11784374713897705078 0.15036875009536743164 0.11513125151395797729 0.12462499737739562988 0.1693312525749206543 0.15578125417232513428 0.085331246256828308105 0.18016874790191650391 0.12868125736713409424 0.093456245958805084229 0.064999997615814208984 
0.064999997615814208984 0.064999997615814208984 0.064999997615814208984 0.064999997615814208984 0.064999997615814208984 0.064999997615814208984 0.064999997615814208984 0.064999997615814208984 0.064999997615814208984 0.064999997615814208984 0.064999997615814208984 0.064999997615814208984 0.064999997615814208984 0.064999997615814208984 0.064999997615814208984 0.064999997615814208984 0.064999997615814208984 0.064999997615814208984 0.064999997615814208984 0.064999997615814208984 0.064999997615814208984 0.064999997615814208984 0.064999997615814208984 0.064999997615814208984 0.064999997615814208984 0.064999997615814208984 0.064999997615814208984 0.064999997615814208984 0.064999997615814208984 0.064999997615814208984 0.064999997615814208984 0.064999997615814208984 0.064999997615814208984 0.064999997615814208984 0.10293749719858169556 0.078549996018409729004 0.064999997615814208984 0.064999997615814208984 0.064999997615814208984 0.064999997615814208984 0.064999997615814208984 0.064999997615814208984 0.064999997615814208984 0.064999997615814208984 0.064999997615814208984 0.064999997615814208984 0.064999997615814208984 0.064999997615814208984 0.064999997615814208984 0.064999997615814208984 0.064999997615814208984 0.064999997615814208984 0.064999997615814208984 0.064999997615814208984 0.064999997615814208984 0.064999997615814208984 0.064999997615814208984 0.077193751931190490723 0.089387498795986175537 0.078549996018409729004 0.092099994421005249023 0.11784374713897705078 0.071774996817111968994 0.14003846049308776855 0.24790625274181365967 0.24384167790412902832 0.064999997615814208984 0.064999997615814208984 0.10429999977350234985 0.12462499737739562988 0.1232687532901763916 0.16661874949932098389 0.17881250381469726562 0.14494375884532928467 0.17068749666213989258 0.20591250061988830566 0.18152500689029693604 0.14630000293254852295 0.066356249153614044189 0.10836250334978103638 0.11513125151395797729 0.20591250061988830566 0.16390624642372131348 0.18829999864101409912 0.10971249639987945557 0.078549996018409729004 0.064999997615814208984 
0.064999997615814208984 0.064999997615814208984 0.064999997615814208984 0.064999997615814208984 0.064999997615814208984 0.064999997615814208984 0.064999997615814208984 0.064999997615814208984 0.064999997615814208984 0.064999997615814208984 0.064999997615814208984 0.064999997615814208984 0.064999997615814208984 0.064999997615814208984 0.064999997615814208984 0.064999997615814208984 0.064999997615814208984 0.064999997615814208984 0.064999997615814208984 0.064999997615814208984 0.064999997615814208984 0.064999997615814208984 0.064999997615814208984 0.064999997615814208984 0.064999997615814208984 0.064999997615814208984 0.064999997615814208984 0.064999997615814208984 0.064999997615814208984 0.064999997615814208984 0.064999997615814208984 0.064999997615814208984 0.064999997615814208984 0.066356249153614044189 0.066356249153614044189 0.074493750929832458496 0.064999997615814208984 0.064999997615814208984 0.064999997615814208984 0.064999997615814208984 0.064999997615814208984 0.064999997615814208984 0.064999997615814208984 0.064999997615814208984 0.064999997615814208984 0.064999997615814208984 0.064999997615814208984 0.064999997615814208984 0.064999997615814208984 0.064999997615814208984 0.064999997615814208984 0.064999997615814208984 0.064999997615814208984 0.064999997615814208984 0.064999997615814208984 0.064999997615814208984 0.064999997615814208984 0.067712500691413879395 0.064999997615814208984 0.064999997615814208984 0.066356249153614044189 0.098875001072883605957 0.064999997615814208984 0.064999997615814208984 0.22351875901222229004 0.26010000705718994141 0.064999997615814208984 0.064999997615814208984 0.064999997615814208984 0.10565000027418136597 0.081262499094009399414 0.22351875901222229004 0.26010000705718994141 0.20591250061988830566 0.15172500908374786377 0.21539375185966491699 0.18016874790191650391 0.097525000572204589844 0.064999997615814208984 0.066356249153614044189 0.21268124878406524658 0.26010000705718994141 0.13410624861717224121 0.083975002169609069824 0.071774996817111968994 0.064999997615814208984 0.064999997615814208984 
0.064999997615814208984 0.064999997615814208984 0.064999997615814208984 0.064999997615814208984 0.064999997615814208984 0.064999997615814208984 0.064999997615814208984 0.064999997615814208984 0.064999997615814208984 0.064999997615814208984 0.064999997615814208984 0.064999997615814208984 0.064999997615814208984 0.064999997615814208984 0.064999997615814208984 0.064999997615814208984 0.064999997615814208984 0.064999997615814208984 0.064999997615814208984 0.064999997615814208984 0.064999997615814208984 0.064999997615814208984 0.064999997615814208984 0.064999997615814208984 0.064999997615814208984 0.064999997615814208984 0.064999997615814208984 0.064999997615814208984 0.064999997615814208984 0.064999997615814208984 0.064999997615814208984 0.11107499897480010986 0.067712500691413879395 0.071774996817111968994 0.064999997615814208984 0.089387498795986175537 0.089387498795986175537 0.064999997615814208984 0.064999997615814208984 0.064999997615814208984 0.064999997615814208984 0.064999997615814208984 0.064999997615814208984 0.064999997615814208984 0.064999997615814208984 0.064999997615814208984 0.064999997615814208984 0.064999997615814208984 0.064999997615814208984 0.064999997615814208984 0.064999997615814208984 0.064999997615814208984 0.064999997615814208984 0.064999997615814208984 0.064999997615814208984 0.064999997615814208984 0.064999997615814208984 0.090743750333786010742 0.14358749985694885254 0.11513125151395797729 0.064999997615814208984 0.064999997615814208984 0.064999997615814208984 0.064999997615814208984 0.14358749985694885254 0.1625500023365020752 0.064999997615814208984 0.064999997615814208984 0.064999997615814208984 0.064999997615814208984 0.064999997615814208984 0.14630000293254852295 0.18423750996589660645 0.18288125097751617432 0.17204375565052032471 0.23706875741481781006 0.19507500529289245605 0.067712500691413879395 0.090743750333786010742 0.15171250700950622559 0.22758750617504119873 0.2492625117301940918 0.15985000133514404297 0.081262499094009399414 0.14494375884532928467 0.10293749719858169556 0.070424996316432952881 
0.064999997615814208984 0.064999997615814208984 0.064999997615814208984 0.064999997615814208984 0.064999997615814208984 0.064999997615814208984 0.064999997615814208984 0.064999997615814208984 0.064999997615814208984 0.064999997615814208984 0.064999997615814208984 0.064999997615814208984 0.064999997615814208984 0.064999997615814208984 0.064999997615814208984 0.064999997615814208984 0.064999997615814208984 0.064999997615814208984 0.064999997615814208984 0.064999997615814208984 0.064999997615814208984 0.064999997615814208984 0.064999997615814208984 0.064999997615814208984 0.064999997615814208984 0.064999997615814208984 0.064999997615814208984 0.064999997615814208984 0.064999997615814208984 0.089387498795986175537 0.092100001871585845947 0.079906247556209564209 0.064999997615814208984 0.064999997615814208984 0.064999997615814208984 0.064999997615814208984 0.064999997615814208984 0.064999997615814208984 0.064999997615814208984 0.064999997615814208984 0.064999997615814208984 0.064999997615814208984 0.064999997615814208984 0.064999997615814208984 0.064999997615814208984 0.064999997615814208984 0.064999997615814208984 0.064999997615814208984 0.064999997615814208984 0.064999997615814208984 0.064999997615814208984 0.064999997615814208984 0.092100001871585845947 0.11919999867677688599 0.064999997615814208984 0.064999997615814208984 0.064999997615814208984 0.064999997615814208984 0.14223125576972961426 0.21539375185966491699 0.064999997615814208984 0.064999997615814208984 0.064999997615814208984 0.11558333039283752441 0.24565000832080841064 0.15171110630035400391 0.064999997615814208984 0.086677774786949157715 0.068338461220264434814 0.067712500691413879395 0.12732499837875366211 0.17881250381469726562 0.17339999973773956299 0.15171250700950622559 0.070424996316432952881 0.13003750145435333252 0.22758750617504119873 0.064999997615814208984 0.092100001871585845947 0.18016874790191650391 0.20455625653266906738 0.21539375185966491699 0.15578125417232513428 0.1625500023365020752 0.18964999914169311523 0.21539375185966491699 0.26010000705718994141 
0.064999997615814208984 0.064999997615814208984 0.064999997615814208984 0.064999997615814208984 0.064999997615814208984 0.064999997615814208984 0.064999997615814208984 0.064999997615814208984 0.064999997615814208984 0.064999997615814208984 0.064999997615814208984 0.064999997615814208984 0.064999997615814208984 0.064999997615814208984 0.064999997615814208984 0.064999997615814208984 0.064999997615814208984 0.064999997615814208984 0.064999997615814208984 0.064999997615814208984 0.064999997615814208984 0.064999997615814208984 0.064999997615814208984 0.064999997615814208984 0.064999997615814208984 0.064999997615814208984 0.064999997615814208984 0.064999997615814208984 0.064999997615814208984 0.15171250700950622559 0.073131248354911804199 0.064999997615814208984 0.064999997615814208984 0.064999997615814208984 0.064999997615814208984 0.064999997615814208984 0.064999997615814208984 0.064999997615814208984 0.064999997615814208984 0.064999997615814208984 0.064999997615814208984 0.064999997615814208984 0.064999997615814208984 0.064999997615814208984 0.064999997615814208984 0.064999997615814208984 0.064999997615814208984 0.064999997615814208984 0.064999997615814208984 0.064999997615814208984 0.078549996018409729004 0.064999997615814208984 0.064999997615814208984 0.064999997615814208984 0.067712500691413879395 0.064999997615814208984 0.064999997615814208984 0.064999997615814208984 0.090743750333786010742 0.23706875741481781006 0.092100001871585845947 0.064999997615814208984 0.11739166826009750366 0.085331246256828308105 0.23571249842643737793 0.23571249842643737793 0.064999997615814208984 0.12100833654403686523 0.10836250334978103638 0.10700625181198120117 0.14494375884532928467 0.14494375884532928467 0.14901250600814819336 0.10565000027418136597 0.079906247556209564209 0.078549996018409729004 0.18964999914169311523 0.064999997615814208984 0.066356249153614044189 0.064999997615814208984 0.10293749719858169556 0.14630000293254852295 0.20455625653266906738 0.12732499837875366211 0.081262499094009399414 0.064999997615814208984 0.11919999867677688599 
0.064999997615814208984 0.064999997615814208984 0.064999997615814208984 0.064999997615814208984 0.064999997615814208984 0.064999997615814208984 0.064999997615814208984 0.064999997615814208984 0.064999997615814208984 0.064999997615814208984 0.064999997615814208984 0.064999997615814208984 0.064999997615814208984 0.064999997615814208984 0.064999997615814208984 0.064999997615814208984 0.064999997615814208984 0.064999997615814208984 0.064999997615814208984 0.064999997615814208984 0.064999997615814208984 0.064999997615814208984 0.064999997615814208984 0.064999997615814208984 0.075849995017051696777 0.064999997615814208984 0.064999997615814208984 0.064999997615814208984 0.064999997615814208984 0.066356249153614044189 0.064999997615814208984 0.064999997615814208984 0.064999997615814208984 0.064999997615814208984 0.064999997615814208984 0.064999997615814208984 0.064999997615814208984 0.064999997615814208984 0.064999997615814208984 0.064999997615814208984 0.064999997615814208984 0.064999997615814208984 0.064999997615814208984 0.064999997615814208984 0.064999997615814208984 0.064999997615814208984 0.064999997615814208984 0.064999997615814208984 0.064999997615814208984 0.096168749034404754639 0.14494374394416809082 0.082618750631809234619 0.064999997615814208984 0.077193751931190490723 0.071781247854232788086 0.064999997615814208984 0.064999997615814208984 0.067712500691413879395 0.10565000027418136597 0.16120624542236328125 0.064999997615814208984 0.064999997615814208984 0.070424996316432952881 0.12003846466541290283 0.16978333890438079834 0.232975006103515625 0.064999997615814208984 0.11076666414737701416 0.081676922738552093506 0.092100001871585845947 0.064999997615814208984 0.16797500848770141602 0.15172500908374786377 0.082618750631809234619 0.067712500691413879395 0.20048750936985015869 0.1313937455415725708 0.064999997615814208984 0.067712500691413879395 0.064999997615814208984 0.10293749719858169556 0.12461875379085540771 0.15848749876022338867 0.14494375884532928467 0.064999997615814208984 0.089387498795986175537 0.26010000705718994141 
0.064999997615814208984 0.064999997615814208984 0.064999997615814208984 0.064999997615814208984 0.064999997615814208984 0.064999997615814208984 0.064999997615814208984 0.064999997615814208984 0.064999997615814208984 0.064999997615814208984 0.064999997615814208984 0.064999997615814208984 0.064999997615814208984 0.064999997615814208984 0.064999997615814208984 0.064999997615814208984 0.064999997615814208984 0.064999997615814208984 0.064999997615814208984 0.064999997615814208984 0.064999997615814208984 0.064999997615814208984 0.064999997615814208984 0.064999997615814208984 0.064999997615814208984 0.064999997615814208984 0.064999997615814208984 0.11242499947547912598 0.085324995219707489014 0.071781247854232788086 0.066356249153614044189 0.064999997615814208984 0.064999997615814208984 0.064999997615814208984 0.064999997615814208984 0.064999997615814208984 0.064999997615814208984 0.064999997615814208984 0.064999997615814208984 0.064999997615814208984 0.064999997615814208984 0.064999997615814208984 0.064999997615814208984 0.064999997615814208984 0.064999997615814208984 0.064999997615814208984 0.064999997615814208984 0.090743750333786010742 0.082618750631809234619 0.13003750145435333252 0.086687497794628143311 0.1219125017523765564 0.066356249153614044189 0.13410624861717224121 0.10158124566078186035 0.064999997615814208984 0.064999997615814208984 0.085331246256828308105 0.078549996018409729004 0.1219125017523765564 0.064999997615814208984 0.094812497496604919434 0.17339999973773956299 0.16797500848770141602 0.21313333511352539062 0.27862858772277832031 0.081258334219455718994 0.09318999946117401123 0.12694285809993743896 0.12598125636577606201 0.10293749719858169556 0.16526250541210174561 0.19371876120567321777 0.12055625021457672119 0.10565000027418136597 0.078549996018409729004 0.066356249153614044189 0.064999997615814208984 0.1164875030517578125 0.10158124566078186035 0.1625500023365020752 0.12732499837875366211 0.086681246757507324219 0.094812497496604919434 0.066356249153614044189 0.064999997615814208984 0.2113250046968460083 
0.064999997615814208984 0.064999997615814208984 0.064999997615814208984 0.064999997615814208984 0.064999997615814208984 0.064999997615814208984 0.064999997615814208984 0.064999997615814208984 0.064999997615814208984 0.064999997615814208984 0.064999997615814208984 0.064999997615814208984 0.064999997615814208984 0.064999997615814208984 0.064999997615814208984 0.064999997615814208984 0.064999997615814208984 0.064999997615814208984 0.064999997615814208984 0.064999997615814208984 0.064999997615814208984 0.064999997615814208984 0.064999997615814208984 0.064999997615814208984 0.064999997615814208984 0.064999997615814208984 0.064999997615814208984 0.064999997615814208984 0.071774996817111968994 0.066356249153614044189 0.079906247556209564209 0.064999997615814208984 0.064999997615814208984 0.064999997615814208984 0.064999997615814208984 0.064999997615814208984 0.064999997615814208984 0.064999997615814208984 0.064999997615814208984 0.064999997615814208984 0.064999997615814208984 0.064999997615814208984 0.064999997615814208984 0.064999997615814208984 0.064999997615814208984 0.064999997615814208984 0.078549996018409729004 0.064999997615814208984 0.064999997615814208984 0.077193751931190490723 0.067712500691413879395 0.13275000452995300293 0.088043749332427978516 0.067712500691413879395 0.089387498795986175537 0.064999997615814208984 0.081262499094009399414 0.064999997615814208984 0.12868125736713409424 0.11107499897480010986 0.086683332920074462891 0.064999997615814208984 0.13726666569709777832 0.070424996316432952881 0.1712300032377243042 0.23120000958442687988 0.079906247556209564209 0.064999997615814208984 0.11920714378356933594 0.14901250600814819336 0.069068744778633117676 0.090743750333786010742 0.11514375358819961548 0.11784374713897705078 0.090743750333786010742 0.064999997615814208984 0.064999997615814208984 0.078549996018409729004 0.078549996018409729004 0.18693751096725463867 0.12868125736713409424 0.10158124566078186035 0.064999997615814208984 0.064999997615814208984 0.088037498295307159424 0.069068744778633117676 0.1625500023365020752 
0.064999997615814208984 0.064999997615814208984 0.064999997615814208984 0.064999997615814208984 0.064999997615814208984 0.064999997615814208984 0.064999997615814208984 0.064999997615814208984 0.064999997615814208984 0.064999997615814208984 0.064999997615814208984 0.064999997615814208984 0.064999997615814208984 0.064999997615814208984 0.064999997615814208984 0.064999997615814208984 0.064999997615814208984 0.064999997615814208984 0.064999997615814208984 0.064999997615814208984 0.064999997615814208984 0.064999997615814208984 0.064999997615814208984 0.064999997615814208984 0.064999997615814208984 0.064999997615814208984 0.064999997615814208984 0.064999997615814208984 0.077193751931190490723 0.12596875429153442383 0.064999997615814208984 0.064999997615814208984 0.064999997615814208984 0.064999997615814208984 0.064999997615814208984 0.064999997615814208984 0.064999997615814208984 0.064999997615814208984 0.064999997615814208984 0.064999997615814208984 0.064999997615814208984 0.064999997615814208984 0.064999997615814208984 0.064999997615814208984 0.064999997615814208984 0.064999997615814208984 0.064999997615814208984 0.064999997615814208984 0.066356249153614044189 0.18693751096725463867 0.17474375665187835693 0.19371876120567321777 0.074493750929832458496 0.083975002169609069824 0.12869374454021453857 0.078549996018409729004 0.092100001871585845947 0.066356249153614044189 0.11513125151395797729 0.10565000027418136597 0.066808328032493591309 0.064999997615814208984 0.066446661949157714844 0.19747778773307800293 0.26010000705718994141 0.21674615144729614258 0.14901250600814819336 0.11739166826009750366 0.1313937455415725708 0.092100001871585845947 0.064999997615814208984 0.064999997615814208984 0.064999997615814208984 0.070424996316432952881 0.10565000027418136597 0.066356249153614044189 0.078549996018409729004 0.15171250700950622559 0.073137499392032623291 0.11919999867677688599 0.10158124566078186035 0.064999997615814208984 0.064999997615814208984 0.064999997615814208984 0.064999997615814208984 0.079912498593330383301 0.15172499418258666992 
0.064999997615814208984 0.064999997615814208984 0.064999997615814208984 0.064999997615814208984 0.064999997615814208984 0.064999997615814208984 0.064999997615814208984 0.064999997615814208984 0.064999997615814208984 0.064999997615814208984 0.064999997615814208984 0.064999997615814208984 0.064999997615814208984 0.064999997615814208984 0.064999997615814208984 0.064999997615814208984 0.064999997615814208984 0.064999997615814208984 0.064999997615814208984 0.064999997615814208984 0.064999997615814208984 0.064999997615814208984 0.064999997615814208984 0.064999997615814208984 0.064999997615814208984 0.064999997615814208984 0.064999997615814208984 0.064999997615814208984 0.10158124566078186035 0.17474375665187835693 0.064999997615814208984 0.077193751931190490723 0.077193751931190490723 0.064999997615814208984 0.064999997615814208984 0.064999997615814208984 0.064999997615814208984 0.064999997615814208984 0.064999997615814208984 0.064999997615814208984 0.064999997615814208984 0.064999997615814208984 0.064999997615814208984 0.064999997615814208984 0.066356249153614044189 0.064999997615814208984 0.064999997615814208984 0.064999997615814208984 0.1625500023365020752 0.15171250700950622559 0.14087499678134918213 0.18423750996589660645 0.1381749957799911499 0.079906247556209564209 0.083975002169609069824 0.079906247556209564209 0.13275000452995300293 0.092100001871585845947 0.077193751931190490723 0.083066664636135101318 0.078549996018409729004 0.064999997615814208984 0.077193751931190490723 0.20230001211166381836 0.20319999754428863525 0.1164875030517578125 0.077193751931190490723 0.084875002503395080566 0.067712500691413879395 0.064999997615814208984 0.064999997615814208984 0.077193751931190490723 0.092100001871585845947 0.13003750145435333252 0.12596875429153442383 0.14358749985694885254 0.11513125151395797729 0.078549996018409729004 0.081262499094009399414 0.20184375345706939697 0.15171250700950622559 0.064999997615814208984 0.064999997615814208984 0.064999997615814208984 0.064999997615814208984 0.064999997615814208984 0.064999997615814208984 
0.064999997615814208984 0.064999997615814208984 0.064999997615814208984 0.064999997615814208984 0.064999997615814208984 0.064999997615814208984 0.064999997615814208984 0.064999997615814208984 0.064999997615814208984 0.064999997615814208984 0.064999997615814208984 0.064999997615814208984 0.064999997615814208984 0.064999997615814208984 0.064999997615814208984 0.064999997615814208984 0.064999997615814208984 0.064999997615814208984 0.077193751931190490723 0.064999997615814208984 0.064999997615814208984 0.064999997615814208984 0.064999997615814208984 0.064999997615814208984 0.064999997615814208984 0.064999997615814208984 0.064999997615814208984 0.064999997615814208984 0.12461875379085540771 0.066356249153614044189 0.064999997615814208984 0.077193751931190490723 0.064999997615814208984 0.064999997615814208984 0.064999997615814208984 0.064999997615814208984 0.064999997615814208984 0.064999997615814208984 0.064999997615814208984 0.064999997615814208984 0.064999997615814208984 0.077193751931190490723 0.11513125151395797729 0.078549996018409729004 0.093456245958805084229 0.064999997615814208984 0.064999997615814208984 0.078549996018409729004 0.10158124566078186035 0.078549996018409729004 0.15442499518394470215 0.1219125017523765564 0.070424996316432952881 0.069068744778633117676 0.069068744778633117676 0.064999997615814208984 0.10700625181198120117 0.12598125636577606201 0.15713749825954437256 0.10971874743700027466 0.064999997615814208984 0.064999997615814208984 0.064999997615814208984 0.1830333322286605835 0.17068749666213989258 0.064999997615814208984 0.064999997615814208984 0.078549996018409729004 0.064999997615814208984 0.064999997615814208984 0.064999997615814208984 0.090743750333786010742 0.093456245958805084229 0.21539375185966491699 0.23842500150203704834 0.1693312525749206543 0.078549996018409729004 0.064999997615814208984 0.077193751931190490723 0.15171250700950622559 0.089387498795986175537 0.077193751931190490723 0.064999997615814208984 0.064999997615814208984 0.078549996018409729004 0.064999997615814208984 0.1625500023365020752 
0.064999997615814208984 0.064999997615814208984 0.064999997615814208984 0.064999997615814208984 0.064999997615814208984 0.064999997615814208984 0.064999997615814208984 0.064999997615814208984 0.064999997615814208984 0.064999997615814208984 0.064999997615814208984 0.064999997615814208984 0.064999997615814208984 0.064999997615814208984 0.064999997615814208984 0.064999997615814208984 0.064999997615814208984 0.064999997615814208984 0.064999997615814208984 0.064999997615814208984 0.064999997615814208984 0.064999997615814208984 0.064999997615814208984 0.10565000027418136597 0.071774996817111968994 0.064999997615814208984 0.082618750631809234619 0.064999997615814208984 0.14087499678134918213 0.081262499094009399414 0.098875001072883605957 0.071774996817111968994 0.064999997615814208984 0.064999997615814208984 0.064999997615814208984 0.064999997615814208984 0.064999997615814208984 0.064999997615814208984 0.064999997615814208984 0.064999997615814208984 0.064999997615814208984 0.082618750631809234619 0.11919999867677688599 0.11513125151395797729 0.064999997615814208984 0.064999997615814208984 0.10158124566078186035 0.20591250061988830566 0.11513125151395797729 0.098881252110004425049 0.064999997615814208984 0.064999997615814208984 0.064999997615814208984 0.064999997615814208984 0.071774996817111968994 0.13951875269412994385 0.090743750333786010742 0.16120624542236328125 0.081262499094009399414 0.089387498795986175537 0.11377499997615814209 0.064999997615814208984 0.1625500023365020752 0.14990833401679992676 0.20591250061988830566 0.070424996316432952881 0.064999997615814208984 0.16661874949932098389 0.088037498295307159424 0.064999997615814208984 0.064999997615814208984 0.064999997615814208984 0.064999997615814208984 0.15035624802112579346 0.20184375345706939697 0.083975002169609069824 0.14358749985694885254 0.064999997615814208984 0.064999997615814208984 0.13003750145435333252 0.064999997615814208984 0.064999997615814208984 0.064999997615814208984 0.064999997615814208984 0.069068744778633117676 0.078549996018409729004 0.1625500023365020752 
0.064999997615814208984 0.064999997615814208984 0.064999997615814208984 0.064999997615814208984 0.064999997615814208984 0.064999997615814208984 0.064999997615814208984 0.064999997615814208984 0.064999997615814208984 0.064999997615814208984 0.064999997615814208984 0.064999997615814208984 0.064999997615814208984 0.064999997615814208984 0.064999997615814208984 0.064999997615814208984 0.064999997615814208984 0.064999997615814208984 0.064999997615814208984 0.064999997615814208984 0.064999997615814208984 0.064999997615814208984 0.093456245958805084229 0.098875001072883605957 0.078549996018409729004 0.064999997615814208984 0.066356249153614044189 0.064999997615814208984 0.16390624642372131348 0.067712500691413879395 0.098875001072883605957 0.064999997615814208984 0.064999997615814208984 0.064999997615814208984 0.064999997615814208984 0.064999997615814208984 0.064999997615814208984 0.064999997615814208984 0.064999997615814208984 0.066356249153614044189 0.064999997615814208984 0.064999997615814208984 0.064999997615814208984 0.064999997615814208984 0.064999997615814208984 0.064999997615814208984 0.066356249153614044189 0.1164875030517578125 0.17610000073909759521 0.079906247556209564209 0.064999997615814208984 0.064999997615814208984 0.064999997615814208984 0.064999997615814208984 0.085324995219707489014 0.15171875059604644775 0.15578749775886535645 0.20591250061988830566 0.10293749719858169556 0.13816249370574951172 0.23120000958442687988 0.092100001871585845947 0.22325000166893005371 0.1517142951488494873 0.21675001084804534912 0.068616665899753570557 0.1164875030517578125 0.092100001871585845947 0.069068744778633117676 0.064999997615814208984 0.064999997615814208984 0.064999997615814208984 0.064999997615814208984 0.17745625972747802734 0.18964999914169311523 0.079906247556209564209 0.10293749719858169556 0.064999997615814208984 0.1313937455415725708 0.1313937455415725708 0.064999997615814208984 0.064999997615814208984 0.085324995219707489014 0.064999997615814208984 0.064999997615814208984 0.13951875269412994385 0.081275001168251037598 
0.064999997615814208984 0.064999997615814208984 0.064999997615814208984 0.064999997615814208984 0.064999997615814208984 0.064999997615814208984 0.064999997615814208984 0.064999997615814208984 0.064999997615814208984 0.064999997615814208984 0.064999997615814208984 0.064999997615814208984 0.064999997615814208984 0.064999997615814208984 0.064999997615814208984 0.064999997615814208984 0.064999997615814208984 0.064999997615814208984 0.064999997615814208984 0.064999997615814208984 0.064999997615814208984 0.064999997615814208984 0.064999997615814208984 0.064999997615814208984 0.064999997615814208984 0.064999997615814208984 0.077193751931190490723 0.11377499997615814209 0.14223125576972961426 0.078549996018409729004 0.12868124246597290039 0.064999997615814208984 0.064999997615814208984 0.064999997615814208984 0.064999997615814208984 0.064999997615814208984 0.064999997615814208984 0.10700625181198120117 0.079906247556209564209 0.10565000027418136597 0.064999997615814208984 0.064999997615814208984 0.064999997615814208984 0.064999997615814208984 0.15306875109672546387 0.064999997615814208984 0.064999997615814208984 0.064999997615814208984 0.077193751931190490723 0.064999997615814208984 0.064999997615814208984 0.064999997615814208984 0.064999997615814208984 0.064999997615814208984 0.064999997615814208984 0.082618750631809234619 0.15849375724792480469 0.12462499737739562988 0.1381749957799911499 0.11076666414737701416 0.1256999969482421875 0.084875002503395080566 0.21674445271492004395 0.18784999847412109375 0.23842222988605499268 0.10113333165645599365 0.066356249153614044189 0.066356249153614044189 0.085331246256828308105 0.064999997615814208984 0.064999997615814208984 0.064999997615814208984 0.064999997615814208984 0.085324995219707489014 0.066356249153614044189 0.064999997615814208984 0.079906247556209564209 0.10565000027418136597 0.1313937455415725708 0.089387498795986175537 0.064999997615814208984 0.064999997615814208984 0.064999997615814208984 0.064999997615814208984 0.10158124566078186035 0.10429374873638153076 0.11377499997615814209 
0.064999997615814208984 0.064999997615814208984 0.064999997615814208984 0.064999997615814208984 0.064999997615814208984 0.064999997615814208984 0.064999997615814208984 0.064999997615814208984 0.064999997615814208984 0.064999997615814208984 0.064999997615814208984 0.064999997615814208984 0.064999997615814208984 0.064999997615814208984 0.064999997615814208984 0.064999997615814208984 0.064999997615814208984 0.064999997615814208984 0.064999997615814208984 0.064999997615814208984 0.064999997615814208984 0.064999997615814208984 0.064999997615814208984 0.092099994421005249023 0.064999997615814208984 0.064999997615814208984 0.079906247556209564209 0.089387498795986175537 0.1164875030517578125 0.12055625021457672119 0.11377499997615814209 0.064999997615814208984 0.064999997615814208984 0.064999997615814208984 0.064999997615814208984 0.085324995219707489014 0.064999997615814208984 0.078549996018409729004 0.064999997615814208984 0.092100001871585845947 0.10429374873638153076 0.064999997615814208984 0.064999997615814208984 0.064999997615814208984 0.089387498795986175537 0.064999997615814208984 0.064999997615814208984 0.064999997615814208984 0.064999997615814208984 0.064999997615814208984 0.064999997615814208984 0.064999997615814208984 0.064999997615814208984 0.092099994421005249023 0.064999997615814208984 0.083975002169609069824 0.13546250760555267334 0.10836250334978103638 0.073346152901649475098 0.078549996018409729004 0.17880833148956298828 0.18693751096725463867 0.18152500689029693604 0.088043749332427978516 0.092100001871585845947 0.066446661949157714844 0.14955000579357147217 0.069068744778633117676 0.066356249153614044189 0.064999997615814208984 0.064999997615814208984 0.064999997615814208984 0.064999997615814208984 0.071774996817111968994 0.064999997615814208984 0.064999997615814208984 0.064999997615814208984 0.10158124566078186035 0.16797500848770141602 0.078549996018409729004 0.064999997615814208984 0.064999997615814208984 0.064999997615814208984 0.078549996018409729004 0.14358749985694885254 0.10158124566078186035 0.11377499997615814209 
0.064999997615814208984 0.064999997615814208984 0.064999997615814208984 0.064999997615814208984 0.064999997615814208984 0.064999997615814208984 0.064999997615814208984 0.064999997615814208984 0.064999997615814208984 0.064999997615814208984 0.064999997615814208984 0.064999997615814208984 0.064999997615814208984 0.064999997615814208984 0.064999997615814208984 0.064999997615814208984 0.064999997615814208984 0.064999997615814208984 0.064999997615814208984 0.064999997615814208984 0.064999997615814208984 0.085324995219707489014 0.064999997615814208984 0.064999997615814208984 0.064999997615814208984 0.064999997615814208984 0.078549996018409729004 0.064999997615814208984 0.18829375505447387695 0.14087499678134918213 0.15035624802112579346 0.077193751931190490723 0.064999997615814208984 0.064999997615814208984 0.083975002169609069824 0.071774996817111968994 0.064999997615814208984 0.064999997615814208984 0.064999997615814208984 0.085324995219707489014 0.086681246757507324219 0.064999997615814208984 0.064999997615814208984 0.064999997615814208984 0.064999997615814208984 0.071774996817111968994 0.071774996817111968994 0.064999997615814208984 0.064999997615814208984 0.064999997615814208984 0.071774996817111968994 0.064999997615814208984 0.066356249153614044189 0.10565000027418136597 0.064999997615814208984 0.10429374873638153076 0.13275000452995300293 0.11919999867677688599 0.081877775490283966064 0.081676922738552093506 0.14838461577892303467 0.18639999628067016602 0.085331246256828308105 0.064999997615814208984 0.064999997615814208984 0.064999997615814208984 0.18578571081161499023 0.1762866675853729248 0.18152500689029693604 0.11513125151395797729 0.081676922738552093506 0.064999997615814208984 0.064999997615814208984 0.064999997615814208984 0.092099994421005249023 0.13816249370574951172 0.15035624802112579346 0.13003750145435333252 0.21539375185966491699 0.1164875030517578125 0.071774996817111968994 0.071774996817111968994 0.064999997615814208984 0.064999997615814208984 0.066356249153614044189 0.064999997615814208984 0.064999997615814208984 
0.064999997615814208984 0.064999997615814208984 0.064999997615814208984 0.064999997615814208984 0.064999997615814208984 0.064999997615814208984 0.064999997615814208984 0.064999997615814208984 0.064999997615814208984 0.064999997615814208984 0.064999997615814208984 0.064999997615814208984 0.064999997615814208984 0.064999997615814208984 0.064999997615814208984 0.064999997615814208984 0.064999997615814208984 0.064999997615814208984 0.064999997615814208984 0.064999997615814208984 0.064999997615814208984 0.064999997615814208984 0.064999997615814208984 0.064999997615814208984 0.064999997615814208984 0.064999997615814208984 0.14223125576972961426 0.085331246256828308105 0.17745625972747802734 0.23571249842643737793 0.26010000705718994141 0.26010000705718994141 0.13816249370574951172 0.081262499094009399414 0.079906247556209564209 0.064999997615814208984 0.064999997615814208984 0.064999997615814208984 0.064999997615814208984 0.078549996018409729004 0.078549996018409729004 0.064999997615814208984 0.064999997615814208984 0.064999997615814208984 0.064999997615814208984 0.064999997615814208984 0.071774996817111968994 0.064999997615814208984 0.064999997615814208984 0.071774996817111968994 0.098875001072883605957 0.079906247556209564209 0.090743750333786010742 0.064999997615814208984 0.11377499997615814209 0.11513125151395797729 0.11649374663829803467 0.064999997615814208984 0.11377499997615814209 0.24059000611305236816 0.21539375185966491699 0.078549996018409729004 0.064999997615814208984 0.064999997615814208984 0.099325001239776611328 0.20590715110301971436 0.23842500150203704834 0.23842500150203704834 0.083585709333419799805 0.078549996018409729004 0.098875001072883605957 0.064999997615814208984 0.064999997615814208984 0.064999997615814208984 0.1164875030517578125 0.10293749719858169556 0.066356249153614044189 0.10158124566078186035 0.12732499837875366211 0.10700625181198120117 0.078549996018409729004 0.064999997615814208984 0.064999997615814208984 0.064999997615814208984 0.064999997615814208984 0.085324995219707489014 0.064999997615814208984 
0.064999997615814208984 0.064999997615814208984 0.064999997615814208984 0.064999997615814208984 0.064999997615814208984 0.064999997615814208984 0.064999997615814208984 0.064999997615814208984 0.064999997615814208984 0.064999997615814208984 0.064999997615814208984 0.064999997615814208984 0.064999997615814208984 0.064999997615814208984 0.064999997615814208984 0.064999997615814208984 0.064999997615814208984 0.064999997615814208984 0.064999997615814208984 0.064999997615814208984 0.064999997615814208984 0.064999997615814208984 0.064999997615814208984 0.064999997615814208984 0.064999997615814208984 0.064999997615814208984 0.089387498795986175537 0.18016874790191650391 0.071781247854232788086 0.17610000073909759521 0.23571249842643737793 0.19371876120567321777 0.11377499997615814209 0.064999997615814208984 0.064999997615814208984 0.064999997615814208984 0.064999997615814208984 0.064999997615814208984 0.078549996018409729004 0.064999997615814208984 0.064999997615814208984 0.064999997615814208984 0.064999997615814208984 0.064999997615814208984 0.064999997615814208984 0.078549996018409729004 0.071774996817111968994 0.064999997615814208984 0.064999997615814208984 0.098875001072883605957 0.11242499947547912598 0.064999997615814208984 0.12868125736713409424 0.064999997615814208984 0.15035624802112579346 0.11107499897480010986 0.096168749034404754639 0.13003847002983093262 0.09751666337251663208 0.16256250441074371338 0.15306875109672546387 0.064999997615814208984 0.064999997615814208984 0.064999997615814208984 0.15005384385585784912 0.078006662428379058838 0.12074285745620727539 0.080007687211036682129 0.10835999995470046997 0.064999997615814208984 0.064999997615814208984 0.064999997615814208984 0.064999997615814208984 0.064999997615814208984 0.064999997615814208984 0.064999997615814208984 0.064999997615814208984 0.089387498795986175537 0.078549996018409729004 0.064999997615814208984 0.064999997615814208984 0.064999997615814208984 0.064999997615814208984 0.064999997615814208984 0.064999997615814208984 0.064999997615814208984 0.064999997615814208984 
0.064999997615814208984 0.064999997615814208984 0.064999997615814208984 0.064999997615814208984 0.064999997615814208984 0.064999997615814208984 0.064999997615814208984 0.064999997615814208984 0.064999997615814208984 0.064999997615814208984 0.064999997615814208984 0.064999997615814208984 0.064999997615814208984 0.089387498795986175537 0.089387498795986175537 0.077193751931190490723 0.071774996817111968994 0.064999997615814208984 0.064999997615814208984 0.064999997615814208984 0.064999997615814208984 0.064999997615814208984 0.064999997615814208984 0.070424996316432952881 0.077193751931190490723 0.064999997615814208984 0.066356249153614044189 0.081262499094009399414 0.15578125417232513428 0.15036250650882720947 0.078549996018409729004 0.085331246256828308105 0.094812497496604919434 0.064999997615814208984 0.081262499094009399414 0.064999997615814208984 0.077193751931190490723 0.090743750333786010742 0.11513125151395797729 0.064999997615814208984 0.064999997615814208984 0.083975002169609069824 0.1313937455415725708 0.064999997615814208984 0.064999997615814208984 0.066356249153614044189 0.064999997615814208984 0.064999997615814208984 0.064999997615814208984 0.064999997615814208984 0.089387498795986175537 0.077193751931190490723 0.064999997615814208984 0.064999997615814208984 0.064999997615814208984 0.089387498795986175537 0.064999997615814208984 0.074493750929832458496 0.064999997615814208984 0.17068749666213989258 0.1164875030517578125 0.11377499997615814209 0.069068744778633117676 0.086677774786949157715 0.22487500309944152832 0.1219125017523765564 0.064999997615814208984 0.064999997615814208984 0.064999997615814208984 0.064999997615814208984 0.064999997615814208984 0.064999997615814208984 0.064999997615814208984 0.064999997615814208984 0.086677774786949157715 0.064999997615814208984 0.11377499997615814209 0.1625500023365020752 0.067712500691413879395 0.064999997615814208984 0.064999997615814208984 0.064999997615814208984 0.064999997615814208984 0.064999997615814208984 0.064999997615814208984 0.064999997615814208984 0.064999997615814208984 
0.064999997615814208984 0.064999997615814208984 0.064999997615814208984 0.064999997615814208984 0.064999997615814208984 0.064999997615814208984 0.064999997615814208984 0.064999997615814208984 0.064999997615814208984 0.064999997615814208984 0.064999997615814208984 0.064999997615814208984 0.10158124566078186035 0.10158124566078186035 0.064999997615814208984 0.064999997615814208984 0.064999997615814208984 0.064999997615814208984 0.064999997615814208984 0.064999997615814208984 0.064999997615814208984 0.064999997615814208984 0.079906247556209564209 0.067712500691413879395 0.12055625021457672119 0.070424996316432952881 0.069068744778633117676 0.096168749034404754639 0.079906247556209564209 0.11919999867677688599 0.15443125367164611816 0.13410624861717224121 0.064999997615814208984 0.066356249153614044189 0.066356249153614044189 0.067712500691413879395 0.15306875109672546387 0.077193751931190490723 0.064999997615814208984 0.064999997615814208984 0.064999997615814208984 0.078549996018409729004 0.066356249153614044189 0.064999997615814208984 0.064999997615814208984 0.078549996018409729004 0.085324995219707489014 0.064999997615814208984 0.064999997615814208984 0.064999997615814208984 0.064999997615814208984 0.064999997615814208984 0.077193751931190490723 0.064999997615814208984 0.064999997615814208984 0.064999997615814208984 0.064999997615814208984 0.066356249153614044189 0.13003332912921905518 0.15172500908374786377 0.14494375884532928467 0.075849995017051696777 0.10835555195808410645 0.067169994115829467773 0.095015384256839752197 0.16471999883651733398 0.064999997615814208984 0.064999997615814208984 0.064999997615814208984 0.064999997615814208984 0.064999997615814208984 0.083066664636135101318 0.064999997615814208984 0.064999997615814208984 0.064999997615814208984 0.077193751931190490723 0.17610000073909759521 0.11784374713897705078 0.064999997615814208984 0.064999997615814208984 0.064999997615814208984 0.089387498795986175537 0.064999997615814208984 0.064999997615814208984 0.064999997615814208984 0.064999997615814208984 0.064999997615814208984 
0.064999997615814208984 0.064999997615814208984 0.064999997615814208984 0.064999997615814208984 0.064999997615814208984 0.064999997615814208984 0.064999997615814208984 0.081262499094009399414 0.066356249153614044189 0.064999997615814208984 0.064999997615814208984 0.064999997615814208984 0.19913125038146972656 0.064999997615814208984 0.064999997615814208984 0.064999997615814208984 0.064999997615814208984 0.064999997615814208984 0.064999997615814208984 0.064999997615814208984 0.064999997615814208984 0.064999997615814208984 0.064999997615814208984 0.071781247854232788086 0.067712500691413879395 0.064999997615814208984 0.093456245958805084229 0.10293749719858169556 0.12732499837875366211 0.14630000293254852295 0.14765624701976776123 0.14494375884532928467 0.15442499518394470215 0.1313937455415725708 0.16661874949932098389 0.17610000073909759521 0.15306875109672546387 0.12596875429153442383 0.078549996018409729004 0.092100001871585845947 0.089387498795986175537 0.064999997615814208984 0.064999997615814208984 0.064999997615814208984 0.064999997615814208984 0.098875001072883605957 0.11242499947547912598 0.092099994421005249023 0.064999997615814208984 0.064999997615814208984 0.064999997615814208984 0.11377499997615814209 0.15171250700950622559 0.064999997615814208984 0.064999997615814208984 0.064999997615814208984 0.066808328032493591309 0.064999997615814208984 0.17172308266162872314 0.19507500529289245605 0.14737999439239501953 0.075849995017051696777 0.064999997615814208984 0.072233334183692932129 0.064999997615814208984 0.064999997615814208984 0.064999997615814208984 0.064999997615814208984 0.064999997615814208984 0.064999997615814208984 0.064999997615814208984 0.064999997615814208984 0.064999997615814208984 0.064999997615814208984 0.064999997615814208984 0.064999997615814208984 0.092871427536010742188 0.10401999950408935547 0.064999997615814208984 0.064999997615814208984 0.064999997615814208984 0.1625500023365020752 0.064999997615814208984 0.064999997615814208984 0.064999997615814208984 0.064999997615814208984 0.064999997615814208984 
0.064999997615814208984 0.064999997615814208984 0.064999997615814208984 0.064999997615814208984 0.064999997615814208984 0.064999997615814208984 0.066356249153614044189 0.14494375884532928467 0.11919999867677688599 0.064999997615814208984 0.064999997615814208984 0.11377499997615814209 0.12596875429153442383 0.064999997615814208984 0.064999997615814208984 0.064999997615814208984 0.064999997615814208984 0.064999997615814208984 0.064999997615814208984 0.064999997615814208984 0.078549996018409729004 0.071774996817111968994 0.064999997615814208984 0.094812497496604919434 0.064999997615814208984 0.064999997615814208984 0.11513125151395797729 0.10700625181198120117 0.18423750996589660645 0.18829375505447387695 0.18016874790191650391 0.11377499997615814209 0.16661874949932098389 0.064999997615814208984 0.064999997615814208984 0.067712500691413879395 0.13275000452995300293 0.11919999867677688599 0.10158124566078186035 0.11513125151395797729 0.066356249153614044189 0.064999997615814208984 0.064999997615814208984 0.064999997615814208984 0.078549996018409729004 0.078549996018409729004 0.064999997615814208984 0.064999997615814208984 0.064999997615814208984 0.064999997615814208984 0.064999997615814208984 0.10158124566078186035 0.089387498795986175537 0.064999997615814208984 0.064999997615814208984 0.083585709333419799805 0.2113250046968460083 0.13410624861717224121 0.18639999628067016602 0.19507500529289245605 0.10113333165645599365 0.064999997615814208984 0.064999997615814208984 0.064999997615814208984 0.082618750631809234619 0.064999997615814208984 0.064999997615814208984 0.064999997615814208984 0.064999997615814208984 0.084509998559951782227 0.064999997615814208984 0.064999997615814208984 0.069068744778633117676 0.075849995017051696777 0.064999997615814208984 0.064999997615814208984 0.23571249842643737793 0.09751666337251663208 0.064999997615814208984 0.064999997615814208984 0.064999997615814208984 0.089387498795986175537 0.064999997615814208984 0.064999997615814208984 0.064999997615814208984 0.064999997615814208984 0.064999997615814208984 
0.064999997615814208984 0.064999997615814208984 0.064999997615814208984 0.064999997615814208984 0.064999997615814208984 0.064999997615814208984 0.089387498795986175537 0.089387498795986175537 0.064999997615814208984 0.066356249153614044189 0.13816249370574951172 0.17474375665187835693 0.064999997615814208984 0.064999997615814208984 0.064999997615814208984 0.064999997615814208984 0.064999997615814208984 0.071774996817111968994 0.071774996817111968994 0.078549996018409729004 0.092099994421005249023 0.064999997615814208984 0.064999997615814208984 0.064999997615814208984 0.064999997615814208984 0.064999997615814208984 0.093456245958805084229 0.14223125576972961426 0.16256250441074371338 0.18016874790191650391 0.14087499678134918213 0.12326250225305557251 0.13951875269412994385 0.064999997615814208984 0.064999997615814208984 0.092100001871585845947 0.089387498795986175537 0.11784374713897705078 0.064999997615814208984 0.064999997615814208984 0.064999997615814208984 0.064999997615814208984 0.064999997615814208984 0.064999997615814208984 0.064999997615814208984 0.064999997615814208984 0.067712500691413879395 0.10293749719858169556 0.064999997615814208984 0.064999997615814208984 0.064999997615814208984 0.064999997615814208984 0.064999997615814208984 0.064999997615814208984 0.064999997615814208984 0.064999997615814208984 0.097521424293518066406 0.080007687211036682129 0.1550461500883102417 0.14901250600814819336 0.064999997615814208984 0.064999997615814208984 0.064999997615814208984 0.066808328032493591309 0.064999997615814208984 0.064999997615814208984 0.064999997615814208984 0.064999997615814208984 0.064999997615814208984 0.064999997615814208984 0.064999997615814208984 0.064999997615814208984 0.086677774786949157715 0.077193751931190490723 0.064999997615814208984 0.064999997615814208984 0.26010000705718994141 0.13003332912921905518 0.064999997615814208984 0.10158124566078186035 0.064999997615814208984 0.077193751931190490723 0.064999997615814208984 0.085324995219707489014 0.064999997615814208984 0.064999997615814208984 0.064999997615814208984 
0.064999997615814208984 0.064999997615814208984 0.12055625021457672119 0.096168749034404754639 0.064999997615814208984 0.064999997615814208984 0.064999997615814208984 0.16390624642372131348 0.12732499837875366211 0.11243125051259994507 0.10158124566078186035 0.22351875901222229004 0.064999997615814208984 0.064999997615814208984 0.064999997615814208984 0.064999997615814208984 0.064999997615814208984 0.064999997615814208984 0.064999997615814208984 0.064999997615814208984 0.064999997615814208984 0.064999997615814208984 0.064999997615814208984 0.064999997615814208984 0.064999997615814208984 0.066356249153614044189 0.070424996316432952881 0.12732499837875366211 0.11243125051259994507 0.074487499892711639404 0.10971249639987945557 0.079906247556209564209 0.12868125736713409424 0.064999997615814208984 0.064999997615814208984 0.093456245958805084229 0.094812497496604919434 0.11919999867677688599 0.064999997615814208984 0.064999997615814208984 0.066356249153614044189 0.077193751931190490723 0.064999997615814208984 0.064999997615814208984 0.064999997615814208984 0.064999997615814208984 0.067712500691413879395 0.073131248354911804199 0.064999997615814208984 0.064999997615814208984 0.064999997615814208984 0.064999997615814208984 0.064999997615814208984 0.064999997615814208984 0.15578125417232513428 0.089387498795986175537 0.14737999439239501953 0.11919999867677688599 0.18062222003936767578 0.10430625081062316895 0.064999997615814208984 0.064999997615814208984 0.12759999930858612061 0.064999997615814208984 0.10113333165645599365 0.064999997615814208984 0.064999997615814208984 0.12759999930858612061 0.064999997615814208984 0.064999997615814208984 0.064999997615814208984 0.064999997615814208984 0.064999997615814208984 0.064999997615814208984 0.064999997615814208984 0.064999997615814208984 0.26010000705718994141 0.078006662428379058838 0.089387498795986175537 0.077193751931190490723 0.064999997615814208984 0.064999997615814208984 0.064999997615814208984 0.064999997615814208984 0.071774996817111968994 0.064999997615814208984 0.092099994421005249023 
0.064999997615814208984 0.064999997615814208984 0.064999997615814208984 0.067712500691413879395 0.064999997615814208984 0.064999997615814208984 0.064999997615814208984 0.11513125151395797729 0.15035624802112579346 0.12055625021457672119 0.064999997615814208984 0.11377499997615814209 0.064999997615814208984 0.064999997615814208984 0.064999997615814208984 0.064999997615814208984 0.064999997615814208984 0.064999997615814208984 0.064999997615814208984 0.064999997615814208984 0.064999997615814208984 0.10429374873638153076 0.064999997615814208984 0.064999997615814208984 0.064999997615814208984 0.067712500691413879395 0.077193751931190490723 0.069068744778633117676 0.083975002169609069824 0.069068744778633117676 0.081262499094009399414 0.078549996018409729004 0.16526250541210174561 0.064999997615814208984 0.064999997615814208984 0.071774996817111968994 0.14630000293254852295 0.13952499628067016602 0.071774996817111968994 0.064999997615814208984 0.085324995219707489014 0.079906247556209564209 0.064999997615814208984 0.064999997615814208984 0.064999997615814208984 0.064999997615814208984 0.064999997615814208984 0.10700625181198120117 0.092100001871585845947 0.064999997615814208984 0.064999997615814208984 0.064999997615814208984 0.064999997615814208984 0.11558888852596282959 0.10158124566078186035 0.064999997615814208984 0.10429374873638153076 0.15533334016799926758 0.19340769946575164795 0.20591250061988830566 0.069339998066425323486 0.064999997615814208984 0.064999997615814208984 0.064999997615814208984 0.064999997615814208984 0.064999997615814208984 0.064999997615814208984 0.064999997615814208984 0.064999997615814208984 0.10021249949932098389 0.064999997615814208984 0.064999997615814208984 0.064999997615814208984 0.064999997615814208984 0.064999997615814208984 0.064999997615814208984 0.064999997615814208984 0.064999997615814208984 0.077193751931190490723 0.077193751931190490723 0.064999997615814208984 0.064999997615814208984 0.064999997615814208984 0.064999997615814208984 0.071774996817111968994 0.071774996817111968994 0.064999997615814208984 
0.064999997615814208984 0.064999997615814208984 0.064999997615814208984 0.064999997615814208984 0.064999997615814208984 0.071774996817111968994 0.078549996018409729004 0.15035624802112579346 0.16390624642372131348 0.14087499678134918213 0.10158124566078186035 0.064999997615814208984 0.064999997615814208984 0.064999997615814208984 0.064999997615814208984 0.064999997615814208984 0.064999997615814208984 0.064999997615814208984 0.064999997615814208984 0.13816249370574951172 0.064999997615814208984 0.064999997615814208984 0.081262499094009399414 0.064999997615814208984 0.064999997615814208984 0.064999997615814208984 0.10565000027418136597 0.14087499678134918213 0.067712500691413879395 0.085324995219707489014 0.10700625181198120117 0.079906247556209564209 0.15442499518394470215 0.086687497794628143311 0.064999997615814208984 0.078549996018409729004 0.11242499947547912598 0.078549996018409729004 0.064999997615814208984 0.082618750631809234619 0.079906247556209564209 0.069068744778633117676 0.064999997615814208984 0.064999997615814208984 0.064999997615814208984 0.085324995219707489014 0.064999997615814208984 0.13003750145435333252 0.064999997615814208984 0.064999997615814208984 0.064999997615814208984 0.064999997615814208984 0.064999997615814208984 0.090743750333786010742 0.066356249153614044189 0.064999997615814208984 0.06655000150203704834 0.13838461041450500488 0.1842333376407623291 0.20507693290710449219 0.066808328032493591309 0.064999997615814208984 0.077193751931190490723 0.077193751931190490723 0.064999997615814208984 0.064999997615814208984 0.064999997615814208984 0.064999997615814208984 0.064999997615814208984 0.064999997615814208984 0.064999997615814208984 0.064999997615814208984 0.064999997615814208984 0.064999997615814208984 0.064999997615814208984 0.064999997615814208984 0.064999997615814208984 0.064999997615814208984 0.064999997615814208984 0.064999997615814208984 0.064999997615814208984 0.064999997615814208984 0.064999997615814208984 0.085324995219707489014 0.064999997615814208984 0.064999997615814208984 0.064999997615814208984 
0.064999997615814208984 0.064999997615814208984 0.066356249153614044189 0.064999997615814208984 0.078549996018409729004 0.071774996817111968994 0.10429374873638153076 0.24790625274181365967 0.23842500150203704834 0.24790625274181365967 0.089387498795986175537 0.064999997615814208984 0.094812497496604919434 0.064999997615814208984 0.064999997615814208984 0.064999997615814208984 0.064999997615814208984 0.064999997615814208984 0.10158124566078186035 0.10158124566078186035 0.064999997615814208984 0.064999997615814208984 0.085324995219707489014 0.064999997615814208984 0.071774996817111968994 0.078549996018409729004 0.13275000452995300293 0.15578125417232513428 0.077206246554851531982 0.10023124516010284424 0.093456245958805084229 0.078549996018409729004 0.11784374713897705078 0.14630000293254852295 0.064999997615814208984 0.064999997615814208984 0.064999997615814208984 0.064999997615814208984 0.064999997615814208984 0.078549996018409729004 0.064999997615814208984 0.064999997615814208984 0.064999997615814208984 0.064999997615814208984 0.064999997615814208984 0.071774996817111968994 0.064999997615814208984 0.097518749535083770752 0.064999997615814208984 0.064999997615814208984 0.064999997615814208984 0.064999997615814208984 0.064999997615814208984 0.064999997615814208984 0.064999997615814208984 0.089387498795986175537 0.064999997615814208984 0.14707857370376586914 0.14737999439239501953 0.21675001084804534912 0.13726666569709777832 0.064999997615814208984 0.064999997615814208984 0.089381247758865356445 0.078935712575912475586 0.12353000044822692871 0.064999997615814208984 0.064999997615814208984 0.064999997615814208984 0.064999997615814208984 0.064999997615814208984 0.064999997615814208984 0.064999997615814208984 0.064999997615814208984 0.064999997615814208984 0.1164875030517578125 0.064999997615814208984 0.064999997615814208984 0.11377499997615814209 0.064999997615814208984 0.064999997615814208984 0.064999997615814208984 0.064999997615814208984 0.078549996018409729004 0.078549996018409729004 0.10158124566078186035 0.1625500023365020752 
0.064999997615814208984 0.070424996316432952881 0.12055625021457672119 0.067712500691413879395 0.077193751931190490723 0.083968751132488250732 0.1625500023365020752 0.21403750777244567871 0.23842500150203704834 0.22351875901222229004 0.064999997615814208984 0.064999997615814208984 0.082618750631809234619 0.064999997615814208984 0.064999997615814208984 0.064999997615814208984 0.077193751931190490723 0.064999997615814208984 0.066356249153614044189 0.070424996316432952881 0.064999997615814208984 0.064999997615814208984 0.078549996018409729004 0.11919999867677688599 0.11242499947547912598 0.064999997615814208984 0.092100001871585845947 0.11784374713897705078 0.1232687532901763916 0.081262499094009399414 0.064999997615814208984 0.066356249153614044189 0.064999997615814208984 0.090743750333786010742 0.077193751931190490723 0.064999997615814208984 0.064999997615814208984 0.077193751931190490723 0.089387498795986175537 0.081262499094009399414 0.067712500691413879395 0.078549996018409729004 0.064999997615814208984 0.064999997615814208984 0.089387498795986175537 0.090743750333786010742 0.064999997615814208984 0.064999997615814208984 0.064999997615814208984 0.10158124566078186035 0.064999997615814208984 0.064999997615814208984 0.064999997615814208984 0.064999997615814208984 0.064999997615814208984 0.064999997615814208984 0.1164875030517578125 0.2254199981689453125 0.20049166679382324219 0.1762866675853729248 0.067411109805107116699 0.064999997615814208984 0.064999997615814208984 0.082606248557567596436 0.064999997615814208984 0.064999997615814208984 0.064999997615814208984 0.064999997615814208984 0.064999997615814208984 0.064999997615814208984 0.064999997615814208984 0.064999997615814208984 0.064999997615814208984 0.064999997615814208984 0.064999997615814208984 0.10680714249610900879 0.10158124566078186035 0.12503077089786529541 0.09751666337251663208 0.064999997615814208984 0.064999997615814208984 0.064999997615814208984 0.064999997615814208984 0.064999997615814208984 0.064999997615814208984 0.13816249370574951172 0.064999997615814208984 
0.064999997615814208984 0.077193751931190490723 0.11784374713897705078 0.11377499997615814209 0.2113250046968460083 0.10971249639987945557 0.1598437577486038208 0.2113250046968460083 0.12868125736713409424 0.064999997615814208984 0.064999997615814208984 0.11377499997615814209 0.077193751931190490723 0.064999997615814208984 0.064999997615814208984 0.064999997615814208984 0.069068744778633117676 0.094812497496604919434 0.12596875429153442383 0.089387498795986175537 0.064999997615814208984 0.064999997615814208984 0.064999997615814208984 0.098875001072883605957 0.12461875379085540771 0.071781247854232788086 0.18288125097751617432 0.11513750255107879639 0.096168749034404754639 0.092100001871585845947 0.064999997615814208984 0.13003750145435333252 0.094812497496604919434 0.067712500691413879395 0.064999997615814208984 0.13275000452995300293 0.067712500691413879395 0.10836250334978103638 0.16526250541210174561 0.071781247854232788086 0.11919999867677688599 0.064999997615814208984 0.064999997615814208984 0.064999997615814208984 0.10293749719858169556 0.14630000293254852295 0.12596875429153442383 0.071774996817111968994 0.069068744778633117676 0.069068744778633117676 0.064999997615814208984 0.064999997615814208984 0.064999997615814208984 0.064999997615814208984 0.064999997615814208984 0.064999997615814208984 0.083585709333419799805 0.20808000862598419189 0.20230001211166381836 0.088353842496871948242 0.066669225692749023438 0.064999997615814208984 0.064999997615814208984 0.064999997615814208984 0.064999997615814208984 0.064999997615814208984 0.072742857038974761963 0.064999997615814208984 0.064999997615814208984 0.064999997615814208984 0.064999997615814208984 0.064999997615814208984 0.064999997615814208984 0.064999997615814208984 0.064999997615814208984 0.064999997615814208984 0.064999997615814208984 0.064999997615814208984 0.064999997615814208984 0.064999997615814208984 0.064999997615814208984 0.064999997615814208984 0.064999997615814208984 0.064999997615814208984 0.064999997615814208984 0.17474375665187835693 0.064999997615814208984 
0.064999997615814208984 0.064999997615814208984 0.11377499997615814209 0.15713749825954437256 0.1219125017523765564 0.18965625762939453125 0.18423750996589660645 0.18288125097751617432 0.10971874743700027466 0.064999997615814208984 0.064999997615814208984 0.090743750333786010742 0.064999997615814208984 0.064999997615814208984 0.064999997615814208984 0.064999997615814208984 0.069068744778633117676 0.1625500023365020752 0.11377499997615814209 0.10158124566078186035 0.064999997615814208984 0.064999997615814208984 0.064999997615814208984 0.10293749719858169556 0.11784374713897705078 0.079906247556209564209 0.13003750145435333252 0.093456245958805084229 0.067712500691413879395 0.071774996817111968994 0.064999997615814208984 0.11513125151395797729 0.071781247854232788086 0.064999997615814208984 0.089387498795986175537 0.11377499997615814209 0.090743750333786010742 0.15578125417232513428 0.10700625181198120117 0.20184375345706939697 0.16120624542236328125 0.064999997615814208984 0.077193751931190490723 0.10565000027418136597 0.10158124566078186035 0.22623126208782196045 0.098881252110004425049 0.10158749669790267944 0.064999997615814208984 0.064999997615814208984 0.064999997615814208984 0.066356249153614044189 0.078549996018409729004 0.077193751931190490723 0.12596875429153442383 0.10293749719858169556 0.11053000390529632568 0.14088334143161773682 0.23120000958442687988 0.13504615426063537598 0.066669225692749023438 0.064999997615814208984 0.064999997615814208984 0.095015384256839752197 0.13003332912921905518 0.064999997615814208984 0.064999997615814208984 0.064999997615814208984 0.064999997615814208984 0.064999997615814208984 0.064999997615814208984 0.064999997615814208984 0.064999997615814208984 0.064999997615814208984 0.064999997615814208984 0.093170002102851867676 0.064999997615814208984 0.064999997615814208984 0.073137499392032623291 0.064999997615814208984 0.064999997615814208984 0.064999997615814208984 0.064999997615814208984 0.064999997615814208984 0.064999997615814208984 0.13816249370574951172 0.064999997615814208984 
0.064999997615814208984 0.064999997615814208984 0.064999997615814208984 0.13951875269412994385 0.16120624542236328125 0.2492625117301940918 0.23842500150203704834 0.13681875169277191162 0.064999997615814208984 0.064999997615814208984 0.064999997615814208984 0.064999997615814208984 0.064999997615814208984 0.064999997615814208984 0.064999997615814208984 0.064999997615814208984 0.064999997615814208984 0.13816249370574951172 0.10158124566078186035 0.064999997615814208984 0.064999997615814208984 0.077193751931190490723 0.14494375884532928467 0.11919999867677688599 0.071774996817111968994 0.10565000027418136597 0.077193751931190490723 0.064999997615814208984 0.064999997615814208984 0.064999997615814208984 0.064999997615814208984 0.089387498795986175537 0.14765624701976776123 0.12055625021457672119 0.10158124566078186035 0.14087499678134918213 0.16256250441074371338 0.15849375724792480469 0.14087499678134918213 0.090743750333786010742 0.067712500691413879395 0.12596875429153442383 0.089387498795986175537 0.11784374713897705078 0.082618750631809234619 0.18964999914169311523 0.078549996018409729004 0.11513125151395797729 0.064999997615814208984 0.064999997615814208984 0.064999997615814208984 0.092099994421005249023 0.088037498295307159424 0.064999997615814208984 0.077193751931190490723 0.077193751931190490723 0.067712500691413879395 0.17339999973773956299 0.21055714786052703857 0.21675001084804534912 0.064999997615814208984 0.064999997615814208984 0.064999997615814208984 0.064999997615814208984 0.064999997615814208984 0.064999997615814208984 0.064999997615814208984 0.064999997615814208984 0.064999997615814208984 0.064999997615814208984 0.064999997615814208984 0.064999997615814208984 0.064999997615814208984 0.064999997615814208984 0.064999997615814208984 0.064999997615814208984 0.13542500138282775879 0.064999997615814208984 0.079906247556209564209 0.064999997615814208984 0.064999997615814208984 0.064999997615814208984 0.064999997615814208984 0.077193751931190490723 0.12596875429153442383 0.17474375665187835693 0.11377499997615814209 
0.064999997615814208984 0.078549996018409729004 0.066356249153614044189 0.22623126208782196045 0.17339999973773956299 0.2492625117301940918 0.18152500689029693604 0.073131248354911804199 0.064999997615814208984 0.064999997615814208984 0.064999997615814208984 0.064999997615814208984 0.064999997615814208984 0.064999997615814208984 0.064999997615814208984 0.064999997615814208984 0.064999997615814208984 0.11377499997615814209 0.064999997615814208984 0.064999997615814208984 0.064999997615814208984 0.11513125151395797729 0.12055625021457672119 0.067712500691413879395 0.064999997615814208984 0.064999997615814208984 0.064999997615814208984 0.064999997615814208984 0.12732499837875366211 0.064999997615814208984 0.064999997615814208984 0.064999997615814208984 0.089387498795986175537 0.12868125736713409424 0.064999997615814208984 0.067712500691413879395 0.12055625021457672119 0.20455625653266906738 0.12732499837875366211 0.089387498795986175537 0.064999997615814208984 0.064999997615814208984 0.066356249153614044189 0.097518749535083770752 0.064999997615814208984 0.078549996018409729004 0.064999997615814208984 0.081258334219455718994 0.095971427857875823975 0.064999997615814208984 0.082606248557567596436 0.064999997615814208984 0.078549996018409729004 0.097518749535083770752 0.18829375505447387695 0.1517142951488494873 0.13365000486373901367 0.14088334143161773682 0.2113250046968460083 0.17339999973773956299 0.1219125017523765564 0.064999997615814208984 0.064999997615814208984 0.064999997615814208984 0.064999997615814208984 0.064999997615814208984 0.064999997615814208984 0.064999997615814208984 0.064999997615814208984 0.064999997615814208984 0.064999997615814208984 0.064999997615814208984 0.064999997615814208984 0.066356249153614044189 0.10474999994039535522 0.064999997615814208984 0.064999997615814208984 0.064999997615814208984 0.064999997615814208984 0.064999997615814208984 0.064999997615814208984 0.064999997615814208984 0.064999997615814208984 0.13816249370574951172 0.19371250271797180176 0.077193751931190490723 0.064999997615814208984 
0.071774996817111968994 0.077193751931190490723 0.10429374873638153076 0.21268124878406524658 0.18423750996589660645 0.22758750617504119873 0.16797500848770141602 0.064999997615814208984 0.064999997615814208984 0.064999997615814208984 0.064999997615814208984 0.064999997615814208984 0.064999997615814208984 0.064999997615814208984 0.064999997615814208984 0.064999997615814208984 0.064999997615814208984 0.064999997615814208984 0.064999997615814208984 0.064999997615814208984 0.064999997615814208984 0.11513125151395797729 0.083975002169609069824 0.064999997615814208984 0.064999997615814208984 0.064999997615814208984 0.077193751931190490723 0.089387498795986175537 0.096168749034404754639 0.064999997615814208984 0.064999997615814208984 0.064999997615814208984 0.10158124566078186035 0.17068749666213989258 0.082618750631809234619 0.064999997615814208984 0.15306875109672546387 0.19236250221729278564 0.093456245958805084229 0.18693751096725463867 0.16526250541210174561 0.093456245958805084229 0.11377499997615814209 0.1313937455415725708 0.16932500898838043213 0.14223125576972961426 0.088849999010562896729 0.10565000027418136597 0.16616666316986083984 0.067712500691413879395 0.068338461220264434814 0.064999997615814208984 0.064999997615814208984 0.078549996018409729004 0.064999997615814208984 0.093906663358211517334 0.16526250541210174561 0.23120000958442687988 0.2113250046968460083 0.16797500848770141602 0.17579999566078186035 0.066356249153614044189 0.077193751931190490723 0.080007687211036682129 0.064999997615814208984 0.064999997615814208984 0.064999997615814208984 0.064999997615814208984 0.064999997615814208984 0.064999997615814208984 0.064999997615814208984 0.064999997615814208984 0.064999997615814208984 0.093456245958805084229 0.10546666383743286133 0.064999997615814208984 0.064999997615814208984 0.064999997615814208984 0.098875001072883605957 0.071774996817111968994 0.064999997615814208984 0.064999997615814208984 0.10158124566078186035 0.2059062570333480835 0.2059062570333480835 0.083968751132488250732 0.064999997615814208984 
0.071774996817111968994 0.078549996018409729004 0.22623126208782196045 0.11107499897480010986 0.14358749985694885254 0.19507500529289245605 0.10293749719858169556 0.064999997615814208984 0.064999997615814208984 0.064999997615814208984 0.064999997615814208984 0.064999997615814208984 0.064999997615814208984 0.064999997615814208984 0.064999997615814208984 0.064999997615814208984 0.064999997615814208984 0.064999997615814208984 0.064999997615814208984 0.064999997615814208984 0.064999997615814208984 0.064999997615814208984 0.067712500691413879395 0.064999997615814208984 0.064999997615814208984 0.078549996018409729004 0.14087499678134918213 0.14358749985694885254 0.11242499947547912598 0.064999997615814208984 0.064999997615814208984 0.064999997615814208984 0.064999997615814208984 0.096168749034404754639 0.070424996316432952881 0.11377499997615814209 0.077193751931190490723 0.15035624802112579346 0.13816249370574951172 0.10429374873638153076 0.064999997615814208984 0.13951875269412994385 0.15035624802112579346 0.077193751931190490723 0.067712500691413879395 0.16978333890438079834 0.10836250334978103638 0.10565000027418136597 0.24565000832080841064 0.10293749719858169556 0.064999997615814208984 0.064999997615814208984 0.064999997615814208984 0.089387498795986175537 0.12596875429153442383 0.21268124878406524658 0.26010000705718994141 0.26010000705718994141 0.17339999973773956299 0.22758333384990692139 0.11739166826009750366 0.064999997615814208984 0.066356249153614044189 0.078549996018409729004 0.083066664636135101318 0.064999997615814208984 0.064999997615814208984 0.064999997615814208984 0.078549996018409729004 0.092099994421005249023 0.064999997615814208984 0.064999997615814208984 0.077193751931190490723 0.10429374873638153076 0.064999997615814208984 0.064999997615814208984 0.10565000027418136597 0.064999997615814208984 0.071774996817111968994 0.064999997615814208984 0.064999997615814208984 0.064999997615814208984 0.089387498795986175537 0.24790625274181365967 0.15171250700950622559 0.064999997615814208984 0.064999997615814208984 
0.078549996018409729004 0.20048750936985015869 0.1693312525749206543 0.069068744778633117676 0.10293749719858169556 0.21675001084804534912 0.13410624861717224121 0.098875001072883605957 0.064999997615814208984 0.064999997615814208984 0.064999997615814208984 0.064999997615814208984 0.064999997615814208984 0.064999997615814208984 0.064999997615814208984 0.064999997615814208984 0.064999997615814208984 0.064999997615814208984 0.064999997615814208984 0.064999997615814208984 0.064999997615814208984 0.064999997615814208984 0.064999997615814208984 0.064999997615814208984 0.079906247556209564209 0.13410624861717224121 0.085331246256828308105 0.11243125051259994507 0.15443125367164611816 0.064999997615814208984 0.064999997615814208984 0.064999997615814208984 0.12732499837875366211 0.16797500848770141602 0.13003750145435333252 0.085331246256828308105 0.15171250700950622559 0.082618750631809234619 0.17474375665187835693 0.064999997615814208984 0.081262499094009399414 0.089387498795986175537 0.064999997615814208984 0.064999997615814208984 0.064999997615814208984 0.10474999994039535522 0.080485716462135314941 0.12786999344825744629 0.11919999867677688599 0.066808328032493591309 0.064999997615814208984 0.064999997615814208984 0.078549996018409729004 0.12732499837875366211 0.11702666431665420532 0.17555999755859375 0.26010000705718994141 0.20230001211166381836 0.12281333655118942261 0.15894444286823272705 0.116700001060962677 0.069339998066425323486 0.082606248557567596436 0.14764374494552612305 0.083066664636135101318 0.064999997615814208984 0.064999997615814208984 0.064999997615814208984 0.088474996387958526611 0.11557500064373016357 0.064999997615814208984 0.064999997615814208984 0.064999997615814208984 0.067712500691413879395 0.13365000486373901367 0.064999997615814208984 0.064999997615814208984 0.064999997615814208984 0.064999997615814208984 0.064999997615814208984 0.064999997615814208984 0.064999997615814208984 0.13816249370574951172 0.1625500023365020752 0.18151874840259552002 0.077193751931190490723 0.064999997615814208984 
0.078549996018409729004 0.18288125097751617432 0.098881252110004425049 0.064999997615814208984 0.14087499678134918213 0.23842500150203704834 0.13003750145435333252 0.078549996018409729004 0.064999997615814208984 0.064999997615814208984 0.064999997615814208984 0.064999997615814208984 0.064999997615814208984 0.064999997615814208984 0.064999997615814208984 0.064999997615814208984 0.064999997615814208984 0.064999997615814208984 0.064999997615814208984 0.077193751931190490723 0.064999997615814208984 0.064999997615814208984 0.064999997615814208984 0.093456245958805084229 0.10158124566078186035 0.1219125017523765564 0.077193751931190490723 0.24790625274181365967 0.077193751931190490723 0.064999997615814208984 0.064999997615814208984 0.12596875429153442383 0.11919999867677688599 0.064999997615814208984 0.083975002169609069824 0.090743750333786010742 0.077193751931190490723 0.1164875030517578125 0.10158124566078186035 0.064999997615814208984 0.078549996018409729004 0.064999997615814208984 0.064999997615814208984 0.064999997615814208984 0.089387498795986175537 0.21023000776767730713 0.13816249370574951172 0.16797500848770141602 0.064999997615814208984 0.064999997615814208984 0.064999997615814208984 0.064999997615814208984 0.064999997615814208984 0.064999997615814208984 0.064999997615814208984 0.1256999969482421875 0.21675001084804534912 0.20230001211166381836 0.1164875030517578125 0.09751666337251663208 0.090743750333786010742 0.068616665899753570557 0.064999997615814208984 0.11377499997615814209 0.064999997615814208984 0.064999997615814208984 0.064999997615814208984 0.064999997615814208984 0.064999997615814208984 0.064999997615814208984 0.064999997615814208984 0.083066664636135101318 0.071199998259544372559 0.066356249153614044189 0.064999997615814208984 0.064999997615814208984 0.064999997615814208984 0.064999997615814208984 0.064999997615814208984 0.064999997615814208984 0.064999997615814208984 0.064999997615814208984 0.11377499997615814209 0.24790625274181365967 0.23571249842643737793 0.13816249370574951172 0.064999997615814208984 
0.10429374873638153076 0.17339999973773956299 0.10700625181198120117 0.064999997615814208984 0.090743750333786010742 0.21539375185966491699 0.20319999754428863525 0.064999997615814208984 0.064999997615814208984 0.064999997615814208984 0.064999997615814208984 0.064999997615814208984 0.064999997615814208984 0.064999997615814208984 0.064999997615814208984 0.064999997615814208984 0.064999997615814208984 0.064999997615814208984 0.11513125151395797729 0.13951875269412994385 0.064999997615814208984 0.064999997615814208984 0.082618750631809234619 0.081262499094009399414 0.064999997615814208984 0.064999997615814208984 0.10158124566078186035 0.10700625181198120117 0.089387498795986175537 0.064999997615814208984 0.064999997615814208984 0.22487500309944152832 0.13275000452995300293 0.064999997615814208984 0.092099994421005249023 0.16662499308586120605 0.10565000027418136597 0.092099994421005249023 0.064999997615814208984 0.064999997615814208984 0.064999997615814208984 0.064999997615814208984 0.064999997615814208984 0.078549996018409729004 0.12732499837875366211 0.081258334219455718994 0.09751666337251663208 0.09751666337251663208 0.064999997615814208984 0.064999997615814208984 0.064999997615814208984 0.064999997615814208984 0.064999997615814208984 0.064999997615814208984 0.064999997615814208984 0.092871427536010742188 0.24565000832080841064 0.26010000705718994141 0.20900714397430419922 0.081258334219455718994 0.064999997615814208984 0.088474996387958526611 0.12074285745620727539 0.089387498795986175537 0.064999997615814208984 0.064999997615814208984 0.064999997615814208984 0.064999997615814208984 0.064999997615814208984 0.064999997615814208984 0.064999997615814208984 0.064999997615814208984 0.064999997615814208984 0.064999997615814208984 0.064999997615814208984 0.064999997615814208984 0.064999997615814208984 0.064999997615814208984 0.064999997615814208984 0.064999997615814208984 0.064999997615814208984 0.11377499997615814209 0.10158124566078186035 0.12732499837875366211 0.1205499991774559021 0.064999997615814208984 0.064999997615814208984 
0.16797500848770141602 0.11514375358819961548 0.066356249153614044189 0.064999997615814208984 0.077193751931190490723 0.15442499518394470215 0.18423750996589660645 0.18016874790191650391 0.064999997615814208984 0.064999997615814208984 0.064999997615814208984 0.064999997615814208984 0.064999997615814208984 0.064999997615814208984 0.064999997615814208984 0.064999997615814208984 0.064999997615814208984 0.064999997615814208984 0.10158124566078186035 0.13951875269412994385 0.064999997615814208984 0.078549996018409729004 0.082618750631809234619 0.10700625181198120117 0.064999997615814208984 0.11377499997615814209 0.10158124566078186035 0.078549996018409729004 0.077193751931190490723 0.064999997615814208984 0.064999997615814208984 0.20319999754428863525 0.10429374873638153076 0.064999997615814208984 0.078549996018409729004 0.17339999973773956299 0.098875001072883605957 0.064999997615814208984 0.064999997615814208984 0.090743750333786010742 0.064999997615814208984 0.075839996337890625 0.064999997615814208984 0.064999997615814208984 0.064999997615814208984 0.078006662428379058838 0.064999997615814208984 0.064999997615814208984 0.064999997615814208984 0.064999997615814208984 0.064999997615814208984 0.064999997615814208984 0.064999997615814208984 0.064999997615814208984 0.064999997615814208984 0.13148000836372375488 0.14861428737640380859 0.10503076761960983276 0.072233334183692932129 0.064999997615814208984 0.13003332912921905518 0.086679995059967041016 0.077193751931190490723 0.064999997615814208984 0.089387498795986175537 0.08234666287899017334 0.082035712897777557373 0.064999997615814208984 0.064999997615814208984 0.064999997615814208984 0.064999997615814208984 0.064999997615814208984 0.080007687211036682129 0.064999997615814208984 0.064999997615814208984 0.064999997615814208984 0.064999997615814208984 0.064999997615814208984 0.064999997615814208984 0.064999997615814208984 0.064999997615814208984 0.10565000027418136597 0.10293749719858169556 0.10293749719858169556 0.15035624802112579346 0.10158124566078186035 0.064999997615814208984 
0.17339999973773956299 0.082618750631809234619 0.064999997615814208984 0.064999997615814208984 0.064999997615814208984 0.064999997615814208984 0.18016874790191650391 0.23842500150203704834 0.13275000452995300293 0.064999997615814208984 0.064999997615814208984 0.064999997615814208984 0.064999997615814208984 0.064999997615814208984 0.064999997615814208984 0.064999997615814208984 0.064999997615814208984 0.064999997615814208984 0.064999997615814208984 0.077193751931190490723 0.064999997615814208984 0.064999997615814208984 0.10429374873638153076 0.10836250334978103638 0.081262499094009399414 0.066356249153614044189 0.066356249153614044189 0.064999997615814208984 0.064999997615814208984 0.064999997615814208984 0.11513125151395797729 0.11377499997615814209 0.064999997615814208984 0.064999997615814208984 0.064999997615814208984 0.064999997615814208984 0.064999997615814208984 0.064999997615814208984 0.077193751931190490723 0.077193751931190490723 0.064999997615814208984 0.064999997615814208984 0.064999997615814208984 0.064999997615814208984 0.064999997615814208984 0.064999997615814208984 0.064999997615814208984 0.064999997615814208984 0.078549996018409729004 0.085324995219707489014 0.089387498795986175537 0.089387498795986175537 0.064999997615814208984 0.078549996018409729004 0.071774996817111968994 0.064999997615814208984 0.064999997615814208984 0.10565000027418136597 0.11558333039283752441 0.18061667680740356445 0.12868125736713409424 0.17881250381469726562 0.1693312525749206543 0.083066664636135101318 0.092100001871585845947 0.077193751931190490723 0.17610000073909759521 0.077193751931190490723 0.064999997615814208984 0.064999997615814208984 0.064999997615814208984 0.089387498795986175537 0.13003332912921905518 0.064999997615814208984 0.064999997615814208984 0.10565000027418136597 0.064999997615814208984 0.064999997615814208984 0.064999997615814208984 0.064999997615814208984 0.064999997615814208984 0.11377499997615814209 0.078549996018409729004 0.21403750777244567871 0.10158124566078186035 0.26010000705718994141 0.26010000705718994141 
0.11785624921321868896 0.069068744778633117676 0.064999997615814208984 0.064999997615814208984 0.064999997615814208984 0.064999997615814208984 0.10429374873638153076 0.23842500150203704834 0.19371876120567321777 0.064999997615814208984 0.064999997615814208984 0.064999997615814208984 0.064999997615814208984 0.064999997615814208984 0.064999997615814208984 0.064999997615814208984 0.064999997615814208984 0.064999997615814208984 0.064999997615814208984 0.064999997615814208984 0.064999997615814208984 0.064999997615814208984 0.17745625972747802734 0.097525000572204589844 0.14087499678134918213 0.13951875269412994385 0.064999997615814208984 0.11513125151395797729 0.066356249153614044189 0.070424996316432952881 0.22487500309944152832 0.081262499094009399414 0.089387498795986175537 0.064999997615814208984 0.064999997615814208984 0.064999997615814208984 0.064999997615814208984 0.064999997615814208984 0.064999997615814208984 0.064999997615814208984 0.064999997615814208984 0.11919999867677688599 0.074033334851264953613 0.064999997615814208984 0.064999997615814208984 0.064999997615814208984 0.064999997615814208984 0.067712500691413879395 0.16436666250228881836 0.15985000133514404297 0.14170768857002258301 0.064999997615814208984 0.064999997615814208984 0.11016666889190673828 0.092099994421005249023 0.064999997615814208984 0.077193751931190490723 0.10429374873638153076 0.12003846466541290283 0.17339999973773956299 0.11704000085592269897 0.14304000139236450195 0.13003332912921905518 0.1842333376407623291 0.10474999994039535522 0.13485555350780487061 0.23571249842643737793 0.12669999897480010986 0.064999997615814208984 0.080007687211036682129 0.064999997615814208984 0.064999997615814208984 0.064999997615814208984 0.064999997615814208984 0.064999997615814208984 0.064999997615814208984 0.078549996018409729004 0.077193751931190490723 0.064999997615814208984 0.064999997615814208984 0.078549996018409729004 0.10835625231266021729 0.064999997615814208984 0.13816249370574951172 0.064999997615814208984 0.19913125038146972656 0.26010000705718994141 
0.1381749957799911499 0.067712500691413879395 0.064999997615814208984 0.064999997615814208984 0.064999997615814208984 0.064999997615814208984 0.10836250334978103638 0.10429374873638153076 0.12055625021457672119 0.13275000452995300293 0.079906247556209564209 0.064999997615814208984 0.064999997615814208984 0.064999997615814208984 0.064999997615814208984 0.064999997615814208984 0.064999997615814208984 0.064999997615814208984 0.064999997615814208984 0.064999997615814208984 0.064999997615814208984 0.10158124566078186035 0.20455625653266906738 0.089387498795986175537 0.16390624642372131348 0.066356249153614044189 0.064999997615814208984 0.089387498795986175537 0.064999997615814208984 0.13003750145435333252 0.19913125038146972656 0.078549996018409729004 0.1313937455415725708 0.074493750929832458496 0.064999997615814208984 0.064999997615814208984 0.064999997615814208984 0.089387498795986175537 0.064999997615814208984 0.064999997615814208984 0.064999997615814208984 0.064999997615814208984 0.09751666337251663208 0.064999997615814208984 0.064999997615814208984 0.064999997615814208984 0.089387498795986175537 0.064999997615814208984 0.17339999973773956299 0.15985000133514404297 0.064999997615814208984 0.064999997615814208984 0.092099994421005249023 0.12823332846164703369 0.10565000027418136597 0.064999997615814208984 0.064999997615814208984 0.10835999995470046997 0.21675001084804534912 0.15606001019477844238 0.11379166692495346069 0.067712500691413879395 0.064999997615814208984 0.12596875429153442383 0.18693751096725463867 0.12596875429153442383 0.077193751931190490723 0.1256999969482421875 0.1904214322566986084 0.18693751096725463867 0.10401999950408935547 0.064999997615814208984 0.064999997615814208984 0.064999997615814208984 0.064999997615814208984 0.064999997615814208984 0.090743750333786010742 0.066356249153614044189 0.064999997615814208984 0.064999997615814208984 0.064999997615814208984 0.064999997615814208984 0.077193751931190490723 0.18693751096725463867 0.12596875429153442383 0.19913125038146972656 0.26010000705718994141 
0.075849995017051696777 0.089387498795986175537 0.064999997615814208984 0.064999997615814208984 0.064999997615814208984 0.064999997615814208984 0.082618750631809234619 0.064999997615814208984 0.064999997615814208984 0.17881250381469726562 0.15442499518394470215 0.067712500691413879395 0.064999997615814208984 0.064999997615814208984 0.064999997615814208984 0.064999997615814208984 0.064999997615814208984 0.064999997615814208984 0.064999997615814208984 0.064999997615814208984 0.089387498795986175537 0.20184375345706939697 0.1625500023365020752 0.064999997615814208984 0.064999997615814208984 0.064999997615814208984 0.071781247854232788086 0.077193751931190490723 0.078549996018409729004 0.064999997615814208984 0.077193751931190490723 0.090743750333786010742 0.064999997615814208984 0.081262499094009399414 0.078549996018409729004 0.092099994421005249023 0.090743750333786010742 0.077193751931190490723 0.064999997615814208984 0.064999997615814208984 0.064999997615814208984 0.064999997615814208984 0.064999997615814208984 0.064999997615814208984 0.064999997615814208984 0.064999997615814208984 0.078549996018409729004 0.10565000027418136597 0.17339999973773956299 0.13681249320507049561 0.09751666337251663208 0.10293749719858169556 0.081258334219455718994 0.17339999973773956299 0.092099994421005249023 0.064999997615814208984 0.064999997615814208984 0.069339998066425323486 0.1300500035285949707 0.17339999973773956299 0.077658332884311676025 0.077193751931190490723 0.064999997615814208984 0.066356249153614044189 0.077193751931190490723 0.064999997615814208984 0.064999997615814208984 0.064999997615814208984 0.094812497496604919434 0.17028571665287017822 0.1256999969482421875 0.064999997615814208984 0.064999997615814208984 0.064999997615814208984 0.064999997615814208984 0.10158124566078186035 0.064999997615814208984 0.064999997615814208984 0.064999997615814208984 0.064999997615814208984 0.064999997615814208984 0.064999997615814208984 0.064999997615814208984 0.064999997615814208984 0.077193751931190490723 0.10158124566078186035 0.11377499997615814209 
0.092112496495246887207 0.092100001871585845947 0.064999997615814208984 0.064999997615814208984 0.064999997615814208984 0.064999997615814208984 0.064999997615814208984 0.064999997615814208984 0.064999997615814208984 0.15713749825954437256 0.10294999927282333374 0.064999997615814208984 0.064999997615814208984 0.064999997615814208984 0.064999997615814208984 0.064999997615814208984 0.064999997615814208984 0.064999997615814208984 0.064999997615814208984 0.090743750333786010742 0.16661874949932098389 0.066356249153614044189 0.064999997615814208984 0.064999997615814208984 0.064999997615814208984 0.064999997615814208984 0.078549996018409729004 0.064999997615814208984 0.078549996018409729004 0.14629374444484710693 0.066356249153614044189 0.12596875429153442383 0.064999997615814208984 0.064999997615814208984 0.092099994421005249023 0.11919999867677688599 0.064999997615814208984 0.064999997615814208984 0.064999997615814208984 0.064999997615814208984 0.064999997615814208984 0.064999997615814208984 0.064999997615814208984 0.064999997615814208984 0.064999997615814208984 0.077193751931190490723 0.10158124566078186035 0.11919999867677688599 0.1252222210168838501 0.064999997615814208984 0.092099994421005249023 0.15791428089141845703 0.14630000293254852295 0.072226665914058685303 0.064999997615814208984 0.064999997615814208984 0.064999997615814208984 0.064999997615814208984 0.16435833275318145752 0.13838461041450500488 0.084875002503395080566 0.10565000027418136597 0.090743750333786010742 0.064999997615814208984 0.064999997615814208984 0.064999997615814208984 0.064999997615814208984 0.064999997615814208984 0.11781875044107437134 0.14001539349555969238 0.064999997615814208984 0.064999997615814208984 0.064999997615814208984 0.064999997615814208984 0.064999997615814208984 0.064999997615814208984 0.064999997615814208984 0.064999997615814208984 0.064999997615814208984 0.12596875429153442383 0.089387498795986175537 0.064999997615814208984 0.11377499997615814209 0.12596875429153442383 0.064999997615814208984 0.12596875429153442383 0.26010000705718994141 
0.090743750333786010742 0.064999997615814208984 0.064999997615814208984 0.064999997615814208984 0.064999997615814208984 0.064999997615814208984 0.064999997615814208984 0.064999997615814208984 0.064999997615814208984 0.18152500689029693604 0.13546250760555267334 0.071781247854232788086 0.064999997615814208984 0.064999997615814208984 0.064999997615814208984 0.064999997615814208984 0.064999997615814208984 0.064999997615814208984 0.064999997615814208984 0.14087499678134918213 0.13951875269412994385 0.064999997615814208984 0.067712500691413879395 0.067712500691413879395 0.064999997615814208984 0.064999997615814208984 0.064999997615814208984 0.064999997615814208984 0.064999997615814208984 0.064999997615814208984 0.064999997615814208984 0.064999997615814208984 0.064999997615814208984 0.064999997615814208984 0.064999997615814208984 0.098875001072883605957 0.074487499892711639404 0.064999997615814208984 0.064999997615814208984 0.064999997615814208984 0.064999997615814208984 0.064999997615814208984 0.064999997615814208984 0.064999997615814208984 0.064999997615814208984 0.064999997615814208984 0.125974997878074646 0.17339999973773956299 0.074033334851264953613 0.064999997615814208984 0.078549996018409729004 0.10565000027418136597 0.071774996817111968994 0.064999997615814208984 0.064999997615814208984 0.064999997615814208984 0.064999997615814208984 0.064999997615814208984 0.15533334016799926758 0.19506667554378509521 0.10429374873638153076 0.14630000293254852295 0.082618750631809234619 0.078549996018409729004 0.064999997615814208984 0.064999997615814208984 0.083975002169609069824 0.069068744778633117676 0.10565000027418136597 0.064999997615814208984 0.078549996018409729004 0.064999997615814208984 0.064999997615814208984 0.064999997615814208984 0.064999997615814208984 0.064999997615814208984 0.064999997615814208984 0.064999997615814208984 0.064999997615814208984 0.089387498795986175537 0.077193751931190490723 0.064999997615814208984 0.11377499997615814209 0.064999997615814208984 0.064999997615814208984 0.11377499997615814209 0.1625500023365020752 
0.064999997615814208984 0.064999997615814208984 0.064999997615814208984 0.064999997615814208984 0.064999997615814208984 0.064999997615814208984 0.064999997615814208984 0.064999997615814208984 0.13816249370574951172 0.18016874790191650391 0.21675001084804534912 0.11378750205039978027 0.066356249153614044189 0.064999997615814208984 0.064999997615814208984 0.064999997615814208984 0.064999997615814208984 0.064999997615814208984 0.064999997615814208984 0.093456245958805084229 0.067712500691413879395 0.064999997615814208984 0.070424996316432952881 0.064999997615814208984 0.1164875030517578125 0.10293749719858169556 0.064999997615814208984 0.12596875429153442383 0.13275000452995300293 0.090743750333786010742 0.12055625021457672119 0.092100001871585845947 0.064999997615814208984 0.10158124566078186035 0.064999997615814208984 0.064999997615814208984 0.10565000027418136597 0.10835999995470046997 0.064999997615814208984 0.078549996018409729004 0.095353335142135620117 0.064999997615814208984 0.064999997615814208984 0.064999997615814208984 0.077193751931190490723 0.064999997615814208984 0.075839996337890625 0.086679995059967041016 0.064999997615814208984 0.064999997615814208984 0.064999997615814208984 0.064999997615814208984 0.064999997615814208984 0.064999997615814208984 0.086679995059967041016 0.081258334219455718994 0.064999997615814208984 0.14223125576972961426 0.24565000832080841064 0.26010000705718994141 0.1900692284107208252 0.12868125736713409424 0.13170769810676574707 0.11739166826009750366 0.095015384256839752197 0.064999997615814208984 0.12732499837875366211 0.10565000027418136597 0.064999997615814208984 0.089387498795986175537 0.12868750095367431641 0.13952499628067016602 0.078549996018409729004 0.064999997615814208984 0.064999997615814208984 0.064999997615814208984 0.077193751931190490723 0.064999997615814208984 0.064999997615814208984 0.064999997615814208984 0.064999997615814208984 0.064999997615814208984 0.064999997615814208984 0.064999997615814208984 0.077193751931190490723 0.064999997615814208984 0.064999997615814208984 
0.064999997615814208984 0.064999997615814208984 0.064999997615814208984 0.064999997615814208984 0.064999997615814208984 0.064999997615814208984 0.081262499094009399414 0.14630000293254852295 0.22758750617504119873 0.14358749985694885254 0.10565000027418136597 0.079906247556209564209 0.078549996018409729004 0.064999997615814208984 0.064999997615814208984 0.064999997615814208984 0.064999997615814208984 0.064999997615814208984 0.077193751931190490723 0.064999997615814208984 0.064999997615814208984 0.064999997615814208984 0.064999997615814208984 0.064999997615814208984 0.066356249153614044189 0.064999997615814208984 0.090743750333786010742 0.12596875429153442383 0.090743750333786010742 0.064999997615814208984 0.077193751931190490723 0.10971249639987945557 0.064999997615814208984 0.18693751096725463867 0.071774996817111968994 0.11145713925361633301 0.11919999867677688599 0.078549996018409729004 0.084509998559951782227 0.13951875269412994385 0.1625500023365020752 0.064999997615814208984 0.064999997615814208984 0.064999997615814208984 0.064999997615814208984 0.064999997615814208984 0.064999997615814208984 0.078549996018409729004 0.064999997615814208984 0.064999997615814208984 0.064999997615814208984 0.064999997615814208984 0.064999997615814208984 0.064999997615814208984 0.064999997615814208984 0.1517142951488494873 0.12822499871253967285 0.12353000044822692871 0.11377499997615814209 0.064999997615814208984 0.064999997615814208984 0.064999997615814208984 0.094421431422233581543 0.066356249153614044189 0.064999997615814208984 0.064999997615814208984 0.14630000293254852295 0.10700625181198120117 0.077193751931190490723 0.089387498795986175537 0.094812497496604919434 0.11919999867677688599 0.15307499468326568604 0.064999997615814208984 0.064999997615814208984 0.077193751931190490723 0.12596875429153442383 0.064999997615814208984 0.071774996817111968994 0.098875001072883605957 0.064999997615814208984 0.077193751931190490723 0.081262499094009399414 0.089387498795986175537 0.12596875429153442383 0.064999997615814208984 0.064999997615814208984 
0.066356249153614044189 0.064999997615814208984 0.064999997615814208984 0.064999997615814208984 0.064999997615814208984 0.064999997615814208984 0.12868125736713409424 0.22758750617504119873 0.22758750617504119873 0.18016874790191650391 0.070424996316432952881 0.064999997615814208984 0.064999997615814208984 0.064999997615814208984 0.064999997615814208984 0.064999997615814208984 0.064999997615814208984 0.064999997615814208984 0.064999997615814208984 0.064999997615814208984 0.064999997615814208984 0.064999997615814208984 0.064999997615814208984 0.064999997615814208984 0.064999997615814208984 0.064999997615814208984 0.067712500691413879395 0.069068744778633117676 0.064999997615814208984 0.067712500691413879395 0.15306875109672546387 0.15848749876022338867 0.082618750631809234619 0.15035624802112579346 0.15171250700950622559 0.085324995219707489014 0.064999997615814208984 0.064999997615814208984 0.18639999628067016602 0.16797500848770141602 0.12539285421371459961 0.067712500691413879395 0.064999997615814208984 0.064999997615814208984 0.064999997615814208984 0.079906247556209564209 0.064999997615814208984 0.064999997615814208984 0.064999997615814208984 0.064999997615814208984 0.064999997615814208984 0.064999997615814208984 0.064999997615814208984 0.064999997615814208984 0.09751666337251663208 0.18422999978065490723 0.12100833654403686523 0.089387498795986175537 0.13365000486373901367 0.18206000328063964844 0.068099997937679290771 0.064999997615814208984 0.064999997615814208984 0.064999997615814208984 0.064999997615814208984 0.064999997615814208984 0.090743750333786010742 0.079906247556209564209 0.1625500023365020752 0.066356249153614044189 0.090750001370906829834 0.064999997615814208984 0.064999997615814208984 0.064999997615814208984 0.064999997615814208984 0.064999997615814208984 0.064999997615814208984 0.071774996817111968994 0.13952499628067016602 0.064999997615814208984 0.064999997615814208984 0.064999997615814208984 0.064999997615814208984 0.13816249370574951172 0.064999997615814208984 0.064999997615814208984 0.064999997615814208984 
0.069068744778633117676 0.064999997615814208984 0.064999997615814208984 0.064999997615814208984 0.064999997615814208984 0.064999997615814208984 0.12596875429153442383 0.14765624701976776123 0.14901250600814819336 0.070424996316432952881 0.066356249153614044189 0.064999997615814208984 0.064999997615814208984 0.064999997615814208984 0.064999997615814208984 0.064999997615814208984 0.064999997615814208984 0.064999997615814208984 0.064999997615814208984 0.064999997615814208984 0.064999997615814208984 0.064999997615814208984 0.1625500023365020752 0.10158124566078186035 0.064999997615814208984 0.064999997615814208984 0.064999997615814208984 0.090743750333786010742 0.064999997615814208984 0.10158124566078186035 0.1625500023365020752 0.14494375884532928467 0.085331246256828308105 0.093456245958805084229 0.14358749985694885254 0.064999997615814208984 0.064999997615814208984 0.084509998559951782227 0.17338889837265014648 0.13816249370574951172 0.064999997615814208984 0.064999997615814208984 0.064999997615814208984 0.13964444398880004883 0.086681246757507324219 0.081676922738552093506 0.064999997615814208984 0.064999997615814208984 0.064999997615814208984 0.064999997615814208984 0.064999997615814208984 0.064999997615814208984 0.064999997615814208984 0.15171666443347930908 0.13003847002983093262 0.12669999897480010986 0.064999997615814208984 0.090743750333786010742 0.1733923107385635376 0.11739166826009750366 0.064999997615814208984 0.064999997615814208984 0.064999997615814208984 0.064999997615814208984 0.064999997615814208984 0.10293749719858169556 0.17610000073909759521 0.19371876120567321777 0.24790625274181365967 0.22487500309944152832 0.096168749034404754639 0.064999997615814208984 0.071774996817111968994 0.064999997615814208984 0.078549996018409729004 0.12596875429153442383 0.077193751931190490723 0.064999997615814208984 0.085324995219707489014 0.078549996018409729004 0.064999997615814208984 0.064999997615814208984 0.064999997615814208984 0.1625500023365020752 0.064999997615814208984 0.064999997615814208984 0.064999997615814208984 
0.079906247556209564209 0.064999997615814208984 0.064999997615814208984 0.064999997615814208984 0.064999997615814208984 0.064999997615814208984 0.14087499678134918213 0.20455625653266906738 0.10565000027418136597 0.064999997615814208984 0.10158124566078186035 0.064999997615814208984 0.098875001072883605957 0.092099994421005249023 0.071774996817111968994 0.064999997615814208984 0.064999997615814208984 0.064999997615814208984 0.064999997615814208984 0.064999997615814208984 0.064999997615814208984 0.064999997615814208984 0.077193751931190490723 0.071774996817111968994 0.098875001072883605957 0.1164875030517578125 0.066356249153614044189 0.064999997615814208984 0.077193751931190490723 0.23706875741481781006 0.2492625117301940918 0.17881250381469726562 0.06655000150203704834 0.1835066676139831543 0.12596875429153442383 0.064999997615814208984 0.064999997615814208984 0.064999997615814208984 0.19506667554378509521 0.13184167444705963135 0.064999997615814208984 0.064999997615814208984 0.064999997615814208984 0.068616665899753570557 0.064999997615814208984 0.064999997615814208984 0.12229286134243011475 0.064999997615814208984 0.064999997615814208984 0.064999997615814208984 0.064999997615814208984 0.064999997615814208984 0.064999997615814208984 0.1733923107385635376 0.11336153745651245117 0.078006662428379058838 0.064999997615814208984 0.064999997615814208984 0.13003332912921905518 0.11169230937957763672 0.064999997615814208984 0.064999997615814208984 0.064999997615814208984 0.064999997615814208984 0.089387498795986175537 0.13003750145435333252 0.18829375505447387695 0.1693312525749206543 0.1219125017523765564 0.14765624701976776123 0.085324995219707489014 0.064999997615814208984 0.064999997615814208984 0.064999997615814208984 0.071774996817111968994 0.067712500691413879395 0.064999997615814208984 0.064999997615814208984 0.064999997615814208984 0.064999997615814208984 0.064999997615814208984 0.064999997615814208984 0.064999997615814208984 0.12596875429153442383 0.078549996018409729004 0.064999997615814208984 0.064999997615814208984 
0.11784374713897705078 0.064999997615814208984 0.064999997615814208984 0.064999997615814208984 0.064999997615814208984 0.078549996018409729004 0.19371876120567321777 0.1219125017523765564 0.078549996018409729004 0.064999997615814208984 0.064999997615814208984 0.064999997615814208984 0.064999997615814208984 0.096162497997283935547 0.064999997615814208984 0.064999997615814208984 0.064999997615814208984 0.064999997615814208984 0.077193751931190490723 0.082618750631809234619 0.077193751931190490723 0.10158124566078186035 0.064999997615814208984 0.085324995219707489014 0.064999997615814208984 0.064999997615814208984 0.064999997615814208984 0.064999997615814208984 0.18693751096725463867 0.26010000705718994141 0.15171250700950622559 0.08234666287899017334 0.073137499392032623291 0.12836922705173492432 0.064999997615814208984 0.064999997615814208984 0.064999997615814208984 0.082035712897777557373 0.15442499518394470215 0.067712500691413879395 0.064999997615814208984 0.064999997615814208984 0.084509998559951782227 0.089387498795986175537 0.064999997615814208984 0.064999997615814208984 0.064999997615814208984 0.080485716462135314941 0.064999997615814208984 0.064999997615814208984 0.064999997615814208984 0.1625500023365020752 0.17881250381469726562 0.088338457047939300537 0.090283334255218505859 0.064999997615814208984 0.064999997615814208984 0.12732499837875366211 0.18062222003936767578 0.18495333194732666016 0.064999997615814208984 0.064999997615814208984 0.064999997615814208984 0.081676922738552093506 0.12732499837875366211 0.11513125151395797729 0.1164875030517578125 0.089400000870227813721 0.079918749630451202393 0.14629374444484710693 0.071774996817111968994 0.064999997615814208984 0.064999997615814208984 0.064999997615814208984 0.064999997615814208984 0.064999997615814208984 0.064999997615814208984 0.064999997615814208984 0.064999997615814208984 0.064999997615814208984 0.064999997615814208984 0.064999997615814208984 0.064999997615814208984 0.064999997615814208984 0.089387498795986175537 0.064999997615814208984 0.064999997615814208984 
0.064999997615814208984 0.064999997615814208984 0.064999997615814208984 0.064999997615814208984 0.077193751931190490723 0.11919999867677688599 0.15442499518394470215 0.064999997615814208984 0.064999997615814208984 0.064999997615814208984 0.064999997615814208984 0.078549996018409729004 0.064999997615814208984 0.064999997615814208984 0.066356249153614044189 0.12732499837875366211 0.064999997615814208984 0.14087499678134918213 0.066356249153614044189 0.064999997615814208984 0.064999997615814208984 0.083968751132488250732 0.064999997615814208984 0.064999997615814208984 0.064999997615814208984 0.064999997615814208984 0.064999997615814208984 0.064999997615814208984 0.11377499997615814209 0.17958572506904602051 0.089387498795986175537 0.064999997615814208984 0.064999997615814208984 0.10401999950408935547 0.064999997615814208984 0.064999997615814208984 0.064999997615814208984 0.070424996316432952881 0.084509998559951782227 0.064999997615814208984 0.064999997615814208984 0.064999997615814208984 0.064999997615814208984 0.064999997615814208984 0.077193751931190490723 0.064999997615814208984 0.064999997615814208984 0.064999997615814208984 0.2113250046968460083 0.13816249370574951172 0.064999997615814208984 0.16390624642372131348 0.21403750777244567871 0.2113250046968460083 0.21313333511352539062 0.064999997615814208984 0.099325001239776611328 0.20590715110301971436 0.14087499678134918213 0.16565001010894775391 0.064999997615814208984 0.064999997615814208984 0.064999997615814208984 0.064999997615814208984 0.064999997615814208984 0.064999997615814208984 0.10158124566078186035 0.12732499837875366211 0.064999997615814208984 0.066356249153614044189 0.064999997615814208984 0.064999997615814208984 0.064999997615814208984 0.064999997615814208984 0.064999997615814208984 0.085324995219707489014 0.064999997615814208984 0.064999997615814208984 0.077193751931190490723 0.064999997615814208984 0.064999997615814208984 0.064999997615814208984 0.064999997615814208984 0.064999997615814208984 0.064999997615814208984 0.064999997615814208984 0.064999997615814208984 
0.064999997615814208984 0.064999997615814208984 0.064999997615814208984 0.064999997615814208984 0.16390624642372131348 0.12598125636577606201 0.10971874743700027466 0.064999997615814208984 0.064999997615814208984 0.064999997615814208984 0.071774996817111968994 0.071774996817111968994 0.064999997615814208984 0.064999997615814208984 0.10565000027418136597 0.11377499997615814209 0.064999997615814208984 0.089387498795986175537 0.17474375665187835693 0.15036250650882720947 0.18016874790191650391 0.16390624642372131348 0.064999997615814208984 0.064999997615814208984 0.064999997615814208984 0.064999997615814208984 0.064999997615814208984 0.16526250541210174561 0.10835555195808410645 0.083066664636135101318 0.077193751931190490723 0.064999997615814208984 0.064999997615814208984 0.064999997615814208984 0.064999997615814208984 0.11377499997615814209 0.14304000139236450195 0.064999997615814208984 0.064999997615814208984 0.064999997615814208984 0.064999997615814208984 0.064999997615814208984 0.064999997615814208984 0.13244444131851196289 0.18693751096725463867 0.064999997615814208984 0.064999997615814208984 0.064999997615814208984 0.26010000705718994141 0.11739166826009750366 0.064999997615814208984 0.15171250700950622559 0.12596875429153442383 0.18242500722408294678 0.14955000579357147217 0.11739166826009750366 0.089387498795986175537 0.13221000134944915771 0.064999997615814208984 0.086677774786949157715 0.15171666443347930908 0.064999997615814208984 0.064999997615814208984 0.064999997615814208984 0.064999997615814208984 0.077193751931190490723 0.17610000073909759521 0.10565000027418136597 0.081262499094009399414 0.066356249153614044189 0.081262499094009399414 0.066356249153614044189 0.064999997615814208984 0.064999997615814208984 0.064999997615814208984 0.096162497997283935547 0.071774996817111968994 0.071774996817111968994 0.089387498795986175537 0.064999997615814208984 0.064999997615814208984 0.064999997615814208984 0.064999997615814208984 0.064999997615814208984 0.064999997615814208984 0.078549996018409729004 0.064999997615814208984 
0.064999997615814208984 0.077193751931190490723 0.064999997615814208984 0.12868125736713409424 0.15849375724792480469 0.14088749885559082031 0.066356249153614044189 0.064999997615814208984 0.064999997615814208984 0.064999997615814208984 0.064999997615814208984 0.064999997615814208984 0.064999997615814208984 0.064999997615814208984 0.064999997615814208984 0.064999997615814208984 0.064999997615814208984 0.066356249153614044189 0.11377499997615814209 0.11377499997615814209 0.12326250225305557251 0.079906247556209564209 0.066356249153614044189 0.064999997615814208984 0.064999997615814208984 0.10021249949932098389 0.1219062507152557373 0.18113571405410766602 0.064999997615814208984 0.10691333562135696411 0.074644446372985839844 0.064999997615814208984 0.064999997615814208984 0.086677774786949157715 0.064999997615814208984 0.077193751931190490723 0.092871427536010742188 0.089387498795986175537 0.064999997615814208984 0.064999997615814208984 0.081676922738552093506 0.064999997615814208984 0.14087499678134918213 0.22108000516891479492 0.078549996018409729004 0.064999997615814208984 0.064999997615814208984 0.064999997615814208984 0.2254199981689453125 0.069068744778633117676 0.16471999883651733398 0.09751666337251663208 0.064999997615814208984 0.066808328032493591309 0.081676922738552093506 0.10836250334978103638 0.064999997615814208984 0.12836922705173492432 0.095015384256839752197 0.22108000516891479492 0.1900692284107208252 0.064999997615814208984 0.064999997615814208984 0.064999997615814208984 0.064999997615814208984 0.064999997615814208984 0.2113250046968460083 0.11784374713897705078 0.10565000027418136597 0.077193751931190490723 0.16526250541210174561 0.10293749719858169556 0.064999997615814208984 0.064999997615814208984 0.064999997615814208984 0.071774996817111968994 0.064999997615814208984 0.071774996817111968994 0.064999997615814208984 0.064999997615814208984 0.064999997615814208984 0.064999997615814208984 0.064999997615814208984 0.064999997615814208984 0.064999997615814208984 0.064999997615814208984 0.064999997615814208984 
0.077193751931190490723 0.077193751931190490723 0.089387498795986175537 0.18423750996589660645 0.15578125417232513428 0.12868125736713409424 0.064999997615814208984 0.064999997615814208984 0.064999997615814208984 0.10158124566078186035 0.071774996817111968994 0.071774996817111968994 0.064999997615814208984 0.064999997615814208984 0.064999997615814208984 0.064999997615814208984 0.064999997615814208984 0.064999997615814208984 0.064999997615814208984 0.064999997615814208984 0.064999997615814208984 0.089387498795986175537 0.10990714281797409058 0.064999997615814208984 0.064999997615814208984 0.064999997615814208984 0.17157500982284545898 0.22108000516891479492 0.064999997615814208984 0.22252666950225830078 0.14304000139236450195 0.067411109805107116699 0.081258334219455718994 0.064999997615814208984 0.064999997615814208984 0.064999997615814208984 0.064999997615814208984 0.12731249630451202393 0.064999997615814208984 0.081258334219455718994 0.11336153745651245117 0.13467857241630554199 0.089387498795986175537 0.12868125736713409424 0.064999997615814208984 0.064999997615814208984 0.064999997615814208984 0.11377499997615814209 0.17050001025199890137 0.077193751931190490723 0.064999997615814208984 0.064999997615814208984 0.064999997615814208984 0.064999997615814208984 0.10835999995470046997 0.20006923377513885498 0.064999997615814208984 0.23175385594367980957 0.1830333322286605835 0.20006923377513885498 0.067411109805107116699 0.064999997615814208984 0.17338889837265014648 0.064999997615814208984 0.064999997615814208984 0.089387498795986175537 0.13816249370574951172 0.089387498795986175537 0.085331246256828308105 0.077193751931190490723 0.23571249842643737793 0.15306875109672546387 0.10158124566078186035 0.13951875269412994385 0.064999997615814208984 0.064999997615814208984 0.064999997615814208984 0.064999997615814208984 0.064999997615814208984 0.064999997615814208984 0.064999997615814208984 0.064999997615814208984 0.064999997615814208984 0.064999997615814208984 0.077193751931190490723 0.064999997615814208984 0.064999997615814208984 
0.064999997615814208984 0.064999997615814208984 0.11377499997615814209 0.17204375565052032471 0.10971874743700027466 0.064999997615814208984 0.064999997615814208984 0.064999997615814208984 0.064999997615814208984 0.064999997615814208984 0.064999997615814208984 0.096162497997283935547 0.098875001072883605957 0.064999997615814208984 0.064999997615814208984 0.096168749034404754639 0.077193751931190490723 0.064999997615814208984 0.064999997615814208984 0.064999997615814208984 0.064999997615814208984 0.064999997615814208984 0.064999997615814208984 0.064999997615814208984 0.064999997615814208984 0.064999997615814208984 0.064999997615814208984 0.066808328032493591309 0.066808328032493591309 0.10835555195808410645 0.064999997615814208984 0.081258334219455718994 0.064999997615814208984 0.072226665914058685303 0.071774996817111968994 0.064999997615814208984 0.064999997615814208984 0.064999997615814208984 0.064999997615814208984 0.064999997615814208984 0.064999997615814208984 0.13816249370574951172 0.089387498795986175537 0.064999997615814208984 0.064999997615814208984 0.064999997615814208984 0.064999997615814208984 0.064999997615814208984 0.064999997615814208984 0.064999997615814208984 0.064999997615814208984 0.064999997615814208984 0.064999997615814208984 0.064999997615814208984 0.17005385458469390869 0.19747778773307800293 0.064999997615814208984 0.17172308266162872314 0.15604667365550994873 0.20184375345706939697 0.064999997615814208984 0.089387498795986175537 0.20319999754428863525 0.064999997615814208984 0.064999997615814208984 0.077193751931190490723 0.064999997615814208984 0.064999997615814208984 0.064999997615814208984 0.064999997615814208984 0.12732499837875366211 0.17474375665187835693 0.067712500691413879395 0.079906247556209564209 0.064999997615814208984 0.064999997615814208984 0.064999997615814208984 0.064999997615814208984 0.064999997615814208984 0.064999997615814208984 0.064999997615814208984 0.064999997615814208984 0.064999997615814208984 0.077193751931190490723 0.077193751931190490723 0.064999997615814208984 0.064999997615814208984 
0.064999997615814208984 0.077193751931190490723 0.15713749825954437256 0.14223125576972961426 0.064999997615814208984 0.064999997615814208984 0.064999997615814208984 0.064999997615814208984 0.10158124566078186035 0.077193751931190490723 0.11919999867677688599 0.10429374873638153076 0.085324995219707489014 0.064999997615814208984 0.064999997615814208984 0.089387498795986175537 0.093456245958805084229 0.064999997615814208984 0.064999997615814208984 0.064999997615814208984 0.064999997615814208984 0.064999997615814208984 0.064999997615814208984 0.064999997615814208984 0.064999997615814208984 0.064999997615814208984 0.064999997615814208984 0.064999997615814208984 0.10524285584688186646 0.064999997615814208984 0.064999997615814208984 0.084509998559951782227 0.081258334219455718994 0.12099166959524154663 0.11268000304698944092 0.064999997615814208984 0.064999997615814208984 0.064999997615814208984 0.064999997615814208984 0.064999997615814208984 0.064999997615814208984 0.1625500023365020752 0.064999997615814208984 0.064999997615814208984 0.064999997615814208984 0.064999997615814208984 0.064999997615814208984 0.064999997615814208984 0.064999997615814208984 0.064999997615814208984 0.064999997615814208984 0.064999997615814208984 0.064999997615814208984 0.064999997615814208984 0.089387498795986175537 0.089387498795986175537 0.081258334219455718994 0.24771429598331451416 0.12462499737739562988 0.15604999661445617676 0.10429374873638153076 0.089387498795986175537 0.12596875429153442383 0.092099994421005249023 0.071774996817111968994 0.064999997615814208984 0.064999997615814208984 0.064999997615814208984 0.064999997615814208984 0.064999997615814208984 0.064999997615814208984 0.14087499678134918213 0.10429374873638153076 0.064999997615814208984 0.082618750631809234619 0.079906247556209564209 0.064999997615814208984 0.064999997615814208984 0.090743750333786010742 0.064999997615814208984 0.064999997615814208984 0.064999997615814208984 0.064999997615814208984 0.1219125017523765564 0.064999997615814208984 0.064999997615814208984 0.064999997615814208984 
0.089387498795986175537 0.15442499518394470215 0.096168749034404754639 0.066356249153614044189 0.064999997615814208984 0.071774996817111968994 0.064999997615814208984 0.077193751931190490723 0.1625500023365020752 0.085324995219707489014 0.11242499947547912598 0.098875001072883605957 0.092099994421005249023 0.064999997615814208984 0.064999997615814208984 0.064999997615814208984 0.066356249153614044189 0.071774996817111968994 0.085324995219707489014 0.064999997615814208984 0.092099994421005249023 0.079453334212303161621 0.064999997615814208984 0.064999997615814208984 0.064999997615814208984 0.064999997615814208984 0.064999997615814208984 0.064999997615814208984 0.064999997615814208984 0.064999997615814208984 0.064999997615814208984 0.17880833148956298828 0.064999997615814208984 0.14629167318344116211 0.064999997615814208984 0.064999997615814208984 0.064999997615814208984 0.064999997615814208984 0.064999997615814208984 0.064999997615814208984 0.064999997615814208984 0.064999997615814208984 0.064999997615814208984 0.064999997615814208984 0.064999997615814208984 0.064999997615814208984 0.064999997615814208984 0.064999997615814208984 0.064999997615814208984 0.064999997615814208984 0.064999997615814208984 0.064999997615814208984 0.064999997615814208984 0.064999997615814208984 0.064999997615814208984 0.064999997615814208984 0.064999997615814208984 0.14629167318344116211 0.16183333098888397217 0.16436666250228881836 0.085324995219707489014 0.14087499678134918213 0.093456245958805084229 0.064999997615814208984 0.064999997615814208984 0.066356249153614044189 0.064999997615814208984 0.064999997615814208984 0.064999997615814208984 0.064999997615814208984 0.064999997615814208984 0.18693751096725463867 0.11513125151395797729 0.064999997615814208984 0.10565000027418136597 0.093456245958805084229 0.064999997615814208984 0.077193751931190490723 0.13003750145435333252 0.064999997615814208984 0.064999997615814208984 0.064999997615814208984 0.064999997615814208984 0.12732499837875366211 0.21268124878406524658 0.064999997615814208984 0.064999997615814208984 
0.12868125736713409424 0.2492625117301940918 0.13951875269412994385 0.12055625021457672119 0.064999997615814208984 0.064999997615814208984 0.079906247556209564209 0.10293749719858169556 0.064999997615814208984 0.077193751931190490723 0.10429374873638153076 0.067712500691413879395 0.15713125467300415039 0.13003750145435333252 0.064999997615814208984 0.064999997615814208984 0.064999997615814208984 0.19501875340938568115 0.1449187546968460083 0.064999997615814208984 0.064999997615814208984 0.064999997615814208984 0.064999997615814208984 0.064999997615814208984 0.093170002102851867676 0.064999997615814208984 0.064999997615814208984 0.064999997615814208984 0.15671539306640625 0.135458335280418396 0.14304000139236450195 0.064999997615814208984 0.064999997615814208984 0.064999997615814208984 0.064999997615814208984 0.064999997615814208984 0.064999997615814208984 0.064999997615814208984 0.066808328032493591309 0.064999997615814208984 0.064999997615814208984 0.077193751931190490723 0.064999997615814208984 0.064999997615814208984 0.064999997615814208984 0.064999997615814208984 0.092871427536010742188 0.092100001871585845947 0.064999997615814208984 0.064999997615814208984 0.064999997615814208984 0.064999997615814208984 0.064999997615814208984 0.064999997615814208984 0.064999997615814208984 0.064999997615814208984 0.064999997615814208984 0.064999997615814208984 0.10565000027418136597 0.13170769810676574707 0.064999997615814208984 0.11377499997615814209 0.17068749666213989258 0.067712500691413879395 0.077193751931190490723 0.064999997615814208984 0.064999997615814208984 0.064999997615814208984 0.064999997615814208984 0.064999997615814208984 0.12596875429153442383 0.15035624802112579346 0.064999997615814208984 0.064999997615814208984 0.079906247556209564209 0.064999997615814208984 0.064999997615814208984 0.064999997615814208984 0.079906247556209564209 0.064999997615814208984 0.064999997615814208984 0.077193751931190490723 0.10158124566078186035 0.066356249153614044189 0.089387498795986175537 0.12868125736713409424 0.11377499997615814209 
0.17610000073909759521 0.22487500309944152832 0.067712500691413879395 0.064999997615814208984 0.064999997615814208984 0.064999997615814208984 0.083968751132488250732 0.064999997615814208984 0.15035624802112579346 0.13951875269412994385 0.14223125576972961426 0.098875001072883605957 0.077193751931190490723 0.13951875269412994385 0.094812497496604919434 0.064999997615814208984 0.064999997615814208984 0.064999997615814208984 0.064999997615814208984 0.064999997615814208984 0.064999997615814208984 0.064999997615814208984 0.13951875269412994385 0.064999997615814208984 0.064999997615814208984 0.064999997615814208984 0.090743750333786010742 0.067169994115829467773 0.2113250046968460083 0.17880833148956298828 0.19988889992237091064 0.066808328032493591309 0.064999997615814208984 0.064999997615814208984 0.064999997615814208984 0.064999997615814208984 0.064999997615814208984 0.064999997615814208984 0.064999997615814208984 0.064999997615814208984 0.10158124566078186035 0.12868125736713409424 0.089387498795986175537 0.1164875030517578125 0.064999997615814208984 0.064999997615814208984 0.10680714249610900879 0.10158124566078186035 0.064999997615814208984 0.064999997615814208984 0.064999997615814208984 0.064999997615814208984 0.064999997615814208984 0.064999997615814208984 0.064999997615814208984 0.064999997615814208984 0.064999997615814208984 0.064999997615814208984 0.064999997615814208984 0.10158124566078186035 0.10293749719858169556 0.18693751096725463867 0.26010000705718994141 0.2113250046968460083 0.064999997615814208984 0.064999997615814208984 0.064999997615814208984 0.064999997615814208984 0.064999997615814208984 0.10158124566078186035 0.21810001134872436523 0.11242499947547912598 0.064999997615814208984 0.11513125151395797729 0.082618750631809234619 0.064999997615814208984 0.064999997615814208984 0.064999997615814208984 0.064999997615814208984 0.064999997615814208984 0.064999997615814208984 0.064999997615814208984 0.064999997615814208984 0.064999997615814208984 0.064999997615814208984 0.077193751931190490723 0.1625500023365020752 
0.20184375345706939697 0.1313937455415725708 0.064999997615814208984 0.064999997615814208984 0.064999997615814208984 0.077193751931190490723 0.10429374873638153076 0.071774996817111968994 0.093456245958805084229 0.10429374873638153076 0.085331246256828308105 0.14765624701976776123 0.11242499947547912598 0.066356249153614044189 0.077193751931190490723 0.064999997615814208984 0.064999997615814208984 0.064999997615814208984 0.13622857630252838135 0.064999997615814208984 0.077193751931190490723 0.064999997615814208984 0.064999997615814208984 0.064999997615814208984 0.064999997615814208984 0.086677774786949157715 0.10401999950408935547 0.097521424293518066406 0.067411109805107116699 0.11377499997615814209 0.083066664636135101318 0.064999997615814208984 0.064999997615814208984 0.084509998559951782227 0.064999997615814208984 0.08908888697624206543 0.07946666330099105835 0.078935712575912475586 0.078549996018409729004 0.064999997615814208984 0.078006662428379058838 0.11455714702606201172 0.064999997615814208984 0.10293749719858169556 0.089387498795986175537 0.064999997615814208984 0.064999997615814208984 0.064999997615814208984 0.064999997615814208984 0.064999997615814208984 0.064999997615814208984 0.064999997615814208984 0.064999997615814208984 0.064999997615814208984 0.064999997615814208984 0.064999997615814208984 0.064999997615814208984 0.064999997615814208984 0.064999997615814208984 0.064999997615814208984 0.1164875030517578125 0.22351875901222229004 0.26010000705718994141 0.089387498795986175537 0.064999997615814208984 0.064999997615814208984 0.064999997615814208984 0.064999997615814208984 0.064999997615814208984 0.11377499997615814209 0.10158124566078186035 0.092099994421005249023 0.10565000027418136597 0.064999997615814208984 0.064999997615814208984 0.064999997615814208984 0.064999997615814208984 0.064999997615814208984 0.064999997615814208984 0.064999997615814208984 0.064999997615814208984 0.064999997615814208984 0.064999997615814208984 0.064999997615814208984 0.064999997615814208984 0.064999997615814208984 0.064999997615814208984 
0.16797500848770141602 0.081262499094009399414 0.064999997615814208984 0.064999997615814208984 0.064999997615814208984 0.064999997615814208984 0.079906247556209564209 0.064999997615814208984 0.078549996018409729004 0.064999997615814208984 0.12596875429153442383 0.11784374713897705078 0.064999997615814208984 0.064999997615814208984 0.064999997615814208984 0.064999997615814208984 0.064999997615814208984 0.064999997615814208984 0.064999997615814208984 0.11377499997615814209 0.1517142951488494873 0.064999997615814208984 0.064999997615814208984 0.11377499997615814209 0.2182928621768951416 0.099325001239776611328 0.064999997615814208984 0.064999997615814208984 0.081258334219455718994 0.064999997615814208984 0.064999997615814208984 0.064999997615814208984 0.064999997615814208984 0.09751666337251663208 0.14304000139236450195 0.064999997615814208984 0.17068749666213989258 0.064999997615814208984 0.064999997615814208984 0.064999997615814208984 0.064999997615814208984 0.064999997615814208984 0.064999997615814208984 0.064999997615814208984 0.064999997615814208984 0.064999997615814208984 0.064999997615814208984 0.064999997615814208984 0.064999997615814208984 0.064999997615814208984 0.064999997615814208984 0.064999997615814208984 0.064999997615814208984 0.064999997615814208984 0.064999997615814208984 0.064999997615814208984 0.064999997615814208984 0.064999997615814208984 0.064999997615814208984 0.064999997615814208984 0.064999997615814208984 0.23571249842643737793 0.26010000705718994141 0.064999997615814208984 0.064999997615814208984 0.064999997615814208984 0.064999997615814208984 0.079906247556209564209 0.066356249153614044189 0.13951875269412994385 0.10565000027418136597 0.125974997878074646 0.064999997615814208984 0.064999997615814208984 0.064999997615814208984 0.071774996817111968994 0.085324995219707489014 0.064999997615814208984 0.064999997615814208984 0.064999997615814208984 0.064999997615814208984 0.064999997615814208984 0.064999997615814208984 0.064999997615814208984 0.064999997615814208984 0.064999997615814208984 0.064999997615814208984 
0.17474375665187835693 0.066356249153614044189 0.064999997615814208984 0.064999997615814208984 0.081262499094009399414 0.064999997615814208984 0.066356249153614044189 0.090743750333786010742 0.14087499678134918213 0.089387498795986175537 0.064999997615814208984 0.083346150815486907959 0.064999997615814208984 0.064999997615814208984 0.064999997615814208984 0.064999997615814208984 0.064999997615814208984 0.064999997615814208984 0.064999997615814208984 0.067411109805107116699 0.11317777633666992188 0.13003332912921905518 0.2322285771369934082 0.24790625274181365967 0.26010000705718994141 0.26010000705718994141 0.11076666414737701416 0.081258334219455718994 0.15171110630035400391 0.095015384256839752197 0.080007687211036682129 0.064999997615814208984 0.16616666316986083984 0.1762866675853729248 0.064999997615814208984 0.064999997615814208984 0.064999997615814208984 0.17339999973773956299 0.16506153345108032227 0.15307499468326568604 0.11919999867677688599 0.064999997615814208984 0.064999997615814208984 0.064999997615814208984 0.064999997615814208984 0.064999997615814208984 0.064999997615814208984 0.064999997615814208984 0.064999997615814208984 0.064999997615814208984 0.064999997615814208984 0.064999997615814208984 0.064999997615814208984 0.064999997615814208984 0.064999997615814208984 0.064999997615814208984 0.064999997615814208984 0.064999997615814208984 0.064999997615814208984 0.064999997615814208984 0.064999997615814208984 0.089387498795986175537 0.17474375665187835693 0.089387498795986175537 0.10429374873638153076 0.064999997615814208984 0.064999997615814208984 0.090743750333786010742 0.17745625972747802734 0.078549996018409729004 0.085324995219707489014 0.064999997615814208984 0.064999997615814208984 0.064999997615814208984 0.064999997615814208984 0.064999997615814208984 0.071774996817111968994 0.064999997615814208984 0.064999997615814208984 0.064999997615814208984 0.064999997615814208984 0.064999997615814208984 0.064999997615814208984 0.064999997615814208984 0.064999997615814208984 0.064999997615814208984 0.064999997615814208984 
0.066356249153614044189 0.064999997615814208984 0.064999997615814208984 0.077193751931190490723 0.12055625021457672119 0.090743750333786010742 0.12732499837875366211 0.16390624642372131348 0.14630000293254852295 0.098875001072883605957 0.064999997615814208984 0.064999997615814208984 0.064999997615814208984 0.064999997615814208984 0.064999997615814208984 0.074033334851264953613 0.073338456451892852783 0.064999997615814208984 0.1625500023365020752 0.24384167790412902832 0.26010000705718994141 0.26010000705718994141 0.26010000705718994141 0.26010000705718994141 0.17338889837265014648 0.20807333290576934814 0.11169230937957763672 0.10401999950408935547 0.14629167318344116211 0.13907499611377716064 0.16435833275318145752 0.11513125151395797729 0.089387498795986175537 0.088491663336753845215 0.11558888852596282959 0.077193751931190490723 0.14087499678134918213 0.17339999973773956299 0.17339999973773956299 0.17339999973773956299 0.085324995219707489014 0.064999997615814208984 0.064999997615814208984 0.064999997615814208984 0.064999997615814208984 0.069068744778633117676 0.089387498795986175537 0.064999997615814208984 0.064999997615814208984 0.064999997615814208984 0.064999997615814208984 0.064999997615814208984 0.064999997615814208984 0.064999997615814208984 0.064999997615814208984 0.064999997615814208984 0.064999997615814208984 0.064999997615814208984 0.064999997615814208984 0.064999997615814208984 0.064999997615814208984 0.064999997615814208984 0.064999997615814208984 0.064999997615814208984 0.090743750333786010742 0.064999997615814208984 0.064999997615814208984 0.23571249842643737793 0.1313937455415725708 0.064999997615814208984 0.064999997615814208984 0.064999997615814208984 0.064999997615814208984 0.064999997615814208984 0.064999997615814208984 0.064999997615814208984 0.064999997615814208984 0.064999997615814208984 0.064999997615814208984 0.066356249153614044189 0.064999997615814208984 0.064999997615814208984 0.064999997615814208984 0.064999997615814208984 0.064999997615814208984 0.064999997615814208984 0.064999997615814208984 
0.077193751931190490723 0.064999997615814208984 0.064999997615814208984 0.064999997615814208984 0.064999997615814208984 0.090743750333786010742 0.10565000027418136597 0.064999997615814208984 0.071774996817111968994 0.064999997615814208984 0.064999997615814208984 0.064999997615814208984 0.064999997615814208984 0.064999997615814208984 0.064999997615814208984 0.064999997615814208984 0.17474375665187835693 0.26010000705718994141 0.26010000705718994141 0.26010000705718994141 0.26010000705718994141 0.26010000705718994141 0.18964999914169311523 0.17338889837265014648 0.26010000705718994141 0.15578125417232513428 0.064999997615814208984 0.1625500023365020752 0.26010000705718994141 0.15713334083557128906 0.1180000007152557373 0.064999997615814208984 0.064999997615814208984 0.064999997615814208984 0.10429374873638153076 0.12715333700180053711 0.16978333890438079834 0.1712300032377243042 0.17339999973773956299 0.15533334016799926758 0.064999997615814208984 0.064999997615814208984 0.064999997615814208984 0.064999997615814208984 0.071774996817111968994 0.13003750145435333252 0.064999997615814208984 0.064999997615814208984 0.064999997615814208984 0.064999997615814208984 0.064999997615814208984 0.064999997615814208984 0.064999997615814208984 0.064999997615814208984 0.064999997615814208984 0.064999997615814208984 0.064999997615814208984 0.064999997615814208984 0.064999997615814208984 0.064999997615814208984 0.079906247556209564209 0.067712500691413879395 0.077193751931190490723 0.11377499997615814209 0.11784374713897705078 0.10158124566078186035 0.15306875109672546387 0.15171250700950622559 0.082618750631809234619 0.064999997615814208984 0.064999997615814208984 0.064999997615814208984 0.064999997615814208984 0.064999997615814208984 0.064999997615814208984 0.064999997615814208984 0.064999997615814208984 0.064999997615814208984 0.064999997615814208984 0.098875001072883605957 0.064999997615814208984 0.064999997615814208984 0.064999997615814208984 0.064999997615814208984 0.064999997615814208984 0.064999997615814208984 0.064999997615814208984 
0.066356249153614044189 0.089387498795986175537 0.064999997615814208984 0.064999997615814208984 0.064999997615814208984 0.077193751931190490723 0.10158124566078186035 0.064999997615814208984 0.064999997615814208984 0.064999997615814208984 0.064999997615814208984 0.064999997615814208984 0.064999997615814208984 0.064999997615814208984 0.064999997615814208984 0.11377499997615814209 0.26010000705718994141 0.26010000705718994141 0.26010000705718994141 0.26010000705718994141 0.17579999566078186035 0.18242500722408294678 0.11377499997615814209 0.10429374873638153076 0.067712500691413879395 0.066356249153614044189 0.064999997615814208984 0.12596875429153442383 0.17338889837265014648 0.066669225692749023438 0.077193751931190490723 0.064999997615814208984 0.064999997615814208984 0.064999997615814208984 0.064999997615814208984 0.064999997615814208984 0.11919999867677688599 0.16565714776515960693 0.11503076553344726562 0.071774996817111968994 0.064999997615814208984 0.064999997615814208984 0.064999997615814208984 0.064999997615814208984 0.071774996817111968994 0.092099994421005249023 0.10565000027418136597 0.092099994421005249023 0.064999997615814208984 0.064999997615814208984 0.064999997615814208984 0.064999997615814208984 0.064999997615814208984 0.064999997615814208984 0.064999997615814208984 0.064999997615814208984 0.064999997615814208984 0.064999997615814208984 0.064999997615814208984 0.064999997615814208984 0.064999997615814208984 0.15035624802112579346 0.2492625117301940918 0.2492625117301940918 0.18693751096725463867 0.13951875269412994385 0.13545624911785125732 0.067712500691413879395 0.067712500691413879395 0.064999997615814208984 0.064999997615814208984 0.064999997615814208984 0.064999997615814208984 0.064999997615814208984 0.064999997615814208984 0.064999997615814208984 0.064999997615814208984 0.064999997615814208984 0.066356249153614044189 0.071774996817111968994 0.12596875429153442383 0.064999997615814208984 0.064999997615814208984 0.064999997615814208984 0.064999997615814208984 0.064999997615814208984 0.064999997615814208984 
0.064999997615814208984 0.079906247556209564209 0.10565000027418136597 0.064999997615814208984 0.064999997615814208984 0.1625500023365020752 0.064999997615814208984 0.064999997615814208984 0.064999997615814208984 0.11919999867677688599 0.064999997615814208984 0.064999997615814208984 0.064999997615814208984 0.064999997615814208984 0.064999997615814208984 0.24790625274181365967 0.26010000705718994141 0.19913125038146972656 0.2113250046968460083 0.23532858490943908691 0.16688999533653259277 0.064999997615814208984 0.064999997615814208984 0.064999997615814208984 0.064999997615814208984 0.064999997615814208984 0.064999997615814208984 0.064999997615814208984 0.064999997615814208984 0.064999997615814208984 0.064999997615814208984 0.064999997615814208984 0.064999997615814208984 0.064999997615814208984 0.064999997615814208984 0.064999997615814208984 0.13726666569709777832 0.15533334016799926758 0.078549996018409729004 0.064999997615814208984 0.064999997615814208984 0.064999997615814208984 0.064999997615814208984 0.064999997615814208984 0.089387498795986175537 0.10158124566078186035 0.071774996817111968994 0.125974997878074646 0.064999997615814208984 0.064999997615814208984 0.089387498795986175537 0.064999997615814208984 0.12596875429153442383 0.1625500023365020752 0.1625500023365020752 0.18693751096725463867 0.1625500023365020752 0.089387498795986175537 0.064999997615814208984 0.064999997615814208984 0.11377499997615814209 0.15171250700950622559 0.15171250700950622559 0.10429374873638153076 0.064999997615814208984 0.064999997615814208984 0.077193751931190490723 0.066356249153614044189 0.079906247556209564209 0.066356249153614044189 0.064999997615814208984 0.064999997615814208984 0.064999997615814208984 0.077193751931190490723 0.13816249370574951172 0.13816249370574951172 0.064999997615814208984 0.064999997615814208984 0.064999997615814208984 0.064999997615814208984 0.23571249842643737793 0.13816249370574951172 0.064999997615814208984 0.066356249153614044189 0.064999997615814208984 0.069068744778633117676 0.075849995017051696777 
0.064999997615814208984 0.064999997615814208984 0.064999997615814208984 0.064999997615814208984 0.11377499997615814209 0.089387498795986175537 0.066356249153614044189 0.064999997615814208984 0.064999997615814208984 0.11317777633666992188 0.10113333165645599365 0.10113333165645599365 0.064999997615814208984 0.064999997615814208984 0.26010000705718994141 0.26010000705718994141 0.26010000705718994141 0.26010000705718994141 0.23842500150203704834 0.18495333194732666016 0.22758750617504119873 0.081262499094009399414 0.1164875030517578125 0.077193751931190490723 0.064999997615814208984 0.064999997615814208984 0.064999997615814208984 0.064999997615814208984 0.064999997615814208984 0.064999997615814208984 0.064999997615814208984 0.064999997615814208984 0.064999997615814208984 0.064999997615814208984 0.064999997615814208984 0.086679995059967041016 0.16565714776515960693 0.098875001072883605957 0.064999997615814208984 0.064999997615814208984 0.064999997615814208984 0.064999997615814208984 0.064999997615814208984 0.12596875429153442383 0.15035624802112579346 0.11242499947547912598 0.15985000133514404297 0.125974997878074646 0.090743750333786010742 0.2113250046968460083 0.17610000073909759521 0.12596875429153442383 0.064999997615814208984 0.11377499997615814209 0.12596875429153442383 0.12868125736713409424 0.12596875429153442383 0.064999997615814208984 0.064999997615814208984 0.064999997615814208984 0.089387498795986175537 0.069068744778633117676 0.11513125151395797729 0.064999997615814208984 0.064999997615814208984 0.064999997615814208984 0.064999997615814208984 0.064999997615814208984 0.064999997615814208984 0.079906247556209564209 0.064999997615814208984 0.064999997615814208984 0.077193751931190490723 0.12596875429153442383 0.089387498795986175537 0.064999997615814208984 0.064999997615814208984 0.064999997615814208984 0.064999997615814208984 0.11377499997615814209 0.19913125038146972656 0.077193751931190490723 0.1164875030517578125 0.13410624861717224121 0.18829375505447387695 0.18693751096725463867 0.1625500023365020752 
0.16526250541210174561 0.1164875030517578125 0.064999997615814208984 0.064999997615814208984 0.12596875429153442383 0.064999997615814208984 0.086681246757507324219 0.067712500691413879395 0.15035624802112579346 0.093456245958805084229 0.11919999867677688599 0.11242499947547912598 0.078549996018409729004 0.11377499997615814209 0.11377499997615814209 0.26010000705718994141 0.26010000705718994141 0.26010000705718994141 0.26010000705718994141 0.11513125151395797729 0.10835833102464675903 0.10113333165645599365 0.18693751096725463867 0.10565000027418136597 0.064999997615814208984 0.064999997615814208984 0.064999997615814208984 0.064999997615814208984 0.13726666569709777832 0.064999997615814208984 0.064999997615814208984 0.064999997615814208984 0.064999997615814208984 0.064999997615814208984 0.064999997615814208984 0.083066664636135101318 0.14223125576972961426 0.064999997615814208984 0.064999997615814208984 0.064999997615814208984 0.077193751931190490723 0.077193751931190490723 0.064999997615814208984 0.10158124566078186035 0.064999997615814208984 0.10565000027418136597 0.16662499308586120605 0.11919999867677688599 0.10158124566078186035 0.18693751096725463867 0.15035624802112579346 0.078549996018409729004 0.085324995219707489014 0.071774996817111968994 0.071774996817111968994 0.078549996018409729004 0.064999997615814208984 0.064999997615814208984 0.089387498795986175537 0.16526250541210174561 0.077193751931190490723 0.089387498795986175537 0.090743750333786010742 0.064999997615814208984 0.064999997615814208984 0.064999997615814208984 0.064999997615814208984 0.064999997615814208984 0.064999997615814208984 0.10565000027418136597 0.064999997615814208984 0.064999997615814208984 0.064999997615814208984 0.064999997615814208984 0.064999997615814208984 0.11377499997615814209 0.15306875109672546387 0.15035624802112579346 0.16390624642372131348 0.094812497496604919434 0.081262499094009399414 0.083975002169609069824 0.2492625117301940918 0.26010000705718994141 0.2492625117301940918 0.13816249370574951172 0.070424996316432952881 
0.089387498795986175537 0.064999997615814208984 0.064999997615814208984 0.089387498795986175537 0.077193751931190490723 0.066356249153614044189 0.086681246757507324219 0.10429374873638153076 0.13951875269412994385 0.074033334851264953613 0.078549996018409729004 0.064999997615814208984 0.064999997615814208984 0.064999997615814208984 0.16616666316986083984 0.26010000705718994141 0.16526250541210174561 0.23571249842643737793 0.11513125151395797729 0.10158124566078186035 0.11242499947547912598 0.098875001072883605957 0.1205499991774559021 0.17745625972747802734 0.077193751931190490723 0.064999997615814208984 0.064999997615814208984 0.064999997615814208984 0.064999997615814208984 0.064999997615814208984 0.064999997615814208984 0.064999997615814208984 0.064999997615814208984 0.064999997615814208984 0.064999997615814208984 0.15035624802112579346 0.11377499997615814209 0.064999997615814208984 0.064999997615814208984 0.12596875429153442383 0.10158124566078186035 0.064999997615814208984 0.064999997615814208984 0.064999997615814208984 0.064999997615814208984 0.064999997615814208984 0.13275000452995300293 0.10565000027418136597 0.10158124566078186035 0.083975002169609069824 0.064999997615814208984 0.15985000133514404297 0.17339999973773956299 0.17339999973773956299 0.16662499308586120605 0.15985000133514404297 0.064999997615814208984 0.064999997615814208984 0.077193751931190490723 0.10700625181198120117 0.064999997615814208984 0.071774996817111968994 0.064999997615814208984 0.064999997615814208984 0.064999997615814208984 0.064999997615814208984 0.064999997615814208984 0.064999997615814208984 0.082618750631809234619 0.12055625021457672119 0.11513125151395797729 0.077193751931190490723 0.10293749719858169556 0.1164875030517578125 0.089387498795986175537 0.10158124566078186035 0.064999997615814208984 0.077193751931190490723 0.18829375505447387695 0.17474375665187835693 0.23706875741481781006 0.21268124878406524658 0.23842500150203704834 0.22351875901222229004 0.26010000705718994141 0.093456245958805084229 0.064999997615814208984 
0.064999997615814208984 0.064999997615814208984 0.064999997615814208984 0.17745625972747802734 0.11919999867677688599 0.16390624642372131348 0.11377499997615814209 0.089387498795986175537 0.064999997615814208984 0.064999997615814208984 0.064999997615814208984 0.064999997615814208984 0.064999997615814208984 0.24384167790412902832 0.24059000611305236816 0.1625500023365020752 0.064999997615814208984 0.064999997615814208984 0.066808328032493591309 0.080485716462135314941 0.080485709011554718018 0.086679995059967041016 0.1205499991774559021 0.16797500848770141602 0.064999997615814208984 0.064999997615814208984 0.064999997615814208984 0.064999997615814208984 0.064999997615814208984 0.17339999973773956299 0.10371428728103637695 0.13816249370574951172 0.094812497496604919434 0.064999997615814208984 0.11377499997615814209 0.15035624802112579346 0.077193751931190490723 0.064999997615814208984 0.15035624802112579346 0.064999997615814208984 0.064999997615814208984 0.064999997615814208984 0.064999997615814208984 0.064999997615814208984 0.064999997615814208984 0.064999997615814208984 0.064999997615814208984 0.064999997615814208984 0.064999997615814208984 0.064999997615814208984 0.064999997615814208984 0.16662499308586120605 0.17339999973773956299 0.17339999973773956299 0.17339999973773956299 0.092099994421005249023 0.064999997615814208984 0.064999997615814208984 0.12596875429153442383 0.17881250381469726562 0.064999997615814208984 0.078549996018409729004 0.064999997615814208984 0.064999997615814208984 0.064999997615814208984 0.064999997615814208984 0.064999997615814208984 0.077193751931190490723 0.086687497794628143311 0.1625500023365020752 0.18829375505447387695 0.17474375665187835693 0.13951875269412994385 0.079906247556209564209 0.077193751931190490723 0.064999997615814208984 0.064999997615814208984 0.078549996018409729004 0.12596875429153442383 0.18693751096725463867 0.17474375665187835693 0.066356249153614044189 0.090743750333786010742 0.15035624802112579346 0.16526250541210174561 0.064999997615814208984 0.064999997615814208984 
0.064999997615814208984 0.064999997615814208984 0.077193751931190490723 0.21268124878406524658 0.081262499094009399414 0.077193751931190490723 0.066356249153614044189 0.064999997615814208984 0.064999997615814208984 0.089387498795986175537 0.064999997615814208984 0.064999997615814208984 0.10021249949932098389 0.25461667776107788086 0.21673750877380371094 0.12596875429153442383 0.064999997615814208984 0.064999997615814208984 0.13365000486373901367 0.10835999995470046997 0.064999997615814208984 0.16039000451564788818 0.1625500023365020752 0.090743750333786010742 0.064999997615814208984 0.064999997615814208984 0.064999997615814208984 0.064999997615814208984 0.14630000293254852295 0.17339999973773956299 0.10371428728103637695 0.15172000229358673096 0.071774996817111968994 0.10158124566078186035 0.26010000705718994141 0.11377499997615814209 0.089387498795986175537 0.12596875429153442383 0.064999997615814208984 0.064999997615814208984 0.064999997615814208984 0.064999997615814208984 0.064999997615814208984 0.064999997615814208984 0.064999997615814208984 0.064999997615814208984 0.064999997615814208984 0.064999997615814208984 0.064999997615814208984 0.064999997615814208984 0.064999997615814208984 0.125974997878074646 0.17339999973773956299 0.17339999973773956299 0.16662499308586120605 0.064999997615814208984 0.064999997615814208984 0.064999997615814208984 0.10158124566078186035 0.17610000073909759521 0.064999997615814208984 0.066356249153614044189 0.077193751931190490723 0.064999997615814208984 0.077193751931190490723 0.094812497496604919434 0.064999997615814208984 0.064999997615814208984 0.079906247556209564209 0.089387498795986175537 0.089387498795986175537 0.079906247556209564209 0.077193751931190490723 0.064999997615814208984 0.064999997615814208984 0.064999997615814208984 0.064999997615814208984 0.092100001871585845947 0.10429374873638153076 0.10429374873638153076 0.089387498795986175537 0.20184375345706939697 0.10158124566078186035 0.064999997615814208984 0.064999997615814208984 0.064999997615814208984 0.064999997615814208984 
0.064999997615814208984 0.064999997615814208984 0.077193751931190490723 0.089387498795986175537 0.066356249153614044189 0.089387498795986175537 0.064999997615814208984 0.078935712575912475586 0.090743750333786010742 0.081676922738552093506 0.064999997615814208984 0.14629167318344116211 0.20228333771228790283 0.28484287858009338379 0.26010000705718994141 0.11513125151395797729 0.064999997615814208984 0.064999997615814208984 0.064999997615814208984 0.10655833035707473755 0.077193751931190490723 0.14087499678134918213 0.077193751931190490723 0.064999997615814208984 0.064999997615814208984 0.064999997615814208984 0.064999997615814208984 0.064999997615814208984 0.13726666569709777832 0.16662499308586120605 0.12596875429153442383 0.086681246757507324219 0.11242499947547912598 0.17745625972747802734 0.24790625274181365967 0.11377499997615814209 0.064999997615814208984 0.064999997615814208984 0.064999997615814208984 0.064999997615814208984 0.064999997615814208984 0.064999997615814208984 0.064999997615814208984 0.064999997615814208984 0.064999997615814208984 0.064999997615814208984 0.089387498795986175537 0.10158124566078186035 0.064999997615814208984 0.064999997615814208984 0.064999997615814208984 0.064999997615814208984 0.15307499468326568604 0.17339999973773956299 0.11242499947547912598 0.064999997615814208984 0.064999997615814208984 0.064999997615814208984 0.16390624642372131348 0.15171250700950622559 0.064999997615814208984 0.11377499997615814209 0.077193751931190490723 0.064999997615814208984 0.064999997615814208984 0.10429374873638153076 0.077193751931190490723 0.12732499837875366211 0.10565000027418136597 0.10293749719858169556 0.064999997615814208984 0.066356249153614044189 0.089387498795986175537 0.064999997615814208984 0.064999997615814208984 0.064999997615814208984 0.064999997615814208984 0.066356249153614044189 0.078549996018409729004 0.066356249153614044189 0.064999997615814208984 0.089387498795986175537 0.064999997615814208984 0.064999997615814208984 0.064999997615814208984 0.064999997615814208984 0.064999997615814208984 
0.064999997615814208984 0.064999997615814208984 0.064999997615814208984 0.064999997615814208984 0.064999997615814208984 0.092100001871585845947 0.066808328032493591309 0.13816249370574951172 0.092100001871585845947 0.064999997615814208984 0.077193751931190490723 0.2113250046968460083 0.26010000705718994141 0.26010000705718994141 0.26010000705718994141 0.066356249153614044189 0.064999997615814208984 0.064999997615814208984 0.089387498795986175537 0.084875002503395080566 0.10158124566078186035 0.11919999867677688599 0.10565000027418136597 0.064999997615814208984 0.064999997615814208984 0.064999997615814208984 0.064999997615814208984 0.092099994421005249023 0.16662499308586120605 0.10113333165645599365 0.11377499997615814209 0.12823332846164703369 0.13275000452995300293 0.1219062507152557373 0.2113250046968460083 0.089387498795986175537 0.064999997615814208984 0.064999997615814208984 0.064999997615814208984 0.064999997615814208984 0.064999997615814208984 0.064999997615814208984 0.064999997615814208984 0.064999997615814208984 0.064999997615814208984 0.064999997615814208984 0.064999997615814208984 0.064999997615814208984 0.064999997615814208984 0.064999997615814208984 0.064999997615814208984 0.064999997615814208984 0.071774996817111968994 0.085324995219707489014 0.064999997615814208984 0.11377499997615814209 0.064999997615814208984 0.064999997615814208984 0.10158124566078186035 0.11377499997615814209 0.078549996018409729004 0.064999997615814208984 0.064999997615814208984 0.064999997615814208984 0.071774996817111968994 0.064999997615814208984 0.064999997615814208984 0.078549996018409729004 0.077193751931190490723 0.064999997615814208984 0.064999997615814208984 0.064999997615814208984 0.064999997615814208984 0.090743750333786010742 0.064999997615814208984 0.064999997615814208984 0.064999997615814208984 0.064999997615814208984 0.064999997615814208984 0.064999997615814208984 0.064999997615814208984 0.064999997615814208984 0.064999997615814208984 0.064999997615814208984 0.064999997615814208984 0.064999997615814208984 0.064999997615814208984 
0.064999997615814208984 0.064999997615814208984 0.064999997615814208984 0.064999997615814208984 0.064999997615814208984 0.077193751931190490723 0.089387498795986175537 0.094421431422233581543 0.064999997615814208984 0.064999997615814208984 0.18693751096725463867 0.24790625274181365967 0.26010000705718994141 0.26010000705718994141 0.26010000705718994141 0.1625500023365020752 0.071774996817111968994 0.10565000027418136597 0.064999997615814208984 0.078006662428379058838 0.12596875429153442383 0.10429374873638153076 0.072742857038974761963 0.10835999995470046997 0.069068744778633117676 0.064999997615814208984 0.064999997615814208984 0.11919999867677688599 0.14004614949226379395 0.064999997615814208984 0.073338456451892852783 0.11919999867677688599 0.071774996817111968994 0.15035624802112579346 0.24790625274181365967 0.2113250046968460083 0.064999997615814208984 0.064999997615814208984 0.064999997615814208984 0.064999997615814208984 0.064999997615814208984 0.10158124566078186035 0.089387498795986175537 0.064999997615814208984 0.064999997615814208984 0.064999997615814208984 0.064999997615814208984 0.064999997615814208984 0.064999997615814208984 0.064999997615814208984 0.077193751931190490723 0.077193751931190490723 0.064999997615814208984 0.064999997615814208984 0.064999997615814208984 0.13816249370574951172 0.064999997615814208984 0.064999997615814208984 0.064999997615814208984 0.066356249153614044189 0.064999997615814208984 0.064999997615814208984 0.064999997615814208984 0.064999997615814208984 0.078549996018409729004 0.071774996817111968994 0.064999997615814208984 0.077193751931190490723 0.064999997615814208984 0.064999997615814208984 0.11919999867677688599 0.12732499837875366211 0.15035624802112579346 0.10158124566078186035 0.064999997615814208984 0.064999997615814208984 0.064999997615814208984 0.064999997615814208984 0.064999997615814208984 0.064999997615814208984 0.064999997615814208984 0.064999997615814208984 0.064999997615814208984 0.064999997615814208984 0.064999997615814208984 0.064999997615814208984 0.064999997615814208984 
0.064999997615814208984 0.064999997615814208984 0.064999997615814208984 0.077193751931190490723 0.089387498795986175537 0.17881250381469726562 0.080485716462135314941 0.11377499997615814209 0.064999997615814208984 0.09751666337251663208 0.26010000705718994141 0.26010000705718994141 0.2113250046968460083 0.26010000705718994141 0.26010000705718994141 0.21268124878406524658 0.11270000040531158447 0.064999997615814208984 0.077193751931190490723 0.064999997615814208984 0.064999997615814208984 0.064999997615814208984 0.064999997615814208984 0.16565001010894775391 0.077193751931190490723 0.077193751931190490723 0.064999997615814208984 0.064999997615814208984 0.075839996337890625 0.064999997615814208984 0.12353000044822692871 0.15035624802112579346 0.2113250046968460083 0.15035624802112579346 0.15035624802112579346 0.089387498795986175537 0.064999997615814208984 0.064999997615814208984 0.064999997615814208984 0.064999997615814208984 0.064999997615814208984 0.064999997615814208984 0.064999997615814208984 0.064999997615814208984 0.064999997615814208984 0.064999997615814208984 0.064999997615814208984 0.064999997615814208984 0.064999997615814208984 0.077193751931190490723 0.1625500023365020752 0.10158124566078186035 0.064999997615814208984 0.064999997615814208984 0.064999997615814208984 0.064999997615814208984 0.064999997615814208984 0.064999997615814208984 0.064999997615814208984 0.064999997615814208984 0.064999997615814208984 0.064999997615814208984 0.064999997615814208984 0.064999997615814208984 0.064999997615814208984 0.064999997615814208984 0.064999997615814208984 0.070424996316432952881 0.090743750333786010742 0.078549996018409729004 0.067712500691413879395 0.064999997615814208984 0.078549996018409729004 0.078549996018409729004 0.064999997615814208984 0.064999997615814208984 0.064999997615814208984 0.064999997615814208984 0.064999997615814208984 0.064999997615814208984 0.13951875269412994385 0.064999997615814208984 0.064999997615814208984 0.066356249153614044189 0.077193751931190490723 0.064999997615814208984 0.064999997615814208984 
0.089387498795986175537 0.1313937455415725708 0.064999997615814208984 0.089387498795986175537 0.10158124566078186035 0.1219125017523765564 0.099325001239776611328 0.064999997615814208984 0.064999997615814208984 0.24384167790412902832 0.26010000705718994141 0.2461642920970916748 0.11377499997615814209 0.24790625274181365967 0.26010000705718994141 0.17474375665187835693 0.20230001211166381836 0.069068744778633117676 0.1029416695237159729 0.13157857954502105713 0.079906247556209564209 0.078935712575912475586 0.19868333637714385986 0.13951875269412994385 0.064999997615814208984 0.10158124566078186035 0.064999997615814208984 0.064999997615814208984 0.092871427536010742188 0.064999997615814208984 0.11377499997615814209 0.26010000705718994141 0.26010000705718994141 0.089387498795986175537 0.064999997615814208984 0.064999997615814208984 0.064999997615814208984 0.064999997615814208984 0.064999997615814208984 0.064999997615814208984 0.064999997615814208984 0.064999997615814208984 0.15035624802112579346 0.13951875269412994385 0.064999997615814208984 0.064999997615814208984 0.064999997615814208984 0.064999997615814208984 0.1625500023365020752 0.077193751931190490723 0.064999997615814208984 0.064999997615814208984 0.064999997615814208984 0.064999997615814208984 0.089387498795986175537 0.064999997615814208984 0.064999997615814208984 0.092100001871585845947 0.066356249153614044189 0.10158124566078186035 0.064999997615814208984 0.064999997615814208984 0.064999997615814208984 0.064999997615814208984 0.064999997615814208984 0.064999997615814208984 0.10158124566078186035 0.19100625813007354736 0.13816249370574951172 0.064999997615814208984 0.064999997615814208984 0.064999997615814208984 0.078549996018409729004 0.078549996018409729004 0.064999997615814208984 0.064999997615814208984 0.077193751931190490723 0.064999997615814208984 0.064999997615814208984 0.064999997615814208984 0.15306875109672546387 0.077193751931190490723 0.064999997615814208984 0.093456245958805084229 0.15171250700950622559 0.064999997615814208984 0.064999997615814208984 
0.064999997615814208984 0.064999997615814208984 0.064999997615814208984 0.064999997615814208984 0.064999997615814208984 0.064999997615814208984 0.064999997615814208984 0.064999997615814208984 0.064999997615814208984 0.24384167790412902832 0.26010000705718994141 0.24509231746196746826 0.14304000139236450195 0.24790625274181365967 0.26010000705718994141 0.26010000705718994141 0.15412221848964691162 0.064999997615814208984 0.083585709333419799805 0.1343733370304107666 0.17172308266162872314 0.13485555350780487061 0.10429374873638153076 0.064999997615814208984 0.064999997615814208984 0.064999997615814208984 0.064999997615814208984 0.10680714249610900879 0.064999997615814208984 0.16905333101749420166 0.089387498795986175537 0.1625500023365020752 0.17474375665187835693 0.064999997615814208984 0.064999997615814208984 0.064999997615814208984 0.064999997615814208984 0.064999997615814208984 0.064999997615814208984 0.064999997615814208984 0.064999997615814208984 0.064999997615814208984 0.12596875429153442383 0.12596875429153442383 0.064999997615814208984 0.064999997615814208984 0.064999997615814208984 0.064999997615814208984 0.064999997615814208984 0.064999997615814208984 0.077193751931190490723 0.064999997615814208984 0.064999997615814208984 0.064999997615814208984 0.13816249370574951172 0.064999997615814208984 0.064999997615814208984 0.064999997615814208984 0.064999997615814208984 0.064999997615814208984 0.064999997615814208984 0.077193751931190490723 0.077193751931190490723 0.064999997615814208984 0.064999997615814208984 0.064999997615814208984 0.11377499997615814209 0.15578125417232513428 0.077193751931190490723 0.064999997615814208984 0.064999997615814208984 0.064999997615814208984 0.064999997615814208984 0.064999997615814208984 0.064999997615814208984 0.064999997615814208984 0.064999997615814208984 0.089387498795986175537 0.064999997615814208984 0.10836250334978103638 0.19913125038146972656 0.077193751931190490723 0.11377499997615814209 0.073131248354911804199 0.064999997615814208984 0.064999997615814208984 0.064999997615814208984 
0.14223125576972961426 0.064999997615814208984 0.089387498795986175537 0.15035624802112579346 0.077193751931190490723 0.077193751931190490723 0.064999997615814208984 0.064999997615814208984 0.11377499997615814209 0.14629167318344116211 0.2492625117301940918 0.22397500276565551758 0.18964999914169311523 0.10158124566078186035 0.26010000705718994141 0.18693751096725463867 0.064999997615814208984 0.064999997615814208984 0.064999997615814208984 0.064999997615814208984 0.064999997615814208984 0.10429374873638153076 0.12055625021457672119 0.13003332912921905518 0.064999997615814208984 0.064999997615814208984 0.09751666337251663208 0.13816249370574951172 0.064999997615814208984 0.13816249370574951172 0.12596875429153442383 0.064999997615814208984 0.064999997615814208984 0.064999997615814208984 0.078549996018409729004 0.10565000027418136597 0.085324995219707489014 0.098875001072883605957 0.078549996018409729004 0.064999997615814208984 0.064999997615814208984 0.064999997615814208984 0.064999997615814208984 0.064999997615814208984 0.064999997615814208984 0.064999997615814208984 0.064999997615814208984 0.064999997615814208984 0.064999997615814208984 0.064999997615814208984 0.11513125151395797729 0.064999997615814208984 0.064999997615814208984 0.064999997615814208984 0.064999997615814208984 0.064999997615814208984 0.064999997615814208984 0.064999997615814208984 0.064999997615814208984 0.064999997615814208984 0.064999997615814208984 0.089387498795986175537 0.089387498795986175537 0.064999997615814208984 0.090743750333786010742 0.20319999754428863525 0.23842500150203704834 0.19100625813007354736 0.089387498795986175537 0.10293749719858169556 0.11513125151395797729 0.064999997615814208984 0.064999997615814208984 0.064999997615814208984 0.064999997615814208984 0.064999997615814208984 0.064999997615814208984 0.093456245958805084229 0.064999997615814208984 0.10158124566078186035 0.21268124878406524658 0.1313937455415725708 0.1164875030517578125 0.064999997615814208984 0.064999997615814208984 0.064999997615814208984 0.064999997615814208984 
0.11377499997615814209 0.064999997615814208984 0.064999997615814208984 0.064999997615814208984 0.10158124566078186035 0.064999997615814208984 0.064999997615814208984 0.064999997615814208984 0.2461642920970916748 0.24384167790412902832 0.21494166553020477295 0.14737999439239501953 0.064999997615814208984 0.064999997615814208984 0.2113250046968460083 0.17474375665187835693 0.078549996018409729004 0.064999997615814208984 0.064999997615814208984 0.064999997615814208984 0.064999997615814208984 0.077193751931190490723 0.077193751931190490723 0.064999997615814208984 0.077193751931190490723 0.080007687211036682129 0.17338889837265014648 0.064999997615814208984 0.073338456451892852783 0.089387498795986175537 0.13816249370574951172 0.10158124566078186035 0.064999997615814208984 0.064999997615814208984 0.064999997615814208984 0.064999997615814208984 0.13952499628067016602 0.16662499308586120605 0.085324995219707489014 0.066356249153614044189 0.064999997615814208984 0.064999997615814208984 0.064999997615814208984 0.064999997615814208984 0.064999997615814208984 0.077193751931190490723 0.064999997615814208984 0.064999997615814208984 0.064999997615814208984 0.064999997615814208984 0.064999997615814208984 0.064999997615814208984 0.064999997615814208984 0.064999997615814208984 0.064999997615814208984 0.064999997615814208984 0.064999997615814208984 0.064999997615814208984 0.064999997615814208984 0.064999997615814208984 0.064999997615814208984 0.064999997615814208984 0.064999997615814208984 0.064999997615814208984 0.077193751931190490723 0.13003750145435333252 0.16526250541210174561 0.16390624642372131348 0.077193751931190490723 0.078549996018409729004 0.064999997615814208984 0.064999997615814208984 0.064999997615814208984 0.064999997615814208984 0.064999997615814208984 0.064999997615814208984 0.077193751931190490723 0.066356249153614044189 0.066356249153614044189 0.13951875269412994385 0.12596875429153442383 0.10158124566078186035 0.064999997615814208984 0.064999997615814208984 0.064999997615814208984 0.064999997615814208984 0.064999997615814208984 
0.085331246256828308105 0.10293749719858169556 0.064999997615814208984 0.077193751931190490723 0.064999997615814208984 0.064999997615814208984 0.064999997615814208984 0.064999997615814208984 0.11377499997615814209 0.26010000705718994141 0.14087499678134918213 0.24384167790412902832 0.12733750045299530029 0.081258334219455718994 0.26010000705718994141 0.17474375665187835693 0.064999997615814208984 0.064999997615814208984 0.064999997615814208984 0.064999997615814208984 0.064999997615814208984 0.064999997615814208984 0.064999997615814208984 0.064999997615814208984 0.064999997615814208984 0.077193751931190490723 0.081258334219455718994 0.064999997615814208984 0.064999997615814208984 0.10158124566078186035 0.1625500023365020752 0.077193751931190490723 0.064999997615814208984 0.064999997615814208984 0.064999997615814208984 0.064999997615814208984 0.13952499628067016602 0.13275000452995300293 0.064999997615814208984 0.064999997615814208984 0.064999997615814208984 0.064999997615814208984 0.064999997615814208984 0.064999997615814208984 0.077193751931190490723 0.15035624802112579346 0.064999997615814208984 0.064999997615814208984 0.064999997615814208984 0.064999997615814208984 0.064999997615814208984 0.064999997615814208984 0.064999997615814208984 0.064999997615814208984 0.064999997615814208984 0.064999997615814208984 0.064999997615814208984 0.064999997615814208984 0.064999997615814208984 0.064999997615814208984 0.064999997615814208984 0.064999997615814208984 0.064999997615814208984 0.092100001871585845947 0.10293749719858169556 0.092100001871585845947 0.14087499678134918213 0.10158124566078186035 0.064999997615814208984 0.093456245958805084229 0.064999997615814208984 0.064999997615814208984 0.064999997615814208984 0.064999997615814208984 0.064999997615814208984 0.064999997615814208984 0.064999997615814208984 0.064999997615814208984 0.064999997615814208984 0.064999997615814208984 0.064999997615814208984 0.064999997615814208984 0.064999997615814208984 0.064999997615814208984 0.064999997615814208984 0.064999997615814208984 0.064999997615814208984 
0.066356249153614044189 0.064999997615814208984 0.064999997615814208984 0.15035624802112579346 0.064999997615814208984 0.064999997615814208984 0.12536428868770599365 0.064999997615814208984 0.064999997615814208984 0.16906000673770904541 0.23571249842643737793 0.22758333384990692139 0.064999997615814208984 0.064999997615814208984 0.26010000705718994141 0.064999997615814208984 0.064999997615814208984 0.064999997615814208984 0.064999997615814208984 0.064999997615814208984 0.064999997615814208984 0.064999997615814208984 0.064999997615814208984 0.064999997615814208984 0.064999997615814208984 0.064999997615814208984 0.064999997615814208984 0.064999997615814208984 0.064999997615814208984 0.064999997615814208984 0.064999997615814208984 0.064999997615814208984 0.064999997615814208984 0.064999997615814208984 0.064999997615814208984 0.064999997615814208984 0.098875001072883605957 0.10429374873638153076 0.066356249153614044189 0.064999997615814208984 0.064999997615814208984 0.064999997615814208984 0.064999997615814208984 0.064999997615814208984 0.064999997615814208984 0.12596875429153442383 0.064999997615814208984 0.064999997615814208984 0.064999997615814208984 0.10158124566078186035 0.078549996018409729004 0.064999997615814208984 0.064999997615814208984 0.18693751096725463867 0.064999997615814208984 0.064999997615814208984 0.064999997615814208984 0.064999997615814208984 0.064999997615814208984 0.064999997615814208984 0.064999997615814208984 0.064999997615814208984 0.064999997615814208984 0.089387498795986175537 0.12868125736713409424 0.064999997615814208984 0.078549996018409729004 0.064999997615814208984 0.064999997615814208984 0.064999997615814208984 0.064999997615814208984 0.064999997615814208984 0.064999997615814208984 0.064999997615814208984 0.064999997615814208984 0.064999997615814208984 0.064999997615814208984 0.064999997615814208984 0.064999997615814208984 0.064999997615814208984 0.064999997615814208984 0.064999997615814208984 0.064999997615814208984 0.064999997615814208984 0.064999997615814208984 0.064999997615814208984 0.064999997615814208984 
0.1625500023365020752 0.089387498795986175537 0.064999997615814208984 0.1625500023365020752 0.064999997615814208984 0.078549996018409729004 0.19687500596046447754 0.070424996316432952881 0.064999997615814208984 0.081676922738552093506 0.10158124566078186035 0.14003846049308776855 0.064999997615814208984 0.071510002017021179199 0.24384167790412902832 0.064999997615814208984 0.064999997615814208984 0.064999997615814208984 0.064999997615814208984 0.064999997615814208984 0.064999997615814208984 0.064999997615814208984 0.064999997615814208984 0.064999997615814208984 0.064999997615814208984 0.1333538442850112915 0.064999997615814208984 0.064999997615814208984 0.071774996817111968994 0.064999997615814208984 0.064999997615814208984 0.064999997615814208984 0.064999997615814208984 0.064999997615814208984 0.064999997615814208984 0.064999997615814208984 0.078549996018409729004 0.093456245958805084229 0.064999997615814208984 0.064999997615814208984 0.064999997615814208984 0.064999997615814208984 0.064999997615814208984 0.064999997615814208984 0.064999997615814208984 0.077193751931190490723 0.064999997615814208984 0.064999997615814208984 0.064999997615814208984 0.13952499628067016602 0.085324995219707489014 0.064999997615814208984 0.064999997615814208984 0.10158124566078186035 0.067712500691413879395 0.064999997615814208984 0.064999997615814208984 0.064999997615814208984 0.064999997615814208984 0.064999997615814208984 0.064999997615814208984 0.066356249153614044189 0.11377499997615814209 0.17474375665187835693 0.12732499837875366211 0.067712500691413879395 0.064999997615814208984 0.064999997615814208984 0.064999997615814208984 0.064999997615814208984 0.064999997615814208984 0.064999997615814208984 0.064999997615814208984 0.064999997615814208984 0.077193751931190490723 0.16390624642372131348 0.11377499997615814209 0.064999997615814208984 0.064999997615814208984 0.064999997615814208984 0.064999997615814208984 0.064999997615814208984 0.064999997615814208984 0.078549996018409729004 0.064999997615814208984 0.064999997615814208984 0.064999997615814208984 
0.064999997615814208984 0.064999997615814208984 0.13816249370574951172 0.11377499997615814209 0.064999997615814208984 0.11377499997615814209 0.15671539306640625 0.083066664636135101318 0.064999997615814208984 0.064999997615814208984 0.064999997615814208984 0.15171110630035400391 0.075841665267944335938 0.11377499997615814209 0.24709333479404449463 0.11377499997615814209 0.064999997615814208984 0.064999997615814208984 0.064999997615814208984 0.064999997615814208984 0.064999997615814208984 0.064999997615814208984 0.09751666337251663208 0.064999997615814208984 0.11169230937957763672 0.069068744778633117676 0.064999997615814208984 0.064999997615814208984 0.064999997615814208984 0.064999997615814208984 0.064999997615814208984 0.064999997615814208984 0.064999997615814208984 0.064999997615814208984 0.089387498795986175537 0.064999997615814208984 0.064999997615814208984 0.064999997615814208984 0.064999997615814208984 0.064999997615814208984 0.064999997615814208984 0.064999997615814208984 0.064999997615814208984 0.064999997615814208984 0.064999997615814208984 0.064999997615814208984 0.078549996018409729004 0.11919999867677688599 0.13952499628067016602 0.13275000452995300293 0.13952499628067016602 0.064999997615814208984 0.064999997615814208984 0.064999997615814208984 0.11377499997615814209 0.077193751931190490723 0.064999997615814208984 0.064999997615814208984 0.064999997615814208984 0.064999997615814208984 0.064999997615814208984 0.064999997615814208984 0.064999997615814208984 0.077193751931190490723 0.064999997615814208984 0.064999997615814208984 0.064999997615814208984 0.064999997615814208984 0.064999997615814208984 0.064999997615814208984 0.064999997615814208984 0.064999997615814208984 0.064999997615814208984 0.064999997615814208984 0.064999997615814208984 0.092100001871585845947 0.077193751931190490723 0.064999997615814208984 0.064999997615814208984 0.064999997615814208984 0.064999997615814208984 0.064999997615814208984 0.064999997615814208984 0.090743750333786010742 0.071774996817111968994 0.064999997615814208984 0.064999997615814208984 
0.064999997615814208984 0.064999997615814208984 0.15035624802112579346 0.064999997615814208984 0.089387498795986175537 0.13184167444705963135 0.17050667107105255127 0.092100001871585845947 0.064999997615814208984 0.064999997615814208984 0.064999997615814208984 0.078006662428379058838 0.14990833401679992676 0.064999997615814208984 0.26010000705718994141 0.18693751096725463867 0.064999997615814208984 0.064999997615814208984 0.064999997615814208984 0.064999997615814208984 0.064999997615814208984 0.09668461233377456665 0.078549996018409729004 0.064999997615814208984 0.064999997615814208984 0.064999997615814208984 0.064999997615814208984 0.064999997615814208984 0.064999997615814208984 0.064999997615814208984 0.064999997615814208984 0.064999997615814208984 0.092099994421005249023 0.064999997615814208984 0.090743750333786010742 0.064999997615814208984 0.064999997615814208984 0.064999997615814208984 0.064999997615814208984 0.064999997615814208984 0.064999997615814208984 0.064999997615814208984 0.064999997615814208984 0.064999997615814208984 0.11919999867677688599 0.13952499628067016602 0.11242499947547912598 0.11919999867677688599 0.071774996817111968994 0.064999997615814208984 0.064999997615814208984 0.064999997615814208984 0.064999997615814208984 0.064999997615814208984 0.064999997615814208984 0.064999997615814208984 0.064999997615814208984 0.064999997615814208984 0.064999997615814208984 0.077193751931190490723 0.13816249370574951172 0.064999997615814208984 0.064999997615814208984 0.077193751931190490723 0.064999997615814208984 0.064999997615814208984 0.064999997615814208984 0.064999997615814208984 0.064999997615814208984 0.064999997615814208984 0.064999997615814208984 0.064999997615814208984 0.064999997615814208984 0.064999997615814208984 0.064999997615814208984 0.064999997615814208984 0.064999997615814208984 0.17610000073909759521 0.064999997615814208984 0.064999997615814208984 0.064999997615814208984 0.090743750333786010742 0.077193751931190490723 0.064999997615814208984 0.064999997615814208984 0.064999997615814208984 0.064999997615814208984 
0.064999997615814208984 0.077193751931190490723 0.13816249370574951172 0.064999997615814208984 0.064999997615814208984 0.089387498795986175537 0.097520001232624053955 0.074033334851264953613 0.074033334851264953613 0.064999997615814208984 0.064999997615814208984 0.09751666337251663208 0.22351875901222229004 0.13816249370574951172 0.14629167318344116211 0.13816249370574951172 0.064999997615814208984 0.064999997615814208984 0.064999997615814208984 0.064999997615814208984 0.064999997615814208984 0.17338000237941741943 0.11377499997615814209 0.067169994115829467773 0.064999997615814208984 0.064999997615814208984 0.064999997615814208984 0.064999997615814208984 0.064999997615814208984 0.064999997615814208984 0.064999997615814208984 0.064999997615814208984 0.071774996817111968994 0.073131248354911804199 0.064999997615814208984 0.11784374713897705078 0.11377499997615814209 0.064999997615814208984 0.11784374713897705078 0.064999997615814208984 0.064999997615814208984 0.064999997615814208984 0.064999997615814208984 0.064999997615814208984 0.078549996018409729004 0.085324995219707489014 0.085324995219707489014 0.064999997615814208984 0.064999997615814208984 0.064999997615814208984 0.064999997615814208984 0.092099994421005249023 0.064999997615814208984 0.064999997615814208984 0.064999997615814208984 0.064999997615814208984 0.064999997615814208984 0.064999997615814208984 0.064999997615814208984 0.064999997615814208984 0.064999997615814208984 0.064999997615814208984 0.064999997615814208984 0.064999997615814208984 0.064999997615814208984 0.064999997615814208984 0.064999997615814208984 0.064999997615814208984 0.064999997615814208984 0.064999997615814208984 0.064999997615814208984 0.064999997615814208984 0.064999997615814208984 0.064999997615814208984 0.064999997615814208984 0.064999997615814208984 0.089387498795986175537 0.17610000073909759521 0.089387498795986175537 0.066356249153614044189 0.064999997615814208984 0.15306875109672546387 0.064999997615814208984 0.064999997615814208984 0.064999997615814208984 0.064999997615814208984 0.064999997615814208984 
0.064999997615814208984 0.14223125576972961426 0.23706875741481781006 0.078549996018409729004 0.066356249153614044189 0.13274374604225158691 0.15652222931385040283 0.064999997615814208984 0.064999997615814208984 0.13542500138282775879 0.066808328032493591309 0.10835555195808410645 0.24790625274181365967 0.13467857241630554199 0.15604667365550994873 0.11377499997615814209 0.064999997615814208984 0.064999997615814208984 0.064999997615814208984 0.064999997615814208984 0.064999997615814208984 0.13003847002983093262 0.10835999995470046997 0.14003846049308776855 0.074033334851264953613 0.092099994421005249023 0.071774996817111968994 0.064999997615814208984 0.064999997615814208984 0.064999997615814208984 0.064999997615814208984 0.064999997615814208984 0.064999997615814208984 0.094812497496604919434 0.1625500023365020752 0.1625500023365020752 0.10158124566078186035 0.064999997615814208984 0.077193751931190490723 0.090743750333786010742 0.064999997615814208984 0.064999997615814208984 0.064999997615814208984 0.064999997615814208984 0.064999997615814208984 0.064999997615814208984 0.064999997615814208984 0.064999997615814208984 0.064999997615814208984 0.064999997615814208984 0.10429374873638153076 0.077193751931190490723 0.064999997615814208984 0.064999997615814208984 0.064999997615814208984 0.064999997615814208984 0.11377499997615814209 0.13816249370574951172 0.064999997615814208984 0.064999997615814208984 0.064999997615814208984 0.064999997615814208984 0.064999997615814208984 0.064999997615814208984 0.064999997615814208984 0.064999997615814208984 0.064999997615814208984 0.064999997615814208984 0.064999997615814208984 0.064999997615814208984 0.064999997615814208984 0.064999997615814208984 0.064999997615814208984 0.064999997615814208984 0.064999997615814208984 0.064999997615814208984 0.11377499997615814209 0.2113250046968460083 0.089387498795986175537 0.10158124566078186035 0.064999997615814208984 0.064999997615814208984 0.064999997615814208984 0.064999997615814208984 0.064999997615814208984 0.064999997615814208984 0.064999997615814208984 
0.064999997615814208984 0.15035624802112579346 0.21675001084804534912 0.064999997615814208984 0.15442499518394470215 0.16120000183582305908 0.16327333450317382812 0.088228568434715270996 0.064999997615814208984 0.064999997615814208984 0.069068744778633117676 0.081258334219455718994 0.26010000705718994141 0.22108000516891479492 0.14003846049308776855 0.064999997615814208984 0.064999997615814208984 0.064999997615814208984 0.064999997615814208984 0.064999997615814208984 0.086677774786949157715 0.1343733370304107666 0.06655000150203704834 0.064999997615814208984 0.064999997615814208984 0.10700625181198120117 0.11784374713897705078 0.064999997615814208984 0.064999997615814208984 0.064999997615814208984 0.064999997615814208984 0.071774996817111968994 0.064999997615814208984 0.16120000183582305908 0.12596875429153442383 0.12596875429153442383 0.064999997615814208984 0.064999997615814208984 0.093456245958805084229 0.066356249153614044189 0.064999997615814208984 0.064999997615814208984 0.064999997615814208984 0.064999997615814208984 0.064999997615814208984 0.064999997615814208984 0.064999997615814208984 0.064999997615814208984 0.064999997615814208984 0.064999997615814208984 0.16390624642372131348 0.089387498795986175537 0.064999997615814208984 0.064999997615814208984 0.064999997615814208984 0.089387498795986175537 0.15442499518394470215 0.17610000073909759521 0.10158124566078186035 0.064999997615814208984 0.064999997615814208984 0.064999997615814208984 0.064999997615814208984 0.064999997615814208984 0.064999997615814208984 0.064999997615814208984 0.064999997615814208984 0.064999997615814208984 0.064999997615814208984 0.064999997615814208984 0.064999997615814208984 0.064999997615814208984 0.077193751931190490723 0.064999997615814208984 0.064999997615814208984 0.064999997615814208984 0.064999997615814208984 0.089387498795986175537 0.064999997615814208984 0.064999997615814208984 0.064999997615814208984 0.064999997615814208984 0.064999997615814208984 0.13951875269412994385 0.064999997615814208984 0.064999997615814208984 0.064999997615814208984 
0.064999997615814208984 0.17745625972747802734 0.22487500309944152832 0.078549996018409729004 0.089387498795986175537 0.085324995219707489014 0.086679995059967041016 0.072742857038974761963 0.069068744778633117676 0.077193751931190490723 0.1029250025749206543 0.064999997615814208984 0.26010000705718994141 0.23571249842643737793 0.19506667554378509521 0.077193751931190490723 0.064999997615814208984 0.064999997615814208984 0.064999997615814208984 0.077193751931190490723 0.066356249153614044189 0.064999997615814208984 0.064999997615814208984 0.064999997615814208984 0.15035624802112579346 0.16120000183582305908 0.089387498795986175537 0.10700625181198120117 0.064999997615814208984 0.064999997615814208984 0.064999997615814208984 0.064999997615814208984 0.064999997615814208984 0.11377499997615814209 0.21539375185966491699 0.078549996018409729004 0.077193751931190490723 0.064999997615814208984 0.089387498795986175537 0.066356249153614044189 0.064999997615814208984 0.064999997615814208984 0.064999997615814208984 0.064999997615814208984 0.064999997615814208984 0.064999997615814208984 0.064999997615814208984 0.064999997615814208984 0.064999997615814208984 0.064999997615814208984 0.11377499997615814209 0.064999997615814208984 0.064999997615814208984 0.064999997615814208984 0.064999997615814208984 0.077193751931190490723 0.066356249153614044189 0.12596875429153442383 0.15171250700950622559 0.10158124566078186035 0.064999997615814208984 0.064999997615814208984 0.064999997615814208984 0.064999997615814208984 0.064999997615814208984 0.071774996817111968994 0.11242499947547912598 0.13952499628067016602 0.064999997615814208984 0.064999997615814208984 0.064999997615814208984 0.077193751931190490723 0.14088125526905059814 0.078549996018409729004 0.064999997615814208984 0.064999997615814208984 0.064999997615814208984 0.079906247556209564209 0.1164875030517578125 0.10158124566078186035 0.12732499837875366211 0.077193751931190490723 0.12596875429153442383 0.19913125038146972656 0.19236250221729278564 0.18693751096725463867 0.11377499997615814209 
0.064999997615814208984 0.094812497496604919434 0.20455625653266906738 0.081262499094009399414 0.064999997615814208984 0.066356249153614044189 0.1757777780294418335 0.064999997615814208984 0.077193751931190490723 0.077193751931190490723 0.13003750145435333252 0.067411109805107116699 0.26010000705718994141 0.1625500023365020752 0.11377499997615814209 0.13816249370574951172 0.064999997615814208984 0.064999997615814208984 0.064999997615814208984 0.064999997615814208984 0.13003847002983093262 0.064999997615814208984 0.064999997615814208984 0.064999997615814208984 0.17610000073909759521 0.079912498593330383301 0.064999997615814208984 0.096168749034404754639 0.064999997615814208984 0.064999997615814208984 0.064999997615814208984 0.064999997615814208984 0.11377499997615814209 0.26010000705718994141 0.26010000705718994141 0.24790625274181365967 0.077193751931190490723 0.064999997615814208984 0.064999997615814208984 0.064999997615814208984 0.064999997615814208984 0.064999997615814208984 0.064999997615814208984 0.064999997615814208984 0.064999997615814208984 0.064999997615814208984 0.064999997615814208984 0.064999997615814208984 0.064999997615814208984 0.064999997615814208984 0.064999997615814208984 0.064999997615814208984 0.071774996817111968994 0.092099994421005249023 0.11242499947547912598 0.064999997615814208984 0.064999997615814208984 0.11377499997615814209 0.15035624802112579346 0.21403750777244567871 0.11784374713897705078 0.074493750929832458496 0.064999997615814208984 0.064999997615814208984 0.064999997615814208984 0.13952499628067016602 0.15985000133514404297 0.16526874899864196777 0.077193751931190490723 0.064999997615814208984 0.064999997615814208984 0.098875001072883605957 0.13275000452995300293 0.098875001072883605957 0.078549996018409729004 0.064999997615814208984 0.064999997615814208984 0.064999997615814208984 0.077193751931190490723 0.064999997615814208984 0.064999997615814208984 0.10158124566078186035 0.089387498795986175537 0.066356249153614044189 0.070424996316432952881 0.064999997615814208984 0.064999997615814208984 
0.064999997615814208984 0.096162497997283935547 0.15306875109672546387 0.18016874790191650391 0.064999997615814208984 0.066356249153614044189 0.16616666316986083984 0.064999997615814208984 0.064999997615814208984 0.10990714281797409058 0.069068744778633117676 0.099325001239776611328 0.064999997615814208984 0.26010000705718994141 0.081258334219455718994 0.13816249370574951172 0.064999997615814208984 0.064999997615814208984 0.064999997615814208984 0.077193751931190490723 0.16471999883651733398 0.064999997615814208984 0.064999997615814208984 0.066356249153614044189 0.19913750886917114258 0.11378125101327896118 0.10294374823570251465 0.090750001370906829834 0.10158124566078186035 0.064999997615814208984 0.064999997615814208984 0.064999997615814208984 0.11377499997615814209 0.19913125038146972656 0.26010000705718994141 0.26010000705718994141 0.15442499518394470215 0.064999997615814208984 0.077193751931190490723 0.077193751931190490723 0.064999997615814208984 0.064999997615814208984 0.064999997615814208984 0.064999997615814208984 0.064999997615814208984 0.064999997615814208984 0.064999997615814208984 0.064999997615814208984 0.064999997615814208984 0.064999997615814208984 0.066356249153614044189 0.064999997615814208984 0.071774996817111968994 0.098875001072883605957 0.085324995219707489014 0.090743750333786010742 0.15171250700950622559 0.23571249842643737793 0.15035624802112579346 0.067712500691413879395 0.2113250046968460083 0.20184375345706939697 0.069068744778633117676 0.066356249153614044189 0.10429374873638153076 0.11242499947547912598 0.11377499997615814209 0.11513125151395797729 0.079906247556209564209 0.064999997615814208984 0.064999997615814208984 0.10565000027418136597 0.11242499947547912598 0.17339999973773956299 0.125974997878074646 0.071774996817111968994 0.12596875429153442383 0.12732499837875366211 0.064999997615814208984 0.064999997615814208984 0.064999997615814208984 0.064999997615814208984 0.064999997615814208984 0.064999997615814208984 0.064999997615814208984 0.064999997615814208984 0.064999997615814208984 
0.064999997615814208984 0.1164875030517578125 0.19913125038146972656 0.067712500691413879395 0.064999997615814208984 0.077193751931190490723 0.27164000272750854492 0.067712500691413879395 0.064999997615814208984 0.084509998559951782227 0.11784374713897705078 0.077658332884311676025 0.2113250046968460083 0.23571249842643737793 0.17880833148956298828 0.11377499997615814209 0.064999997615814208984 0.064999997615814208984 0.064999997615814208984 0.095015384256839752197 0.12596875429153442383 0.064999997615814208984 0.064999997615814208984 0.089387498795986175537 0.10429999977350234985 0.098875001072883605957 0.082618750631809234619 0.078549996018409729004 0.077193751931190490723 0.064999997615814208984 0.064999997615814208984 0.064999997615814208984 0.064999997615814208984 0.069068744778633117676 0.10158124566078186035 0.19913125038146972656 0.19100625813007354736 0.064999997615814208984 0.089387498795986175537 0.064999997615814208984 0.064999997615814208984 0.064999997615814208984 0.064999997615814208984 0.064999997615814208984 0.064999997615814208984 0.064999997615814208984 0.064999997615814208984 0.064999997615814208984 0.064999997615814208984 0.064999997615814208984 0.071781247854232788086 0.077193751931190490723 0.064999997615814208984 0.064999997615814208984 0.066356249153614044189 0.1625500023365020752 0.23842500150203704834 0.26010000705718994141 0.13275000452995300293 0.064999997615814208984 0.077193751931190490723 0.10158124566078186035 0.073137499392032623291 0.064999997615814208984 0.10429374873638153076 0.10158124566078186035 0.077193751931190490723 0.064999997615814208984 0.064999997615814208984 0.064999997615814208984 0.064999997615814208984 0.064999997615814208984 0.073137499392032623291 0.11513750255107879639 0.11242499947547912598 0.089387498795986175537 0.11377499997615814209 0.064999997615814208984 0.064999997615814208984 0.064999997615814208984 0.064999997615814208984 0.064999997615814208984 0.064999997615814208984 0.064999997615814208984 0.064999997615814208984 0.064999997615814208984 0.064999997615814208984 
0.079906247556209564209 0.11513125151395797729 0.16390624642372131348 0.078549996018409729004 0.10158124566078186035 0.13137499988079071045 0.12820833921432495117 0.06655000150203704834 0.15035624802112579346 0.21675001084804534912 0.12868125736713409424 0.13003332912921905518 0.1904214322566986084 0.11377499997615814209 0.11002307385206222534 0.2113250046968460083 0.064999997615814208984 0.064999997615814208984 0.064999997615814208984 0.064999997615814208984 0.077193751931190490723 0.064999997615814208984 0.064999997615814208984 0.10158124566078186035 0.13951875269412994385 0.077193751931190490723 0.064999997615814208984 0.064999997615814208984 0.064999997615814208984 0.064999997615814208984 0.064999997615814208984 0.064999997615814208984 0.064999997615814208984 0.078549996018409729004 0.064999997615814208984 0.077193751931190490723 0.13816249370574951172 0.064999997615814208984 0.090743750333786010742 0.064999997615814208984 0.064999997615814208984 0.064999997615814208984 0.064999997615814208984 0.064999997615814208984 0.064999997615814208984 0.064999997615814208984 0.064999997615814208984 0.064999997615814208984 0.064999997615814208984 0.064999997615814208984 0.077193751931190490723 0.12596875429153442383 0.064999997615814208984 0.077193751931190490723 0.19913125038146972656 0.26010000705718994141 0.26010000705718994141 0.26010000705718994141 0.13951875269412994385 0.13816249370574951172 0.12596875429153442383 0.064999997615814208984 0.10293749719858169556 0.16390624642372131348 0.078549996018409729004 0.064999997615814208984 0.064999997615814208984 0.064999997615814208984 0.064999997615814208984 0.064999997615814208984 0.064999997615814208984 0.064999997615814208984 0.064999997615814208984 0.12596875429153442383 0.13816249370574951172 0.064999997615814208984 0.064999997615814208984 0.064999997615814208984 0.064999997615814208984 0.064999997615814208984 0.064999997615814208984 0.064999997615814208984 0.064999997615814208984 0.064999997615814208984 0.064999997615814208984 0.064999997615814208984 0.064999997615814208984 
0.064999997615814208984 0.15306875109672546387 0.096168749034404754639 0.064999997615814208984 0.077193751931190490723 0.064999997615814208984 0.064999997615814208984 0.064999997615814208984 0.086679995059967041016 0.21674445271492004395 0.17474375665187835693 0.24565000832080841064 0.12353000044822692871 0.13467857241630554199 0.091013334691524505615 0.26010000705718994141 0.064999997615814208984 0.064999997615814208984 0.095339998602867126465 0.10669230669736862183 0.22487500309944152832 0.064999997615814208984 0.064999997615814208984 0.11377499997615814209 0.090743750333786010742 0.070424996316432952881 0.064999997615814208984 0.10158124566078186035 0.064999997615814208984 0.064999997615814208984 0.064999997615814208984 0.066356249153614044189 0.13951875269412994385 0.10565000027418136597 0.064999997615814208984 0.064999997615814208984 0.077193751931190490723 0.15035624802112579346 0.089387498795986175537 0.064999997615814208984 0.064999997615814208984 0.064999997615814208984 0.064999997615814208984 0.11513125151395797729 0.13816249370574951172 0.11377499997615814209 0.10158124566078186035 0.13951875269412994385 0.10158124566078186035 0.16526250541210174561 0.16797500848770141602 0.21403750777244567871 0.17745625972747802734 0.23706875741481781006 0.23571249842643737793 0.18016874790191650391 0.20184375345706939697 0.16526250541210174561 0.19913125038146972656 0.2113250046968460083 0.1219125017523765564 0.066356249153614044189 0.064999997615814208984 0.064999997615814208984 0.064999997615814208984 0.064999997615814208984 0.064999997615814208984 0.064999997615814208984 0.064999997615814208984 0.064999997615814208984 0.064999997615814208984 0.064999997615814208984 0.064999997615814208984 0.064999997615814208984 0.12596875429153442383 0.064999997615814208984 0.064999997615814208984 0.064999997615814208984 0.064999997615814208984 0.064999997615814208984 0.064999997615814208984 0.064999997615814208984 0.064999997615814208984 0.064999997615814208984 0.064999997615814208984 0.078549996018409729004 0.14630000293254852295 
0.064999997615814208984 0.16526250541210174561 0.093456245958805084229 0.089387498795986175537 0.064999997615814208984 0.064999997615814208984 0.064999997615814208984 0.064999997615814208984 0.064999997615814208984 0.11919999867677688599 0.11558333039283752441 0.26010000705718994141 0.064999997615814208984 0.11377499997615814209 0.064999997615814208984 0.064999997615814208984 0.064999997615814208984 0.064999997615814208984 0.064999997615814208984 0.13726666569709777832 0.24790625274181365967 0.077193751931190490723 0.064999997615814208984 0.21268124878406524658 0.10293749719858169556 0.089387498795986175537 0.064999997615814208984 0.077193751931190490723 0.064999997615814208984 0.064999997615814208984 0.064999997615814208984 0.082618750631809234619 0.13816249370574951172 0.16390624642372131348 0.064999997615814208984 0.064999997615814208984 0.064999997615814208984 0.1625500023365020752 0.10293749719858169556 0.13816249370574951172 0.077193751931190490723 0.064999997615814208984 0.064999997615814208984 0.064999997615814208984 0.12732499837875366211 0.089387498795986175537 0.064999997615814208984 0.077193751931190490723 0.077193751931190490723 0.12596875429153442383 0.11377499997615814209 0.18829375505447387695 0.2113250046968460083 0.13816249370574951172 0.077193751931190490723 0.12596875429153442383 0.089387498795986175537 0.064999997615814208984 0.077193751931190490723 0.13951875269412994385 0.064999997615814208984 0.064999997615814208984 0.064999997615814208984 0.064999997615814208984 0.064999997615814208984 0.064999997615814208984 0.064999997615814208984 0.064999997615814208984 0.064999997615814208984 0.064999997615814208984 0.064999997615814208984 0.064999997615814208984 0.064999997615814208984 0.064999997615814208984 0.17474375665187835693 0.077193751931190490723 0.064999997615814208984 0.064999997615814208984 0.064999997615814208984 0.064999997615814208984 0.064999997615814208984 0.064999997615814208984 0.064999997615814208984 0.064999997615814208984 0.064999997615814208984 0.085324995219707489014 0.092099994421005249023 
0.083968751132488250732 0.18829375505447387695 0.16661874949932098389 0.1164875030517578125 0.17068749666213989258 0.16120000183582305908 0.11919999867677688599 0.093908332288265228271 0.081258334219455718994 0.064999997615814208984 0.13816249370574951172 0.064999997615814208984 0.064999997615814208984 0.22939166426658630371 0.081258334219455718994 0.10158124566078186035 0.064999997615814208984 0.064999997615814208984 0.064999997615814208984 0.21403750777244567871 0.10158124566078186035 0.073137499392032623291 0.064999997615814208984 0.064999997615814208984 0.064999997615814208984 0.064999997615814208984 0.064999997615814208984 0.064999997615814208984 0.064999997615814208984 0.077193751931190490723 0.064999997615814208984 0.10565000027418136597 0.18016874790191650391 0.13951875269412994385 0.064999997615814208984 0.064999997615814208984 0.064999997615814208984 0.077193751931190490723 0.064999997615814208984 0.077193751931190490723 0.064999997615814208984 0.064999997615814208984 0.064999997615814208984 0.064999997615814208984 0.064999997615814208984 0.064999997615814208984 0.064999997615814208984 0.064999997615814208984 0.064999997615814208984 0.064999997615814208984 0.064999997615814208984 0.064999997615814208984 0.064999997615814208984 0.064999997615814208984 0.064999997615814208984 0.064999997615814208984 0.064999997615814208984 0.064999997615814208984 0.064999997615814208984 0.064999997615814208984 0.064999997615814208984 0.064999997615814208984 0.064999997615814208984 0.064999997615814208984 0.064999997615814208984 0.064999997615814208984 0.064999997615814208984 0.064999997615814208984 0.064999997615814208984 0.064999997615814208984 0.064999997615814208984 0.064999997615814208984 0.064999997615814208984 0.064999997615814208984 0.089387498795986175537 0.064999997615814208984 0.064999997615814208984 0.064999997615814208984 0.064999997615814208984 0.064999997615814208984 0.064999997615814208984 0.064999997615814208984 0.064999997615814208984 0.092099994421005249023 0.071774996817111968994 0.066356249153614044189 0.070424996316432952881 
0.13816249370574951172 0.20455625653266906738 0.13951875269412994385 0.21403750777244567871 0.14087499678134918213 0.12055625021457672119 0.064999997615814208984 0.077193751931190490723 0.097525000572204589844 0.081258334219455718994 0.064999997615814208984 0.064999997615814208984 0.10680714249610900879 0.18693751096725463867 0.14629167318344116211 0.064999997615814208984 0.064999997615814208984 0.064999997615814208984 0.064999997615814208984 0.064999997615814208984 0.064999997615814208984 0.064999997615814208984 0.064999997615814208984 0.064999997615814208984 0.078549996018409729004 0.079906247556209564209 0.10158124566078186035 0.077193751931190490723 0.10700625181198120117 0.11919999867677688599 0.066356249153614044189 0.079906247556209564209 0.12732499837875366211 0.064999997615814208984 0.098875001072883605957 0.064999997615814208984 0.064999997615814208984 0.077193751931190490723 0.064999997615814208984 0.064999997615814208984 0.064999997615814208984 0.064999997615814208984 0.064999997615814208984 0.064999997615814208984 0.064999997615814208984 0.064999997615814208984 0.064999997615814208984 0.064999997615814208984 0.064999997615814208984 0.064999997615814208984 0.064999997615814208984 0.064999997615814208984 0.064999997615814208984 0.064999997615814208984 0.064999997615814208984 0.064999997615814208984 0.064999997615814208984 0.064999997615814208984 0.064999997615814208984 0.064999997615814208984 0.064999997615814208984 0.064999997615814208984 0.064999997615814208984 0.064999997615814208984 0.064999997615814208984 0.064999997615814208984 0.064999997615814208984 0.064999997615814208984 0.064999997615814208984 0.064999997615814208984 0.064999997615814208984 0.064999997615814208984 0.064999997615814208984 0.064999997615814208984 0.064999997615814208984 0.064999997615814208984 0.064999997615814208984 0.064999997615814208984 0.064999997615814208984 0.064999997615814208984 0.064999997615814208984 0.064999997615814208984 0.064999997615814208984 0.071774996817111968994 0.064999997615814208984 0.11919999867677688599 0.12462499737739562988 
0.19913125038146972656 0.077193751931190490723 0.10158124566078186035 0.089387498795986175537 0.089387498795986175537 0.064999997615814208984 0.064999997615814208984 0.077193751931190490723 0.092871427536010742188 0.078006662428379058838 0.077193751931190490723 0.14003846049308776855 0.24059000611305236816 0.14810000360012054443 0.1625500023365020752 0.09751666337251663208 0.092099994421005249023 0.064999997615814208984 0.064999997615814208984 0.064999997615814208984 0.064999997615814208984 0.089387498795986175537 0.18693751096725463867 0.1625500023365020752 0.17474375665187835693 0.20184375345706939697 0.15306875109672546387 0.10429374873638153076 0.093456245958805084229 0.093456245958805084229 0.077193751931190490723 0.089387498795986175537 0.064999997615814208984 0.092099994421005249023 0.071774996817111968994 0.064999997615814208984 0.064999997615814208984 0.077193751931190490723 0.064999997615814208984 0.064999997615814208984 0.064999997615814208984 0.064999997615814208984 0.064999997615814208984 0.064999997615814208984 0.064999997615814208984 0.064999997615814208984 0.064999997615814208984 0.064999997615814208984 0.064999997615814208984 0.064999997615814208984 0.064999997615814208984 0.064999997615814208984 0.064999997615814208984 0.064999997615814208984 0.064999997615814208984 0.098875001072883605957 0.071774996817111968994 0.085324995219707489014 0.064999997615814208984 0.064999997615814208984 0.064999997615814208984 0.064999997615814208984 0.064999997615814208984 0.064999997615814208984 0.064999997615814208984 0.064999997615814208984 0.064999997615814208984 0.064999997615814208984 0.064999997615814208984 0.064999997615814208984 0.064999997615814208984 0.064999997615814208984 0.064999997615814208984 0.064999997615814208984 0.064999997615814208984 0.064999997615814208984 0.064999997615814208984 0.064999997615814208984 0.077193751931190490723 0.064999997615814208984 0.077193751931190490723 0.064999997615814208984 0.064999997615814208984 0.064999997615814208984 0.064999997615814208984 0.092100001871585845947 0.064999997615814208984 
0.077193751931190490723 0.064999997615814208984 0.10158124566078186035 0.089387498795986175537 0.064999997615814208984 0.064999997615814208984 0.064999997615814208984 0.10401999950408935547 0.064999997615814208984 0.095015384256839752197 0.24384167790412902832 0.09751666337251663208 0.10655000060796737671 0.14304000139236450195 0.17474375665187835693 0.12596875429153442383 0.064999997615814208984 0.064999997615814208984 0.064999997615814208984 0.064999997615814208984 0.064999997615814208984 0.26010000705718994141 0.22351875901222229004 0.13816249370574951172 0.077193751931190490723 0.064999997615814208984 0.064999997615814208984 0.12596875429153442383 0.097525000572204589844 0.14358749985694885254 0.10429374873638153076 0.090743750333786010742 0.11377499997615814209 0.071774996817111968994 0.064999997615814208984 0.077193751931190490723 0.064999997615814208984 0.064999997615814208984 0.064999997615814208984 0.064999997615814208984 0.064999997615814208984 0.064999997615814208984 0.089387498795986175537 0.064999997615814208984 0.064999997615814208984 0.064999997615814208984 0.064999997615814208984 0.064999997615814208984 0.064999997615814208984 0.064999997615814208984 0.064999997615814208984 0.064999997615814208984 0.064999997615814208984 0.064999997615814208984 0.064999997615814208984 0.064999997615814208984 0.064999997615814208984 0.064999997615814208984 0.064999997615814208984 0.064999997615814208984 0.064999997615814208984 0.064999997615814208984 0.064999997615814208984 0.064999997615814208984 0.064999997615814208984 0.064999997615814208984 0.064999997615814208984 0.064999997615814208984 0.064999997615814208984 0.064999997615814208984 0.064999997615814208984 0.064999997615814208984 0.064999997615814208984 0.064999997615814208984 0.064999997615814208984 0.078549996018409729004 0.064999997615814208984 0.10158124566078186035 0.18829375505447387695 0.15035624802112579346 0.089387498795986175537 0.064999997615814208984 0.064999997615814208984 0.064999997615814208984 0.064999997615814208984 0.064999997615814208984 0.064999997615814208984 
0.064999997615814208984 0.064999997615814208984 0.12732499837875366211 0.1625500023365020752 0.11377499997615814209 0.066356249153614044189 0.10293749719858169556 0.077193751931190490723 0.064999997615814208984 0.17338889837265014648 0.077193751931190490723 0.064999997615814208984 0.15713125467300415039 0.23571249842643737793 0.17474375665187835693 0.24790625274181365967 0.089387498795986175537 0.064999997615814208984 0.064999997615814208984 0.11377499997615814209 0.12596875429153442383 0.17474375665187835693 0.064999997615814208984 0.064999997615814208984 0.064999997615814208984 0.064999997615814208984 0.064999997615814208984 0.12868125736713409424 0.088043749332427978516 0.083975002169609069824 0.064999997615814208984 0.064999997615814208984 0.064999997615814208984 0.064999997615814208984 0.064999997615814208984 0.064999997615814208984 0.064999997615814208984 0.064999997615814208984 0.064999997615814208984 0.064999997615814208984 0.064999997615814208984 0.064999997615814208984 0.089387498795986175537 0.064999997615814208984 0.064999997615814208984 0.064999997615814208984 0.064999997615814208984 0.064999997615814208984 0.064999997615814208984 0.064999997615814208984 0.064999997615814208984 0.064999997615814208984 0.064999997615814208984 0.064999997615814208984 0.064999997615814208984 0.064999997615814208984 0.064999997615814208984 0.064999997615814208984 0.064999997615814208984 0.064999997615814208984 0.064999997615814208984 0.064999997615814208984 0.064999997615814208984 0.064999997615814208984 0.064999997615814208984 0.064999997615814208984 0.064999997615814208984 0.064999997615814208984 0.064999997615814208984 0.064999997615814208984 0.064999997615814208984 0.064999997615814208984 0.064999997615814208984 0.064999997615814208984 0.064999997615814208984 0.071774996817111968994 0.10565000027418136597 0.064999997615814208984 0.064999997615814208984 0.064999997615814208984 0.064999997615814208984 0.064999997615814208984 0.064999997615814208984 0.064999997615814208984 0.064999997615814208984 0.064999997615814208984 0.064999997615814208984 
0.064999997615814208984 0.064999997615814208984 0.064999997615814208984 0.1164875030517578125 0.10158124566078186035 0.064999997615814208984 0.064999997615814208984 0.077193751931190490723 0.064999997615814208984 0.17474375665187835693 0.064999997615814208984 0.1625500023365020752 0.15035624802112579346 0.18693751096725463867 0.17474375665187835693 0.26010000705718994141 0.11377499997615814209 0.064999997615814208984 0.064999997615814208984 0.17474375665187835693 0.15035624802112579346 0.064999997615814208984 0.064999997615814208984 0.064999997615814208984 0.11377499997615814209 0.064999997615814208984 0.064999997615814208984 0.1164875030517578125 0.12732499837875366211 0.079906247556209564209 0.064999997615814208984 0.064999997615814208984 0.064999997615814208984 0.077193751931190490723 0.064999997615814208984 0.064999997615814208984 0.13816249370574951172 0.064999997615814208984 0.064999997615814208984 0.064999997615814208984 0.064999997615814208984 0.064999997615814208984 0.064999997615814208984 0.064999997615814208984 0.064999997615814208984 0.064999997615814208984 0.064999997615814208984 0.064999997615814208984 0.064999997615814208984 0.078549996018409729004 0.064999997615814208984 0.064999997615814208984 0.064999997615814208984 0.064999997615814208984 0.064999997615814208984 0.064999997615814208984 0.064999997615814208984 0.064999997615814208984 0.064999997615814208984 0.064999997615814208984 0.064999997615814208984 0.064999997615814208984 0.064999997615814208984 0.064999997615814208984 0.064999997615814208984 0.064999997615814208984 0.064999997615814208984 0.064999997615814208984 0.064999997615814208984 0.064999997615814208984 0.064999997615814208984 0.064999997615814208984 0.064999997615814208984 0.064999997615814208984 0.064999997615814208984 0.064999997615814208984 0.071774996817111968994 0.064999997615814208984 0.064999997615814208984 0.064999997615814208984 0.064999997615814208984 0.064999997615814208984 0.064999997615814208984 0.064999997615814208984 0.064999997615814208984 0.064999997615814208984 0.064999997615814208984 
0.064999997615814208984 0.064999997615814208984 0.064999997615814208984 0.077193751931190490723 0.064999997615814208984 0.064999997615814208984 0.077193751931190490723 0.078549996018409729004 0.064999997615814208984 0.13816249370574951172 0.10158124566078186035 0.24790625274181365967 0.24790625274181365967 0.15035624802112579346 0.17474375665187835693 0.23571249842643737793 0.10158124566078186035 0.13816249370574951172 0.10158124566078186035 0.064999997615814208984 0.15035624802112579346 0.064999997615814208984 0.064999997615814208984 0.064999997615814208984 0.12732499837875366211 0.12596875429153442383 0.064999997615814208984 0.092100001871585845947 0.16120624542236328125 0.066356249153614044189 0.064999997615814208984 0.064999997615814208984 0.064999997615814208984 0.064999997615814208984 0.077193751931190490723 0.064999997615814208984 0.089387498795986175537 0.064999997615814208984 0.064999997615814208984 0.064999997615814208984 0.064999997615814208984 0.064999997615814208984 0.064999997615814208984 0.064999997615814208984 0.064999997615814208984 0.064999997615814208984 0.064999997615814208984 0.064999997615814208984 0.064999997615814208984 0.064999997615814208984 0.064999997615814208984 0.064999997615814208984 0.064999997615814208984 0.064999997615814208984 0.064999997615814208984 0.064999997615814208984 0.071774996817111968994 0.064999997615814208984 0.064999997615814208984 0.064999997615814208984 0.064999997615814208984 0.064999997615814208984 0.064999997615814208984 0.064999997615814208984 0.064999997615814208984 0.064999997615814208984 0.064999997615814208984 0.064999997615814208984 0.064999997615814208984 0.064999997615814208984 0.064999997615814208984 0.064999997615814208984 0.064999997615814208984 0.064999997615814208984 0.1205499991774559021 0.064999997615814208984 0.064999997615814208984 0.064999997615814208984 0.064999997615814208984 0.064999997615814208984 0.064999997615814208984 0.064999997615814208984 0.064999997615814208984 0.064999997615814208984 0.064999997615814208984 0.064999997615814208984 0.064999997615814208984 
0.064999997615814208984 0.064999997615814208984 0.064999997615814208984 0.064999997615814208984 0.064999997615814208984 0.064999997615814208984 0.089387498795986175537 0.064999997615814208984 0.066356249153614044189 0.11377499997615814209 0.11377499997615814209 0.26010000705718994141 0.24790625274181365967 0.13816249370574951172 0.18693751096725463867 0.26010000705718994141 0.23571249842643737793 0.12596875429153442383 0.1625500023365020752 0.15035624802112579346 0.10158124566078186035 0.064999997615814208984 0.064999997615814208984 0.064999997615814208984 0.093456245958805084229 0.15035624802112579346 0.064999997615814208984 0.066356249153614044189 0.12055625021457672119 0.077193751931190490723 0.064999997615814208984 0.064999997615814208984 0.064999997615814208984 0.064999997615814208984 0.064999997615814208984 0.090743750333786010742 0.064999997615814208984 0.064999997615814208984 0.064999997615814208984 0.064999997615814208984 0.064999997615814208984 0.077193751931190490723 0.10158124566078186035 0.064999997615814208984 0.064999997615814208984 0.064999997615814208984 0.064999997615814208984 0.064999997615814208984 0.064999997615814208984 0.064999997615814208984 0.064999997615814208984 0.064999997615814208984 0.064999997615814208984 0.064999997615814208984 0.064999997615814208984 0.064999997615814208984 0.064999997615814208984 0.064999997615814208984 0.064999997615814208984 0.064999997615814208984 0.064999997615814208984 0.064999997615814208984 0.064999997615814208984 0.064999997615814208984 0.064999997615814208984 0.064999997615814208984 0.064999997615814208984 0.064999997615814208984 0.064999997615814208984 0.064999997615814208984 0.064999997615814208984 0.064999997615814208984 0.064999997615814208984 0.096162497997283935547 0.077193751931190490723 0.064999997615814208984 0.064999997615814208984 0.064999997615814208984 0.064999997615814208984 0.064999997615814208984 0.064999997615814208984 0.064999997615814208984 0.064999997615814208984 0.064999997615814208984 0.064999997615814208984 0.064999997615814208984 0.064999997615814208984 
0.064999997615814208984 0.064999997615814208984 0.064999997615814208984 0.064999997615814208984 0.064999997615814208984 0.064999997615814208984 0.064999997615814208984 0.064999997615814208984 0.064999997615814208984 0.11377499997615814209 0.1625500023365020752 0.26010000705718994141 0.18964999914169311523 0.064999997615814208984 0.2113250046968460083 0.26010000705718994141 0.18693751096725463867 0.064999997615814208984 0.064999997615814208984 0.064999997615814208984 0.064999997615814208984 0.064999997615814208984 0.064999997615814208984 0.064999997615814208984 0.064999997615814208984 0.23571249842643737793 0.064999997615814208984 0.067712500691413879395 0.12462499737739562988 0.097525000572204589844 0.064999997615814208984 0.064999997615814208984 0.064999997615814208984 0.064999997615814208984 0.064999997615814208984 0.064999997615814208984 0.064999997615814208984 0.064999997615814208984 0.064999997615814208984 0.064999997615814208984 0.064999997615814208984 0.064999997615814208984 0.11377499997615814209 0.064999997615814208984 0.064999997615814208984 0.064999997615814208984 0.064999997615814208984 0.064999997615814208984 0.064999997615814208984 0.064999997615814208984 0.064999997615814208984 0.064999997615814208984 0.064999997615814208984 0.064999997615814208984 0.064999997615814208984 0.064999997615814208984 0.064999997615814208984 0.064999997615814208984 0.064999997615814208984 0.064999997615814208984 0.064999997615814208984 0.064999997615814208984 0.064999997615814208984 0.064999997615814208984 0.064999997615814208984 0.064999997615814208984 0.064999997615814208984 0.064999997615814208984 0.064999997615814208984 0.064999997615814208984 0.064999997615814208984 0.064999997615814208984 0.078549996018409729004 0.11377499997615814209 0.078549996018409729004 0.064999997615814208984 0.064999997615814208984 0.064999997615814208984 0.064999997615814208984 0.064999997615814208984 0.064999997615814208984 0.064999997615814208984 0.064999997615814208984 0.064999997615814208984 0.064999997615814208984 0.064999997615814208984 0.064999997615814208984 
