ncols        87
nrows        107
xllcorner    508536.404131802963
yllcorner    5265618.997906560078
cellsize     120.000000000000
NODATA_value -9999
0.27599999308586120605 0.27599999308586120605 0.27599999308586120605 0.27599999308586120605 0.27599999308586120605 0.27599999308586120605 0.27599999308586120605 0.27599999308586120605 0.27599999308586120605 0.27599999308586120605 0.27599999308586120605 0.27599999308586120605 0.27599999308586120605 0.27599999308586120605 0.27599999308586120605 0.27599999308586120605 0.27599999308586120605 0.27599999308586120605 0.27599999308586120605 0.27599999308586120605 0.27599999308586120605 0.27599999308586120605 0.27599999308586120605 0.27599999308586120605 0.27599999308586120605 0.27599999308586120605 0.27599999308586120605 0.27599999308586120605 0.27599999308586120605 0.27599999308586120605 0.27599999308586120605 0.27599999308586120605 0.27599999308586120605 0.27599999308586120605 0.27599999308586120605 0.27599999308586120605 0.27599999308586120605 0.27599999308586120605 0.27599999308586120605 0.27599999308586120605 0.27599999308586120605 0.27599999308586120605 0.27599999308586120605 0.27599999308586120605 0.27599999308586120605 0.27599999308586120605 0.27599999308586120605 0.27599999308586120605 0.27599999308586120605 0.27599999308586120605 0.27599999308586120605 0.27599999308586120605 0.27599999308586120605 0.27599999308586120605 0.27599999308586120605 0.27599999308586120605 0.27599999308586120605 0.27599999308586120605 0.27599999308586120605 0.27599999308586120605 0.27599999308586120605 0.27599999308586120605 0.27599999308586120605 0.27599999308586120605 0.27599999308586120605 0.27599999308586120605 0.27599999308586120605 0.27599999308586120605 0.27599999308586120605 0.27599999308586120605 0.42547500133514404297 0.39673748612403869629 0.50597500801086425781 0.8681812286376953125 0.5174687504768371582 0.41397500038146972656 0.57496875524520874023 0.39673748612403869629 0.37948748469352722168 0.74744373559951782227 0.90842497348785400391 0.50597500801086425781 0.67845624685287475586 0.56921875476837158203 0.52897500991821289062 0.4197374880313873291 0.52897500991821289062 
0.27599999308586120605 0.27599999308586120605 0.27599999308586120605 0.27599999308586120605 0.27599999308586120605 0.27599999308586120605 0.27599999308586120605 0.27599999308586120605 0.27599999308586120605 0.27599999308586120605 0.27599999308586120605 0.27599999308586120605 0.27599999308586120605 0.27599999308586120605 0.27599999308586120605 0.27599999308586120605 0.27599999308586120605 0.27599999308586120605 0.27599999308586120605 0.27599999308586120605 0.27599999308586120605 0.27599999308586120605 0.27599999308586120605 0.27599999308586120605 0.27599999308586120605 0.27599999308586120605 0.27599999308586120605 0.27599999308586120605 0.27599999308586120605 0.27599999308586120605 0.27599999308586120605 0.27599999308586120605 0.27599999308586120605 0.27599999308586120605 0.27599999308586120605 0.27599999308586120605 0.27599999308586120605 0.27599999308586120605 0.27599999308586120605 0.27599999308586120605 0.27599999308586120605 0.27599999308586120605 0.27599999308586120605 0.27599999308586120605 0.27599999308586120605 0.27599999308586120605 0.27599999308586120605 0.27599999308586120605 0.27599999308586120605 0.27599999308586120605 0.27599999308586120605 0.27599999308586120605 0.27599999308586120605 0.27599999308586120605 0.27599999308586120605 0.27599999308586120605 0.27599999308586120605 0.27599999308586120605 0.27599999308586120605 0.27599999308586120605 0.27599999308586120605 0.32774373888969421387 0.32774373888969421387 0.27599999308586120605 0.27599999308586120605 0.27599999308586120605 0.28174999356269836426 0.28174999356269836426 0.33924373984336853027 0.33924373984336853027 0.55196875333786010742 0.58646875619888305664 0.85668122768402099609 0.75894373655319213867 0.91992497444152832031 0.60945624113082885742 0.50597500801086425781 0.60371249914169311523 0.85668122768402099609 1.0061624050140380859 0.64970624446868896484 0.29324999451637268066 0.33924373984336853027 0.54046875238418579102 0.34499374032020568848 0.45998123288154602051 0.27599999308586120605 
0.27599999308586120605 0.27599999308586120605 0.27599999308586120605 0.27599999308586120605 0.27599999308586120605 0.27599999308586120605 0.27599999308586120605 0.27599999308586120605 0.27599999308586120605 0.27599999308586120605 0.27599999308586120605 0.27599999308586120605 0.27599999308586120605 0.27599999308586120605 0.27599999308586120605 0.27599999308586120605 0.27599999308586120605 0.27599999308586120605 0.27599999308586120605 0.27599999308586120605 0.27599999308586120605 0.27599999308586120605 0.27599999308586120605 0.27599999308586120605 0.27599999308586120605 0.27599999308586120605 0.27599999308586120605 0.27599999308586120605 0.27599999308586120605 0.27599999308586120605 0.27599999308586120605 0.27599999308586120605 0.27599999308586120605 0.27599999308586120605 0.27599999308586120605 0.27599999308586120605 0.27599999308586120605 0.27599999308586120605 0.27599999308586120605 0.27599999308586120605 0.27599999308586120605 0.27599999308586120605 0.27599999308586120605 0.27599999308586120605 0.27599999308586120605 0.27599999308586120605 0.27599999308586120605 0.27599999308586120605 0.27599999308586120605 0.27599999308586120605 0.27599999308586120605 0.27599999308586120605 0.27599999308586120605 0.27599999308586120605 0.27599999308586120605 0.27599999308586120605 0.27599999308586120605 0.27599999308586120605 0.27599999308586120605 0.27599999308586120605 0.27599999308586120605 0.27599999308586120605 0.27599999308586120605 0.27599999308586120605 0.27599999308586120605 0.27599999308586120605 0.27599999308586120605 0.27599999308586120605 0.29324999451637268066 0.37374374270439147949 0.75319373607635498047 0.8739312291145324707 1.0119124650955200195 1.0119124650955200195 0.77619373798370361328 0.5059687495231628418 0.64394998550415039062 0.76469373703002929688 0.50597500801086425781 0.91417497396469116211 0.55771875381469726562 0.50597500801086425781 0.75319373607635498047 0.60946249961853027344 0.71294999122619628906 0.34499374032020568848 0.27599999308586120605 
0.27599999308586120605 0.27599999308586120605 0.27599999308586120605 0.27599999308586120605 0.27599999308586120605 0.27599999308586120605 0.27599999308586120605 0.27599999308586120605 0.27599999308586120605 0.27599999308586120605 0.27599999308586120605 0.27599999308586120605 0.27599999308586120605 0.27599999308586120605 0.27599999308586120605 0.27599999308586120605 0.27599999308586120605 0.27599999308586120605 0.27599999308586120605 0.27599999308586120605 0.27599999308586120605 0.27599999308586120605 0.27599999308586120605 0.27599999308586120605 0.27599999308586120605 0.27599999308586120605 0.27599999308586120605 0.27599999308586120605 0.27599999308586120605 0.27599999308586120605 0.27599999308586120605 0.27599999308586120605 0.27599999308586120605 0.27599999308586120605 0.27599999308586120605 0.27599999308586120605 0.27599999308586120605 0.27599999308586120605 0.27599999308586120605 0.27599999308586120605 0.27599999308586120605 0.27599999308586120605 0.27599999308586120605 0.27599999308586120605 0.27599999308586120605 0.27599999308586120605 0.27599999308586120605 0.27599999308586120605 0.27599999308586120605 0.27599999308586120605 0.27599999308586120605 0.27599999308586120605 0.27599999308586120605 0.27599999308586120605 0.27599999308586120605 0.27599999308586120605 0.27599999308586120605 0.27599999308586120605 0.44846248626708984375 0.27599999308586120605 0.27599999308586120605 0.27599999308586120605 0.37948748469352722168 0.84518122673034667969 0.4829749763011932373 0.55196666717529296875 0.40248748660087585449 0.27599999308586120605 0.30474999547004699707 0.48298123478889465332 0.3852437436580657959 0.82793748378753662109 0.96591871976852416992 0.82793748378753662109 0.72444999217987060547 0.57496875524520874023 0.50022500753402709961 0.63821250200271606445 0.48872497677803039551 0.52897500991821289062 0.71869999170303344727 0.66120624542236328125 0.36224374175071716309 0.76469373703002929688 0.54621875286102294922 0.39672499895095825195 0.27599999308586120605 
0.27599999308586120605 0.27599999308586120605 0.27599999308586120605 0.27599999308586120605 0.27599999308586120605 0.27599999308586120605 0.27599999308586120605 0.27599999308586120605 0.27599999308586120605 0.27599999308586120605 0.27599999308586120605 0.27599999308586120605 0.27599999308586120605 0.27599999308586120605 0.27599999308586120605 0.27599999308586120605 0.27599999308586120605 0.27599999308586120605 0.27599999308586120605 0.27599999308586120605 0.27599999308586120605 0.27599999308586120605 0.27599999308586120605 0.27599999308586120605 0.27599999308586120605 0.27599999308586120605 0.27599999308586120605 0.27599999308586120605 0.27599999308586120605 0.27599999308586120605 0.27599999308586120605 0.27599999308586120605 0.27599999308586120605 0.27599999308586120605 0.4369812309741973877 0.33349373936653137207 0.27599999308586120605 0.27599999308586120605 0.27599999308586120605 0.27599999308586120605 0.27599999308586120605 0.27599999308586120605 0.27599999308586120605 0.27599999308586120605 0.27599999308586120605 0.27599999308586120605 0.27599999308586120605 0.27599999308586120605 0.27599999308586120605 0.27599999308586120605 0.27599999308586120605 0.27599999308586120605 0.27599999308586120605 0.27599999308586120605 0.27599999308586120605 0.27599999308586120605 0.27599999308586120605 0.32774373888969421387 0.37948748469352722168 0.33348748087882995605 0.39097499847412109375 0.50020623207092285156 0.30474373698234558105 0.59442305564880371094 1.0521562099456787109 1.034908294677734375 0.27599999308586120605 0.27599999308586120605 0.44272500276565551758 0.52897500991821289062 0.52321875095367431641 0.70719999074935913086 0.75894373655319213867 0.61521250009536743164 0.72444999217987060547 0.8739312291145324707 0.77044373750686645508 0.62096250057220458984 0.28174999356269836426 0.45998123288154602051 0.48872497677803039551 0.8739312291145324707 0.69569998979568481445 0.79918748140335083008 0.4657249748706817627 0.33348748087882995605 0.27599999308586120605 
0.27599999308586120605 0.27599999308586120605 0.27599999308586120605 0.27599999308586120605 0.27599999308586120605 0.27599999308586120605 0.27599999308586120605 0.27599999308586120605 0.27599999308586120605 0.27599999308586120605 0.27599999308586120605 0.27599999308586120605 0.27599999308586120605 0.27599999308586120605 0.27599999308586120605 0.27599999308586120605 0.27599999308586120605 0.27599999308586120605 0.27599999308586120605 0.27599999308586120605 0.27599999308586120605 0.27599999308586120605 0.27599999308586120605 0.27599999308586120605 0.27599999308586120605 0.27599999308586120605 0.27599999308586120605 0.27599999308586120605 0.27599999308586120605 0.27599999308586120605 0.27599999308586120605 0.27599999308586120605 0.27599999308586120605 0.28174999356269836426 0.28174999356269836426 0.31624999642372131348 0.27599999308586120605 0.27599999308586120605 0.27599999308586120605 0.27599999308586120605 0.27599999308586120605 0.27599999308586120605 0.27599999308586120605 0.27599999308586120605 0.27599999308586120605 0.27599999308586120605 0.27599999308586120605 0.27599999308586120605 0.27599999308586120605 0.27599999308586120605 0.27599999308586120605 0.27599999308586120605 0.27599999308586120605 0.27599999308586120605 0.27599999308586120605 0.27599999308586120605 0.27599999308586120605 0.28749999403953552246 0.27599999308586120605 0.27599999308586120605 0.28174999356269836426 0.41973122954368591309 0.27599999308586120605 0.27599999308586120605 0.94866871833801269531 1.1038999557495117188 0.27599999308586120605 0.27599999308586120605 0.27599999308586120605 0.4484812319278717041 0.34499374032020568848 0.94866871833801269531 1.1038999557495117188 0.8739312291145324707 0.64396250247955322266 0.91417497396469116211 0.76469373703002929688 0.4139874875545501709 0.27599999308586120605 0.28174999356269836426 0.9026749730110168457 1.1038999557495117188 0.56921875476837158203 0.35648748278617858887 0.30474373698234558105 0.27599999308586120605 0.27599999308586120605 
0.27599999308586120605 0.27599999308586120605 0.27599999308586120605 0.27599999308586120605 0.27599999308586120605 0.27599999308586120605 0.27599999308586120605 0.27599999308586120605 0.27599999308586120605 0.27599999308586120605 0.27599999308586120605 0.27599999308586120605 0.27599999308586120605 0.27599999308586120605 0.27599999308586120605 0.27599999308586120605 0.27599999308586120605 0.27599999308586120605 0.27599999308586120605 0.27599999308586120605 0.27599999308586120605 0.27599999308586120605 0.27599999308586120605 0.27599999308586120605 0.27599999308586120605 0.27599999308586120605 0.27599999308586120605 0.27599999308586120605 0.27599999308586120605 0.27599999308586120605 0.27599999308586120605 0.47147500514984130859 0.28749999403953552246 0.30474373698234558105 0.27599999308586120605 0.37948748469352722168 0.37948748469352722168 0.27599999308586120605 0.27599999308586120605 0.27599999308586120605 0.27599999308586120605 0.27599999308586120605 0.27599999308586120605 0.27599999308586120605 0.27599999308586120605 0.27599999308586120605 0.27599999308586120605 0.27599999308586120605 0.27599999308586120605 0.27599999308586120605 0.27599999308586120605 0.27599999308586120605 0.27599999308586120605 0.27599999308586120605 0.27599999308586120605 0.27599999308586120605 0.27599999308586120605 0.38523748517036437988 0.60946249961853027344 0.48872497677803039551 0.27599999308586120605 0.27599999308586120605 0.27599999308586120605 0.27599999308586120605 0.60946249961853027344 0.68994998931884765625 0.27599999308586120605 0.27599999308586120605 0.27599999308586120605 0.27599999308586120605 0.27599999308586120605 0.62096250057220458984 0.78194373846054077148 0.77619373798370361328 0.73019999265670776367 1.0061624050140380859 0.82793748378753662109 0.28749999403953552246 0.38523748517036437988 0.64395624399185180664 0.96591871976852416992 1.0579061508178710938 0.67845624685287475586 0.34499374032020568848 0.61521250009536743164 0.4369812309741973877 0.29899999499320983887 
0.27599999308586120605 0.27599999308586120605 0.27599999308586120605 0.27599999308586120605 0.27599999308586120605 0.27599999308586120605 0.27599999308586120605 0.27599999308586120605 0.27599999308586120605 0.27599999308586120605 0.27599999308586120605 0.27599999308586120605 0.27599999308586120605 0.27599999308586120605 0.27599999308586120605 0.27599999308586120605 0.27599999308586120605 0.27599999308586120605 0.27599999308586120605 0.27599999308586120605 0.27599999308586120605 0.27599999308586120605 0.27599999308586120605 0.27599999308586120605 0.27599999308586120605 0.27599999308586120605 0.27599999308586120605 0.27599999308586120605 0.27599999308586120605 0.37948748469352722168 0.39098748564720153809 0.33924373984336853027 0.27599999308586120605 0.27599999308586120605 0.27599999308586120605 0.27599999308586120605 0.27599999308586120605 0.27599999308586120605 0.27599999308586120605 0.27599999308586120605 0.27599999308586120605 0.27599999308586120605 0.27599999308586120605 0.27599999308586120605 0.27599999308586120605 0.27599999308586120605 0.27599999308586120605 0.27599999308586120605 0.27599999308586120605 0.27599999308586120605 0.27599999308586120605 0.27599999308586120605 0.39098748564720153809 0.50597500801086425781 0.27599999308586120605 0.27599999308586120605 0.27599999308586120605 0.27599999308586120605 0.60371249914169311523 0.91417497396469116211 0.27599999308586120605 0.27599999308586120605 0.27599999308586120605 0.49064165353775024414 1.0425750017166137695 0.64395552873611450195 0.27599999308586120605 0.36798888444900512695 0.29015383124351501465 0.28749999403953552246 0.54046875238418579102 0.75894373655319213867 0.73594999313354492188 0.64395624399185180664 0.29899999499320983887 0.55196875333786010742 0.96591871976852416992 0.27599999308586120605 0.39098748564720153809 0.76469373703002929688 0.8681812286376953125 0.91417497396469116211 0.66120624542236328125 0.68994998931884765625 0.80493748188018798828 0.91417497396469116211 1.1038999557495117188 
0.27599999308586120605 0.27599999308586120605 0.27599999308586120605 0.27599999308586120605 0.27599999308586120605 0.27599999308586120605 0.27599999308586120605 0.27599999308586120605 0.27599999308586120605 0.27599999308586120605 0.27599999308586120605 0.27599999308586120605 0.27599999308586120605 0.27599999308586120605 0.27599999308586120605 0.27599999308586120605 0.27599999308586120605 0.27599999308586120605 0.27599999308586120605 0.27599999308586120605 0.27599999308586120605 0.27599999308586120605 0.27599999308586120605 0.27599999308586120605 0.27599999308586120605 0.27599999308586120605 0.27599999308586120605 0.27599999308586120605 0.27599999308586120605 0.64395624399185180664 0.31049373745918273926 0.27599999308586120605 0.27599999308586120605 0.27599999308586120605 0.27599999308586120605 0.27599999308586120605 0.27599999308586120605 0.27599999308586120605 0.27599999308586120605 0.27599999308586120605 0.27599999308586120605 0.27599999308586120605 0.27599999308586120605 0.27599999308586120605 0.27599999308586120605 0.27599999308586120605 0.27599999308586120605 0.27599999308586120605 0.27599999308586120605 0.27599999308586120605 0.33348748087882995605 0.27599999308586120605 0.27599999308586120605 0.27599999308586120605 0.28749999403953552246 0.27599999308586120605 0.27599999308586120605 0.27599999308586120605 0.38523748517036437988 1.0061624050140380859 0.39098748564720153809 0.27599999308586120605 0.49830833077430725098 0.36224374175071716309 1.0004124641418457031 1.0004124641418457031 0.27599999308586120605 0.51364165544509887695 0.45998123288154602051 0.4542312324047088623 0.61521250009536743164 0.61521250009536743164 0.63246250152587890625 0.4484812319278717041 0.33924373984336853027 0.33349373936653137207 0.80493748188018798828 0.27599999308586120605 0.28174999356269836426 0.27599999308586120605 0.4369812309741973877 0.62096250057220458984 0.8681812286376953125 0.54046875238418579102 0.34499374032020568848 0.27599999308586120605 0.50597500801086425781 
0.27599999308586120605 0.27599999308586120605 0.27599999308586120605 0.27599999308586120605 0.27599999308586120605 0.27599999308586120605 0.27599999308586120605 0.27599999308586120605 0.27599999308586120605 0.27599999308586120605 0.27599999308586120605 0.27599999308586120605 0.27599999308586120605 0.27599999308586120605 0.27599999308586120605 0.27599999308586120605 0.27599999308586120605 0.27599999308586120605 0.27599999308586120605 0.27599999308586120605 0.27599999308586120605 0.27599999308586120605 0.27599999308586120605 0.27599999308586120605 0.32199999690055847168 0.27599999308586120605 0.27599999308586120605 0.27599999308586120605 0.27599999308586120605 0.28174999356269836426 0.27599999308586120605 0.27599999308586120605 0.27599999308586120605 0.27599999308586120605 0.27599999308586120605 0.27599999308586120605 0.27599999308586120605 0.27599999308586120605 0.27599999308586120605 0.27599999308586120605 0.27599999308586120605 0.27599999308586120605 0.27599999308586120605 0.27599999308586120605 0.27599999308586120605 0.27599999308586120605 0.27599999308586120605 0.27599999308586120605 0.27599999308586120605 0.4082374870777130127 0.61519998311996459961 0.35074374079704284668 0.27599999308586120605 0.32774373888969421387 0.30474999547004699707 0.27599999308586120605 0.27599999308586120605 0.28749999403953552246 0.4484812319278717041 0.68420624732971191406 0.27599999308586120605 0.27599999308586120605 0.29899999499320983887 0.50951534509658813477 0.7206166386604309082 0.98889994621276855469 0.27599999308586120605 0.47019997239112854004 0.34676152467727661133 0.39098748564720153809 0.27599999308586120605 0.71294999122619628906 0.64396250247955322266 0.35074374079704284668 0.28749999403953552246 0.85093122720718383789 0.55771875381469726562 0.27599999308586120605 0.28749999403953552246 0.27599999308586120605 0.4369812309741973877 0.52896875143051147461 0.67269998788833618164 0.61521250009536743164 0.27599999308586120605 0.37948748469352722168 1.1038999557495117188 
0.27599999308586120605 0.27599999308586120605 0.27599999308586120605 0.27599999308586120605 0.27599999308586120605 0.27599999308586120605 0.27599999308586120605 0.27599999308586120605 0.27599999308586120605 0.27599999308586120605 0.27599999308586120605 0.27599999308586120605 0.27599999308586120605 0.27599999308586120605 0.27599999308586120605 0.27599999308586120605 0.27599999308586120605 0.27599999308586120605 0.27599999308586120605 0.27599999308586120605 0.27599999308586120605 0.27599999308586120605 0.27599999308586120605 0.27599999308586120605 0.27599999308586120605 0.27599999308586120605 0.27599999308586120605 0.47720623016357421875 0.36223125457763671875 0.30474999547004699707 0.28174999356269836426 0.27599999308586120605 0.27599999308586120605 0.27599999308586120605 0.27599999308586120605 0.27599999308586120605 0.27599999308586120605 0.27599999308586120605 0.27599999308586120605 0.27599999308586120605 0.27599999308586120605 0.27599999308586120605 0.27599999308586120605 0.27599999308586120605 0.27599999308586120605 0.27599999308586120605 0.27599999308586120605 0.38523748517036437988 0.35074374079704284668 0.55196875333786010742 0.36799374222755432129 0.51747500896453857422 0.28174999356269836426 0.56921875476837158203 0.43123123049736022949 0.27599999308586120605 0.27599999308586120605 0.36224374175071716309 0.33349373936653137207 0.51747500896453857422 0.27599999308586120605 0.40247499942779541016 0.73594999313354492188 0.71294999122619628906 0.90459161996841430664 1.1827213764190673828 0.3449916541576385498 0.39559000730514526367 0.5388285517692565918 0.53472501039505004883 0.4369812309741973877 0.70144999027252197266 0.82218748331069946289 0.51172500848770141602 0.4484812319278717041 0.33349373936653137207 0.28174999356269836426 0.27599999308586120605 0.49447497725486755371 0.43123123049736022949 0.68994998931884765625 0.54046875238418579102 0.36798748373985290527 0.40248748660087585449 0.28174999356269836426 0.27599999308586120605 0.8969249725341796875 
0.27599999308586120605 0.27599999308586120605 0.27599999308586120605 0.27599999308586120605 0.27599999308586120605 0.27599999308586120605 0.27599999308586120605 0.27599999308586120605 0.27599999308586120605 0.27599999308586120605 0.27599999308586120605 0.27599999308586120605 0.27599999308586120605 0.27599999308586120605 0.27599999308586120605 0.27599999308586120605 0.27599999308586120605 0.27599999308586120605 0.27599999308586120605 0.27599999308586120605 0.27599999308586120605 0.27599999308586120605 0.27599999308586120605 0.27599999308586120605 0.27599999308586120605 0.27599999308586120605 0.27599999308586120605 0.27599999308586120605 0.30474373698234558105 0.28174999356269836426 0.33924373984336853027 0.27599999308586120605 0.27599999308586120605 0.27599999308586120605 0.27599999308586120605 0.27599999308586120605 0.27599999308586120605 0.27599999308586120605 0.27599999308586120605 0.27599999308586120605 0.27599999308586120605 0.27599999308586120605 0.27599999308586120605 0.27599999308586120605 0.27599999308586120605 0.27599999308586120605 0.33349373936653137207 0.27599999308586120605 0.27599999308586120605 0.32774373888969421387 0.28749999403953552246 0.56346875429153442383 0.37374374270439147949 0.28749999403953552246 0.37948748469352722168 0.27599999308586120605 0.34499374032020568848 0.27599999308586120605 0.54621875286102294922 0.47148123383522033691 0.36799165606498718262 0.27599999308586120605 0.5826333165168762207 0.29899999499320983887 0.72674995660781860352 0.98124998807907104492 0.33924373984336853027 0.27599999308586120605 0.50597858428955078125 0.63246250152587890625 0.29324999451637268066 0.38523748517036437988 0.48873123526573181152 0.50022500753402709961 0.38523748517036437988 0.27599999308586120605 0.27599999308586120605 0.33349373936653137207 0.33349373936653137207 0.79343748092651367188 0.54621875286102294922 0.43123123049736022949 0.27599999308586120605 0.27599999308586120605 0.37373125553131103516 0.29324999451637268066 0.68994998931884765625 
0.27599999308586120605 0.27599999308586120605 0.27599999308586120605 0.27599999308586120605 0.27599999308586120605 0.27599999308586120605 0.27599999308586120605 0.27599999308586120605 0.27599999308586120605 0.27599999308586120605 0.27599999308586120605 0.27599999308586120605 0.27599999308586120605 0.27599999308586120605 0.27599999308586120605 0.27599999308586120605 0.27599999308586120605 0.27599999308586120605 0.27599999308586120605 0.27599999308586120605 0.27599999308586120605 0.27599999308586120605 0.27599999308586120605 0.27599999308586120605 0.27599999308586120605 0.27599999308586120605 0.27599999308586120605 0.27599999308586120605 0.32774373888969421387 0.53471875190734863281 0.27599999308586120605 0.27599999308586120605 0.27599999308586120605 0.27599999308586120605 0.27599999308586120605 0.27599999308586120605 0.27599999308586120605 0.27599999308586120605 0.27599999308586120605 0.27599999308586120605 0.27599999308586120605 0.27599999308586120605 0.27599999308586120605 0.27599999308586120605 0.27599999308586120605 0.27599999308586120605 0.27599999308586120605 0.27599999308586120605 0.28174999356269836426 0.79343748092651367188 0.74169373512268066406 0.82218748331069946289 0.31624999642372131348 0.35649374127388000488 0.54622501134872436523 0.33349373936653137207 0.39098748564720153809 0.28174999356269836426 0.48872497677803039551 0.4484812319278717041 0.28366667032241821289 0.27599999308586120605 0.28213334083557128906 0.83815550804138183594 1.1038999557495117188 0.91992306709289550781 0.63246250152587890625 0.49830833077430725098 0.55771875381469726562 0.39098748564720153809 0.27599999308586120605 0.27599999308586120605 0.27599999308586120605 0.29899999499320983887 0.4484812319278717041 0.28174999356269836426 0.33349373936653137207 0.64395624399185180664 0.31049999594688415527 0.50597500801086425781 0.43123123049736022949 0.27599999308586120605 0.27599999308586120605 0.27599999308586120605 0.27599999308586120605 0.33924373984336853027 0.64392501115798950195 
0.27599999308586120605 0.27599999308586120605 0.27599999308586120605 0.27599999308586120605 0.27599999308586120605 0.27599999308586120605 0.27599999308586120605 0.27599999308586120605 0.27599999308586120605 0.27599999308586120605 0.27599999308586120605 0.27599999308586120605 0.27599999308586120605 0.27599999308586120605 0.27599999308586120605 0.27599999308586120605 0.27599999308586120605 0.27599999308586120605 0.27599999308586120605 0.27599999308586120605 0.27599999308586120605 0.27599999308586120605 0.27599999308586120605 0.27599999308586120605 0.27599999308586120605 0.27599999308586120605 0.27599999308586120605 0.27599999308586120605 0.43123123049736022949 0.74169373512268066406 0.27599999308586120605 0.32774373888969421387 0.32774373888969421387 0.27599999308586120605 0.27599999308586120605 0.27599999308586120605 0.27599999308586120605 0.27599999308586120605 0.27599999308586120605 0.27599999308586120605 0.27599999308586120605 0.27599999308586120605 0.27599999308586120605 0.27599999308586120605 0.28174999356269836426 0.27599999308586120605 0.27599999308586120605 0.27599999308586120605 0.68994998931884765625 0.64395624399185180664 0.59796249866485595703 0.78194373846054077148 0.58646875619888305664 0.33924373984336853027 0.35649374127388000488 0.33924373984336853027 0.56346875429153442383 0.39098748564720153809 0.32774373888969421387 0.35265833139419555664 0.33349373936653137207 0.27599999308586120605 0.32774373888969421387 0.8585999608039855957 0.8624312281608581543 0.49447497725486755371 0.32774373888969421387 0.36032497882843017578 0.28749999403953552246 0.27599999308586120605 0.27599999308586120605 0.32774373888969421387 0.39098748564720153809 0.55196875333786010742 0.53471875190734863281 0.60946249961853027344 0.48872497677803039551 0.33349373936653137207 0.34499374032020568848 0.85668122768402099609 0.64395624399185180664 0.27599999308586120605 0.27599999308586120605 0.27599999308586120605 0.27599999308586120605 0.27599999308586120605 0.27599999308586120605 
0.27599999308586120605 0.27599999308586120605 0.27599999308586120605 0.27599999308586120605 0.27599999308586120605 0.27599999308586120605 0.27599999308586120605 0.27599999308586120605 0.27599999308586120605 0.27599999308586120605 0.27599999308586120605 0.27599999308586120605 0.27599999308586120605 0.27599999308586120605 0.27599999308586120605 0.27599999308586120605 0.27599999308586120605 0.27599999308586120605 0.32774373888969421387 0.27599999308586120605 0.27599999308586120605 0.27599999308586120605 0.27599999308586120605 0.27599999308586120605 0.27599999308586120605 0.27599999308586120605 0.27599999308586120605 0.27599999308586120605 0.52896249294281005859 0.28174999356269836426 0.27599999308586120605 0.32774373888969421387 0.27599999308586120605 0.27599999308586120605 0.27599999308586120605 0.27599999308586120605 0.27599999308586120605 0.27599999308586120605 0.27599999308586120605 0.27599999308586120605 0.27599999308586120605 0.32774373888969421387 0.48872497677803039551 0.33349373936653137207 0.39673748612403869629 0.27599999308586120605 0.27599999308586120605 0.33349373936653137207 0.43123123049736022949 0.33349373936653137207 0.65545624494552612305 0.51747500896453857422 0.29899999499320983887 0.29324999451637268066 0.29324999451637268066 0.27599999308586120605 0.4542312324047088623 0.53472501039505004883 0.66695624589920043945 0.46573123335838317871 0.27599999308586120605 0.27599999308586120605 0.27599999308586120605 0.77683329582214355469 0.72444999217987060547 0.27599999308586120605 0.27599999308586120605 0.33349373936653137207 0.27599999308586120605 0.27599999308586120605 0.27599999308586120605 0.38523748517036437988 0.39673748612403869629 0.91417497396469116211 1.0119124650955200195 0.71869999170303344727 0.33349373936653137207 0.27599999308586120605 0.32774373888969421387 0.64395624399185180664 0.37948748469352722168 0.32774373888969421387 0.27599999308586120605 0.27599999308586120605 0.33348748087882995605 0.27599999308586120605 0.68994998931884765625 
0.27599999308586120605 0.27599999308586120605 0.27599999308586120605 0.27599999308586120605 0.27599999308586120605 0.27599999308586120605 0.27599999308586120605 0.27599999308586120605 0.27599999308586120605 0.27599999308586120605 0.27599999308586120605 0.27599999308586120605 0.27599999308586120605 0.27599999308586120605 0.27599999308586120605 0.27599999308586120605 0.27599999308586120605 0.27599999308586120605 0.27599999308586120605 0.27599999308586120605 0.27599999308586120605 0.27599999308586120605 0.27599999308586120605 0.44846248626708984375 0.30474373698234558105 0.27599999308586120605 0.35074374079704284668 0.27599999308586120605 0.59796249866485595703 0.34499374032020568848 0.41971874237060546875 0.30474373698234558105 0.27599999308586120605 0.27599999308586120605 0.27599999308586120605 0.27599999308586120605 0.27599999308586120605 0.27599999308586120605 0.27599999308586120605 0.27599999308586120605 0.27599999308586120605 0.35074374079704284668 0.50597500801086425781 0.48872497677803039551 0.27599999308586120605 0.27599999308586120605 0.43123123049736022949 0.8739312291145324707 0.48872497677803039551 0.4197374880313873291 0.27599999308586120605 0.27599999308586120605 0.27599999308586120605 0.27599999308586120605 0.30474373698234558105 0.59220623970031738281 0.38523748517036437988 0.68420624732971191406 0.34499374032020568848 0.37948748469352722168 0.4829749763011932373 0.27599999308586120605 0.68994998931884765625 0.63629162311553955078 0.8739312291145324707 0.29899999499320983887 0.27599999308586120605 0.70719373226165771484 0.37373125553131103516 0.27599999308586120605 0.27599999308586120605 0.27599999308586120605 0.27599999308586120605 0.63820624351501464844 0.85668122768402099609 0.35649374127388000488 0.60946249961853027344 0.27599999308586120605 0.27599999308586120605 0.55196875333786010742 0.27599999308586120605 0.27599999308586120605 0.27599999308586120605 0.27599999308586120605 0.29324999451637268066 0.33349373936653137207 0.68994998931884765625 
0.27599999308586120605 0.27599999308586120605 0.27599999308586120605 0.27599999308586120605 0.27599999308586120605 0.27599999308586120605 0.27599999308586120605 0.27599999308586120605 0.27599999308586120605 0.27599999308586120605 0.27599999308586120605 0.27599999308586120605 0.27599999308586120605 0.27599999308586120605 0.27599999308586120605 0.27599999308586120605 0.27599999308586120605 0.27599999308586120605 0.27599999308586120605 0.27599999308586120605 0.27599999308586120605 0.27599999308586120605 0.39673748612403869629 0.41971874237060546875 0.33348748087882995605 0.27599999308586120605 0.28174999356269836426 0.27599999308586120605 0.69569998979568481445 0.28749999403953552246 0.41971874237060546875 0.27599999308586120605 0.27599999308586120605 0.27599999308586120605 0.27599999308586120605 0.27599999308586120605 0.27599999308586120605 0.27599999308586120605 0.27599999308586120605 0.28174999356269836426 0.27599999308586120605 0.27599999308586120605 0.27599999308586120605 0.27599999308586120605 0.27599999308586120605 0.27599999308586120605 0.28174999356269836426 0.49447497725486755371 0.74744373559951782227 0.33924373984336853027 0.27599999308586120605 0.27599999308586120605 0.27599999308586120605 0.27599999308586120605 0.36223125457763671875 0.64392501115798950195 0.66119998693466186523 0.8739312291145324707 0.4369812309741973877 0.58646249771118164062 0.98124998807907104492 0.39098748564720153809 0.9475199580192565918 0.6439571380615234375 0.91992497444152832031 0.29133331775665283203 0.49447497725486755371 0.39098748564720153809 0.29324999451637268066 0.27599999308586120605 0.27599999308586120605 0.27599999308586120605 0.27599999308586120605 0.75319373607635498047 0.80493748188018798828 0.33924373984336853027 0.4369812309741973877 0.27599999308586120605 0.55771875381469726562 0.55771875381469726562 0.27599999308586120605 0.27599999308586120605 0.36223125457763671875 0.27599999308586120605 0.27599999308586120605 0.59221249818801879883 0.34499999880790710449 
0.27599999308586120605 0.27599999308586120605 0.27599999308586120605 0.27599999308586120605 0.27599999308586120605 0.27599999308586120605 0.27599999308586120605 0.27599999308586120605 0.27599999308586120605 0.27599999308586120605 0.27599999308586120605 0.27599999308586120605 0.27599999308586120605 0.27599999308586120605 0.27599999308586120605 0.27599999308586120605 0.27599999308586120605 0.27599999308586120605 0.27599999308586120605 0.27599999308586120605 0.27599999308586120605 0.27599999308586120605 0.27599999308586120605 0.27599999308586120605 0.27599999308586120605 0.27599999308586120605 0.32774373888969421387 0.4829749763011932373 0.60371249914169311523 0.33348748087882995605 0.54620623588562011719 0.27599999308586120605 0.27599999308586120605 0.27599999308586120605 0.27599999308586120605 0.27599999308586120605 0.27599999308586120605 0.4542312324047088623 0.33924373984336853027 0.4484812319278717041 0.27599999308586120605 0.27599999308586120605 0.27599999308586120605 0.27599999308586120605 0.64970624446868896484 0.27599999308586120605 0.27599999308586120605 0.27599999308586120605 0.32774373888969421387 0.27599999308586120605 0.27599999308586120605 0.27599999308586120605 0.27599999308586120605 0.27599999308586120605 0.27599999308586120605 0.35074374079704284668 0.67270624637603759766 0.52896875143051147461 0.58646875619888305664 0.47019997239112854004 0.5335699915885925293 0.36032497882843017578 0.91992217302322387695 0.79727494716644287109 1.0119110345840454102 0.42931663990020751953 0.28174999356269836426 0.28174999356269836426 0.36224374175071716309 0.27599999308586120605 0.27599999308586120605 0.27599999308586120605 0.27599999308586120605 0.36223748326301574707 0.28174999356269836426 0.27599999308586120605 0.33924373984336853027 0.4484812319278717041 0.55771875381469726562 0.37948748469352722168 0.27599999308586120605 0.27599999308586120605 0.27599999308586120605 0.27599999308586120605 0.43123123049736022949 0.4427312314510345459 0.4829749763011932373 
0.27599999308586120605 0.27599999308586120605 0.27599999308586120605 0.27599999308586120605 0.27599999308586120605 0.27599999308586120605 0.27599999308586120605 0.27599999308586120605 0.27599999308586120605 0.27599999308586120605 0.27599999308586120605 0.27599999308586120605 0.27599999308586120605 0.27599999308586120605 0.27599999308586120605 0.27599999308586120605 0.27599999308586120605 0.27599999308586120605 0.27599999308586120605 0.27599999308586120605 0.27599999308586120605 0.27599999308586120605 0.27599999308586120605 0.39097499847412109375 0.27599999308586120605 0.27599999308586120605 0.33924373984336853027 0.37948748469352722168 0.49447497725486755371 0.51172500848770141602 0.4829749763011932373 0.27599999308586120605 0.27599999308586120605 0.27599999308586120605 0.27599999308586120605 0.36223125457763671875 0.27599999308586120605 0.33349373936653137207 0.27599999308586120605 0.39098122715950012207 0.4427312314510345459 0.27599999308586120605 0.27599999308586120605 0.27599999308586120605 0.37948748469352722168 0.27599999308586120605 0.27599999308586120605 0.27599999308586120605 0.27599999308586120605 0.27599999308586120605 0.27599999308586120605 0.27599999308586120605 0.27599999308586120605 0.39097499847412109375 0.27599999308586120605 0.35649374127388000488 0.57496875524520874023 0.45998123288154602051 0.31138461828231811523 0.33349373936653137207 0.758941650390625 0.79343748092651367188 0.77044373750686645508 0.37374374270439147949 0.39098748564720153809 0.28213334083557128906 0.63475996255874633789 0.29324999451637268066 0.28174999356269836426 0.27599999308586120605 0.27599999308586120605 0.27599999308586120605 0.27599999308586120605 0.30474373698234558105 0.27599999308586120605 0.27599999308586120605 0.27599999308586120605 0.43123123049736022949 0.71294999122619628906 0.33349373936653137207 0.27599999308586120605 0.27599999308586120605 0.27599999308586120605 0.33349373936653137207 0.60946249961853027344 0.43123123049736022949 0.4829749763011932373 
0.27599999308586120605 0.27599999308586120605 0.27599999308586120605 0.27599999308586120605 0.27599999308586120605 0.27599999308586120605 0.27599999308586120605 0.27599999308586120605 0.27599999308586120605 0.27599999308586120605 0.27599999308586120605 0.27599999308586120605 0.27599999308586120605 0.27599999308586120605 0.27599999308586120605 0.27599999308586120605 0.27599999308586120605 0.27599999308586120605 0.27599999308586120605 0.27599999308586120605 0.27599999308586120605 0.36223125457763671875 0.27599999308586120605 0.27599999308586120605 0.27599999308586120605 0.27599999308586120605 0.33349373936653137207 0.27599999308586120605 0.79918748140335083008 0.59796249866485595703 0.63820624351501464844 0.32774373888969421387 0.27599999308586120605 0.27599999308586120605 0.35648748278617858887 0.30474373698234558105 0.27599999308586120605 0.27599999308586120605 0.27599999308586120605 0.36223125457763671875 0.36798748373985290527 0.27599999308586120605 0.27599999308586120605 0.27599999308586120605 0.27599999308586120605 0.30474373698234558105 0.30474373698234558105 0.27599999308586120605 0.27599999308586120605 0.27599999308586120605 0.30474373698234558105 0.27599999308586120605 0.28174999356269836426 0.44846248626708984375 0.27599999308586120605 0.4427312314510345459 0.56346875429153442383 0.50597500801086425781 0.34755554795265197754 0.34676152467727661133 0.62980765104293823242 0.79113996028900146484 0.36224374175071716309 0.27599999308586120605 0.27599999308586120605 0.27599999308586120605 0.78851425647735595703 0.74821329116821289062 0.77044373750686645508 0.48872497677803039551 0.34676152467727661133 0.27599999308586120605 0.27599999308586120605 0.27599999308586120605 0.39097499847412109375 0.58646249771118164062 0.63820624351501464844 0.55196875333786010742 0.91417497396469116211 0.49447497725486755371 0.30474373698234558105 0.30474373698234558105 0.27599999308586120605 0.27599999308586120605 0.28174999356269836426 0.27599999308586120605 0.27599999308586120605 
0.27599999308586120605 0.27599999308586120605 0.27599999308586120605 0.27599999308586120605 0.27599999308586120605 0.27599999308586120605 0.27599999308586120605 0.27599999308586120605 0.27599999308586120605 0.27599999308586120605 0.27599999308586120605 0.27599999308586120605 0.27599999308586120605 0.27599999308586120605 0.27599999308586120605 0.27599999308586120605 0.27599999308586120605 0.27599999308586120605 0.27599999308586120605 0.27599999308586120605 0.27599999308586120605 0.27599999308586120605 0.27599999308586120605 0.27599999308586120605 0.27599999308586120605 0.27599999308586120605 0.60371249914169311523 0.36224374175071716309 0.75319373607635498047 1.0004124641418457031 1.1038999557495117188 1.1038999557495117188 0.58646249771118164062 0.34499374032020568848 0.33924373984336853027 0.27599999308586120605 0.27599999308586120605 0.27599999308586120605 0.27599999308586120605 0.33348748087882995605 0.33348748087882995605 0.27599999308586120605 0.27599999308586120605 0.27599999308586120605 0.27599999308586120605 0.27599999308586120605 0.30474373698234558105 0.27599999308586120605 0.27599999308586120605 0.30474373698234558105 0.41971874237060546875 0.33924373984336853027 0.38523748517036437988 0.27599999308586120605 0.4829749763011932373 0.48871874809265136719 0.49446874856948852539 0.27599999308586120605 0.4829749763011932373 1.0211099386215209961 0.91417497396469116211 0.33349373936653137207 0.27599999308586120605 0.27599999308586120605 0.42164999246597290039 0.87392854690551757812 1.0119124650955200195 1.0119124650955200195 0.35484999418258666992 0.33348748087882995605 0.41971874237060546875 0.27599999308586120605 0.27599999308586120605 0.27599999308586120605 0.49446249008178710938 0.43697500228881835938 0.28174999356269836426 0.43123123049736022949 0.54046875238418579102 0.4542312324047088623 0.33348748087882995605 0.27599999308586120605 0.27599999308586120605 0.27599999308586120605 0.27599999308586120605 0.36223125457763671875 0.27599999308586120605 
0.27599999308586120605 0.27599999308586120605 0.27599999308586120605 0.27599999308586120605 0.27599999308586120605 0.27599999308586120605 0.27599999308586120605 0.27599999308586120605 0.27599999308586120605 0.27599999308586120605 0.27599999308586120605 0.27599999308586120605 0.27599999308586120605 0.27599999308586120605 0.27599999308586120605 0.27599999308586120605 0.27599999308586120605 0.27599999308586120605 0.27599999308586120605 0.27599999308586120605 0.27599999308586120605 0.27599999308586120605 0.27599999308586120605 0.27599999308586120605 0.27599999308586120605 0.27599999308586120605 0.37948748469352722168 0.76469373703002929688 0.30474999547004699707 0.74744373559951782227 1.0004124641418457031 0.82218748331069946289 0.4829749763011932373 0.27599999308586120605 0.27599999308586120605 0.27599999308586120605 0.27599999308586120605 0.27599999308586120605 0.33349373936653137207 0.27599999308586120605 0.27599999308586120605 0.27599999308586120605 0.27599999308586120605 0.27599999308586120605 0.27599999308586120605 0.33348748087882995605 0.30474373698234558105 0.27599999308586120605 0.27599999308586120605 0.41971874237060546875 0.47720623016357421875 0.27599999308586120605 0.54621875286102294922 0.27599999308586120605 0.63820624351501464844 0.47147500514984130859 0.4082374870777130127 0.55196923017501831055 0.41398331522941589355 0.68995624780654907227 0.64970624446868896484 0.27599999308586120605 0.27599999308586120605 0.27599999308586120605 0.63688457012176513672 0.33119332790374755859 0.51254284381866455078 0.33968460559844970703 0.4599799811840057373 0.27599999308586120605 0.27599999308586120605 0.27599999308586120605 0.27599999308586120605 0.27599999308586120605 0.27599999308586120605 0.27599999308586120605 0.27599999308586120605 0.37948748469352722168 0.33349373936653137207 0.27599999308586120605 0.27599999308586120605 0.27599999308586120605 0.27599999308586120605 0.27599999308586120605 0.27599999308586120605 0.27599999308586120605 0.27599999308586120605 
0.27599999308586120605 0.27599999308586120605 0.27599999308586120605 0.27599999308586120605 0.27599999308586120605 0.27599999308586120605 0.27599999308586120605 0.27599999308586120605 0.27599999308586120605 0.27599999308586120605 0.27599999308586120605 0.27599999308586120605 0.27599999308586120605 0.37948748469352722168 0.37948748469352722168 0.32774373888969421387 0.30474373698234558105 0.27599999308586120605 0.27599999308586120605 0.27599999308586120605 0.27599999308586120605 0.27599999308586120605 0.27599999308586120605 0.29899999499320983887 0.32774373888969421387 0.27599999308586120605 0.28174999356269836426 0.34499374032020568848 0.66120624542236328125 0.63820624351501464844 0.33348748087882995605 0.36224374175071716309 0.40248748660087585449 0.27599999308586120605 0.34499374032020568848 0.27599999308586120605 0.32774373888969421387 0.38523748517036437988 0.48872497677803039551 0.27599999308586120605 0.27599999308586120605 0.35649374127388000488 0.55771875381469726562 0.27599999308586120605 0.27599999308586120605 0.28174999356269836426 0.27599999308586120605 0.27599999308586120605 0.27599999308586120605 0.27599999308586120605 0.37948748469352722168 0.32774373888969421387 0.27599999308586120605 0.27599999308586120605 0.27599999308586120605 0.37948748469352722168 0.27599999308586120605 0.31624999642372131348 0.27599999308586120605 0.72444999217987060547 0.49447497725486755371 0.4829749763011932373 0.29324999451637268066 0.36798888444900512695 0.95441871881484985352 0.51747500896453857422 0.27599999308586120605 0.27599999308586120605 0.27599999308586120605 0.27599999308586120605 0.27599999308586120605 0.27599999308586120605 0.27599999308586120605 0.27599999308586120605 0.36798888444900512695 0.27599999308586120605 0.4829749763011932373 0.68994998931884765625 0.28749999403953552246 0.27599999308586120605 0.27599999308586120605 0.27599999308586120605 0.27599999308586120605 0.27599999308586120605 0.27599999308586120605 0.27599999308586120605 0.27599999308586120605 
0.27599999308586120605 0.27599999308586120605 0.27599999308586120605 0.27599999308586120605 0.27599999308586120605 0.27599999308586120605 0.27599999308586120605 0.27599999308586120605 0.27599999308586120605 0.27599999308586120605 0.27599999308586120605 0.27599999308586120605 0.43123123049736022949 0.43123123049736022949 0.27599999308586120605 0.27599999308586120605 0.27599999308586120605 0.27599999308586120605 0.27599999308586120605 0.27599999308586120605 0.27599999308586120605 0.27599999308586120605 0.33924373984336853027 0.28749999403953552246 0.51172500848770141602 0.29899999499320983887 0.29324999451637268066 0.4082374870777130127 0.33924373984336853027 0.50597500801086425781 0.65542501211166381836 0.56921249628067016602 0.27599999308586120605 0.28174999356269836426 0.28174999356269836426 0.28749999403953552246 0.64970624446868896484 0.32774373888969421387 0.27599999308586120605 0.27599999308586120605 0.27599999308586120605 0.33349373936653137207 0.28174999356269836426 0.27599999308586120605 0.27599999308586120605 0.33348748087882995605 0.36223125457763671875 0.27599999308586120605 0.27599999308586120605 0.27599999308586120605 0.27599999308586120605 0.27599999308586120605 0.32774373888969421387 0.27599999308586120605 0.27599999308586120605 0.27599999308586120605 0.27599999308586120605 0.28174999356269836426 0.55196666717529296875 0.64396250247955322266 0.61521250009536743164 0.32199999690055847168 0.45997777581214904785 0.28519999980926513672 0.40336921811103820801 0.69914996623992919922 0.27599999308586120605 0.27599999308586120605 0.27599999308586120605 0.27599999308586120605 0.27599999308586120605 0.35264998674392700195 0.27599999308586120605 0.27599999308586120605 0.27599999308586120605 0.32774373888969421387 0.74744373559951782227 0.50022500753402709961 0.27599999308586120605 0.27599999308586120605 0.27599999308586120605 0.37948748469352722168 0.27599999308586120605 0.27599999308586120605 0.27599999308586120605 0.27599999308586120605 0.27599999308586120605 
0.27599999308586120605 0.27599999308586120605 0.27599999308586120605 0.27599999308586120605 0.27599999308586120605 0.27599999308586120605 0.27599999308586120605 0.34499374032020568848 0.28174999356269836426 0.27599999308586120605 0.27599999308586120605 0.27599999308586120605 0.84518122673034667969 0.27599999308586120605 0.27599999308586120605 0.27599999308586120605 0.27599999308586120605 0.27599999308586120605 0.27599999308586120605 0.27599999308586120605 0.27599999308586120605 0.27599999308586120605 0.27599999308586120605 0.30474999547004699707 0.28749999403953552246 0.27599999308586120605 0.39673748612403869629 0.4369812309741973877 0.54046875238418579102 0.62096250057220458984 0.6266937255859375 0.61521250009536743164 0.65545624494552612305 0.55771875381469726562 0.70719999074935913086 0.74744373559951782227 0.64970624446868896484 0.53471875190734863281 0.33349373936653137207 0.39098748564720153809 0.37948748469352722168 0.27599999308586120605 0.27599999308586120605 0.27599999308586120605 0.27599999308586120605 0.41971874237060546875 0.47720623016357421875 0.39097499847412109375 0.27599999308586120605 0.27599999308586120605 0.27599999308586120605 0.4829749763011932373 0.64395624399185180664 0.27599999308586120605 0.27599999308586120605 0.27599999308586120605 0.28366667032241821289 0.27599999308586120605 0.72886919975280761719 0.82793748378753662109 0.62555998563766479492 0.32199999690055847168 0.27599999308586120605 0.3066666722297668457 0.27599999308586120605 0.27599999308586120605 0.27599999308586120605 0.27599999308586120605 0.27599999308586120605 0.27599999308586120605 0.27599999308586120605 0.27599999308586120605 0.27599999308586120605 0.27599999308586120605 0.27599999308586120605 0.27599999308586120605 0.39427140355110168457 0.44157999753952026367 0.27599999308586120605 0.27599999308586120605 0.27599999308586120605 0.68994998931884765625 0.27599999308586120605 0.27599999308586120605 0.27599999308586120605 0.27599999308586120605 0.27599999308586120605 
0.27599999308586120605 0.27599999308586120605 0.27599999308586120605 0.27599999308586120605 0.27599999308586120605 0.27599999308586120605 0.28174999356269836426 0.61521250009536743164 0.50597500801086425781 0.27599999308586120605 0.27599999308586120605 0.4829749763011932373 0.53471875190734863281 0.27599999308586120605 0.27599999308586120605 0.27599999308586120605 0.27599999308586120605 0.27599999308586120605 0.27599999308586120605 0.27599999308586120605 0.33348748087882995605 0.30474373698234558105 0.27599999308586120605 0.40248748660087585449 0.27599999308586120605 0.27599999308586120605 0.48872497677803039551 0.4542312324047088623 0.78194373846054077148 0.79918748140335083008 0.76469373703002929688 0.4829749763011932373 0.70719999074935913086 0.27599999308586120605 0.27599999308586120605 0.28749999403953552246 0.56346875429153442383 0.50597500801086425781 0.43123123049736022949 0.48872497677803039551 0.28174999356269836426 0.27599999308586120605 0.27599999308586120605 0.27599999308586120605 0.33348748087882995605 0.33348748087882995605 0.27599999308586120605 0.27599999308586120605 0.27599999308586120605 0.27599999308586120605 0.27599999308586120605 0.43123123049736022949 0.37948748469352722168 0.27599999308586120605 0.27599999308586120605 0.35484999418258666992 0.8969249725341796875 0.56921875476837158203 0.79113996028900146484 0.82793748378753662109 0.42931663990020751953 0.27599999308586120605 0.27599999308586120605 0.27599999308586120605 0.35074374079704284668 0.27599999308586120605 0.27599999308586120605 0.27599999308586120605 0.27599999308586120605 0.35878998041152954102 0.27599999308586120605 0.27599999308586120605 0.29324999451637268066 0.32199999690055847168 0.27599999308586120605 0.27599999308586120605 1.0004124641418457031 0.41398331522941589355 0.27599999308586120605 0.27599999308586120605 0.27599999308586120605 0.37948748469352722168 0.27599999308586120605 0.27599999308586120605 0.27599999308586120605 0.27599999308586120605 0.27599999308586120605 
0.27599999308586120605 0.27599999308586120605 0.27599999308586120605 0.27599999308586120605 0.27599999308586120605 0.27599999308586120605 0.37948748469352722168 0.37948748469352722168 0.27599999308586120605 0.28174999356269836426 0.58646249771118164062 0.74169373512268066406 0.27599999308586120605 0.27599999308586120605 0.27599999308586120605 0.27599999308586120605 0.27599999308586120605 0.30474373698234558105 0.30474373698234558105 0.33348748087882995605 0.39097499847412109375 0.27599999308586120605 0.27599999308586120605 0.27599999308586120605 0.27599999308586120605 0.27599999308586120605 0.39673748612403869629 0.60371249914169311523 0.68995624780654907227 0.76469373703002929688 0.59796249866485595703 0.52321249246597290039 0.59221249818801879883 0.27599999308586120605 0.27599999308586120605 0.39098748564720153809 0.37948748469352722168 0.50022500753402709961 0.27599999308586120605 0.27599999308586120605 0.27599999308586120605 0.27599999308586120605 0.27599999308586120605 0.27599999308586120605 0.27599999308586120605 0.27599999308586120605 0.28749999403953552246 0.4369812309741973877 0.27599999308586120605 0.27599999308586120605 0.27599999308586120605 0.27599999308586120605 0.27599999308586120605 0.27599999308586120605 0.27599999308586120605 0.27599999308586120605 0.41398569941520690918 0.33968460559844970703 0.65810763835906982422 0.63246250152587890625 0.27599999308586120605 0.27599999308586120605 0.27599999308586120605 0.28366667032241821289 0.27599999308586120605 0.27599999308586120605 0.27599999308586120605 0.27599999308586120605 0.27599999308586120605 0.27599999308586120605 0.27599999308586120605 0.27599999308586120605 0.36798888444900512695 0.32774373888969421387 0.27599999308586120605 0.27599999308586120605 1.1038999557495117188 0.55196666717529296875 0.27599999308586120605 0.43123123049736022949 0.27599999308586120605 0.32774373888969421387 0.27599999308586120605 0.36223125457763671875 0.27599999308586120605 0.27599999308586120605 0.27599999308586120605 
0.27599999308586120605 0.27599999308586120605 0.51172500848770141602 0.4082374870777130127 0.27599999308586120605 0.27599999308586120605 0.27599999308586120605 0.69569998979568481445 0.54046875238418579102 0.47723123431205749512 0.43123123049736022949 0.94866871833801269531 0.27599999308586120605 0.27599999308586120605 0.27599999308586120605 0.27599999308586120605 0.27599999308586120605 0.27599999308586120605 0.27599999308586120605 0.27599999308586120605 0.27599999308586120605 0.27599999308586120605 0.27599999308586120605 0.27599999308586120605 0.27599999308586120605 0.28174999356269836426 0.29899999499320983887 0.54046875238418579102 0.47723123431205749512 0.31624373793601989746 0.4657249748706817627 0.33924373984336853027 0.54621875286102294922 0.27599999308586120605 0.27599999308586120605 0.39673748612403869629 0.40248748660087585449 0.50597500801086425781 0.27599999308586120605 0.27599999308586120605 0.28174999356269836426 0.32774373888969421387 0.27599999308586120605 0.27599999308586120605 0.27599999308586120605 0.27599999308586120605 0.28749999403953552246 0.31049373745918273926 0.27599999308586120605 0.27599999308586120605 0.27599999308586120605 0.27599999308586120605 0.27599999308586120605 0.27599999308586120605 0.66120624542236328125 0.37948748469352722168 0.62555998563766479492 0.50597500801086425781 0.7666110992431640625 0.44273748993873596191 0.27599999308586120605 0.27599999308586120605 0.54173332452774047852 0.27599999308586120605 0.42929998040199279785 0.27599999308586120605 0.27599999308586120605 0.54173332452774047852 0.27599999308586120605 0.27599999308586120605 0.27599999308586120605 0.27599999308586120605 0.27599999308586120605 0.27599999308586120605 0.27599999308586120605 0.27599999308586120605 1.1038999557495117188 0.33119332790374755859 0.37948748469352722168 0.32774373888969421387 0.27599999308586120605 0.27599999308586120605 0.27599999308586120605 0.27599999308586120605 0.30474373698234558105 0.27599999308586120605 0.39097499847412109375 
0.27599999308586120605 0.27599999308586120605 0.27599999308586120605 0.28749999403953552246 0.27599999308586120605 0.27599999308586120605 0.27599999308586120605 0.48872497677803039551 0.63820624351501464844 0.51172500848770141602 0.27599999308586120605 0.4829749763011932373 0.27599999308586120605 0.27599999308586120605 0.27599999308586120605 0.27599999308586120605 0.27599999308586120605 0.27599999308586120605 0.27599999308586120605 0.27599999308586120605 0.27599999308586120605 0.4427312314510345459 0.27599999308586120605 0.27599999308586120605 0.27599999308586120605 0.28749999403953552246 0.32774373888969421387 0.29324999451637268066 0.35649374127388000488 0.29324999451637268066 0.34499374032020568848 0.33349373936653137207 0.70144999027252197266 0.27599999308586120605 0.27599999308586120605 0.30474373698234558105 0.62092500925064086914 0.59218126535415649414 0.30474373698234558105 0.27599999308586120605 0.36223125457763671875 0.33924373984336853027 0.27599999308586120605 0.27599999308586120605 0.27599999308586120605 0.27599999308586120605 0.27599999308586120605 0.4542312324047088623 0.39098748564720153809 0.27599999308586120605 0.27599999308586120605 0.27599999308586120605 0.27599999308586120605 0.4906444251537322998 0.43123123049736022949 0.27599999308586120605 0.4427312314510345459 0.65929162502288818359 0.82086151838302612305 0.8739312291145324707 0.29440000653266906738 0.27599999308586120605 0.27599999308586120605 0.27599999308586120605 0.27599999308586120605 0.27599999308586120605 0.27599999308586120605 0.27599999308586120605 0.27599999308586120605 0.42547500133514404297 0.27599999308586120605 0.27599999308586120605 0.27599999308586120605 0.27599999308586120605 0.27599999308586120605 0.27599999308586120605 0.27599999308586120605 0.27599999308586120605 0.32774373888969421387 0.32774373888969421387 0.27599999308586120605 0.27599999308586120605 0.27599999308586120605 0.27599999308586120605 0.30474373698234558105 0.30474373698234558105 0.27599999308586120605 
0.27599999308586120605 0.27599999308586120605 0.27599999308586120605 0.27599999308586120605 0.27599999308586120605 0.30474373698234558105 0.33349373936653137207 0.63820624351501464844 0.69569998979568481445 0.59796249866485595703 0.43123123049736022949 0.27599999308586120605 0.27599999308586120605 0.27599999308586120605 0.27599999308586120605 0.27599999308586120605 0.27599999308586120605 0.27599999308586120605 0.27599999308586120605 0.58646249771118164062 0.27599999308586120605 0.27599999308586120605 0.34499374032020568848 0.27599999308586120605 0.27599999308586120605 0.27599999308586120605 0.4484812319278717041 0.59796249866485595703 0.28749999403953552246 0.36223748326301574707 0.45422500371932983398 0.33924373984336853027 0.65545624494552612305 0.36799374222755432129 0.27599999308586120605 0.33348748087882995605 0.47720623016357421875 0.33348748087882995605 0.27599999308586120605 0.35073748230934143066 0.33924373984336853027 0.29324999451637268066 0.27599999308586120605 0.27599999308586120605 0.27599999308586120605 0.36223125457763671875 0.27599999308586120605 0.55196875333786010742 0.27599999308586120605 0.27599999308586120605 0.27599999308586120605 0.27599999308586120605 0.27599999308586120605 0.38523748517036437988 0.28174999356269836426 0.27599999308586120605 0.28257143497467041016 0.58735382556915283203 0.78194165229797363281 0.87039226293563842773 0.28366667032241821289 0.27599999308586120605 0.32774373888969421387 0.32774373888969421387 0.27599999308586120605 0.27599999308586120605 0.27599999308586120605 0.27599999308586120605 0.27599999308586120605 0.27599999308586120605 0.27599999308586120605 0.27599999308586120605 0.27599999308586120605 0.27599999308586120605 0.27599999308586120605 0.27599999308586120605 0.27599999308586120605 0.27599999308586120605 0.27599999308586120605 0.27599999308586120605 0.27599999308586120605 0.27599999308586120605 0.27599999308586120605 0.36223125457763671875 0.27599999308586120605 0.27599999308586120605 0.27599999308586120605 
0.27599999308586120605 0.27599999308586120605 0.28174999356269836426 0.27599999308586120605 0.33348748087882995605 0.30474373698234558105 0.44272500276565551758 1.0521562099456787109 1.0119124650955200195 1.0521562099456787109 0.37948748469352722168 0.27599999308586120605 0.40248748660087585449 0.27599999308586120605 0.27599999308586120605 0.27599999308586120605 0.27599999308586120605 0.27599999308586120605 0.43123123049736022949 0.43123123049736022949 0.27599999308586120605 0.27599999308586120605 0.36223125457763671875 0.27599999308586120605 0.30474373698234558105 0.33348748087882995605 0.56346875429153442383 0.66120624542236328125 0.32774999737739562988 0.42546874284744262695 0.39673122763633728027 0.33349373936653137207 0.50022500753402709961 0.62096250057220458984 0.27599999308586120605 0.27599999308586120605 0.27599999308586120605 0.27599999308586120605 0.27599999308586120605 0.33349373936653137207 0.27599999308586120605 0.27599999308586120605 0.27599999308586120605 0.27599999308586120605 0.27599999308586120605 0.30474373698234558105 0.27599999308586120605 0.41397500038146972656 0.27599999308586120605 0.27599999308586120605 0.27599999308586120605 0.27599999308586120605 0.27599999308586120605 0.27599999308586120605 0.27599999308586120605 0.37948748469352722168 0.27599999308586120605 0.62424999475479125977 0.62555998563766479492 0.91992497444152832031 0.5826333165168762207 0.27599999308586120605 0.27599999308586120605 0.37948125600814819336 0.33513569831848144531 0.52436995506286621094 0.27599999308586120605 0.27599999308586120605 0.27599999308586120605 0.27599999308586120605 0.27599999308586120605 0.27599999308586120605 0.27599999308586120605 0.27599999308586120605 0.27599999308586120605 0.49447497725486755371 0.27599999308586120605 0.27599999308586120605 0.4829749763011932373 0.27599999308586120605 0.27599999308586120605 0.27599999308586120605 0.27599999308586120605 0.33348748087882995605 0.33348748087882995605 0.43123123049736022949 0.68994998931884765625 
0.27599999308586120605 0.29899999499320983887 0.51172500848770141602 0.28749999403953552246 0.32774373888969421387 0.35648748278617858887 0.68994998931884765625 0.90842497348785400391 1.0119124650955200195 0.94866871833801269531 0.27599999308586120605 0.27599999308586120605 0.35074374079704284668 0.27599999308586120605 0.27599999308586120605 0.27599999308586120605 0.32774373888969421387 0.27599999308586120605 0.28174999356269836426 0.29899999499320983887 0.27599999308586120605 0.27599999308586120605 0.33348748087882995605 0.50594997406005859375 0.47720623016357421875 0.27599999308586120605 0.39098748564720153809 0.50022500753402709961 0.52322500944137573242 0.34499374032020568848 0.27599999308586120605 0.28174999356269836426 0.27599999308586120605 0.38523748517036437988 0.32774373888969421387 0.27599999308586120605 0.27599999308586120605 0.32774373888969421387 0.37948748469352722168 0.34499374032020568848 0.28749999403953552246 0.33349373936653137207 0.27599999308586120605 0.27599999308586120605 0.37948748469352722168 0.38523748517036437988 0.27599999308586120605 0.27599999308586120605 0.27599999308586120605 0.43123123049736022949 0.27599999308586120605 0.27599999308586120605 0.27599999308586120605 0.27599999308586120605 0.27599999308586120605 0.27599999308586120605 0.49447497725486755371 0.95671999454498291016 0.85093331336975097656 0.74821329116821289062 0.28622221946716308594 0.27599999308586120605 0.27599999308586120605 0.35073748230934143066 0.27599999308586120605 0.27599999308586120605 0.27599999308586120605 0.27599999308586120605 0.27599999308586120605 0.27599999308586120605 0.27599999308586120605 0.27599999308586120605 0.27599999308586120605 0.27599999308586120605 0.27599999308586120605 0.45340713858604431152 0.43123123049736022949 0.53073847293853759766 0.41398331522941589355 0.27599999308586120605 0.27599999308586120605 0.27599999308586120605 0.27599999308586120605 0.27599999308586120605 0.27599999308586120605 0.58646249771118164062 0.27599999308586120605 
0.27599999308586120605 0.32774373888969421387 0.50022500753402709961 0.4829749763011932373 0.8969249725341796875 0.4657249748706817627 0.67844998836517333984 0.8969249725341796875 0.54621875286102294922 0.27599999308586120605 0.27599999308586120605 0.4829749763011932373 0.32774373888969421387 0.27599999308586120605 0.27599999308586120605 0.27599999308586120605 0.29324999451637268066 0.40248748660087585449 0.53471875190734863281 0.37948748469352722168 0.27599999308586120605 0.27599999308586120605 0.27599999308586120605 0.41971874237060546875 0.52896249294281005859 0.30474999547004699707 0.77619373798370361328 0.48872497677803039551 0.4082374870777130127 0.39098748564720153809 0.27599999308586120605 0.55196875333786010742 0.40248748660087585449 0.28749999403953552246 0.27599999308586120605 0.56346875429153442383 0.28749999403953552246 0.45998123288154602051 0.70144999027252197266 0.30474999547004699707 0.50597500801086425781 0.27599999308586120605 0.27599999308586120605 0.27599999308586120605 0.4369812309741973877 0.62096250057220458984 0.53471875190734863281 0.30474373698234558105 0.29324999451637268066 0.29324999451637268066 0.27599999308586120605 0.27599999308586120605 0.27599999308586120605 0.27599999308586120605 0.27599999308586120605 0.27599999308586120605 0.35484999418258666992 0.88312995433807373047 0.8585999608039855957 0.37506923079490661621 0.28307691216468811035 0.27599999308586120605 0.27599999308586120605 0.27599999308586120605 0.27599999308586120605 0.27599999308586120605 0.3088499903678894043 0.27599999308586120605 0.27599999308586120605 0.27599999308586120605 0.27599999308586120605 0.27599999308586120605 0.27599999308586120605 0.27599999308586120605 0.27599999308586120605 0.27599999308586120605 0.27599999308586120605 0.27599999308586120605 0.27599999308586120605 0.27599999308586120605 0.27599999308586120605 0.27599999308586120605 0.27599999308586120605 0.27599999308586120605 0.27599999308586120605 0.74169373512268066406 0.27599999308586120605 
0.27599999308586120605 0.27599999308586120605 0.4829749763011932373 0.66695624589920043945 0.51747500896453857422 0.80492496490478515625 0.78194373846054077148 0.77619373798370361328 0.46573123335838317871 0.27599999308586120605 0.27599999308586120605 0.38523748517036437988 0.27599999308586120605 0.27599999308586120605 0.27599999308586120605 0.27599999308586120605 0.29324999451637268066 0.68994998931884765625 0.4829749763011932373 0.43123123049736022949 0.27599999308586120605 0.27599999308586120605 0.27599999308586120605 0.4369812309741973877 0.50022500753402709961 0.33924373984336853027 0.55196875333786010742 0.39673748612403869629 0.28749999403953552246 0.30474373698234558105 0.27599999308586120605 0.48872497677803039551 0.30474999547004699707 0.27599999308586120605 0.37948748469352722168 0.4829749763011932373 0.38523748517036437988 0.66120624542236328125 0.4542312324047088623 0.85668122768402099609 0.68420624732971191406 0.27599999308586120605 0.32774373888969421387 0.4484812319278717041 0.43123123049736022949 0.96016871929168701172 0.4197374880313873291 0.43121874332427978516 0.27599999308586120605 0.27599999308586120605 0.27599999308586120605 0.28174999356269836426 0.33348748087882995605 0.32774373888969421387 0.53471875190734863281 0.4369812309741973877 0.46917998790740966797 0.59796667098999023438 0.98124998807907104492 0.57319998741149902344 0.28307691216468811035 0.27599999308586120605 0.27599999308586120605 0.40336921811103820801 0.55196666717529296875 0.27599999308586120605 0.27599999308586120605 0.27599999308586120605 0.27599999308586120605 0.27599999308586120605 0.27599999308586120605 0.27599999308586120605 0.27599999308586120605 0.27599999308586120605 0.27599999308586120605 0.39557999372482299805 0.27599999308586120605 0.27599999308586120605 0.31049999594688415527 0.27599999308586120605 0.27599999308586120605 0.27599999308586120605 0.27599999308586120605 0.27599999308586120605 0.27599999308586120605 0.58646249771118164062 0.27599999308586120605 
0.27599999308586120605 0.27599999308586120605 0.27599999308586120605 0.59221249818801879883 0.68420624732971191406 1.0579061508178710938 1.0119124650955200195 0.58069998025894165039 0.27599999308586120605 0.27599999308586120605 0.27599999308586120605 0.27599999308586120605 0.27599999308586120605 0.27599999308586120605 0.27599999308586120605 0.27599999308586120605 0.27599999308586120605 0.58646249771118164062 0.43123123049736022949 0.27599999308586120605 0.27599999308586120605 0.32774373888969421387 0.61521250009536743164 0.50597500801086425781 0.30474373698234558105 0.44847500324249267578 0.32774373888969421387 0.27599999308586120605 0.27599999308586120605 0.27599999308586120605 0.27599999308586120605 0.37948748469352722168 0.62671250104904174805 0.51172500848770141602 0.43123123049736022949 0.59796249866485595703 0.68995624780654907227 0.67270624637603759766 0.59796249866485595703 0.38523748517036437988 0.28749999403953552246 0.53471875190734863281 0.37948748469352722168 0.50021874904632568359 0.35074374079704284668 0.80493748188018798828 0.33349373936653137207 0.48872497677803039551 0.27599999308586120605 0.27599999308586120605 0.27599999308586120605 0.39097499847412109375 0.37373748421669006348 0.27599999308586120605 0.32774373888969421387 0.32774373888969421387 0.28749999403953552246 0.73594999313354492188 0.89364284276962280273 0.91992497444152832031 0.27599999308586120605 0.27599999308586120605 0.27599999308586120605 0.27599999308586120605 0.27599999308586120605 0.27599999308586120605 0.27599999308586120605 0.27599999308586120605 0.27599999308586120605 0.27599999308586120605 0.27599999308586120605 0.27599999308586120605 0.27599999308586120605 0.27599999308586120605 0.27599999308586120605 0.27599999308586120605 0.57494997978210449219 0.27599999308586120605 0.33924373984336853027 0.27599999308586120605 0.27599999308586120605 0.27599999308586120605 0.27599999308586120605 0.32774373888969421387 0.53471875190734863281 0.74169373512268066406 0.4829749763011932373 
0.27599999308586120605 0.33349373936653137207 0.28174999356269836426 0.96016871929168701172 0.73594999313354492188 1.0579061508178710938 0.77044373750686645508 0.31049373745918273926 0.27599999308586120605 0.27599999308586120605 0.27599999308586120605 0.27599999308586120605 0.27599999308586120605 0.27599999308586120605 0.27599999308586120605 0.27599999308586120605 0.27599999308586120605 0.4829749763011932373 0.27599999308586120605 0.27599999308586120605 0.27599999308586120605 0.48872497677803039551 0.51172500848770141602 0.28749999403953552246 0.27599999308586120605 0.27599999308586120605 0.27599999308586120605 0.27599999308586120605 0.54046875238418579102 0.27599999308586120605 0.27599999308586120605 0.27599999308586120605 0.37948748469352722168 0.54621875286102294922 0.27599999308586120605 0.28749999403953552246 0.51172500848770141602 0.8681812286376953125 0.54046875238418579102 0.37948748469352722168 0.27599999308586120605 0.27599999308586120605 0.28174999356269836426 0.41398122906684875488 0.27599999308586120605 0.33349373936653137207 0.27599999308586120605 0.3449916541576385498 0.40741428732872009277 0.27599999308586120605 0.35073748230934143066 0.27599999308586120605 0.33348748087882995605 0.41397500038146972656 0.79918748140335083008 0.6439571380615234375 0.56729996204376220703 0.59796667098999023438 0.8969249725341796875 0.73594999313354492188 0.51747500896453857422 0.27599999308586120605 0.27599999308586120605 0.27599999308586120605 0.27599999308586120605 0.27599999308586120605 0.27599999308586120605 0.27599999308586120605 0.27599999308586120605 0.27599999308586120605 0.27599999308586120605 0.27599999308586120605 0.27599999308586120605 0.28174999356269836426 0.4446499943733215332 0.27599999308586120605 0.27599999308586120605 0.27599999308586120605 0.27599999308586120605 0.27599999308586120605 0.27599999308586120605 0.27599999308586120605 0.27599999308586120605 0.58646249771118164062 0.82218122482299804688 0.32774373888969421387 0.27599999308586120605 
0.30474373698234558105 0.32774373888969421387 0.4427312314510345459 0.9026749730110168457 0.78194373846054077148 0.96591871976852416992 0.71294999122619628906 0.27599999308586120605 0.27599999308586120605 0.27599999308586120605 0.27599999308586120605 0.27599999308586120605 0.27599999308586120605 0.27599999308586120605 0.27599999308586120605 0.27599999308586120605 0.27599999308586120605 0.27599999308586120605 0.27599999308586120605 0.27599999308586120605 0.27599999308586120605 0.48872497677803039551 0.35649374127388000488 0.27599999308586120605 0.27599999308586120605 0.27599999308586120605 0.32774373888969421387 0.37948748469352722168 0.4082374870777130127 0.27599999308586120605 0.27599999308586120605 0.27599999308586120605 0.43123123049736022949 0.72444999217987060547 0.35074374079704284668 0.27599999308586120605 0.64970624446868896484 0.81643748283386230469 0.39673748612403869629 0.79343748092651367188 0.70144999027252197266 0.39673748612403869629 0.4829749763011932373 0.55771249532699584961 0.71869373321533203125 0.60371249914169311523 0.37718999385833740234 0.44846248626708984375 0.70528328418731689453 0.28749999403953552246 0.29015383124351501465 0.27599999308586120605 0.27599999308586120605 0.33349373936653137207 0.27599999308586120605 0.39865332841873168945 0.70144999027252197266 0.98124998807907104492 0.8969249725341796875 0.71294999122619628906 0.74616664648056030273 0.28174999356269836426 0.32774373888969421387 0.33968460559844970703 0.27599999308586120605 0.27599999308586120605 0.27599999308586120605 0.27599999308586120605 0.27599999308586120605 0.27599999308586120605 0.27599999308586120605 0.27599999308586120605 0.27599999308586120605 0.39673748612403869629 0.44771331548690795898 0.27599999308586120605 0.27599999308586120605 0.27599999308586120605 0.41971874237060546875 0.30474373698234558105 0.27599999308586120605 0.27599999308586120605 0.43123123049736022949 0.87392497062683105469 0.87392497062683105469 0.35648748278617858887 0.27599999308586120605 
0.30474373698234558105 0.33349373936653137207 0.96016871929168701172 0.47148123383522033691 0.60946249961853027344 0.82793748378753662109 0.4369812309741973877 0.27599999308586120605 0.27599999308586120605 0.27599999308586120605 0.27599999308586120605 0.27599999308586120605 0.27599999308586120605 0.27599999308586120605 0.27599999308586120605 0.27599999308586120605 0.27599999308586120605 0.27599999308586120605 0.27599999308586120605 0.27599999308586120605 0.27599999308586120605 0.27599999308586120605 0.28749999403953552246 0.27599999308586120605 0.27599999308586120605 0.33349373936653137207 0.59796249866485595703 0.60946249961853027344 0.47720623016357421875 0.27599999308586120605 0.27599999308586120605 0.27599999308586120605 0.27599999308586120605 0.4082374870777130127 0.29899999499320983887 0.4829749763011932373 0.32774373888969421387 0.63820624351501464844 0.58646249771118164062 0.4427312314510345459 0.27599999308586120605 0.59221249818801879883 0.63820624351501464844 0.32774373888969421387 0.28749999403953552246 0.7206166386604309082 0.45998123288154602051 0.44846248626708984375 1.0425750017166137695 0.4369812309741973877 0.27599999308586120605 0.27599999308586120605 0.27599999308586120605 0.37948748469352722168 0.53471875190734863281 0.9026749730110168457 1.1038999557495117188 1.1038999557495117188 0.73594999313354492188 0.96591663360595703125 0.49830833077430725098 0.27599999308586120605 0.28174999356269836426 0.33348748087882995605 0.35264998674392700195 0.27599999308586120605 0.27599999308586120605 0.27599999308586120605 0.33348748087882995605 0.39097499847412109375 0.27599999308586120605 0.27599999308586120605 0.32774373888969421387 0.4427312314510345459 0.27599999308586120605 0.27599999308586120605 0.44846248626708984375 0.27599999308586120605 0.30474373698234558105 0.27599999308586120605 0.27599999308586120605 0.27599999308586120605 0.37948748469352722168 1.0521562099456787109 0.64394998550415039062 0.27599999308586120605 0.27599999308586120605 
0.33348748087882995605 0.85093122720718383789 0.71869999170303344727 0.29324999451637268066 0.4369812309741973877 0.91992497444152832031 0.56920623779296875 0.41971874237060546875 0.27599999308586120605 0.27599999308586120605 0.27599999308586120605 0.27599999308586120605 0.27599999308586120605 0.27599999308586120605 0.27599999308586120605 0.27599999308586120605 0.27599999308586120605 0.27599999308586120605 0.27599999308586120605 0.27599999308586120605 0.27599999308586120605 0.27599999308586120605 0.27599999308586120605 0.27599999308586120605 0.33924373984336853027 0.56921875476837158203 0.36224374175071716309 0.47723123431205749512 0.655437469482421875 0.27599999308586120605 0.27599999308586120605 0.27599999308586120605 0.54046875238418579102 0.71294999122619628906 0.55196875333786010742 0.36224374175071716309 0.64395624399185180664 0.35074374079704284668 0.74169373512268066406 0.27599999308586120605 0.34499374032020568848 0.37948748469352722168 0.27599999308586120605 0.27599999308586120605 0.27599999308586120605 0.4446499943733215332 0.34170714020729064941 0.54276996850967407227 0.50597500801086425781 0.28366667032241821289 0.27599999308586120605 0.27599999308586120605 0.33349373936653137207 0.54046875238418579102 0.49677330255508422852 0.74513995647430419922 1.1038999557495117188 0.8585999608039855957 0.52130663394927978516 0.67462217807769775391 0.49536153674125671387 0.29440000653266906738 0.35073748230934143066 0.62668746709823608398 0.35264998674392700195 0.27599999308586120605 0.27599999308586120605 0.27599999308586120605 0.37564998865127563477 0.49062499403953552246 0.27599999308586120605 0.27599999308586120605 0.27599999308586120605 0.28749999403953552246 0.56729996204376220703 0.27599999308586120605 0.27599999308586120605 0.27599999308586120605 0.27599999308586120605 0.27599999308586120605 0.27599999308586120605 0.27599999308586120605 0.58646249771118164062 0.68994998931884765625 0.77043747901916503906 0.32774373888969421387 0.27599999308586120605 
0.33349373936653137207 0.77619373798370361328 0.4197374880313873291 0.27599999308586120605 0.59796249866485595703 1.0119124650955200195 0.55196875333786010742 0.33348748087882995605 0.27599999308586120605 0.27599999308586120605 0.27599999308586120605 0.27599999308586120605 0.27599999308586120605 0.27599999308586120605 0.27599999308586120605 0.27599999308586120605 0.27599999308586120605 0.27599999308586120605 0.27599999308586120605 0.32774373888969421387 0.27599999308586120605 0.27599999308586120605 0.27599999308586120605 0.39673748612403869629 0.43123123049736022949 0.51747500896453857422 0.32774373888969421387 1.0521562099456787109 0.32774373888969421387 0.27599999308586120605 0.27599999308586120605 0.53471875190734863281 0.50597500801086425781 0.27599999308586120605 0.35648748278617858887 0.38523748517036437988 0.32774373888969421387 0.49446874856948852539 0.43123123049736022949 0.27599999308586120605 0.33349373936653137207 0.27599999308586120605 0.27599999308586120605 0.27599999308586120605 0.37948748469352722168 0.8923199772834777832 0.58646249771118164062 0.71294999122619628906 0.27599999308586120605 0.27599999308586120605 0.27599999308586120605 0.27599999308586120605 0.27599999308586120605 0.27599999308586120605 0.27599999308586120605 0.5335699915885925293 0.91992497444152832031 0.8585999608039855957 0.49447497725486755371 0.41398331522941589355 0.38523748517036437988 0.29133331775665283203 0.27599999308586120605 0.4829749763011932373 0.27599999308586120605 0.27599999308586120605 0.27599999308586120605 0.27599999308586120605 0.27599999308586120605 0.27599999308586120605 0.27599999308586120605 0.35265833139419555664 0.30228570103645324707 0.28174999356269836426 0.27599999308586120605 0.27599999308586120605 0.27599999308586120605 0.27599999308586120605 0.27599999308586120605 0.27599999308586120605 0.27599999308586120605 0.27599999308586120605 0.4829749763011932373 1.0521562099456787109 1.0004124641418457031 0.58646249771118164062 0.27599999308586120605 
0.4427312314510345459 0.73594999313354492188 0.4542312324047088623 0.27599999308586120605 0.38523748517036437988 0.91417497396469116211 0.8624312281608581543 0.27599999308586120605 0.27599999308586120605 0.27599999308586120605 0.27599999308586120605 0.27599999308586120605 0.27599999308586120605 0.27599999308586120605 0.27599999308586120605 0.27599999308586120605 0.27599999308586120605 0.27599999308586120605 0.48872497677803039551 0.59221249818801879883 0.27599999308586120605 0.27599999308586120605 0.35074374079704284668 0.34499374032020568848 0.27599999308586120605 0.27599999308586120605 0.43123123049736022949 0.4542312324047088623 0.37948748469352722168 0.27599999308586120605 0.27599999308586120605 0.95441871881484985352 0.56346875429153442383 0.27599999308586120605 0.39097499847412109375 0.70715624094009399414 0.44846248626708984375 0.39097499847412109375 0.27599999308586120605 0.27599999308586120605 0.27599999308586120605 0.27599999308586120605 0.27599999308586120605 0.33349373936653137207 0.54046875238418579102 0.3449916541576385498 0.41398331522941589355 0.41398331522941589355 0.27599999308586120605 0.27599999308586120605 0.27599999308586120605 0.27599999308586120605 0.27599999308586120605 0.27599999308586120605 0.27599999308586120605 0.39427140355110168457 1.0425750017166137695 1.1038999557495117188 0.88707137107849121094 0.3449916541576385498 0.27599999308586120605 0.37564998865127563477 0.51254284381866455078 0.37948748469352722168 0.27599999308586120605 0.27599999308586120605 0.27599999308586120605 0.27599999308586120605 0.27599999308586120605 0.27599999308586120605 0.27599999308586120605 0.27599999308586120605 0.27599999308586120605 0.27599999308586120605 0.27599999308586120605 0.27599999308586120605 0.27599999308586120605 0.27599999308586120605 0.27599999308586120605 0.27599999308586120605 0.27599999308586120605 0.4829749763011932373 0.43123123049736022949 0.540462493896484375 0.51171875 0.27599999308586120605 0.27599999308586120605 
0.71294999122619628906 0.48873123526573181152 0.28174999356269836426 0.27599999308586120605 0.32774373888969421387 0.65545624494552612305 0.78194373846054077148 0.76469373703002929688 0.27599999308586120605 0.27599999308586120605 0.27599999308586120605 0.27599999308586120605 0.27599999308586120605 0.27599999308586120605 0.27599999308586120605 0.27599999308586120605 0.27599999308586120605 0.27599999308586120605 0.43123123049736022949 0.59221249818801879883 0.27599999308586120605 0.33349373936653137207 0.35074374079704284668 0.4542312324047088623 0.27599999308586120605 0.4829749763011932373 0.43123123049736022949 0.33349373936653137207 0.32774373888969421387 0.27599999308586120605 0.27599999308586120605 0.8624312281608581543 0.4427312314510345459 0.27599999308586120605 0.33348748087882995605 0.73589998483657836914 0.41971874237060546875 0.27599999308586120605 0.27599999308586120605 0.38523748517036437988 0.27599999308586120605 0.32198998332023620605 0.27599999308586120605 0.27599999308586120605 0.27599999308586120605 0.33119332790374755859 0.27599999308586120605 0.27599999308586120605 0.27599999308586120605 0.27599999308586120605 0.27599999308586120605 0.27599999308586120605 0.27599999308586120605 0.27599999308586120605 0.27599999308586120605 0.55809998512268066406 0.6308142542839050293 0.44583076238632202148 0.3066666722297668457 0.27599999308586120605 0.55196666717529296875 0.36798998713493347168 0.32774373888969421387 0.27599999308586120605 0.37948748469352722168 0.34959331154823303223 0.34827855229377746582 0.27599999308586120605 0.27599999308586120605 0.27599999308586120605 0.27599999308586120605 0.27599999308586120605 0.33968460559844970703 0.27599999308586120605 0.27599999308586120605 0.27599999308586120605 0.27599999308586120605 0.27599999308586120605 0.27599999308586120605 0.27599999308586120605 0.27599999308586120605 0.4484812319278717041 0.4369812309741973877 0.4369812309741973877 0.63820624351501464844 0.43123123049736022949 0.27599999308586120605 
0.73594999313354492188 0.35074374079704284668 0.27599999308586120605 0.27599999308586120605 0.27599999308586120605 0.27599999308586120605 0.76469373703002929688 1.0119124650955200195 0.56346875429153442383 0.27599999308586120605 0.27599999308586120605 0.27599999308586120605 0.27599999308586120605 0.27599999308586120605 0.27599999308586120605 0.27599999308586120605 0.27599999308586120605 0.27599999308586120605 0.27599999308586120605 0.32774373888969421387 0.27599999308586120605 0.27599999308586120605 0.4427312314510345459 0.45998123288154602051 0.34499374032020568848 0.28174999356269836426 0.28174999356269836426 0.27599999308586120605 0.27599999308586120605 0.27599999308586120605 0.48872497677803039551 0.4829749763011932373 0.27599999308586120605 0.27599999308586120605 0.27599999308586120605 0.27599999308586120605 0.27599999308586120605 0.27599999308586120605 0.32774373888969421387 0.32774373888969421387 0.27599999308586120605 0.27599999308586120605 0.27599999308586120605 0.27599999308586120605 0.27599999308586120605 0.27599999308586120605 0.27599999308586120605 0.27599999308586120605 0.33348748087882995605 0.36223125457763671875 0.37948748469352722168 0.37948748469352722168 0.27599999308586120605 0.33348748087882995605 0.30474373698234558105 0.27599999308586120605 0.27599999308586120605 0.4484812319278717041 0.49064165353775024414 0.76660829782485961914 0.54621875286102294922 0.75894373655319213867 0.71869999170303344727 0.35265833139419555664 0.39098748564720153809 0.32774373888969421387 0.74744373559951782227 0.32774373888969421387 0.27599999308586120605 0.27599999308586120605 0.27599999308586120605 0.37948748469352722168 0.55196666717529296875 0.27599999308586120605 0.27599999308586120605 0.44846248626708984375 0.27599999308586120605 0.27599999308586120605 0.27599999308586120605 0.27599999308586120605 0.27599999308586120605 0.4829749763011932373 0.33349373936653137207 0.90842497348785400391 0.43123123049736022949 1.1038999557495117188 1.1038999557495117188 
0.50023126602172851562 0.29324999451637268066 0.27599999308586120605 0.27599999308586120605 0.27599999308586120605 0.27599999308586120605 0.4427312314510345459 1.0119124650955200195 0.82218748331069946289 0.27599999308586120605 0.27599999308586120605 0.27599999308586120605 0.27599999308586120605 0.27599999308586120605 0.27599999308586120605 0.27599999308586120605 0.27599999308586120605 0.27599999308586120605 0.27599999308586120605 0.27599999308586120605 0.27599999308586120605 0.27599999308586120605 0.75319373607635498047 0.4139874875545501709 0.59796249866485595703 0.59221249818801879883 0.27599999308586120605 0.48872497677803039551 0.28174999356269836426 0.29899999499320983887 0.95441871881484985352 0.34499374032020568848 0.37948748469352722168 0.27599999308586120605 0.27599999308586120605 0.27599999308586120605 0.27599999308586120605 0.27599999308586120605 0.27599999308586120605 0.27599999308586120605 0.27599999308586120605 0.50594997406005859375 0.31432500481605529785 0.27599999308586120605 0.27599999308586120605 0.27599999308586120605 0.27599999308586120605 0.28749999403953552246 0.69757497310638427734 0.67841249704360961914 0.60149228572845458984 0.27599999308586120605 0.27599999308586120605 0.46762499213218688965 0.39097499847412109375 0.27599999308586120605 0.32774373888969421387 0.4427312314510345459 0.50951534509658813477 0.73594999313354492188 0.49677997827529907227 0.60715997219085693359 0.55196666717529296875 0.78194165229797363281 0.4446499943733215332 0.57241111993789672852 1.0004124641418457031 0.53781539201736450195 0.27599999308586120605 0.33968460559844970703 0.27599999308586120605 0.27599999308586120605 0.27599999308586120605 0.27599999308586120605 0.27599999308586120605 0.27599999308586120605 0.33349373936653137207 0.32774373888969421387 0.27599999308586120605 0.27599999308586120605 0.33348748087882995605 0.45997497439384460449 0.27599999308586120605 0.58646249771118164062 0.27599999308586120605 0.84518122673034667969 1.1038999557495117188 
0.58646875619888305664 0.28749999403953552246 0.27599999308586120605 0.27599999308586120605 0.27599999308586120605 0.27599999308586120605 0.45998123288154602051 0.4427312314510345459 0.51172500848770141602 0.56346875429153442383 0.33924373984336853027 0.27599999308586120605 0.27599999308586120605 0.27599999308586120605 0.27599999308586120605 0.27599999308586120605 0.27599999308586120605 0.27599999308586120605 0.27599999308586120605 0.27599999308586120605 0.27599999308586120605 0.43123123049736022949 0.8681812286376953125 0.37948748469352722168 0.69569998979568481445 0.28174999356269836426 0.27599999308586120605 0.37948748469352722168 0.27599999308586120605 0.55196875333786010742 0.84518122673034667969 0.33349373936653137207 0.55771875381469726562 0.31624999642372131348 0.27599999308586120605 0.27599999308586120605 0.27599999308586120605 0.37948748469352722168 0.27599999308586120605 0.27599999308586120605 0.27599999308586120605 0.27599999308586120605 0.41398331522941589355 0.27599999308586120605 0.27599999308586120605 0.27599999308586120605 0.37948748469352722168 0.27599999308586120605 0.73589998483657836914 0.67841249704360961914 0.27599999308586120605 0.27599999308586120605 0.39097499847412109375 0.54427498579025268555 0.44846248626708984375 0.27599999308586120605 0.27599999308586120605 0.4599799811840057373 0.91992497444152832031 0.66235995292663574219 0.48298332095146179199 0.28749999403953552246 0.27599999308586120605 0.53471875190734863281 0.79343748092651367188 0.53471875190734863281 0.32774373888969421387 0.5335699915885925293 0.80822139978408813477 0.79343748092651367188 0.44157999753952026367 0.27599999308586120605 0.27599999308586120605 0.27599999308586120605 0.27599999308586120605 0.27599999308586120605 0.38523748517036437988 0.28174999356269836426 0.27599999308586120605 0.27599999308586120605 0.27599999308586120605 0.27599999308586120605 0.32774373888969421387 0.79343748092651367188 0.53471875190734863281 0.84518122673034667969 1.1038999557495117188 
0.32199999690055847168 0.37948748469352722168 0.27599999308586120605 0.27599999308586120605 0.27599999308586120605 0.27599999308586120605 0.35074374079704284668 0.27599999308586120605 0.27599999308586120605 0.75894373655319213867 0.65545624494552612305 0.28749999403953552246 0.27599999308586120605 0.27599999308586120605 0.27599999308586120605 0.27599999308586120605 0.27599999308586120605 0.27599999308586120605 0.27599999308586120605 0.27599999308586120605 0.37948748469352722168 0.85668122768402099609 0.68994998931884765625 0.27599999308586120605 0.27599999308586120605 0.27599999308586120605 0.30474999547004699707 0.32774373888969421387 0.33348748087882995605 0.27599999308586120605 0.32774373888969421387 0.38523748517036437988 0.27599999308586120605 0.34499374032020568848 0.33348748087882995605 0.39097499847412109375 0.38523122668266296387 0.32774373888969421387 0.27599999308586120605 0.27599999308586120605 0.27599999308586120605 0.27599999308586120605 0.27599999308586120605 0.27599999308586120605 0.27599999308586120605 0.27599999308586120605 0.33349373936653137207 0.44846248626708984375 0.73589998483657836914 0.58069372177124023438 0.41398331522941589355 0.43697500228881835938 0.3449916541576385498 0.73589998483657836914 0.39097499847412109375 0.27599999308586120605 0.27599999308586120605 0.29440000653266906738 0.55197501182556152344 0.73594999313354492188 0.32966667413711547852 0.32774373888969421387 0.27599999308586120605 0.28174999356269836426 0.32774373888969421387 0.27599999308586120605 0.27599999308586120605 0.27599999308586120605 0.40248748660087585449 0.7227999567985534668 0.5335699915885925293 0.27599999308586120605 0.27599999308586120605 0.27599999308586120605 0.27599999308586120605 0.43123123049736022949 0.27599999308586120605 0.27599999308586120605 0.27599999308586120605 0.27599999308586120605 0.27599999308586120605 0.27599999308586120605 0.27599999308586120605 0.27599999308586120605 0.32774373888969421387 0.43123123049736022949 0.4829749763011932373 
0.3909937441349029541 0.39098748564720153809 0.27599999308586120605 0.27599999308586120605 0.27599999308586120605 0.27599999308586120605 0.27599999308586120605 0.27599999308586120605 0.27599999308586120605 0.66695624589920043945 0.43698748946189880371 0.27599999308586120605 0.27599999308586120605 0.27599999308586120605 0.27599999308586120605 0.27599999308586120605 0.27599999308586120605 0.27599999308586120605 0.27599999308586120605 0.38523748517036437988 0.70719999074935913086 0.28174999356269836426 0.27599999308586120605 0.27599999308586120605 0.27599999308586120605 0.27599999308586120605 0.33349373936653137207 0.27599999308586120605 0.33348748087882995605 0.62095624208450317383 0.28174999356269836426 0.53471875190734863281 0.27599999308586120605 0.27599999308586120605 0.39097499847412109375 0.50594997406005859375 0.27599999308586120605 0.27599999308586120605 0.27599999308586120605 0.27599999308586120605 0.27599999308586120605 0.27599999308586120605 0.27599999308586120605 0.27599999308586120605 0.27599999308586120605 0.32774373888969421387 0.43123123049736022949 0.50594997406005859375 0.53149998188018798828 0.27599999308586120605 0.39097499847412109375 0.67019999027252197266 0.62092500925064086914 0.30665999650955200195 0.27599999308586120605 0.27599999308586120605 0.27599999308586120605 0.27599999308586120605 0.69761663675308227539 0.58735382556915283203 0.36032497882843017578 0.4484812319278717041 0.38523748517036437988 0.27599999308586120605 0.27599999308586120605 0.27599999308586120605 0.27599999308586120605 0.27599999308586120605 0.50021249055862426758 0.59440767765045166016 0.27599999308586120605 0.27599999308586120605 0.27599999308586120605 0.27599999308586120605 0.27599999308586120605 0.27599999308586120605 0.27599999308586120605 0.27599999308586120605 0.27599999308586120605 0.53471875190734863281 0.37948748469352722168 0.27599999308586120605 0.4829749763011932373 0.53471875190734863281 0.27599999308586120605 0.53471875190734863281 1.1038999557495117188 
0.38523748517036437988 0.27599999308586120605 0.27599999308586120605 0.27599999308586120605 0.27599999308586120605 0.27599999308586120605 0.27599999308586120605 0.27599999308586120605 0.27599999308586120605 0.77044373750686645508 0.57496875524520874023 0.30474999547004699707 0.27599999308586120605 0.27599999308586120605 0.27599999308586120605 0.27599999308586120605 0.27599999308586120605 0.27599999308586120605 0.27599999308586120605 0.59796249866485595703 0.59221249818801879883 0.27599999308586120605 0.28749999403953552246 0.28749999403953552246 0.27599999308586120605 0.27599999308586120605 0.27599999308586120605 0.27599999308586120605 0.27599999308586120605 0.27599999308586120605 0.27599999308586120605 0.27599999308586120605 0.27599999308586120605 0.27599999308586120605 0.27599999308586120605 0.41971874237060546875 0.31624373793601989746 0.27599999308586120605 0.27599999308586120605 0.27599999308586120605 0.27599999308586120605 0.27599999308586120605 0.27599999308586120605 0.27599999308586120605 0.27599999308586120605 0.27599999308586120605 0.53469371795654296875 0.73589998483657836914 0.31432500481605529785 0.27599999308586120605 0.33348748087882995605 0.44846248626708984375 0.30474373698234558105 0.27599999308586120605 0.27599999308586120605 0.27599999308586120605 0.27599999308586120605 0.27599999308586120605 0.65929162502288818359 0.82793331146240234375 0.4427312314510345459 0.62096250057220458984 0.35074374079704284668 0.33349373936653137207 0.27599999308586120605 0.27599999308586120605 0.35649374127388000488 0.29324999451637268066 0.4484812319278717041 0.27599999308586120605 0.33348748087882995605 0.27599999308586120605 0.27599999308586120605 0.27599999308586120605 0.27599999308586120605 0.27599999308586120605 0.27599999308586120605 0.27599999308586120605 0.27599999308586120605 0.37948748469352722168 0.32774373888969421387 0.27599999308586120605 0.4829749763011932373 0.27599999308586120605 0.27599999308586120605 0.4829749763011932373 0.68994998931884765625 
0.27599999308586120605 0.27599999308586120605 0.27599999308586120605 0.27599999308586120605 0.27599999308586120605 0.27599999308586120605 0.27599999308586120605 0.27599999308586120605 0.58646249771118164062 0.76469373703002929688 0.91992497444152832031 0.48298123478889465332 0.28174999356269836426 0.27599999308586120605 0.27599999308586120605 0.27599999308586120605 0.27599999308586120605 0.27599999308586120605 0.27599999308586120605 0.39673748612403869629 0.28749999403953552246 0.27599999308586120605 0.29899999499320983887 0.27599999308586120605 0.49447497725486755371 0.4369812309741973877 0.27599999308586120605 0.53471875190734863281 0.56346875429153442383 0.38523748517036437988 0.51172500848770141602 0.39098748564720153809 0.27599999308586120605 0.43123123049736022949 0.27599999308586120605 0.27599999308586120605 0.44846248626708984375 0.45995998382568359375 0.27599999308586120605 0.33349373936653137207 0.40478664636611938477 0.27599999308586120605 0.27599999308586120605 0.27599999308586120605 0.32774373888969421387 0.27599999308586120605 0.32198998332023620605 0.36798000335693359375 0.27599999308586120605 0.27599999308586120605 0.27599999308586120605 0.27599999308586120605 0.27599999308586120605 0.27599999308586120605 0.36798998713493347168 0.3449916541576385498 0.27599999308586120605 0.60371249914169311523 1.0425750017166137695 1.1038999557495117188 0.80670768022537231445 0.54621875286102294922 0.55904614925384521484 0.49830833077430725098 0.40336921811103820801 0.27599999308586120605 0.54046875238418579102 0.44847500324249267578 0.27599999308586120605 0.37948748469352722168 0.54619371891021728516 0.59218126535415649414 0.33348748087882995605 0.27599999308586120605 0.27599999308586120605 0.27599999308586120605 0.32774373888969421387 0.27599999308586120605 0.27599999308586120605 0.27599999308586120605 0.27599999308586120605 0.27599999308586120605 0.27599999308586120605 0.27599999308586120605 0.32774373888969421387 0.27599999308586120605 0.27599999308586120605 
0.27599999308586120605 0.27599999308586120605 0.27599999308586120605 0.27599999308586120605 0.27599999308586120605 0.27599999308586120605 0.34499374032020568848 0.62096250057220458984 0.96591871976852416992 0.60946249961853027344 0.4484812319278717041 0.33924373984336853027 0.33349373936653137207 0.27599999308586120605 0.27599999308586120605 0.27599999308586120605 0.27599999308586120605 0.27599999308586120605 0.32774373888969421387 0.27599999308586120605 0.27599999308586120605 0.27599999308586120605 0.27599999308586120605 0.27599999308586120605 0.28174999356269836426 0.27599999308586120605 0.38523748517036437988 0.53471875190734863281 0.38523748517036437988 0.27599999308586120605 0.32774373888969421387 0.4657249748706817627 0.27599999308586120605 0.79343748092651367188 0.30474373698234558105 0.47309997677803039551 0.50594997406005859375 0.33348748087882995605 0.35878998041152954102 0.59221249818801879883 0.68994998931884765625 0.27599999308586120605 0.27599999308586120605 0.27599999308586120605 0.27599999308586120605 0.27599999308586120605 0.27599999308586120605 0.33348748087882995605 0.27599999308586120605 0.27599999308586120605 0.27599999308586120605 0.27599999308586120605 0.27599999308586120605 0.27599999308586120605 0.27599999308586120605 0.6439571380615234375 0.54429996013641357422 0.52436995506286621094 0.4829749763011932373 0.27599999308586120605 0.27599999308586120605 0.27599999308586120605 0.40084284543991088867 0.28174999356269836426 0.27599999308586120605 0.27599999308586120605 0.62095624208450317383 0.45421874523162841797 0.32774373888969421387 0.37948748469352722168 0.40247499942779541016 0.50594997406005859375 0.64966875314712524414 0.27599999308586120605 0.27599999308586120605 0.32774373888969421387 0.53471875190734863281 0.27599999308586120605 0.30474373698234558105 0.41971874237060546875 0.27599999308586120605 0.32774373888969421387 0.34499374032020568848 0.37948748469352722168 0.53471875190734863281 0.27599999308586120605 0.27599999308586120605 
0.28174999356269836426 0.27599999308586120605 0.27599999308586120605 0.27599999308586120605 0.27599999308586120605 0.27599999308586120605 0.54621875286102294922 0.96591871976852416992 0.96591871976852416992 0.76469373703002929688 0.29899999499320983887 0.27599999308586120605 0.27599999308586120605 0.27599999308586120605 0.27599999308586120605 0.27599999308586120605 0.27599999308586120605 0.27599999308586120605 0.27599999308586120605 0.27599999308586120605 0.27599999308586120605 0.27599999308586120605 0.27599999308586120605 0.27599999308586120605 0.27599999308586120605 0.27599999308586120605 0.28749999403953552246 0.29324999451637268066 0.27599999308586120605 0.28749999403953552246 0.64970624446868896484 0.67269998788833618164 0.35074374079704284668 0.63820624351501464844 0.64394998550415039062 0.36223125457763671875 0.27599999308586120605 0.27599999308586120605 0.79113996028900146484 0.71294999122619628906 0.53225713968276977539 0.28749999403953552246 0.27599999308586120605 0.27599999308586120605 0.27599999308586120605 0.33924373984336853027 0.27599999308586120605 0.27599999308586120605 0.27599999308586120605 0.27599999308586120605 0.27599999308586120605 0.27599999308586120605 0.27599999308586120605 0.27599999308586120605 0.41398331522941589355 0.78193998336791992188 0.51364165544509887695 0.37948748469352722168 0.56729996204376220703 0.77273994684219360352 0.28914284706115722656 0.27599999308586120605 0.27599999308586120605 0.27599999308586120605 0.27599999308586120605 0.27599999308586120605 0.38523748517036437988 0.33923748135566711426 0.68994998931884765625 0.28174999356269836426 0.38523748517036437988 0.27599999308586120605 0.27599999308586120605 0.27599999308586120605 0.27599999308586120605 0.27599999308586120605 0.27599999308586120605 0.30474373698234558105 0.59218126535415649414 0.27599999308586120605 0.27599999308586120605 0.27599999308586120605 0.27599999308586120605 0.58646249771118164062 0.27599999308586120605 0.27599999308586120605 0.27599999308586120605 
0.29324999451637268066 0.27599999308586120605 0.27599999308586120605 0.27599999308586120605 0.27599999308586120605 0.27599999308586120605 0.53471875190734863281 0.62671250104904174805 0.63246250152587890625 0.29899999499320983887 0.28174999356269836426 0.27599999308586120605 0.27599999308586120605 0.27599999308586120605 0.27599999308586120605 0.27599999308586120605 0.27599999308586120605 0.27599999308586120605 0.27599999308586120605 0.27599999308586120605 0.27599999308586120605 0.27599999308586120605 0.68994998931884765625 0.43123123049736022949 0.27599999308586120605 0.27599999308586120605 0.27599999308586120605 0.38523122668266296387 0.27599999308586120605 0.43123123049736022949 0.68994998931884765625 0.61521250009536743164 0.36224374175071716309 0.39673748612403869629 0.60946249961853027344 0.27599999308586120605 0.27599999308586120605 0.35878998041152954102 0.73594439029693603516 0.58646249771118164062 0.27599999308586120605 0.27599999308586120605 0.27599999308586120605 0.59283334016799926758 0.36798125505447387695 0.34676152467727661133 0.27599999308586120605 0.27599999308586120605 0.27599999308586120605 0.27599999308586120605 0.27599999308586120605 0.27599999308586120605 0.27599999308586120605 0.64395833015441894531 0.55196923017501831055 0.53781539201736450195 0.27599999308586120605 0.38523748517036437988 0.73594611883163452148 0.49830833077430725098 0.27599999308586120605 0.27599999308586120605 0.27599999308586120605 0.27599999308586120605 0.27599999308586120605 0.4369812309741973877 0.74744373559951782227 0.82218122482299804688 1.0521562099456787109 0.95441871881484985352 0.4082374870777130127 0.27599999308586120605 0.30474373698234558105 0.27599999308586120605 0.33348748087882995605 0.53471875190734863281 0.32774373888969421387 0.27599999308586120605 0.36223125457763671875 0.33348748087882995605 0.27599999308586120605 0.27599999308586120605 0.27599999308586120605 0.68994998931884765625 0.27599999308586120605 0.27599999308586120605 0.27599999308586120605 
0.33924373984336853027 0.27599999308586120605 0.27599999308586120605 0.27599999308586120605 0.27599999308586120605 0.27599999308586120605 0.59796249866485595703 0.8681812286376953125 0.4484812319278717041 0.27599999308586120605 0.43123123049736022949 0.27599999308586120605 0.41971874237060546875 0.39097499847412109375 0.30474373698234558105 0.27599999308586120605 0.27599999308586120605 0.27599999308586120605 0.27599999308586120605 0.27599999308586120605 0.27599999308586120605 0.27599999308586120605 0.32774373888969421387 0.30474373698234558105 0.41971874237060546875 0.49447497725486755371 0.28174999356269836426 0.27599999308586120605 0.32774373888969421387 1.0061624050140380859 1.0579061508178710938 0.75894373655319213867 0.28257143497467041016 0.77887332439422607422 0.53471875190734863281 0.27599999308586120605 0.27599999308586120605 0.27599999308586120605 0.82793331146240234375 0.55963331460952758789 0.27599999308586120605 0.27599999308586120605 0.27599999308586120605 0.29133331775665283203 0.27599999308586120605 0.27599999308586120605 0.51911425590515136719 0.27599999308586120605 0.27599999308586120605 0.27599999308586120605 0.27599999308586120605 0.27599999308586120605 0.27599999308586120605 0.73594611883163452148 0.48120766878128051758 0.33119332790374755859 0.27599999308586120605 0.27599999308586120605 0.55196666717529296875 0.47413074970245361328 0.27599999308586120605 0.27599999308586120605 0.27599999308586120605 0.27599999308586120605 0.37948748469352722168 0.55196875333786010742 0.79918748140335083008 0.71869999170303344727 0.51747500896453857422 0.62671250104904174805 0.36223125457763671875 0.27599999308586120605 0.27599999308586120605 0.27599999308586120605 0.30474373698234558105 0.28749999403953552246 0.27599999308586120605 0.27599999308586120605 0.27599999308586120605 0.27599999308586120605 0.27599999308586120605 0.27599999308586120605 0.27599999308586120605 0.53471875190734863281 0.33348748087882995605 0.27599999308586120605 0.27599999308586120605 
0.50022500753402709961 0.27599999308586120605 0.27599999308586120605 0.27599999308586120605 0.27599999308586120605 0.33349373936653137207 0.82218748331069946289 0.51747500896453857422 0.33349373936653137207 0.27599999308586120605 0.27599999308586120605 0.27599999308586120605 0.27599999308586120605 0.40823122859001159668 0.27599999308586120605 0.27599999308586120605 0.27599999308586120605 0.27599999308586120605 0.32774373888969421387 0.35074374079704284668 0.32774373888969421387 0.43123123049736022949 0.27599999308586120605 0.36223125457763671875 0.27599999308586120605 0.27599999308586120605 0.27599999308586120605 0.27599999308586120605 0.79343748092651367188 1.1038999557495117188 0.64395624399185180664 0.34959331154823303223 0.31049999594688415527 0.54489231109619140625 0.27599999308586120605 0.27599999308586120605 0.27599999308586120605 0.34827855229377746582 0.65545624494552612305 0.28749999403953552246 0.27599999308586120605 0.27599999308586120605 0.35878998041152954102 0.37948748469352722168 0.27599999308586120605 0.27599999308586120605 0.27599999308586120605 0.34170714020729064941 0.27599999308586120605 0.27599999308586120605 0.27599999308586120605 0.68994998931884765625 0.75894373655319213867 0.37506154179573059082 0.3833166658878326416 0.27599999308586120605 0.27599999308586120605 0.54046875238418579102 0.7666110992431640625 0.78500664234161376953 0.27599999308586120605 0.27599999308586120605 0.27599999308586120605 0.34676152467727661133 0.54046875238418579102 0.48872497677803039551 0.49447497725486755371 0.3794937431812286377 0.33924999833106994629 0.62095624208450317383 0.30474373698234558105 0.27599999308586120605 0.27599999308586120605 0.27599999308586120605 0.27599999308586120605 0.27599999308586120605 0.27599999308586120605 0.27599999308586120605 0.27599999308586120605 0.27599999308586120605 0.27599999308586120605 0.27599999308586120605 0.27599999308586120605 0.27599999308586120605 0.37948748469352722168 0.27599999308586120605 0.27599999308586120605 
0.27599999308586120605 0.27599999308586120605 0.27599999308586120605 0.27599999308586120605 0.32774373888969421387 0.50597500801086425781 0.65545624494552612305 0.27599999308586120605 0.27599999308586120605 0.27599999308586120605 0.27599999308586120605 0.33348748087882995605 0.27599999308586120605 0.27599999308586120605 0.28174999356269836426 0.54046875238418579102 0.27599999308586120605 0.59796249866485595703 0.28174999356269836426 0.27599999308586120605 0.27599999308586120605 0.35648748278617858887 0.27599999308586120605 0.27599999308586120605 0.27599999308586120605 0.27599999308586120605 0.27599999308586120605 0.27599999308586120605 0.4829749763011932373 0.76222854852676391602 0.37948748469352722168 0.27599999308586120605 0.27599999308586120605 0.44157999753952026367 0.27599999308586120605 0.27599999308586120605 0.27599999308586120605 0.29899999499320983887 0.35878998041152954102 0.27599999308586120605 0.27599999308586120605 0.27599999308586120605 0.27599999308586120605 0.27599999308586120605 0.32774373888969421387 0.27599999308586120605 0.27599999308586120605 0.27599999308586120605 0.8969249725341796875 0.58646249771118164062 0.27599999308586120605 0.69569998979568481445 0.90842497348785400391 0.8969249725341796875 0.90459161996841430664 0.27599999308586120605 0.42164999246597290039 0.87392854690551757812 0.59796249866485595703 0.70309281349182128906 0.27599999308586120605 0.27599999308586120605 0.27599999308586120605 0.27599999308586120605 0.27599999308586120605 0.27599999308586120605 0.43123123049736022949 0.54046875238418579102 0.27599999308586120605 0.28174999356269836426 0.27599999308586120605 0.27599999308586120605 0.27599999308586120605 0.27599999308586120605 0.27599999308586120605 0.36223125457763671875 0.27599999308586120605 0.27599999308586120605 0.32774373888969421387 0.27599999308586120605 0.27599999308586120605 0.27599999308586120605 0.27599999308586120605 0.27599999308586120605 0.27599999308586120605 0.27599999308586120605 0.27599999308586120605 
0.27599999308586120605 0.27599999308586120605 0.27599999308586120605 0.27599999308586120605 0.69569998979568481445 0.53472501039505004883 0.46573123335838317871 0.27599999308586120605 0.27599999308586120605 0.27599999308586120605 0.30474373698234558105 0.30474373698234558105 0.27599999308586120605 0.27599999308586120605 0.4484812319278717041 0.4829749763011932373 0.27599999308586120605 0.37948748469352722168 0.74169373512268066406 0.63820624351501464844 0.76469373703002929688 0.69569998979568481445 0.27599999308586120605 0.27599999308586120605 0.27599999308586120605 0.27599999308586120605 0.27599999308586120605 0.70144999027252197266 0.45997777581214904785 0.35265833139419555664 0.32774373888969421387 0.27599999308586120605 0.27599999308586120605 0.27599999308586120605 0.27599999308586120605 0.4829749763011932373 0.60715997219085693359 0.27599999308586120605 0.27599999308586120605 0.27599999308586120605 0.27599999308586120605 0.27599999308586120605 0.27599999308586120605 0.56218886375427246094 0.79343748092651367188 0.27599999308586120605 0.27599999308586120605 0.27599999308586120605 1.1038999557495117188 0.49830833077430725098 0.27599999308586120605 0.64395624399185180664 0.53471875190734863281 0.77427494525909423828 0.63475996255874633789 0.49830833077430725098 0.37948748469352722168 0.56116998195648193359 0.27599999308586120605 0.36798888444900512695 0.64395833015441894531 0.27599999308586120605 0.27599999308586120605 0.27599999308586120605 0.27599999308586120605 0.32774373888969421387 0.74744373559951782227 0.4484812319278717041 0.34499374032020568848 0.28174999356269836426 0.34499374032020568848 0.28174999356269836426 0.27599999308586120605 0.27599999308586120605 0.27599999308586120605 0.40823122859001159668 0.30474373698234558105 0.30474373698234558105 0.37948748469352722168 0.27599999308586120605 0.27599999308586120605 0.27599999308586120605 0.27599999308586120605 0.27599999308586120605 0.27599999308586120605 0.33348748087882995605 0.27599999308586120605 
0.27599999308586120605 0.32774373888969421387 0.27599999308586120605 0.54621875286102294922 0.67270624637603759766 0.59796875715255737305 0.28174999356269836426 0.27599999308586120605 0.27599999308586120605 0.27599999308586120605 0.27599999308586120605 0.27599999308586120605 0.27599999308586120605 0.27599999308586120605 0.27599999308586120605 0.27599999308586120605 0.27599999308586120605 0.28174999356269836426 0.4829749763011932373 0.4829749763011932373 0.52321875095367431641 0.33923748135566711426 0.28174999356269836426 0.27599999308586120605 0.27599999308586120605 0.42547500133514404297 0.51746249198913574219 0.76879996061325073242 0.27599999308586120605 0.45384666323661804199 0.31688889861106872559 0.27599999308586120605 0.27599999308586120605 0.36798888444900512695 0.27599999308586120605 0.32774373888969421387 0.39427140355110168457 0.37948748469352722168 0.27599999308586120605 0.27599999308586120605 0.34676152467727661133 0.27599999308586120605 0.59796249866485595703 0.93831998109817504883 0.33349373936653137207 0.27599999308586120605 0.27599999308586120605 0.27599999308586120605 0.95671999454498291016 0.29324999451637268066 0.69914996623992919922 0.41398331522941589355 0.27599999308586120605 0.28366667032241821289 0.34676152467727661133 0.45998123288154602051 0.27599999308586120605 0.54489231109619140625 0.40336921811103820801 0.93831998109817504883 0.80670768022537231445 0.27599999308586120605 0.27599999308586120605 0.27599999308586120605 0.27599999308586120605 0.27599999308586120605 0.8969249725341796875 0.50021249055862426758 0.4484812319278717041 0.32774373888969421387 0.70144999027252197266 0.4369812309741973877 0.27599999308586120605 0.27599999308586120605 0.27599999308586120605 0.30474373698234558105 0.27599999308586120605 0.30474373698234558105 0.27599999308586120605 0.27599999308586120605 0.27599999308586120605 0.27599999308586120605 0.27599999308586120605 0.27599999308586120605 0.27599999308586120605 0.27599999308586120605 0.27599999308586120605 
0.32774373888969421387 0.32774373888969421387 0.37948748469352722168 0.78194373846054077148 0.66120624542236328125 0.54621875286102294922 0.27599999308586120605 0.27599999308586120605 0.27599999308586120605 0.43123123049736022949 0.30474373698234558105 0.30474373698234558105 0.27599999308586120605 0.27599999308586120605 0.27599999308586120605 0.27599999308586120605 0.27599999308586120605 0.27599999308586120605 0.27599999308586120605 0.27599999308586120605 0.27599999308586120605 0.37948748469352722168 0.46654999256134033203 0.27599999308586120605 0.27599999308586120605 0.27599999308586120605 0.72826665639877319336 0.93831998109817504883 0.27599999308586120605 0.94445329904556274414 0.60715997219085693359 0.28622221946716308594 0.3449916541576385498 0.27599999308586120605 0.27599999308586120605 0.27599999308586120605 0.27599999308586120605 0.540462493896484375 0.27599999308586120605 0.3449916541576385498 0.48120766878128051758 0.57167857885360717773 0.37948748469352722168 0.54621875286102294922 0.27599999308586120605 0.27599999308586120605 0.27599999308586120605 0.4829749763011932373 0.72367995977401733398 0.32774373888969421387 0.27599999308586120605 0.27599999308586120605 0.27599999308586120605 0.27599999308586120605 0.4599799811840057373 0.84916150569915771484 0.27599999308586120605 0.98360764980316162109 0.77683329582214355469 0.84916150569915771484 0.28622221946716308594 0.27599999308586120605 0.73594439029693603516 0.27599999308586120605 0.27599999308586120605 0.37948748469352722168 0.58646249771118164062 0.37948748469352722168 0.36224374175071716309 0.32774373888969421387 1.0004124641418457031 0.64970624446868896484 0.43123123049736022949 0.59221249818801879883 0.27599999308586120605 0.27599999308586120605 0.27599999308586120605 0.27599999308586120605 0.27599999308586120605 0.27599999308586120605 0.27599999308586120605 0.27599999308586120605 0.27599999308586120605 0.27599999308586120605 0.32774373888969421387 0.27599999308586120605 0.27599999308586120605 
0.27599999308586120605 0.27599999308586120605 0.4829749763011932373 0.73019999265670776367 0.46573123335838317871 0.27599999308586120605 0.27599999308586120605 0.27599999308586120605 0.27599999308586120605 0.27599999308586120605 0.27599999308586120605 0.40823122859001159668 0.41971874237060546875 0.27599999308586120605 0.27599999308586120605 0.4082374870777130127 0.32774373888969421387 0.27599999308586120605 0.27599999308586120605 0.27599999308586120605 0.27599999308586120605 0.27599999308586120605 0.27599999308586120605 0.27599999308586120605 0.27599999308586120605 0.27599999308586120605 0.27599999308586120605 0.28366667032241821289 0.28366667032241821289 0.45997777581214904785 0.27599999308586120605 0.3449916541576385498 0.27599999308586120605 0.30665999650955200195 0.30474373698234558105 0.27599999308586120605 0.27599999308586120605 0.27599999308586120605 0.27599999308586120605 0.27599999308586120605 0.27599999308586120605 0.58646249771118164062 0.37948748469352722168 0.27599999308586120605 0.27599999308586120605 0.27599999308586120605 0.27599999308586120605 0.27599999308586120605 0.27599999308586120605 0.27599999308586120605 0.27599999308586120605 0.27599999308586120605 0.27599999308586120605 0.27599999308586120605 0.72179228067398071289 0.83815550804138183594 0.27599999308586120605 0.72886919975280761719 0.66235333681106567383 0.85668122768402099609 0.27599999308586120605 0.37948748469352722168 0.8624312281608581543 0.27599999308586120605 0.27599999308586120605 0.32774373888969421387 0.27599999308586120605 0.27599999308586120605 0.27599999308586120605 0.27599999308586120605 0.54046875238418579102 0.74169373512268066406 0.28749999403953552246 0.33924373984336853027 0.27599999308586120605 0.27599999308586120605 0.27599999308586120605 0.27599999308586120605 0.27599999308586120605 0.27599999308586120605 0.27599999308586120605 0.27599999308586120605 0.27599999308586120605 0.32774373888969421387 0.32774373888969421387 0.27599999308586120605 0.27599999308586120605 
0.27599999308586120605 0.32774373888969421387 0.66695624589920043945 0.60371249914169311523 0.27599999308586120605 0.27599999308586120605 0.27599999308586120605 0.27599999308586120605 0.43123123049736022949 0.32774373888969421387 0.50597500801086425781 0.44271874427795410156 0.36223125457763671875 0.27599999308586120605 0.27599999308586120605 0.37948748469352722168 0.39673748612403869629 0.27599999308586120605 0.27599999308586120605 0.27599999308586120605 0.27599999308586120605 0.27599999308586120605 0.27599999308586120605 0.27599999308586120605 0.27599999308586120605 0.27599999308586120605 0.27599999308586120605 0.27599999308586120605 0.44682857394218444824 0.27599999308586120605 0.27599999308586120605 0.35878998041152954102 0.3449916541576385498 0.51363331079483032227 0.47836998105049133301 0.27599999308586120605 0.27599999308586120605 0.27599999308586120605 0.27599999308586120605 0.27599999308586120605 0.27599999308586120605 0.68994998931884765625 0.27599999308586120605 0.27599999308586120605 0.27599999308586120605 0.27599999308586120605 0.27599999308586120605 0.27599999308586120605 0.27599999308586120605 0.27599999308586120605 0.27599999308586120605 0.27599999308586120605 0.27599999308586120605 0.27599999308586120605 0.37948748469352722168 0.37948748469352722168 0.3449916541576385498 1.0513356924057006836 0.52897500991821289062 0.66234999895095825195 0.4427312314510345459 0.37948748469352722168 0.53471875190734863281 0.39097499847412109375 0.30474373698234558105 0.27599999308586120605 0.27599999308586120605 0.27599999308586120605 0.27599999308586120605 0.27599999308586120605 0.27599999308586120605 0.59796249866485595703 0.4427312314510345459 0.27599999308586120605 0.35074374079704284668 0.33924373984336853027 0.27599999308586120605 0.27599999308586120605 0.38523748517036437988 0.27599999308586120605 0.27599999308586120605 0.27599999308586120605 0.27599999308586120605 0.51747500896453857422 0.27599999308586120605 0.27599999308586120605 0.27599999308586120605 
0.37948748469352722168 0.65545624494552612305 0.4082374870777130127 0.28174999356269836426 0.27599999308586120605 0.30474373698234558105 0.27599999308586120605 0.32774373888969421387 0.68994998931884765625 0.36223125457763671875 0.47720623016357421875 0.41971874237060546875 0.39097499847412109375 0.27599999308586120605 0.27599999308586120605 0.27599999308586120605 0.28174999356269836426 0.30474373698234558105 0.36223125457763671875 0.27599999308586120605 0.39097499847412109375 0.33731999993324279785 0.27599999308586120605 0.27599999308586120605 0.27599999308586120605 0.27599999308586120605 0.27599999308586120605 0.27599999308586120605 0.27599999308586120605 0.27599999308586120605 0.27599999308586120605 0.758941650390625 0.27599999308586120605 0.6209583282470703125 0.27599999308586120605 0.27599999308586120605 0.27599999308586120605 0.27599999308586120605 0.27599999308586120605 0.27599999308586120605 0.27599999308586120605 0.27599999308586120605 0.27599999308586120605 0.27599999308586120605 0.27599999308586120605 0.27599999308586120605 0.27599999308586120605 0.27599999308586120605 0.27599999308586120605 0.27599999308586120605 0.27599999308586120605 0.27599999308586120605 0.27599999308586120605 0.27599999308586120605 0.27599999308586120605 0.27599999308586120605 0.27599999308586120605 0.6209583282470703125 0.68687999248504638672 0.69757497310638427734 0.36223125457763671875 0.59796249866485595703 0.39673748612403869629 0.27599999308586120605 0.27599999308586120605 0.28174999356269836426 0.27599999308586120605 0.27599999308586120605 0.27599999308586120605 0.27599999308586120605 0.27599999308586120605 0.79343748092651367188 0.48872497677803039551 0.27599999308586120605 0.4484812319278717041 0.39673748612403869629 0.27599999308586120605 0.32774373888969421387 0.55196875333786010742 0.27599999308586120605 0.27599999308586120605 0.27599999308586120605 0.27599999308586120605 0.54046875238418579102 0.9026749730110168457 0.27599999308586120605 0.27599999308586120605 
0.54621875286102294922 1.0579061508178710938 0.59221249818801879883 0.51172500848770141602 0.27599999308586120605 0.27599999308586120605 0.33924373984336853027 0.4369812309741973877 0.27599999308586120605 0.32774373888969421387 0.4427312314510345459 0.28749999403953552246 0.66694998741149902344 0.55196875333786010742 0.27599999308586120605 0.27599999308586120605 0.27599999308586120605 0.82790625095367431641 0.61518746614456176758 0.27599999308586120605 0.27599999308586120605 0.27599999308586120605 0.27599999308586120605 0.27599999308586120605 0.39557999372482299805 0.27599999308586120605 0.27599999308586120605 0.27599999308586120605 0.66518461704254150391 0.57496666908264160156 0.60715997219085693359 0.27599999308586120605 0.27599999308586120605 0.27599999308586120605 0.27599999308586120605 0.27599999308586120605 0.27599999308586120605 0.27599999308586120605 0.28366667032241821289 0.27599999308586120605 0.27599999308586120605 0.32774373888969421387 0.27599999308586120605 0.27599999308586120605 0.27599999308586120605 0.27599999308586120605 0.39427140355110168457 0.39098748564720153809 0.27599999308586120605 0.27599999308586120605 0.27599999308586120605 0.27599999308586120605 0.27599999308586120605 0.27599999308586120605 0.27599999308586120605 0.27599999308586120605 0.27599999308586120605 0.27599999308586120605 0.44846248626708984375 0.55901539325714111328 0.27599999308586120605 0.4829749763011932373 0.72444999217987060547 0.28749999403953552246 0.32774373888969421387 0.27599999308586120605 0.27599999308586120605 0.27599999308586120605 0.27599999308586120605 0.27599999308586120605 0.53471875190734863281 0.63820624351501464844 0.27599999308586120605 0.27599999308586120605 0.33924373984336853027 0.27599999308586120605 0.27599999308586120605 0.27599999308586120605 0.33924373984336853027 0.27599999308586120605 0.27599999308586120605 0.32774373888969421387 0.43123123049736022949 0.28174999356269836426 0.37948748469352722168 0.54621875286102294922 0.4829749763011932373 
0.74744373559951782227 0.95441871881484985352 0.28749999403953552246 0.27599999308586120605 0.27599999308586120605 0.27599999308586120605 0.35648748278617858887 0.27599999308586120605 0.63820624351501464844 0.59221249818801879883 0.60371249914169311523 0.41972500085830688477 0.32774373888969421387 0.59221249818801879883 0.40248748660087585449 0.27599999308586120605 0.27599999308586120605 0.27599999308586120605 0.27599999308586120605 0.27599999308586120605 0.27599999308586120605 0.27599999308586120605 0.59221249818801879883 0.27599999308586120605 0.27599999308586120605 0.27599999308586120605 0.38523748517036437988 0.28519999980926513672 0.8969249725341796875 0.758941650390625 0.84837776422500610352 0.28366667032241821289 0.27599999308586120605 0.27599999308586120605 0.27599999308586120605 0.27599999308586120605 0.27599999308586120605 0.27599999308586120605 0.27599999308586120605 0.27599999308586120605 0.43123123049736022949 0.54621875286102294922 0.37948748469352722168 0.49447497725486755371 0.27599999308586120605 0.27599999308586120605 0.45340713858604431152 0.43123123049736022949 0.27599999308586120605 0.27599999308586120605 0.27599999308586120605 0.27599999308586120605 0.27599999308586120605 0.27599999308586120605 0.27599999308586120605 0.27599999308586120605 0.27599999308586120605 0.27599999308586120605 0.27599999308586120605 0.43123123049736022949 0.4369812309741973877 0.79343748092651367188 1.1038999557495117188 0.8969249725341796875 0.27599999308586120605 0.27599999308586120605 0.27599999308586120605 0.27599999308586120605 0.27599999308586120605 0.43123123049736022949 0.9256687164306640625 0.47720623016357421875 0.27599999308586120605 0.48872497677803039551 0.35074374079704284668 0.27599999308586120605 0.27599999308586120605 0.27599999308586120605 0.27599999308586120605 0.27599999308586120605 0.27599999308586120605 0.27599999308586120605 0.27599999308586120605 0.27599999308586120605 0.27599999308586120605 0.32774373888969421387 0.68994998931884765625 
0.85668122768402099609 0.55771875381469726562 0.27599999308586120605 0.27599999308586120605 0.27599999308586120605 0.32774373888969421387 0.4427312314510345459 0.30474373698234558105 0.39673748612403869629 0.4427312314510345459 0.36223748326301574707 0.62667500972747802734 0.47720623016357421875 0.28174999356269836426 0.32774373888969421387 0.27599999308586120605 0.27599999308586120605 0.27599999308586120605 0.57824999094009399414 0.27599999308586120605 0.32774373888969421387 0.27599999308586120605 0.27599999308586120605 0.27599999308586120605 0.27599999308586120605 0.36798888444900512695 0.44157999753952026367 0.41398569941520690918 0.28622221946716308594 0.4829749763011932373 0.35265833139419555664 0.27599999308586120605 0.27599999308586120605 0.35878998041152954102 0.27599999308586120605 0.37821111083030700684 0.33733332157135009766 0.33513569831848144531 0.33349373936653137207 0.27599999308586120605 0.33119332790374755859 0.48626428842544555664 0.27599999308586120605 0.4369812309741973877 0.37948748469352722168 0.27599999308586120605 0.27599999308586120605 0.27599999308586120605 0.27599999308586120605 0.27599999308586120605 0.27599999308586120605 0.27599999308586120605 0.27599999308586120605 0.27599999308586120605 0.27599999308586120605 0.27599999308586120605 0.27599999308586120605 0.27599999308586120605 0.27599999308586120605 0.27599999308586120605 0.49447497725486755371 0.94866871833801269531 1.1038999557495117188 0.37948748469352722168 0.27599999308586120605 0.27599999308586120605 0.27599999308586120605 0.27599999308586120605 0.27599999308586120605 0.4829749763011932373 0.43123123049736022949 0.39097499847412109375 0.44846248626708984375 0.27599999308586120605 0.27599999308586120605 0.27599999308586120605 0.27599999308586120605 0.27599999308586120605 0.27599999308586120605 0.27599999308586120605 0.27599999308586120605 0.27599999308586120605 0.27599999308586120605 0.27599999308586120605 0.27599999308586120605 0.27599999308586120605 0.27599999308586120605 
0.71294999122619628906 0.34499374032020568848 0.27599999308586120605 0.27599999308586120605 0.27599999308586120605 0.27599999308586120605 0.33924373984336853027 0.27599999308586120605 0.33348748087882995605 0.27599999308586120605 0.53471875190734863281 0.50021874904632568359 0.27599999308586120605 0.27599999308586120605 0.27599999308586120605 0.27599999308586120605 0.27599999308586120605 0.27599999308586120605 0.27599999308586120605 0.4829749763011932373 0.6439571380615234375 0.27599999308586120605 0.27599999308586120605 0.4829749763011932373 0.92649281024932861328 0.42164999246597290039 0.27599999308586120605 0.27599999308586120605 0.3449916541576385498 0.27599999308586120605 0.27599999308586120605 0.27599999308586120605 0.27599999308586120605 0.41398331522941589355 0.60715997219085693359 0.27599999308586120605 0.72444999217987060547 0.27599999308586120605 0.27599999308586120605 0.27599999308586120605 0.27599999308586120605 0.27599999308586120605 0.27599999308586120605 0.27599999308586120605 0.27599999308586120605 0.27599999308586120605 0.27599999308586120605 0.27599999308586120605 0.27599999308586120605 0.27599999308586120605 0.27599999308586120605 0.27599999308586120605 0.27599999308586120605 0.27599999308586120605 0.27599999308586120605 0.27599999308586120605 0.27599999308586120605 0.27599999308586120605 0.27599999308586120605 0.27599999308586120605 0.27599999308586120605 1.0004124641418457031 1.1038999557495117188 0.27599999308586120605 0.27599999308586120605 0.27599999308586120605 0.27599999308586120605 0.33924373984336853027 0.28174999356269836426 0.59221249818801879883 0.44846248626708984375 0.53469371795654296875 0.27599999308586120605 0.27599999308586120605 0.27599999308586120605 0.30474373698234558105 0.36223125457763671875 0.27599999308586120605 0.27599999308586120605 0.27599999308586120605 0.27599999308586120605 0.27599999308586120605 0.27599999308586120605 0.27599999308586120605 0.27599999308586120605 0.27599999308586120605 0.27599999308586120605 
0.74169373512268066406 0.28174999356269836426 0.27599999308586120605 0.27599999308586120605 0.34499374032020568848 0.27599999308586120605 0.28174999356269836426 0.38523748517036437988 0.597949981689453125 0.37948748469352722168 0.27599999308586120605 0.35383844375610351562 0.27599999308586120605 0.27599999308586120605 0.27599999308586120605 0.27599999308586120605 0.27599999308586120605 0.27599999308586120605 0.27599999308586120605 0.28622221946716308594 0.48042219877243041992 0.55196666717529296875 0.98562854528427124023 1.0521562099456787109 1.1038999557495117188 1.1038999557495117188 0.47019997239112854004 0.3449916541576385498 0.64395552873611450195 0.40336921811103820801 0.33968460559844970703 0.27599999308586120605 0.70528328418731689453 0.74821329116821289062 0.27599999308586120605 0.27599999308586120605 0.27599999308586120605 0.73589998483657836914 0.70052307844161987305 0.64966875314712524414 0.50594997406005859375 0.27599999308586120605 0.27599999308586120605 0.27599999308586120605 0.27599999308586120605 0.27599999308586120605 0.27599999308586120605 0.27599999308586120605 0.27599999308586120605 0.27599999308586120605 0.27599999308586120605 0.27599999308586120605 0.27599999308586120605 0.27599999308586120605 0.27599999308586120605 0.27599999308586120605 0.27599999308586120605 0.27599999308586120605 0.27599999308586120605 0.27599999308586120605 0.27599999308586120605 0.37948748469352722168 0.74169373512268066406 0.37948748469352722168 0.4427312314510345459 0.27599999308586120605 0.27599999308586120605 0.38523748517036437988 0.75319373607635498047 0.33349373936653137207 0.36223125457763671875 0.27599999308586120605 0.27599999308586120605 0.27599999308586120605 0.27599999308586120605 0.27599999308586120605 0.30474373698234558105 0.27599999308586120605 0.27599999308586120605 0.27599999308586120605 0.27599999308586120605 0.27599999308586120605 0.27599999308586120605 0.27599999308586120605 0.27599999308586120605 0.27599999308586120605 0.27599999308586120605 
0.28174999356269836426 0.27599999308586120605 0.27599999308586120605 0.32774373888969421387 0.51172500848770141602 0.38523748517036437988 0.54046875238418579102 0.69569998979568481445 0.62092500925064086914 0.41971874237060546875 0.27599999308586120605 0.27599999308586120605 0.27599999308586120605 0.27599999308586120605 0.27599999308586120605 0.31432500481605529785 0.31137692928314208984 0.27599999308586120605 0.68994998931884765625 1.034908294677734375 1.1038999557495117188 1.1038999557495117188 1.1038999557495117188 1.1038999557495117188 0.73594439029693603516 0.88312661647796630859 0.47413074970245361328 0.44157999753952026367 0.6209583282470703125 0.59029996395111083984 0.69761663675308227539 0.48872497677803039551 0.37948748469352722168 0.37565833330154418945 0.4906222224235534668 0.32774373888969421387 0.59796249866485595703 0.73589998483657836914 0.73589998483657836914 0.73589998483657836914 0.36223125457763671875 0.27599999308586120605 0.27599999308586120605 0.27599999308586120605 0.27599999308586120605 0.29324999451637268066 0.37948748469352722168 0.27599999308586120605 0.27599999308586120605 0.27599999308586120605 0.27599999308586120605 0.27599999308586120605 0.27599999308586120605 0.27599999308586120605 0.27599999308586120605 0.27599999308586120605 0.27599999308586120605 0.27599999308586120605 0.27599999308586120605 0.27599999308586120605 0.27599999308586120605 0.27599999308586120605 0.27599999308586120605 0.27599999308586120605 0.38523748517036437988 0.27599999308586120605 0.27599999308586120605 1.0004124641418457031 0.55771875381469726562 0.27599999308586120605 0.27599999308586120605 0.27599999308586120605 0.27599999308586120605 0.27599999308586120605 0.27599999308586120605 0.27599999308586120605 0.27599999308586120605 0.27599999308586120605 0.27599999308586120605 0.28174999356269836426 0.27599999308586120605 0.27599999308586120605 0.27599999308586120605 0.27599999308586120605 0.27599999308586120605 0.27599999308586120605 0.27599999308586120605 
0.32774373888969421387 0.27599999308586120605 0.27599999308586120605 0.27599999308586120605 0.27599999308586120605 0.38523748517036437988 0.4484812319278717041 0.27599999308586120605 0.30474373698234558105 0.27599999308586120605 0.27599999308586120605 0.27599999308586120605 0.27599999308586120605 0.27599999308586120605 0.27599999308586120605 0.27599999308586120605 0.74169373512268066406 1.1038999557495117188 1.1038999557495117188 1.1038999557495117188 1.1038999557495117188 1.1038999557495117188 0.80493748188018798828 0.73594439029693603516 1.1038999557495117188 0.66120624542236328125 0.27599999308586120605 0.68994998931884765625 1.1038999557495117188 0.66694164276123046875 0.50084441900253295898 0.27599999308586120605 0.27599999308586120605 0.27599999308586120605 0.4427312314510345459 0.53970664739608764648 0.7206166386604309082 0.72670996189117431641 0.73589998483657836914 0.65924996137619018555 0.27599999308586120605 0.27599999308586120605 0.27599999308586120605 0.27599999308586120605 0.30474373698234558105 0.55194997787475585938 0.27599999308586120605 0.27599999308586120605 0.27599999308586120605 0.27599999308586120605 0.27599999308586120605 0.27599999308586120605 0.27599999308586120605 0.27599999308586120605 0.27599999308586120605 0.27599999308586120605 0.27599999308586120605 0.27599999308586120605 0.27599999308586120605 0.27599999308586120605 0.33924373984336853027 0.28749999403953552246 0.32774373888969421387 0.4829749763011932373 0.50022500753402709961 0.43123123049736022949 0.64970624446868896484 0.64395624399185180664 0.35074374079704284668 0.27599999308586120605 0.27599999308586120605 0.27599999308586120605 0.27599999308586120605 0.27599999308586120605 0.27599999308586120605 0.27599999308586120605 0.27599999308586120605 0.27599999308586120605 0.27599999308586120605 0.41971874237060546875 0.27599999308586120605 0.27599999308586120605 0.27599999308586120605 0.27599999308586120605 0.27599999308586120605 0.27599999308586120605 0.27599999308586120605 
0.28174999356269836426 0.37948748469352722168 0.27599999308586120605 0.27599999308586120605 0.27599999308586120605 0.32774373888969421387 0.43123123049736022949 0.27599999308586120605 0.27599999308586120605 0.27599999308586120605 0.27599999308586120605 0.27599999308586120605 0.27599999308586120605 0.27599999308586120605 0.27599999308586120605 0.4829749763011932373 1.1038999557495117188 1.1038999557495117188 1.1038999557495117188 1.1038999557495117188 0.74616664648056030273 0.77427494525909423828 0.4829749763011932373 0.4427312314510345459 0.28749999403953552246 0.28174999356269836426 0.27599999308586120605 0.53471875190734863281 0.73594439029693603516 0.28307691216468811035 0.32774373888969421387 0.27599999308586120605 0.27599999308586120605 0.27599999308586120605 0.27599999308586120605 0.27599999308586120605 0.50594997406005859375 0.7030499577522277832 0.4882615208625793457 0.30474373698234558105 0.27599999308586120605 0.27599999308586120605 0.27599999308586120605 0.27599999308586120605 0.30474373698234558105 0.39097499847412109375 0.44846248626708984375 0.39097499847412109375 0.27599999308586120605 0.27599999308586120605 0.27599999308586120605 0.27599999308586120605 0.27599999308586120605 0.27599999308586120605 0.27599999308586120605 0.27599999308586120605 0.27599999308586120605 0.27599999308586120605 0.27599999308586120605 0.27599999308586120605 0.27599999308586120605 0.63820624351501464844 1.0579061508178710938 1.0579061508178710938 0.79343748092651367188 0.59221249818801879883 0.57496249675750732422 0.28749999403953552246 0.28749999403953552246 0.27599999308586120605 0.27599999308586120605 0.27599999308586120605 0.27599999308586120605 0.27599999308586120605 0.27599999308586120605 0.27599999308586120605 0.27599999308586120605 0.27599999308586120605 0.28174999356269836426 0.30474373698234558105 0.53471875190734863281 0.27599999308586120605 0.27599999308586120605 0.27599999308586120605 0.27599999308586120605 0.27599999308586120605 0.27599999308586120605 
0.27599999308586120605 0.33924373984336853027 0.4484812319278717041 0.27599999308586120605 0.27599999308586120605 0.68994998931884765625 0.27599999308586120605 0.27599999308586120605 0.27599999308586120605 0.50594997406005859375 0.27599999308586120605 0.27599999308586120605 0.27599999308586120605 0.27599999308586120605 0.27599999308586120605 1.0521562099456787109 1.1038999557495117188 0.84518122673034667969 0.8969249725341796875 0.99877136945724487305 0.70835000276565551758 0.27599999308586120605 0.27599999308586120605 0.27599999308586120605 0.27599999308586120605 0.27599999308586120605 0.27599999308586120605 0.27599999308586120605 0.27599999308586120605 0.27599999308586120605 0.27599999308586120605 0.27599999308586120605 0.27599999308586120605 0.27599999308586120605 0.27599999308586120605 0.27599999308586120605 0.58259999752044677734 0.65924996137619018555 0.33348748087882995605 0.27599999308586120605 0.27599999308586120605 0.27599999308586120605 0.27599999308586120605 0.27599999308586120605 0.37948748469352722168 0.43123123049736022949 0.30474373698234558105 0.53469371795654296875 0.27599999308586120605 0.27599999308586120605 0.37948748469352722168 0.27599999308586120605 0.53471875190734863281 0.68994998931884765625 0.68994998931884765625 0.79343748092651367188 0.68994998931884765625 0.37948748469352722168 0.27599999308586120605 0.27599999308586120605 0.4829749763011932373 0.64395624399185180664 0.64395624399185180664 0.4427312314510345459 0.27599999308586120605 0.27599999308586120605 0.32774373888969421387 0.28174999356269836426 0.33924373984336853027 0.28174999356269836426 0.27599999308586120605 0.27599999308586120605 0.27599999308586120605 0.32774373888969421387 0.58646249771118164062 0.58646249771118164062 0.27599999308586120605 0.27599999308586120605 0.27599999308586120605 0.27599999308586120605 1.0004124641418457031 0.58646249771118164062 0.27599999308586120605 0.28174999356269836426 0.27599999308586120605 0.29324999451637268066 0.32199999690055847168 
0.27599999308586120605 0.27599999308586120605 0.27599999308586120605 0.27599999308586120605 0.4829749763011932373 0.37948748469352722168 0.28174999356269836426 0.27599999308586120605 0.27599999308586120605 0.48039999604225158691 0.42929998040199279785 0.42929998040199279785 0.27599999308586120605 0.27599999308586120605 1.1038999557495117188 1.1038999557495117188 1.1038999557495117188 1.1038999557495117188 1.0119124650955200195 0.78500664234161376953 0.96591871976852416992 0.34499374032020568848 0.49447497725486755371 0.32774373888969421387 0.27599999308586120605 0.27599999308586120605 0.27599999308586120605 0.27599999308586120605 0.27599999308586120605 0.27599999308586120605 0.27599999308586120605 0.27599999308586120605 0.27599999308586120605 0.27599999308586120605 0.27599999308586120605 0.36798000335693359375 0.7030499577522277832 0.41971874237060546875 0.27599999308586120605 0.27599999308586120605 0.27599999308586120605 0.27599999308586120605 0.27599999308586120605 0.53471875190734863281 0.63820624351501464844 0.47720623016357421875 0.67841249704360961914 0.53469371795654296875 0.38523748517036437988 0.8969249725341796875 0.74744373559951782227 0.53471875190734863281 0.27599999308586120605 0.4829749763011932373 0.53471875190734863281 0.54621875286102294922 0.53471875190734863281 0.27599999308586120605 0.27599999308586120605 0.27599999308586120605 0.37948748469352722168 0.29324999451637268066 0.48872497677803039551 0.27599999308586120605 0.27599999308586120605 0.27599999308586120605 0.27599999308586120605 0.27599999308586120605 0.27599999308586120605 0.33924373984336853027 0.27599999308586120605 0.27599999308586120605 0.32774373888969421387 0.53471875190734863281 0.37948748469352722168 0.27599999308586120605 0.27599999308586120605 0.27599999308586120605 0.27599999308586120605 0.4829749763011932373 0.84518122673034667969 0.32774373888969421387 0.49447497725486755371 0.56921875476837158203 0.79918748140335083008 0.79343748092651367188 0.68994998931884765625 
0.70144999027252197266 0.49447497725486755371 0.27599999308586120605 0.27599999308586120605 0.53471875190734863281 0.27599999308586120605 0.36798748373985290527 0.28749999403953552246 0.63820624351501464844 0.39672499895095825195 0.50594997406005859375 0.47720623016357421875 0.33348748087882995605 0.4829749763011932373 0.4829749763011932373 1.1038999557495117188 1.1038999557495117188 1.1038999557495117188 1.1038999557495117188 0.48872497677803039551 0.4599666595458984375 0.42929998040199279785 0.79343748092651367188 0.4484812319278717041 0.27599999308586120605 0.27599999308586120605 0.27599999308586120605 0.27599999308586120605 0.58259999752044677734 0.27599999308586120605 0.27599999308586120605 0.27599999308586120605 0.27599999308586120605 0.27599999308586120605 0.27599999308586120605 0.35264998674392700195 0.60369372367858886719 0.27599999308586120605 0.27599999308586120605 0.27599999308586120605 0.32774373888969421387 0.32774373888969421387 0.27599999308586120605 0.43123123049736022949 0.27599999308586120605 0.44846248626708984375 0.70715624094009399414 0.50594997406005859375 0.43123123049736022949 0.79343748092651367188 0.63820624351501464844 0.33348748087882995605 0.36223125457763671875 0.30474373698234558105 0.30474373698234558105 0.33349373936653137207 0.27599999308586120605 0.27599999308586120605 0.37948748469352722168 0.70144999027252197266 0.32774373888969421387 0.37948748469352722168 0.38523748517036437988 0.27599999308586120605 0.27599999308586120605 0.27599999308586120605 0.27599999308586120605 0.27599999308586120605 0.27599999308586120605 0.4484812319278717041 0.27599999308586120605 0.27599999308586120605 0.27599999308586120605 0.27599999308586120605 0.27599999308586120605 0.4829749763011932373 0.64970624446868896484 0.63820624351501464844 0.69569998979568481445 0.40248748660087585449 0.34499374032020568848 0.35649374127388000488 1.0579061508178710938 1.1038999557495117188 1.0579061508178710938 0.58646249771118164062 0.29899999499320983887 
0.37948748469352722168 0.27599999308586120605 0.27599999308586120605 0.37948748469352722168 0.32774373888969421387 0.28174999356269836426 0.36798748373985290527 0.4427312314510345459 0.59221249818801879883 0.31432500481605529785 0.33348748087882995605 0.27599999308586120605 0.27599999308586120605 0.27599999308586120605 0.70528328418731689453 1.1038999557495117188 0.70144999027252197266 1.0004124641418457031 0.48872497677803039551 0.43123123049736022949 0.47720623016357421875 0.41971874237060546875 0.51171875 0.75319373607635498047 0.32774373888969421387 0.27599999308586120605 0.27599999308586120605 0.27599999308586120605 0.27599999308586120605 0.27599999308586120605 0.27599999308586120605 0.27599999308586120605 0.27599999308586120605 0.27599999308586120605 0.27599999308586120605 0.63820624351501464844 0.4829749763011932373 0.27599999308586120605 0.27599999308586120605 0.53471875190734863281 0.43123123049736022949 0.27599999308586120605 0.27599999308586120605 0.27599999308586120605 0.27599999308586120605 0.27599999308586120605 0.56343746185302734375 0.44846248626708984375 0.43123123049736022949 0.35649374127388000488 0.27599999308586120605 0.67841249704360961914 0.73589998483657836914 0.73589998483657836914 0.70715624094009399414 0.67841249704360961914 0.27599999308586120605 0.27599999308586120605 0.32774373888969421387 0.4542312324047088623 0.27599999308586120605 0.30474373698234558105 0.27599999308586120605 0.27599999308586120605 0.27599999308586120605 0.27599999308586120605 0.27599999308586120605 0.27599999308586120605 0.35074374079704284668 0.51172500848770141602 0.48872497677803039551 0.32774373888969421387 0.4369812309741973877 0.49447497725486755371 0.37948748469352722168 0.43123123049736022949 0.27599999308586120605 0.32774373888969421387 0.79918748140335083008 0.74169373512268066406 1.0061624050140380859 0.9026749730110168457 1.0119124650955200195 0.94866871833801269531 1.1038999557495117188 0.39673748612403869629 0.27599999308586120605 
0.27599999308586120605 0.27599999308586120605 0.27599999308586120605 0.75319373607635498047 0.50597500801086425781 0.69569998979568481445 0.4829749763011932373 0.37948748469352722168 0.27599999308586120605 0.27599999308586120605 0.27599999308586120605 0.27599999308586120605 0.27599999308586120605 1.034908294677734375 1.0211099386215209961 0.68994998931884765625 0.27599999308586120605 0.27599999308586120605 0.28366667032241821289 0.34170714020729064941 0.34169998764991760254 0.36798000335693359375 0.51171875 0.71294999122619628906 0.27599999308586120605 0.27599999308586120605 0.27599999308586120605 0.27599999308586120605 0.27599999308586120605 0.73589998483657836914 0.44024997949600219727 0.58646249771118164062 0.40248748660087585449 0.27599999308586120605 0.4829749763011932373 0.63820624351501464844 0.32774373888969421387 0.27599999308586120605 0.63820624351501464844 0.27599999308586120605 0.27599999308586120605 0.27599999308586120605 0.27599999308586120605 0.27599999308586120605 0.27599999308586120605 0.27599999308586120605 0.27599999308586120605 0.27599999308586120605 0.27599999308586120605 0.27599999308586120605 0.27599999308586120605 0.70715624094009399414 0.73589998483657836914 0.73589998483657836914 0.73589998483657836914 0.39097499847412109375 0.27599999308586120605 0.27599999308586120605 0.53471875190734863281 0.75894373655319213867 0.27599999308586120605 0.33348748087882995605 0.27599999308586120605 0.27599999308586120605 0.27599999308586120605 0.27599999308586120605 0.27599999308586120605 0.32774373888969421387 0.36799374222755432129 0.68994998931884765625 0.79918748140335083008 0.74169373512268066406 0.59221249818801879883 0.33924373984336853027 0.32774373888969421387 0.27599999308586120605 0.27599999308586120605 0.33349373936653137207 0.53471875190734863281 0.79343748092651367188 0.74169373512268066406 0.28174999356269836426 0.38523748517036437988 0.63820624351501464844 0.70144999027252197266 0.27599999308586120605 0.27599999308586120605 
0.27599999308586120605 0.27599999308586120605 0.32774373888969421387 0.9026749730110168457 0.34499374032020568848 0.32774373888969421387 0.28174999356269836426 0.27599999308586120605 0.27599999308586120605 0.37948748469352722168 0.27599999308586120605 0.27599999308586120605 0.42547500133514404297 1.080866694450378418 0.9199187159538269043 0.53471875190734863281 0.27599999308586120605 0.27599999308586120605 0.56729996204376220703 0.4599799811840057373 0.27599999308586120605 0.68073999881744384766 0.68994998931884765625 0.38523748517036437988 0.27599999308586120605 0.27599999308586120605 0.27599999308586120605 0.27599999308586120605 0.62092500925064086914 0.73589998483657836914 0.44024997949600219727 0.64395999908447265625 0.30474373698234558105 0.43123123049736022949 1.1038999557495117188 0.4829749763011932373 0.37948748469352722168 0.53471875190734863281 0.27599999308586120605 0.27599999308586120605 0.27599999308586120605 0.27599999308586120605 0.27599999308586120605 0.27599999308586120605 0.27599999308586120605 0.27599999308586120605 0.27599999308586120605 0.27599999308586120605 0.27599999308586120605 0.27599999308586120605 0.27599999308586120605 0.53469371795654296875 0.73589998483657836914 0.73589998483657836914 0.70715624094009399414 0.27599999308586120605 0.27599999308586120605 0.27599999308586120605 0.43123123049736022949 0.74744373559951782227 0.27599999308586120605 0.28174999356269836426 0.32774373888969421387 0.27599999308586120605 0.32774373888969421387 0.40248748660087585449 0.27599999308586120605 0.27599999308586120605 0.33924373984336853027 0.37948748469352722168 0.37948748469352722168 0.33924373984336853027 0.32774373888969421387 0.27599999308586120605 0.27599999308586120605 0.27599999308586120605 0.27599999308586120605 0.39098748564720153809 0.4427312314510345459 0.4427312314510345459 0.37948748469352722168 0.85668122768402099609 0.43123123049736022949 0.27599999308586120605 0.27599999308586120605 0.27599999308586120605 0.27599999308586120605 
0.27599999308586120605 0.27599999308586120605 0.32774373888969421387 0.37948748469352722168 0.28174999356269836426 0.37948748469352722168 0.27599999308586120605 0.33513569831848144531 0.38523748517036437988 0.34676152467727661133 0.27599999308586120605 0.6209583282470703125 0.85859161615371704102 1.2090142965316772461 1.1038999557495117188 0.48872497677803039551 0.27599999308586120605 0.27599999308586120605 0.27599999308586120605 0.45231664180755615234 0.32774373888969421387 0.59796249866485595703 0.32774373888969421387 0.27599999308586120605 0.27599999308586120605 0.27599999308586120605 0.27599999308586120605 0.27599999308586120605 0.58259999752044677734 0.70715624094009399414 0.53471875190734863281 0.36798748373985290527 0.47720623016357421875 0.75318121910095214844 1.0521562099456787109 0.4829749763011932373 0.27599999308586120605 0.27599999308586120605 0.27599999308586120605 0.27599999308586120605 0.27599999308586120605 0.27599999308586120605 0.27599999308586120605 0.27599999308586120605 0.27599999308586120605 0.27599999308586120605 0.37948748469352722168 0.43123123049736022949 0.27599999308586120605 0.27599999308586120605 0.27599999308586120605 0.27599999308586120605 0.64966875314712524414 0.73589998483657836914 0.47720623016357421875 0.27599999308586120605 0.27599999308586120605 0.27599999308586120605 0.69569998979568481445 0.64395624399185180664 0.27599999308586120605 0.4829749763011932373 0.32774373888969421387 0.27599999308586120605 0.27599999308586120605 0.4427312314510345459 0.32774373888969421387 0.54046875238418579102 0.4484812319278717041 0.4369812309741973877 0.27599999308586120605 0.28174999356269836426 0.37948748469352722168 0.27599999308586120605 0.27599999308586120605 0.27599999308586120605 0.27599999308586120605 0.28174999356269836426 0.33349373936653137207 0.28174999356269836426 0.27599999308586120605 0.37948748469352722168 0.27599999308586120605 0.27599999308586120605 0.27599999308586120605 0.27599999308586120605 0.27599999308586120605 
0.27599999308586120605 0.27599999308586120605 0.27599999308586120605 0.27599999308586120605 0.27599999308586120605 0.39098748564720153809 0.28366667032241821289 0.58646249771118164062 0.39098748564720153809 0.27599999308586120605 0.32774373888969421387 0.8969249725341796875 1.1038999557495117188 1.1038999557495117188 1.1038999557495117188 0.28174999356269836426 0.27599999308586120605 0.27599999308586120605 0.37948748469352722168 0.36032497882843017578 0.43123123049736022949 0.50597500801086425781 0.44846248626708984375 0.27599999308586120605 0.27599999308586120605 0.27599999308586120605 0.27599999308586120605 0.39097499847412109375 0.70715624094009399414 0.42929998040199279785 0.4829749763011932373 0.54427498579025268555 0.56343746185302734375 0.51746249198913574219 0.8969249725341796875 0.37948748469352722168 0.27599999308586120605 0.27599999308586120605 0.27599999308586120605 0.27599999308586120605 0.27599999308586120605 0.27599999308586120605 0.27599999308586120605 0.27599999308586120605 0.27599999308586120605 0.27599999308586120605 0.27599999308586120605 0.27599999308586120605 0.27599999308586120605 0.27599999308586120605 0.27599999308586120605 0.27599999308586120605 0.30474373698234558105 0.36223125457763671875 0.27599999308586120605 0.4829749763011932373 0.27599999308586120605 0.27599999308586120605 0.43123123049736022949 0.4829749763011932373 0.33349373936653137207 0.27599999308586120605 0.27599999308586120605 0.27599999308586120605 0.30474373698234558105 0.27599999308586120605 0.27599999308586120605 0.33349373936653137207 0.32774373888969421387 0.27599999308586120605 0.27599999308586120605 0.27599999308586120605 0.27599999308586120605 0.38523748517036437988 0.27599999308586120605 0.27599999308586120605 0.27599999308586120605 0.27599999308586120605 0.27599999308586120605 0.27599999308586120605 0.27599999308586120605 0.27599999308586120605 0.27599999308586120605 0.27599999308586120605 0.27599999308586120605 0.27599999308586120605 0.27599999308586120605 
0.27599999308586120605 0.27599999308586120605 0.27599999308586120605 0.27599999308586120605 0.27599999308586120605 0.32774373888969421387 0.37948748469352722168 0.40084284543991088867 0.27599999308586120605 0.27599999308586120605 0.79343748092651367188 1.0521562099456787109 1.1038999557495117188 1.1038999557495117188 1.1038999557495117188 0.68994998931884765625 0.30474373698234558105 0.44846248626708984375 0.27599999308586120605 0.33119332790374755859 0.53471875190734863281 0.4427312314510345459 0.3088499903678894043 0.4599799811840057373 0.29324999451637268066 0.27599999308586120605 0.27599999308586120605 0.50594997406005859375 0.59439229965209960938 0.27599999308586120605 0.31137692928314208984 0.50594997406005859375 0.30474373698234558105 0.63820624351501464844 1.0521562099456787109 0.8969249725341796875 0.27599999308586120605 0.27599999308586120605 0.27599999308586120605 0.27599999308586120605 0.27599999308586120605 0.43123123049736022949 0.37948748469352722168 0.27599999308586120605 0.27599999308586120605 0.27599999308586120605 0.27599999308586120605 0.27599999308586120605 0.27599999308586120605 0.27599999308586120605 0.32774373888969421387 0.32774373888969421387 0.27599999308586120605 0.27599999308586120605 0.27599999308586120605 0.58646249771118164062 0.27599999308586120605 0.27599999308586120605 0.27599999308586120605 0.28174999356269836426 0.27599999308586120605 0.27599999308586120605 0.27599999308586120605 0.27599999308586120605 0.33348748087882995605 0.30474373698234558105 0.27599999308586120605 0.32774373888969421387 0.27599999308586120605 0.27599999308586120605 0.50597500801086425781 0.54046875238418579102 0.63820624351501464844 0.43123123049736022949 0.27599999308586120605 0.27599999308586120605 0.27599999308586120605 0.27599999308586120605 0.27599999308586120605 0.27599999308586120605 0.27599999308586120605 0.27599999308586120605 0.27599999308586120605 0.27599999308586120605 0.27599999308586120605 0.27599999308586120605 0.27599999308586120605 
0.27599999308586120605 0.27599999308586120605 0.27599999308586120605 0.32774373888969421387 0.37948748469352722168 0.75894373655319213867 0.34170714020729064941 0.4829749763011932373 0.27599999308586120605 0.41398331522941589355 1.1038999557495117188 1.1038999557495117188 0.8969249725341796875 1.1038999557495117188 1.1038999557495117188 0.9026749730110168457 0.47837999463081359863 0.27599999308586120605 0.32774373888969421387 0.27599999308586120605 0.27599999308586120605 0.27599999308586120605 0.27599999308586120605 0.70309281349182128906 0.32774373888969421387 0.32774373888969421387 0.27599999308586120605 0.27599999308586120605 0.32198998332023620605 0.27599999308586120605 0.52436995506286621094 0.63820624351501464844 0.8969249725341796875 0.63820624351501464844 0.63820624351501464844 0.37948748469352722168 0.27599999308586120605 0.27599999308586120605 0.27599999308586120605 0.27599999308586120605 0.27599999308586120605 0.27599999308586120605 0.27599999308586120605 0.27599999308586120605 0.27599999308586120605 0.27599999308586120605 0.27599999308586120605 0.27599999308586120605 0.27599999308586120605 0.32774373888969421387 0.68994998931884765625 0.43123123049736022949 0.27599999308586120605 0.27599999308586120605 0.27599999308586120605 0.27599999308586120605 0.27599999308586120605 0.27599999308586120605 0.27599999308586120605 0.27599999308586120605 0.27599999308586120605 0.27599999308586120605 0.27599999308586120605 0.27599999308586120605 0.27599999308586120605 0.27599999308586120605 0.27599999308586120605 0.29899999499320983887 0.38523748517036437988 0.33349373936653137207 0.28749999403953552246 0.27599999308586120605 0.33348748087882995605 0.33348748087882995605 0.27599999308586120605 0.27599999308586120605 0.27599999308586120605 0.27599999308586120605 0.27599999308586120605 0.27599999308586120605 0.59221249818801879883 0.27599999308586120605 0.27599999308586120605 0.28174999356269836426 0.32774373888969421387 0.27599999308586120605 0.27599999308586120605 
0.37948748469352722168 0.55771875381469726562 0.27599999308586120605 0.37948748469352722168 0.43123123049736022949 0.51747500896453857422 0.42164999246597290039 0.27599999308586120605 0.27599999308586120605 1.034908294677734375 1.1038999557495117188 1.0447642803192138672 0.4829749763011932373 1.0521562099456787109 1.1038999557495117188 0.74169373512268066406 0.8585999608039855957 0.29324999451637268066 0.43698331713676452637 0.55853569507598876953 0.33924373984336853027 0.33513569831848144531 0.84326660633087158203 0.59221249818801879883 0.27599999308586120605 0.43123123049736022949 0.27599999308586120605 0.27599999308586120605 0.39427140355110168457 0.27599999308586120605 0.4829749763011932373 1.1038999557495117188 1.1038999557495117188 0.37948748469352722168 0.27599999308586120605 0.27599999308586120605 0.27599999308586120605 0.27599999308586120605 0.27599999308586120605 0.27599999308586120605 0.27599999308586120605 0.27599999308586120605 0.63820624351501464844 0.59221249818801879883 0.27599999308586120605 0.27599999308586120605 0.27599999308586120605 0.27599999308586120605 0.68994998931884765625 0.32774373888969421387 0.27599999308586120605 0.27599999308586120605 0.27599999308586120605 0.27599999308586120605 0.37948748469352722168 0.27599999308586120605 0.27599999308586120605 0.39098748564720153809 0.28174999356269836426 0.43123123049736022949 0.27599999308586120605 0.27599999308586120605 0.27599999308586120605 0.27599999308586120605 0.27599999308586120605 0.27599999308586120605 0.43123123049736022949 0.81068748235702514648 0.58646249771118164062 0.27599999308586120605 0.27599999308586120605 0.27599999308586120605 0.33348748087882995605 0.33348748087882995605 0.27599999308586120605 0.27599999308586120605 0.32774373888969421387 0.27599999308586120605 0.27599999308586120605 0.27599999308586120605 0.64970624446868896484 0.32774373888969421387 0.27599999308586120605 0.39673122763633728027 0.64395624399185180664 0.27599999308586120605 0.27599999308586120605 
0.27599999308586120605 0.27599999308586120605 0.27599999308586120605 0.27599999308586120605 0.27599999308586120605 0.27599999308586120605 0.27599999308586120605 0.27599999308586120605 0.27599999308586120605 1.034908294677734375 1.1038999557495117188 1.0402153730392456055 0.60715997219085693359 1.0521562099456787109 1.1038999557495117188 1.1038999557495117188 0.65417778491973876953 0.27599999308586120605 0.35484999418258666992 0.57036662101745605469 0.72886919975280761719 0.57241111993789672852 0.4427312314510345459 0.27599999308586120605 0.27599999308586120605 0.27599999308586120605 0.27599999308586120605 0.45340713858604431152 0.27599999308586120605 0.71754664182662963867 0.37948748469352722168 0.68994998931884765625 0.74169373512268066406 0.27599999308586120605 0.27599999308586120605 0.27599999308586120605 0.27599999308586120605 0.27599999308586120605 0.27599999308586120605 0.27599999308586120605 0.27599999308586120605 0.27599999308586120605 0.53471875190734863281 0.53471875190734863281 0.27599999308586120605 0.27599999308586120605 0.27599999308586120605 0.27599999308586120605 0.27599999308586120605 0.27599999308586120605 0.32774373888969421387 0.27599999308586120605 0.27599999308586120605 0.27599999308586120605 0.58646249771118164062 0.27599999308586120605 0.27599999308586120605 0.27599999308586120605 0.27599999308586120605 0.27599999308586120605 0.27599999308586120605 0.32774373888969421387 0.32774373888969421387 0.27599999308586120605 0.27599999308586120605 0.27599999308586120605 0.4829749763011932373 0.66120624542236328125 0.32774373888969421387 0.27599999308586120605 0.27599999308586120605 0.27599999308586120605 0.27599999308586120605 0.27599999308586120605 0.27599999308586120605 0.27599999308586120605 0.27599999308586120605 0.37948748469352722168 0.27599999308586120605 0.45998123288154602051 0.84518122673034667969 0.32774373888969421387 0.4829749763011932373 0.31049373745918273926 0.27599999308586120605 0.27599999308586120605 0.27599999308586120605 
0.60371249914169311523 0.27599999308586120605 0.37948748469352722168 0.63820624351501464844 0.32774373888969421387 0.32774373888969421387 0.27599999308586120605 0.27599999308586120605 0.4829749763011932373 0.6209583282470703125 1.0578999519348144531 0.95057499408721923828 0.80493748188018798828 0.43123123049736022949 1.1038999557495117188 0.79343748092651367188 0.27599999308586120605 0.27599999308586120605 0.27599999308586120605 0.27599999308586120605 0.27599999308586120605 0.4427312314510345459 0.51172500848770141602 0.55196666717529296875 0.27599999308586120605 0.27599999308586120605 0.41398331522941589355 0.58646249771118164062 0.27599999308586120605 0.58646249771118164062 0.53471875190734863281 0.27599999308586120605 0.27599999308586120605 0.27599999308586120605 0.33348748087882995605 0.44846248626708984375 0.36223125457763671875 0.41971874237060546875 0.33348748087882995605 0.27599999308586120605 0.27599999308586120605 0.27599999308586120605 0.27599999308586120605 0.27599999308586120605 0.27599999308586120605 0.27599999308586120605 0.27599999308586120605 0.27599999308586120605 0.27599999308586120605 0.27599999308586120605 0.48872497677803039551 0.27599999308586120605 0.27599999308586120605 0.27599999308586120605 0.27599999308586120605 0.27599999308586120605 0.27599999308586120605 0.27599999308586120605 0.27599999308586120605 0.27599999308586120605 0.27599999308586120605 0.37948748469352722168 0.37948748469352722168 0.27599999308586120605 0.38523748517036437988 0.8624312281608581543 1.0119124650955200195 0.81068748235702514648 0.37948748469352722168 0.4369812309741973877 0.48872497677803039551 0.27599999308586120605 0.27599999308586120605 0.27599999308586120605 0.27599999308586120605 0.27599999308586120605 0.27599999308586120605 0.39673748612403869629 0.27599999308586120605 0.43123123049736022949 0.9026749730110168457 0.55771875381469726562 0.49447497725486755371 0.27599999308586120605 0.27599999308586120605 0.27599999308586120605 0.27599999308586120605 
0.4829749763011932373 0.27599999308586120605 0.27599999308586120605 0.27599999308586120605 0.43123123049736022949 0.27599999308586120605 0.27599999308586120605 0.27599999308586120605 1.0447642803192138672 1.034908294677734375 0.9122416377067565918 0.6255499720573425293 0.27599999308586120605 0.27599999308586120605 0.8969249725341796875 0.74169373512268066406 0.33348748087882995605 0.27599999308586120605 0.27599999308586120605 0.27599999308586120605 0.27599999308586120605 0.32774373888969421387 0.32774373888969421387 0.27599999308586120605 0.32774373888969421387 0.33968460559844970703 0.73594439029693603516 0.27599999308586120605 0.31137692928314208984 0.37948748469352722168 0.58646249771118164062 0.43123123049736022949 0.27599999308586120605 0.27599999308586120605 0.27599999308586120605 0.27599999308586120605 0.59218126535415649414 0.70715624094009399414 0.36223125457763671875 0.28174999356269836426 0.27599999308586120605 0.27599999308586120605 0.27599999308586120605 0.27599999308586120605 0.27599999308586120605 0.32774373888969421387 0.27599999308586120605 0.27599999308586120605 0.27599999308586120605 0.27599999308586120605 0.27599999308586120605 0.27599999308586120605 0.27599999308586120605 0.27599999308586120605 0.27599999308586120605 0.27599999308586120605 0.27599999308586120605 0.27599999308586120605 0.27599999308586120605 0.27599999308586120605 0.27599999308586120605 0.27599999308586120605 0.27599999308586120605 0.27599999308586120605 0.32774373888969421387 0.55196875333786010742 0.70144999027252197266 0.69569998979568481445 0.32774373888969421387 0.33349373936653137207 0.27599999308586120605 0.27599999308586120605 0.27599999308586120605 0.27599999308586120605 0.27599999308586120605 0.27599999308586120605 0.32774373888969421387 0.28174999356269836426 0.28174999356269836426 0.59221249818801879883 0.53471875190734863281 0.43123123049736022949 0.27599999308586120605 0.27599999308586120605 0.27599999308586120605 0.27599999308586120605 0.27599999308586120605 
0.36224374175071716309 0.4369812309741973877 0.27599999308586120605 0.32774373888969421387 0.27599999308586120605 0.27599999308586120605 0.27599999308586120605 0.27599999308586120605 0.4829749763011932373 1.1038999557495117188 0.59796249866485595703 1.034908294677734375 0.54047501087188720703 0.3449916541576385498 1.1038999557495117188 0.74169373512268066406 0.27599999308586120605 0.27599999308586120605 0.27599999308586120605 0.27599999308586120605 0.27599999308586120605 0.27599999308586120605 0.27599999308586120605 0.27599999308586120605 0.27599999308586120605 0.32774373888969421387 0.3449916541576385498 0.27599999308586120605 0.27599999308586120605 0.43123123049736022949 0.68994998931884765625 0.32774373888969421387 0.27599999308586120605 0.27599999308586120605 0.27599999308586120605 0.27599999308586120605 0.59218126535415649414 0.56343746185302734375 0.27599999308586120605 0.27599999308586120605 0.27599999308586120605 0.27599999308586120605 0.27599999308586120605 0.27599999308586120605 0.32774373888969421387 0.63820624351501464844 0.27599999308586120605 0.27599999308586120605 0.27599999308586120605 0.27599999308586120605 0.27599999308586120605 0.27599999308586120605 0.27599999308586120605 0.27599999308586120605 0.27599999308586120605 0.27599999308586120605 0.27599999308586120605 0.27599999308586120605 0.27599999308586120605 0.27599999308586120605 0.27599999308586120605 0.27599999308586120605 0.27599999308586120605 0.39098748564720153809 0.4369812309741973877 0.39098748564720153809 0.59796249866485595703 0.43123123049736022949 0.27599999308586120605 0.39673748612403869629 0.27599999308586120605 0.27599999308586120605 0.27599999308586120605 0.27599999308586120605 0.27599999308586120605 0.27599999308586120605 0.27599999308586120605 0.27599999308586120605 0.27599999308586120605 0.27599999308586120605 0.27599999308586120605 0.27599999308586120605 0.27599999308586120605 0.27599999308586120605 0.27599999308586120605 0.27599999308586120605 0.27599999308586120605 
0.28174999356269836426 0.27599999308586120605 0.27599999308586120605 0.63820624351501464844 0.27599999308586120605 0.27599999308586120605 0.53224283456802368164 0.27599999308586120605 0.27599999308586120605 0.71754997968673706055 1.0004124641418457031 0.96591663360595703125 0.27599999308586120605 0.27599999308586120605 1.1038999557495117188 0.27599999308586120605 0.27599999308586120605 0.27599999308586120605 0.27599999308586120605 0.27599999308586120605 0.27599999308586120605 0.27599999308586120605 0.27599999308586120605 0.27599999308586120605 0.27599999308586120605 0.27599999308586120605 0.27599999308586120605 0.27599999308586120605 0.27599999308586120605 0.27599999308586120605 0.27599999308586120605 0.27599999308586120605 0.27599999308586120605 0.27599999308586120605 0.27599999308586120605 0.27599999308586120605 0.41971874237060546875 0.44271874427795410156 0.28174999356269836426 0.27599999308586120605 0.27599999308586120605 0.27599999308586120605 0.27599999308586120605 0.27599999308586120605 0.27599999308586120605 0.53471875190734863281 0.27599999308586120605 0.27599999308586120605 0.27599999308586120605 0.43123123049736022949 0.33349373936653137207 0.27599999308586120605 0.27599999308586120605 0.79343748092651367188 0.27599999308586120605 0.27599999308586120605 0.27599999308586120605 0.27599999308586120605 0.27599999308586120605 0.27599999308586120605 0.27599999308586120605 0.27599999308586120605 0.27599999308586120605 0.37948748469352722168 0.54621875286102294922 0.27599999308586120605 0.33349373936653137207 0.27599999308586120605 0.27599999308586120605 0.27599999308586120605 0.27599999308586120605 0.27599999308586120605 0.27599999308586120605 0.27599999308586120605 0.27599999308586120605 0.27599999308586120605 0.27599999308586120605 0.27599999308586120605 0.27599999308586120605 0.27599999308586120605 0.27599999308586120605 0.27599999308586120605 0.27599999308586120605 0.27599999308586120605 0.27599999308586120605 0.27599999308586120605 0.27599999308586120605 
0.68994998931884765625 0.37948748469352722168 0.27599999308586120605 0.68994998931884765625 0.27599999308586120605 0.33349373936653137207 0.83559995889663696289 0.29899999499320983887 0.27599999308586120605 0.34676152467727661133 0.43123123049736022949 0.59442305564880371094 0.27599999308586120605 0.30359998345375061035 1.034908294677734375 0.27599999308586120605 0.27599999308586120605 0.27599999308586120605 0.27599999308586120605 0.27599999308586120605 0.27599999308586120605 0.27599999308586120605 0.27599999308586120605 0.27599999308586120605 0.27599999308586120605 0.56610000133514404297 0.27599999308586120605 0.27599999308586120605 0.30474373698234558105 0.27599999308586120605 0.27599999308586120605 0.27599999308586120605 0.27599999308586120605 0.27599999308586120605 0.27599999308586120605 0.27599999308586120605 0.33348748087882995605 0.39673748612403869629 0.27599999308586120605 0.27599999308586120605 0.27599999308586120605 0.27599999308586120605 0.27599999308586120605 0.27599999308586120605 0.27599999308586120605 0.32774373888969421387 0.27599999308586120605 0.27599999308586120605 0.27599999308586120605 0.59218126535415649414 0.36223125457763671875 0.27599999308586120605 0.27599999308586120605 0.43123123049736022949 0.28749999403953552246 0.27599999308586120605 0.27599999308586120605 0.27599999308586120605 0.27599999308586120605 0.27599999308586120605 0.27599999308586120605 0.28174999356269836426 0.4829749763011932373 0.74169373512268066406 0.54046875238418579102 0.28749999403953552246 0.27599999308586120605 0.27599999308586120605 0.27599999308586120605 0.27599999308586120605 0.27599999308586120605 0.27599999308586120605 0.27599999308586120605 0.27599999308586120605 0.32774373888969421387 0.69569998979568481445 0.4829749763011932373 0.27599999308586120605 0.27599999308586120605 0.27599999308586120605 0.27599999308586120605 0.27599999308586120605 0.27599999308586120605 0.33348748087882995605 0.27599999308586120605 0.27599999308586120605 0.27599999308586120605 
0.27599999308586120605 0.27599999308586120605 0.58646249771118164062 0.4829749763011932373 0.27599999308586120605 0.4829749763011932373 0.66518461704254150391 0.35265833139419555664 0.27599999308586120605 0.27599999308586120605 0.27599999308586120605 0.64395552873611450195 0.32199165225028991699 0.4829749763011932373 1.0487066507339477539 0.4829749763011932373 0.27599999308586120605 0.27599999308586120605 0.27599999308586120605 0.27599999308586120605 0.27599999308586120605 0.27599999308586120605 0.41398331522941589355 0.27599999308586120605 0.47413074970245361328 0.29324999451637268066 0.27599999308586120605 0.27599999308586120605 0.27599999308586120605 0.27599999308586120605 0.27599999308586120605 0.27599999308586120605 0.27599999308586120605 0.27599999308586120605 0.37948748469352722168 0.27599999308586120605 0.27599999308586120605 0.27599999308586120605 0.27599999308586120605 0.27599999308586120605 0.27599999308586120605 0.27599999308586120605 0.27599999308586120605 0.27599999308586120605 0.27599999308586120605 0.27599999308586120605 0.33348748087882995605 0.50594997406005859375 0.59218126535415649414 0.56343746185302734375 0.59218126535415649414 0.27599999308586120605 0.27599999308586120605 0.27599999308586120605 0.4829749763011932373 0.32774373888969421387 0.27599999308586120605 0.27599999308586120605 0.27599999308586120605 0.27599999308586120605 0.27599999308586120605 0.27599999308586120605 0.27599999308586120605 0.32774373888969421387 0.27599999308586120605 0.27599999308586120605 0.27599999308586120605 0.27599999308586120605 0.27599999308586120605 0.27599999308586120605 0.27599999308586120605 0.27599999308586120605 0.27599999308586120605 0.27599999308586120605 0.27599999308586120605 0.39098748564720153809 0.32774373888969421387 0.27599999308586120605 0.27599999308586120605 0.27599999308586120605 0.27599999308586120605 0.27599999308586120605 0.27599999308586120605 0.38523122668266296387 0.30474373698234558105 0.27599999308586120605 0.27599999308586120605 
0.27599999308586120605 0.27599999308586120605 0.63820624351501464844 0.27599999308586120605 0.37948748469352722168 0.55963331460952758789 0.72365999221801757812 0.39098331332206726074 0.27599999308586120605 0.27599999308586120605 0.27599999308586120605 0.33119332790374755859 0.63629162311553955078 0.27599999308586120605 1.1038999557495117188 0.79343748092651367188 0.27599999308586120605 0.27599999308586120605 0.27599999308586120605 0.27599999308586120605 0.27599999308586120605 0.4104461371898651123 0.33349373936653137207 0.27599999308586120605 0.27599999308586120605 0.27599999308586120605 0.27599999308586120605 0.27599999308586120605 0.27599999308586120605 0.27599999308586120605 0.27599999308586120605 0.27599999308586120605 0.39097499847412109375 0.27599999308586120605 0.38523748517036437988 0.27599999308586120605 0.27599999308586120605 0.27599999308586120605 0.27599999308586120605 0.27599999308586120605 0.27599999308586120605 0.27599999308586120605 0.27599999308586120605 0.27599999308586120605 0.50594997406005859375 0.59218126535415649414 0.47720623016357421875 0.50594997406005859375 0.30474373698234558105 0.27599999308586120605 0.27599999308586120605 0.27599999308586120605 0.27599999308586120605 0.27599999308586120605 0.27599999308586120605 0.27599999308586120605 0.27599999308586120605 0.27599999308586120605 0.27599999308586120605 0.32774373888969421387 0.58646249771118164062 0.27599999308586120605 0.27599999308586120605 0.32774373888969421387 0.27599999308586120605 0.27599999308586120605 0.27599999308586120605 0.27599999308586120605 0.27599999308586120605 0.27599999308586120605 0.27599999308586120605 0.27599999308586120605 0.27599999308586120605 0.27599999308586120605 0.27599999308586120605 0.27599999308586120605 0.27599999308586120605 0.74744373559951782227 0.27599999308586120605 0.27599999308586120605 0.27599999308586120605 0.38523748517036437988 0.32774373888969421387 0.27599999308586120605 0.27599999308586120605 0.27599999308586120605 0.27599999308586120605 
0.27599999308586120605 0.32774373888969421387 0.58646249771118164062 0.27599999308586120605 0.27599999308586120605 0.37948748469352722168 0.41396999359130859375 0.31432500481605529785 0.31432500481605529785 0.27599999308586120605 0.27599999308586120605 0.41398331522941589355 0.94866871833801269531 0.58646249771118164062 0.6209583282470703125 0.58646249771118164062 0.27599999308586120605 0.27599999308586120605 0.27599999308586120605 0.27599999308586120605 0.27599999308586120605 0.73593997955322265625 0.4829749763011932373 0.28519999980926513672 0.27599999308586120605 0.27599999308586120605 0.27599999308586120605 0.27599999308586120605 0.27599999308586120605 0.27599999308586120605 0.27599999308586120605 0.27599999308586120605 0.30474373698234558105 0.31049373745918273926 0.27599999308586120605 0.50022500753402709961 0.4829749763011932373 0.27599999308586120605 0.50022500753402709961 0.27599999308586120605 0.27599999308586120605 0.27599999308586120605 0.27599999308586120605 0.27599999308586120605 0.33348748087882995605 0.36223125457763671875 0.36223125457763671875 0.27599999308586120605 0.27599999308586120605 0.27599999308586120605 0.27599999308586120605 0.39097499847412109375 0.27599999308586120605 0.27599999308586120605 0.27599999308586120605 0.27599999308586120605 0.27599999308586120605 0.27599999308586120605 0.27599999308586120605 0.27599999308586120605 0.27599999308586120605 0.27599999308586120605 0.27599999308586120605 0.27599999308586120605 0.27599999308586120605 0.27599999308586120605 0.27599999308586120605 0.27599999308586120605 0.27599999308586120605 0.27599999308586120605 0.27599999308586120605 0.27599999308586120605 0.27599999308586120605 0.27599999308586120605 0.27599999308586120605 0.27599999308586120605 0.37948748469352722168 0.74744373559951782227 0.37948748469352722168 0.28174999356269836426 0.27599999308586120605 0.64970624446868896484 0.27599999308586120605 0.27599999308586120605 0.27599999308586120605 0.27599999308586120605 0.27599999308586120605 
0.27599999308586120605 0.60371249914169311523 1.0061624050140380859 0.33349373936653137207 0.28174999356269836426 0.56346249580383300781 0.66436666250228881836 0.27599999308586120605 0.27599999308586120605 0.57494997978210449219 0.28366667032241821289 0.45997777581214904785 1.0521562099456787109 0.57167857885360717773 0.66235333681106567383 0.4829749763011932373 0.27599999308586120605 0.27599999308586120605 0.27599999308586120605 0.27599999308586120605 0.27599999308586120605 0.55196923017501831055 0.4599799811840057373 0.59442305564880371094 0.31432500481605529785 0.39097499847412109375 0.30474373698234558105 0.27599999308586120605 0.27599999308586120605 0.27599999308586120605 0.27599999308586120605 0.27599999308586120605 0.27599999308586120605 0.40247499942779541016 0.68994998931884765625 0.68994998931884765625 0.43123123049736022949 0.27599999308586120605 0.32774373888969421387 0.38523748517036437988 0.27599999308586120605 0.27599999308586120605 0.27599999308586120605 0.27599999308586120605 0.27599999308586120605 0.27599999308586120605 0.27599999308586120605 0.27599999308586120605 0.27599999308586120605 0.27599999308586120605 0.4427312314510345459 0.32774373888969421387 0.27599999308586120605 0.27599999308586120605 0.27599999308586120605 0.27599999308586120605 0.4829749763011932373 0.58646249771118164062 0.27599999308586120605 0.27599999308586120605 0.27599999308586120605 0.27599999308586120605 0.27599999308586120605 0.27599999308586120605 0.27599999308586120605 0.27599999308586120605 0.27599999308586120605 0.27599999308586120605 0.27599999308586120605 0.27599999308586120605 0.27599999308586120605 0.27599999308586120605 0.27599999308586120605 0.27599999308586120605 0.27599999308586120605 0.27599999308586120605 0.4829749763011932373 0.8969249725341796875 0.37948748469352722168 0.43123123049736022949 0.27599999308586120605 0.27599999308586120605 0.27599999308586120605 0.27599999308586120605 0.27599999308586120605 0.27599999308586120605 0.27599999308586120605 
0.27599999308586120605 0.63820624351501464844 0.91992497444152832031 0.27599999308586120605 0.65545624494552612305 0.68418121337890625 0.69297999143600463867 0.37454998493194580078 0.27599999308586120605 0.27599999308586120605 0.29324999451637268066 0.3449916541576385498 1.1038999557495117188 0.93831998109817504883 0.59442305564880371094 0.27599999308586120605 0.27599999308586120605 0.27599999308586120605 0.27599999308586120605 0.27599999308586120605 0.36798888444900512695 0.57036662101745605469 0.28257143497467041016 0.27599999308586120605 0.27599999308586120605 0.45422500371932983398 0.50022500753402709961 0.27599999308586120605 0.27599999308586120605 0.27599999308586120605 0.27599999308586120605 0.30474373698234558105 0.27599999308586120605 0.68419373035430908203 0.53471875190734863281 0.53471875190734863281 0.27599999308586120605 0.27599999308586120605 0.39673748612403869629 0.28174999356269836426 0.27599999308586120605 0.27599999308586120605 0.27599999308586120605 0.27599999308586120605 0.27599999308586120605 0.27599999308586120605 0.27599999308586120605 0.27599999308586120605 0.27599999308586120605 0.27599999308586120605 0.69569998979568481445 0.37948748469352722168 0.27599999308586120605 0.27599999308586120605 0.27599999308586120605 0.37948748469352722168 0.65545624494552612305 0.74744373559951782227 0.43123123049736022949 0.27599999308586120605 0.27599999308586120605 0.27599999308586120605 0.27599999308586120605 0.27599999308586120605 0.27599999308586120605 0.27599999308586120605 0.27599999308586120605 0.27599999308586120605 0.27599999308586120605 0.27599999308586120605 0.27599999308586120605 0.27599999308586120605 0.32774373888969421387 0.27599999308586120605 0.27599999308586120605 0.27599999308586120605 0.27599999308586120605 0.37948748469352722168 0.27599999308586120605 0.27599999308586120605 0.27599999308586120605 0.27599999308586120605 0.27599999308586120605 0.59221249818801879883 0.27599999308586120605 0.27599999308586120605 0.27599999308586120605 
0.27599999308586120605 0.75319373607635498047 0.95441871881484985352 0.33349373936653137207 0.37948748469352722168 0.36223125457763671875 0.36798000335693359375 0.3088499903678894043 0.29324999451637268066 0.32774373888969421387 0.43697500228881835938 0.27599999308586120605 1.1038999557495117188 1.0004124641418457031 0.82793331146240234375 0.32774373888969421387 0.27599999308586120605 0.27599999308586120605 0.27599999308586120605 0.32774373888969421387 0.28174999356269836426 0.27599999308586120605 0.27599999308586120605 0.27599999308586120605 0.63820624351501464844 0.68419373035430908203 0.37948748469352722168 0.4542312324047088623 0.27599999308586120605 0.27599999308586120605 0.27599999308586120605 0.27599999308586120605 0.27599999308586120605 0.4829749763011932373 0.91417497396469116211 0.33349373936653137207 0.32774373888969421387 0.27599999308586120605 0.37948748469352722168 0.28174999356269836426 0.27599999308586120605 0.27599999308586120605 0.27599999308586120605 0.27599999308586120605 0.27599999308586120605 0.27599999308586120605 0.27599999308586120605 0.27599999308586120605 0.27599999308586120605 0.27599999308586120605 0.4829749763011932373 0.27599999308586120605 0.27599999308586120605 0.27599999308586120605 0.27599999308586120605 0.32774373888969421387 0.28174999356269836426 0.53471875190734863281 0.64395624399185180664 0.43123123049736022949 0.27599999308586120605 0.27599999308586120605 0.27599999308586120605 0.27599999308586120605 0.27599999308586120605 0.30474373698234558105 0.47720623016357421875 0.59218126535415649414 0.27599999308586120605 0.27599999308586120605 0.27599999308586120605 0.32774373888969421387 0.59793126583099365234 0.33348748087882995605 0.27599999308586120605 0.27599999308586120605 0.27599999308586120605 0.33924373984336853027 0.49447497725486755371 0.43123123049736022949 0.54046875238418579102 0.32774373888969421387 0.53471875190734863281 0.84518122673034667969 0.81643748283386230469 0.79343748092651367188 0.4829749763011932373 
0.27599999308586120605 0.40248748660087585449 0.8681812286376953125 0.34499374032020568848 0.27599999308586120605 0.28174999356269836426 0.74613332748413085938 0.27599999308586120605 0.32774373888969421387 0.32774373888969421387 0.55196875333786010742 0.28622221946716308594 1.1038999557495117188 0.68994998931884765625 0.4829749763011932373 0.58646249771118164062 0.27599999308586120605 0.27599999308586120605 0.27599999308586120605 0.27599999308586120605 0.55196923017501831055 0.27599999308586120605 0.27599999308586120605 0.27599999308586120605 0.74744373559951782227 0.33924373984336853027 0.27599999308586120605 0.4082374870777130127 0.27599999308586120605 0.27599999308586120605 0.27599999308586120605 0.27599999308586120605 0.4829749763011932373 1.1038999557495117188 1.1038999557495117188 1.0521562099456787109 0.32774373888969421387 0.27599999308586120605 0.27599999308586120605 0.27599999308586120605 0.27599999308586120605 0.27599999308586120605 0.27599999308586120605 0.27599999308586120605 0.27599999308586120605 0.27599999308586120605 0.27599999308586120605 0.27599999308586120605 0.27599999308586120605 0.27599999308586120605 0.27599999308586120605 0.27599999308586120605 0.30474373698234558105 0.39097499847412109375 0.47720623016357421875 0.27599999308586120605 0.27599999308586120605 0.4829749763011932373 0.63820624351501464844 0.90842497348785400391 0.50022500753402709961 0.31624999642372131348 0.27599999308586120605 0.27599999308586120605 0.27599999308586120605 0.59218126535415649414 0.67841249704360961914 0.70141249895095825195 0.32774373888969421387 0.27599999308586120605 0.27599999308586120605 0.41971874237060546875 0.56343746185302734375 0.41971874237060546875 0.33348748087882995605 0.27599999308586120605 0.27599999308586120605 0.27599999308586120605 0.32774373888969421387 0.27599999308586120605 0.27599999308586120605 0.43123123049736022949 0.37948748469352722168 0.28174999356269836426 0.29899999499320983887 0.27599999308586120605 0.27599999308586120605 
0.27599999308586120605 0.40823122859001159668 0.64970624446868896484 0.76469373703002929688 0.27599999308586120605 0.28174999356269836426 0.70528328418731689453 0.27599999308586120605 0.27599999308586120605 0.46654999256134033203 0.29324999451637268066 0.42164999246597290039 0.27599999308586120605 1.1038999557495117188 0.3449916541576385498 0.58646249771118164062 0.27599999308586120605 0.27599999308586120605 0.27599999308586120605 0.32774373888969421387 0.69914996623992919922 0.27599999308586120605 0.27599999308586120605 0.28174999356269836426 0.84516870975494384766 0.48295623064041137695 0.43696874380111694336 0.38523748517036437988 0.43123123049736022949 0.27599999308586120605 0.27599999308586120605 0.27599999308586120605 0.4829749763011932373 0.84518122673034667969 1.1038999557495117188 1.1038999557495117188 0.65545624494552612305 0.27599999308586120605 0.32774373888969421387 0.32774373888969421387 0.27599999308586120605 0.27599999308586120605 0.27599999308586120605 0.27599999308586120605 0.27599999308586120605 0.27599999308586120605 0.27599999308586120605 0.27599999308586120605 0.27599999308586120605 0.27599999308586120605 0.28174999356269836426 0.27599999308586120605 0.30474373698234558105 0.41971874237060546875 0.36223125457763671875 0.38523748517036437988 0.64395624399185180664 1.0004124641418457031 0.63820624351501464844 0.28749999403953552246 0.8969249725341796875 0.85668122768402099609 0.29324999451637268066 0.28174999356269836426 0.44271874427795410156 0.47721248865127563477 0.4829749763011932373 0.48871874809265136719 0.33924373984336853027 0.27599999308586120605 0.27599999308586120605 0.44846248626708984375 0.47720623016357421875 0.73589998483657836914 0.53469371795654296875 0.30474373698234558105 0.53471875190734863281 0.54046875238418579102 0.27599999308586120605 0.27599999308586120605 0.27599999308586120605 0.27599999308586120605 0.27599999308586120605 0.27599999308586120605 0.27599999308586120605 0.27599999308586120605 0.27599999308586120605 
0.27599999308586120605 0.49446874856948852539 0.84518122673034667969 0.28749999403953552246 0.27599999308586120605 0.32774373888969421387 1.1529465913772583008 0.28749999403953552246 0.27599999308586120605 0.35878998041152954102 0.50022500753402709961 0.32966667413711547852 0.8969249725341796875 1.0004124641418457031 0.758941650390625 0.4829749763011932373 0.27599999308586120605 0.27599999308586120605 0.27599999308586120605 0.40336921811103820801 0.53471875190734863281 0.27599999308586120605 0.27599999308586120605 0.37948748469352722168 0.44272500276565551758 0.41972500085830688477 0.35073748230934143066 0.33348748087882995605 0.32774373888969421387 0.27599999308586120605 0.27599999308586120605 0.27599999308586120605 0.27599999308586120605 0.29324999451637268066 0.43123123049736022949 0.84518122673034667969 0.81068748235702514648 0.27599999308586120605 0.37948748469352722168 0.27599999308586120605 0.27599999308586120605 0.27599999308586120605 0.27599999308586120605 0.27599999308586120605 0.27599999308586120605 0.27599999308586120605 0.27599999308586120605 0.27599999308586120605 0.27599999308586120605 0.27599999308586120605 0.30474999547004699707 0.32774373888969421387 0.27599999308586120605 0.27599999308586120605 0.28174999356269836426 0.68994998931884765625 1.0119124650955200195 1.1038999557495117188 0.56346875429153442383 0.27599999308586120605 0.32774373888969421387 0.43123123049736022949 0.31049999594688415527 0.27599999308586120605 0.4427312314510345459 0.43123123049736022949 0.32774373888969421387 0.27599999308586120605 0.27599999308586120605 0.27599999308586120605 0.27599999308586120605 0.27599999308586120605 0.31049999594688415527 0.48871248960494995117 0.47720623016357421875 0.37948748469352722168 0.4829749763011932373 0.27599999308586120605 0.27599999308586120605 0.27599999308586120605 0.27599999308586120605 0.27599999308586120605 0.27599999308586120605 0.27599999308586120605 0.27599999308586120605 0.27599999308586120605 0.27599999308586120605 
0.33924373984336853027 0.48872497677803039551 0.69569998979568481445 0.33349373936653137207 0.43123123049736022949 0.55770623683929443359 0.54429167509078979492 0.28257143497467041016 0.63820624351501464844 0.91992497444152832031 0.54621875286102294922 0.55196666717529296875 0.80822139978408813477 0.4829749763011932373 0.46705383062362670898 0.8969249725341796875 0.27599999308586120605 0.27599999308586120605 0.27599999308586120605 0.27599999308586120605 0.32774373888969421387 0.27599999308586120605 0.27599999308586120605 0.43123123049736022949 0.59221249818801879883 0.32774373888969421387 0.27599999308586120605 0.27599999308586120605 0.27599999308586120605 0.27599999308586120605 0.27599999308586120605 0.27599999308586120605 0.27599999308586120605 0.33349373936653137207 0.27599999308586120605 0.32774373888969421387 0.58646249771118164062 0.27599999308586120605 0.38523748517036437988 0.27599999308586120605 0.27599999308586120605 0.27599999308586120605 0.27599999308586120605 0.27599999308586120605 0.27599999308586120605 0.27599999308586120605 0.27599999308586120605 0.27599999308586120605 0.27599999308586120605 0.27599999308586120605 0.32774373888969421387 0.53471875190734863281 0.27599999308586120605 0.32774373888969421387 0.84518122673034667969 1.1038999557495117188 1.1038999557495117188 1.1038999557495117188 0.59221249818801879883 0.58646249771118164062 0.53471875190734863281 0.27599999308586120605 0.4369812309741973877 0.69569998979568481445 0.33349373936653137207 0.27599999308586120605 0.27599999308586120605 0.27599999308586120605 0.27599999308586120605 0.27599999308586120605 0.27599999308586120605 0.27599999308586120605 0.27599999308586120605 0.53471875190734863281 0.58646249771118164062 0.27599999308586120605 0.27599999308586120605 0.27599999308586120605 0.27599999308586120605 0.27599999308586120605 0.27599999308586120605 0.27599999308586120605 0.27599999308586120605 0.27599999308586120605 0.27599999308586120605 0.27599999308586120605 0.27599999308586120605 
0.27599999308586120605 0.64970624446868896484 0.4082374870777130127 0.27599999308586120605 0.32774373888969421387 0.27599999308586120605 0.27599999308586120605 0.27599999308586120605 0.36798000335693359375 0.91992217302322387695 0.74169373512268066406 1.0425750017166137695 0.52436995506286621094 0.57167857885360717773 0.38638666272163391113 1.1038999557495117188 0.27599999308586120605 0.27599999308586120605 0.40478000044822692871 0.45288461446762084961 0.9544124603271484375 0.27599999308586120605 0.27599999308586120605 0.4829749763011932373 0.38523748517036437988 0.29899999499320983887 0.27599999308586120605 0.43123123049736022949 0.27599999308586120605 0.27599999308586120605 0.27599999308586120605 0.28174999356269836426 0.59221249818801879883 0.4484812319278717041 0.27599999308586120605 0.27599999308586120605 0.32774373888969421387 0.63820624351501464844 0.37948748469352722168 0.27599999308586120605 0.27599999308586120605 0.27599999308586120605 0.27599999308586120605 0.48872497677803039551 0.58646249771118164062 0.4829749763011932373 0.43123123049736022949 0.59221249818801879883 0.43123123049736022949 0.70144999027252197266 0.71294999122619628906 0.90842497348785400391 0.75319373607635498047 1.0061624050140380859 1.0004124641418457031 0.76469373703002929688 0.85668122768402099609 0.70144999027252197266 0.84518122673034667969 0.8969249725341796875 0.51747500896453857422 0.28174999356269836426 0.27599999308586120605 0.27599999308586120605 0.27599999308586120605 0.27599999308586120605 0.27599999308586120605 0.27599999308586120605 0.27599999308586120605 0.27599999308586120605 0.27599999308586120605 0.27599999308586120605 0.27599999308586120605 0.27599999308586120605 0.53471875190734863281 0.27599999308586120605 0.27599999308586120605 0.27599999308586120605 0.27599999308586120605 0.27599999308586120605 0.27599999308586120605 0.27599999308586120605 0.27599999308586120605 0.27599999308586120605 0.27599999308586120605 0.33348748087882995605 0.62092500925064086914 
0.27599999308586120605 0.70144999027252197266 0.39673748612403869629 0.37948748469352722168 0.27599999308586120605 0.27599999308586120605 0.27599999308586120605 0.27599999308586120605 0.27599999308586120605 0.50597500801086425781 0.49064165353775024414 1.1038999557495117188 0.27599999308586120605 0.4829749763011932373 0.27599999308586120605 0.27599999308586120605 0.27599999308586120605 0.27599999308586120605 0.27599999308586120605 0.5826333165168762207 1.0521562099456787109 0.32774373888969421387 0.27599999308586120605 0.9026749730110168457 0.4369812309741973877 0.37948748469352722168 0.27599999308586120605 0.32774373888969421387 0.27599999308586120605 0.27599999308586120605 0.27599999308586120605 0.35074374079704284668 0.58646249771118164062 0.69569998979568481445 0.27599999308586120605 0.27599999308586120605 0.27599999308586120605 0.68994998931884765625 0.4369812309741973877 0.58646249771118164062 0.32774373888969421387 0.27599999308586120605 0.27599999308586120605 0.27599999308586120605 0.54046875238418579102 0.37948748469352722168 0.27599999308586120605 0.32774373888969421387 0.32774373888969421387 0.53471875190734863281 0.4829749763011932373 0.79918748140335083008 0.8969249725341796875 0.58646249771118164062 0.32774373888969421387 0.53471875190734863281 0.37948748469352722168 0.27599999308586120605 0.32774373888969421387 0.59221249818801879883 0.27599999308586120605 0.27599999308586120605 0.27599999308586120605 0.27599999308586120605 0.27599999308586120605 0.27599999308586120605 0.27599999308586120605 0.27599999308586120605 0.27599999308586120605 0.27599999308586120605 0.27599999308586120605 0.27599999308586120605 0.27599999308586120605 0.27599999308586120605 0.74169373512268066406 0.32774373888969421387 0.27599999308586120605 0.27599999308586120605 0.27599999308586120605 0.27599999308586120605 0.27599999308586120605 0.27599999308586120605 0.27599999308586120605 0.27599999308586120605 0.27599999308586120605 0.36223125457763671875 0.39097499847412109375 
0.35648748278617858887 0.79918748140335083008 0.70719999074935913086 0.49447497725486755371 0.72444999217987060547 0.68418121337890625 0.50594997406005859375 0.39864999055862426758 0.3449916541576385498 0.27599999308586120605 0.58646249771118164062 0.27599999308586120605 0.27599999308586120605 0.9735749363899230957 0.3449916541576385498 0.43123123049736022949 0.27599999308586120605 0.27599999308586120605 0.27599999308586120605 0.90842497348785400391 0.43123123049736022949 0.31049999594688415527 0.27599999308586120605 0.27599999308586120605 0.27599999308586120605 0.27599999308586120605 0.27599999308586120605 0.27599999308586120605 0.27599999308586120605 0.32774373888969421387 0.27599999308586120605 0.4484812319278717041 0.76469373703002929688 0.59221249818801879883 0.27599999308586120605 0.27599999308586120605 0.27599999308586120605 0.32774373888969421387 0.27599999308586120605 0.32774373888969421387 0.27599999308586120605 0.27599999308586120605 0.27599999308586120605 0.27599999308586120605 0.27599999308586120605 0.27599999308586120605 0.27599999308586120605 0.27599999308586120605 0.27599999308586120605 0.27599999308586120605 0.27599999308586120605 0.27599999308586120605 0.27599999308586120605 0.27599999308586120605 0.27599999308586120605 0.27599999308586120605 0.27599999308586120605 0.27599999308586120605 0.27599999308586120605 0.27599999308586120605 0.27599999308586120605 0.27599999308586120605 0.27599999308586120605 0.27599999308586120605 0.27599999308586120605 0.27599999308586120605 0.27599999308586120605 0.27599999308586120605 0.27599999308586120605 0.27599999308586120605 0.27599999308586120605 0.27599999308586120605 0.27599999308586120605 0.27599999308586120605 0.37948748469352722168 0.27599999308586120605 0.27599999308586120605 0.27599999308586120605 0.27599999308586120605 0.27599999308586120605 0.27599999308586120605 0.27599999308586120605 0.27599999308586120605 0.39097499847412109375 0.30474373698234558105 0.28174999356269836426 0.29899999499320983887 
0.58646249771118164062 0.8681812286376953125 0.59221249818801879883 0.90842497348785400391 0.59796249866485595703 0.51172500848770141602 0.27599999308586120605 0.32774373888969421387 0.4139874875545501709 0.3449916541576385498 0.27599999308586120605 0.27599999308586120605 0.45340713858604431152 0.79343748092651367188 0.6209583282470703125 0.27599999308586120605 0.27599999308586120605 0.27599999308586120605 0.27599999308586120605 0.27599999308586120605 0.27599999308586120605 0.27599999308586120605 0.27599999308586120605 0.27599999308586120605 0.33349373936653137207 0.33924373984336853027 0.43123123049736022949 0.32774373888969421387 0.4542312324047088623 0.50597500801086425781 0.28174999356269836426 0.33924373984336853027 0.54046875238418579102 0.27599999308586120605 0.41971874237060546875 0.27599999308586120605 0.27599999308586120605 0.32774373888969421387 0.27599999308586120605 0.27599999308586120605 0.27599999308586120605 0.27599999308586120605 0.27599999308586120605 0.27599999308586120605 0.27599999308586120605 0.27599999308586120605 0.27599999308586120605 0.27599999308586120605 0.27599999308586120605 0.27599999308586120605 0.27599999308586120605 0.27599999308586120605 0.27599999308586120605 0.27599999308586120605 0.27599999308586120605 0.27599999308586120605 0.27599999308586120605 0.27599999308586120605 0.27599999308586120605 0.27599999308586120605 0.27599999308586120605 0.27599999308586120605 0.27599999308586120605 0.27599999308586120605 0.27599999308586120605 0.27599999308586120605 0.27599999308586120605 0.27599999308586120605 0.27599999308586120605 0.27599999308586120605 0.27599999308586120605 0.27599999308586120605 0.27599999308586120605 0.27599999308586120605 0.27599999308586120605 0.27599999308586120605 0.27599999308586120605 0.27599999308586120605 0.27599999308586120605 0.27599999308586120605 0.27599999308586120605 0.27599999308586120605 0.27599999308586120605 0.30474373698234558105 0.27599999308586120605 0.50597500801086425781 0.52897500991821289062 
0.84518122673034667969 0.32774373888969421387 0.43123123049736022949 0.37948748469352722168 0.37948748469352722168 0.27599999308586120605 0.27599999308586120605 0.32774373888969421387 0.39427140355110168457 0.33119332790374755859 0.32774373888969421387 0.59442305564880371094 1.0211099386215209961 0.62862497568130493164 0.68994998931884765625 0.41398331522941589355 0.39097499847412109375 0.27599999308586120605 0.27599999308586120605 0.27599999308586120605 0.27599999308586120605 0.37948748469352722168 0.79343748092651367188 0.68994998931884765625 0.74169373512268066406 0.85668122768402099609 0.64970624446868896484 0.4427312314510345459 0.39673748612403869629 0.39673748612403869629 0.32774373888969421387 0.37948748469352722168 0.27599999308586120605 0.39097499847412109375 0.30474373698234558105 0.27599999308586120605 0.27599999308586120605 0.32774373888969421387 0.27599999308586120605 0.27599999308586120605 0.27599999308586120605 0.27599999308586120605 0.27599999308586120605 0.27599999308586120605 0.27599999308586120605 0.27599999308586120605 0.27599999308586120605 0.27599999308586120605 0.27599999308586120605 0.27599999308586120605 0.27599999308586120605 0.27599999308586120605 0.27599999308586120605 0.27599999308586120605 0.27599999308586120605 0.41971874237060546875 0.30474373698234558105 0.36223125457763671875 0.27599999308586120605 0.27599999308586120605 0.27599999308586120605 0.27599999308586120605 0.27599999308586120605 0.27599999308586120605 0.27599999308586120605 0.27599999308586120605 0.27599999308586120605 0.27599999308586120605 0.27599999308586120605 0.27599999308586120605 0.27599999308586120605 0.27599999308586120605 0.27599999308586120605 0.27599999308586120605 0.27599999308586120605 0.27599999308586120605 0.27599999308586120605 0.27599999308586120605 0.32774373888969421387 0.27599999308586120605 0.32774373888969421387 0.27599999308586120605 0.27599999308586120605 0.27599999308586120605 0.27599999308586120605 0.39098748564720153809 0.27599999308586120605 
0.32774373888969421387 0.27599999308586120605 0.43123123049736022949 0.37948748469352722168 0.27599999308586120605 0.27599999308586120605 0.27599999308586120605 0.44157999753952026367 0.27599999308586120605 0.40336921811103820801 1.034908294677734375 0.41398331522941589355 0.45230832695960998535 0.60715997219085693359 0.74169373512268066406 0.53471875190734863281 0.27599999308586120605 0.27599999308586120605 0.27599999308586120605 0.27599999308586120605 0.27599999308586120605 1.1038999557495117188 0.94866871833801269531 0.58646249771118164062 0.32774373888969421387 0.27599999308586120605 0.27599999308586120605 0.53471875190734863281 0.4139874875545501709 0.60946249961853027344 0.4427312314510345459 0.38523748517036437988 0.4829749763011932373 0.30474373698234558105 0.27599999308586120605 0.32774373888969421387 0.27599999308586120605 0.27599999308586120605 0.27599999308586120605 0.27599999308586120605 0.27599999308586120605 0.27599999308586120605 0.37948748469352722168 0.27599999308586120605 0.27599999308586120605 0.27599999308586120605 0.27599999308586120605 0.27599999308586120605 0.27599999308586120605 0.27599999308586120605 0.27599999308586120605 0.27599999308586120605 0.27599999308586120605 0.27599999308586120605 0.27599999308586120605 0.27599999308586120605 0.27599999308586120605 0.27599999308586120605 0.27599999308586120605 0.27599999308586120605 0.27599999308586120605 0.27599999308586120605 0.27599999308586120605 0.27599999308586120605 0.27599999308586120605 0.27599999308586120605 0.27599999308586120605 0.27599999308586120605 0.27599999308586120605 0.27599999308586120605 0.27599999308586120605 0.27599999308586120605 0.27599999308586120605 0.27599999308586120605 0.27599999308586120605 0.33348748087882995605 0.27599999308586120605 0.43123123049736022949 0.79918748140335083008 0.63820624351501464844 0.37948748469352722168 0.27599999308586120605 0.27599999308586120605 0.27599999308586120605 0.27599999308586120605 0.27599999308586120605 0.27599999308586120605 
0.27599999308586120605 0.27599999308586120605 0.54046875238418579102 0.68994998931884765625 0.4829749763011932373 0.28174999356269836426 0.4369812309741973877 0.32774373888969421387 0.27599999308586120605 0.73594439029693603516 0.32774373888969421387 0.27599999308586120605 0.66694998741149902344 1.0004124641418457031 0.74169373512268066406 1.0521562099456787109 0.37948748469352722168 0.27599999308586120605 0.27599999308586120605 0.4829749763011932373 0.53471875190734863281 0.74169373512268066406 0.27599999308586120605 0.27599999308586120605 0.27599999308586120605 0.27599999308586120605 0.27599999308586120605 0.54621875286102294922 0.37374374270439147949 0.35649374127388000488 0.27599999308586120605 0.27599999308586120605 0.27599999308586120605 0.27599999308586120605 0.27599999308586120605 0.27599999308586120605 0.27599999308586120605 0.27599999308586120605 0.27599999308586120605 0.27599999308586120605 0.27599999308586120605 0.27599999308586120605 0.37948748469352722168 0.27599999308586120605 0.27599999308586120605 0.27599999308586120605 0.27599999308586120605 0.27599999308586120605 0.27599999308586120605 0.27599999308586120605 0.27599999308586120605 0.27599999308586120605 0.27599999308586120605 0.27599999308586120605 0.27599999308586120605 0.27599999308586120605 0.27599999308586120605 0.27599999308586120605 0.27599999308586120605 0.27599999308586120605 0.27599999308586120605 0.27599999308586120605 0.27599999308586120605 0.27599999308586120605 0.27599999308586120605 0.27599999308586120605 0.27599999308586120605 0.27599999308586120605 0.27599999308586120605 0.27599999308586120605 0.27599999308586120605 0.27599999308586120605 0.27599999308586120605 0.27599999308586120605 0.27599999308586120605 0.30474373698234558105 0.44846248626708984375 0.27599999308586120605 0.27599999308586120605 0.27599999308586120605 0.27599999308586120605 0.27599999308586120605 0.27599999308586120605 0.27599999308586120605 0.27599999308586120605 0.27599999308586120605 0.27599999308586120605 
0.27599999308586120605 0.27599999308586120605 0.27599999308586120605 0.49447497725486755371 0.43123123049736022949 0.27599999308586120605 0.27599999308586120605 0.32774373888969421387 0.27599999308586120605 0.74169373512268066406 0.27599999308586120605 0.68994998931884765625 0.63820624351501464844 0.79343748092651367188 0.74169373512268066406 1.1038999557495117188 0.4829749763011932373 0.27599999308586120605 0.27599999308586120605 0.74169373512268066406 0.63820624351501464844 0.27599999308586120605 0.27599999308586120605 0.27599999308586120605 0.4829749763011932373 0.27599999308586120605 0.27599999308586120605 0.49447497725486755371 0.54046875238418579102 0.33924373984336853027 0.27599999308586120605 0.27599999308586120605 0.27599999308586120605 0.32774373888969421387 0.27599999308586120605 0.27599999308586120605 0.58646249771118164062 0.27599999308586120605 0.27599999308586120605 0.27599999308586120605 0.27599999308586120605 0.27599999308586120605 0.27599999308586120605 0.27599999308586120605 0.27599999308586120605 0.27599999308586120605 0.27599999308586120605 0.27599999308586120605 0.27599999308586120605 0.33348748087882995605 0.27599999308586120605 0.27599999308586120605 0.27599999308586120605 0.27599999308586120605 0.27599999308586120605 0.27599999308586120605 0.27599999308586120605 0.27599999308586120605 0.27599999308586120605 0.27599999308586120605 0.27599999308586120605 0.27599999308586120605 0.27599999308586120605 0.27599999308586120605 0.27599999308586120605 0.27599999308586120605 0.27599999308586120605 0.27599999308586120605 0.27599999308586120605 0.27599999308586120605 0.27599999308586120605 0.27599999308586120605 0.27599999308586120605 0.27599999308586120605 0.27599999308586120605 0.27599999308586120605 0.30474373698234558105 0.27599999308586120605 0.27599999308586120605 0.27599999308586120605 0.27599999308586120605 0.27599999308586120605 0.27599999308586120605 0.27599999308586120605 0.27599999308586120605 0.27599999308586120605 0.27599999308586120605 
0.27599999308586120605 0.27599999308586120605 0.27599999308586120605 0.32774373888969421387 0.27599999308586120605 0.27599999308586120605 0.32774373888969421387 0.33349373936653137207 0.27599999308586120605 0.58646249771118164062 0.43123123049736022949 1.0521562099456787109 1.0521562099456787109 0.63820624351501464844 0.74169373512268066406 1.0004124641418457031 0.43123123049736022949 0.58646249771118164062 0.43123123049736022949 0.27599999308586120605 0.63820624351501464844 0.27599999308586120605 0.27599999308586120605 0.27599999308586120605 0.54046875238418579102 0.53471875190734863281 0.27599999308586120605 0.39098748564720153809 0.68420624732971191406 0.28174999356269836426 0.27599999308586120605 0.27599999308586120605 0.27599999308586120605 0.27599999308586120605 0.32774373888969421387 0.27599999308586120605 0.37948748469352722168 0.27599999308586120605 0.27599999308586120605 0.27599999308586120605 0.27599999308586120605 0.27599999308586120605 0.27599999308586120605 0.27599999308586120605 0.27599999308586120605 0.27599999308586120605 0.27599999308586120605 0.27599999308586120605 0.27599999308586120605 0.27599999308586120605 0.27599999308586120605 0.27599999308586120605 0.27599999308586120605 0.27599999308586120605 0.27599999308586120605 0.27599999308586120605 0.30474373698234558105 0.27599999308586120605 0.27599999308586120605 0.27599999308586120605 0.27599999308586120605 0.27599999308586120605 0.27599999308586120605 0.27599999308586120605 0.27599999308586120605 0.27599999308586120605 0.27599999308586120605 0.27599999308586120605 0.27599999308586120605 0.27599999308586120605 0.27599999308586120605 0.27599999308586120605 0.27599999308586120605 0.27599999308586120605 0.51171875 0.27599999308586120605 0.27599999308586120605 0.27599999308586120605 0.27599999308586120605 0.27599999308586120605 0.27599999308586120605 0.27599999308586120605 0.27599999308586120605 0.27599999308586120605 0.27599999308586120605 0.27599999308586120605 0.27599999308586120605 
0.27599999308586120605 0.27599999308586120605 0.27599999308586120605 0.27599999308586120605 0.27599999308586120605 0.27599999308586120605 0.37948748469352722168 0.27599999308586120605 0.28174999356269836426 0.4829749763011932373 0.4829749763011932373 1.1038999557495117188 1.0521562099456787109 0.58646249771118164062 0.79343748092651367188 1.1038999557495117188 1.0004124641418457031 0.53471875190734863281 0.68994998931884765625 0.63820624351501464844 0.43123123049736022949 0.27599999308586120605 0.27599999308586120605 0.27599999308586120605 0.39673748612403869629 0.63820624351501464844 0.27599999308586120605 0.28174999356269836426 0.51172500848770141602 0.32774373888969421387 0.27599999308586120605 0.27599999308586120605 0.27599999308586120605 0.27599999308586120605 0.27599999308586120605 0.38523748517036437988 0.27599999308586120605 0.27599999308586120605 0.27599999308586120605 0.27599999308586120605 0.27599999308586120605 0.32774373888969421387 0.43123123049736022949 0.27599999308586120605 0.27599999308586120605 0.27599999308586120605 0.27599999308586120605 0.27599999308586120605 0.27599999308586120605 0.27599999308586120605 0.27599999308586120605 0.27599999308586120605 0.27599999308586120605 0.27599999308586120605 0.27599999308586120605 0.27599999308586120605 0.27599999308586120605 0.27599999308586120605 0.27599999308586120605 0.27599999308586120605 0.27599999308586120605 0.27599999308586120605 0.27599999308586120605 0.27599999308586120605 0.27599999308586120605 0.27599999308586120605 0.27599999308586120605 0.27599999308586120605 0.27599999308586120605 0.27599999308586120605 0.27599999308586120605 0.27599999308586120605 0.27599999308586120605 0.40823122859001159668 0.32774373888969421387 0.27599999308586120605 0.27599999308586120605 0.27599999308586120605 0.27599999308586120605 0.27599999308586120605 0.27599999308586120605 0.27599999308586120605 0.27599999308586120605 0.27599999308586120605 0.27599999308586120605 0.27599999308586120605 0.27599999308586120605 
0.27599999308586120605 0.27599999308586120605 0.27599999308586120605 0.27599999308586120605 0.27599999308586120605 0.27599999308586120605 0.27599999308586120605 0.27599999308586120605 0.27599999308586120605 0.4829749763011932373 0.68994998931884765625 1.1038999557495117188 0.80492496490478515625 0.27599999308586120605 0.8969249725341796875 1.1038999557495117188 0.79343748092651367188 0.27599999308586120605 0.27599999308586120605 0.27599999308586120605 0.27599999308586120605 0.27599999308586120605 0.27599999308586120605 0.27599999308586120605 0.27599999308586120605 1.0004124641418457031 0.27599999308586120605 0.28749999403953552246 0.52897500991821289062 0.4139874875545501709 0.27599999308586120605 0.27599999308586120605 0.27599999308586120605 0.27599999308586120605 0.27599999308586120605 0.27599999308586120605 0.27599999308586120605 0.27599999308586120605 0.27599999308586120605 0.27599999308586120605 0.27599999308586120605 0.27599999308586120605 0.4829749763011932373 0.27599999308586120605 0.27599999308586120605 0.27599999308586120605 0.27599999308586120605 0.27599999308586120605 0.27599999308586120605 0.27599999308586120605 0.27599999308586120605 0.27599999308586120605 0.27599999308586120605 0.27599999308586120605 0.27599999308586120605 0.27599999308586120605 0.27599999308586120605 0.27599999308586120605 0.27599999308586120605 0.27599999308586120605 0.27599999308586120605 0.27599999308586120605 0.27599999308586120605 0.27599999308586120605 0.27599999308586120605 0.27599999308586120605 0.27599999308586120605 0.27599999308586120605 0.27599999308586120605 0.27599999308586120605 0.27599999308586120605 0.27599999308586120605 0.33348748087882995605 0.4829749763011932373 0.33348748087882995605 0.27599999308586120605 0.27599999308586120605 0.27599999308586120605 0.27599999308586120605 0.27599999308586120605 0.27599999308586120605 0.27599999308586120605 0.27599999308586120605 0.27599999308586120605 0.27599999308586120605 0.27599999308586120605 0.27599999308586120605 
