ncols        19
nrows        23
xllcorner    508536.404131802963
yllcorner    5265348.997906560078
cellsize     570.000000000000
NODATA_value -9999
1.1568000316619873047 1.1568000316619873047 1.1568000316619873047 1.1568000316619873047 1.1568000316619873047 1.1568000316619873047 1.1568000316619873047 1.1760261058807373047 1.1568000316619873047 1.1568000316619873047 1.1568000316619873047 1.1568000316619873047 1.2657457590103149414 1.4398386478424072266 1.6319829225540161133 3.0868823528289794922 2.5976870059967041016 2.3755195140838623047 1.5423877239227294922 
1.1568000316619873047 1.1568000316619873047 1.1568000316619873047 1.1568000316619873047 1.1568000316619873047 1.1642770767211914062 1.3223576545715332031 1.2315682172775268555 1.1568000316619873047 1.1568000316619873047 1.210205078125 1.2272958755493164062 1.7459545135498046875 1.7566066980361938477 1.541150212287902832 2.9042365550994873047 2.1843264102935791016 2.6489555835723876953 1.9753315448760986328 
1.1568000316619873047 1.1568000316619873047 1.1568000316619873047 1.1568000316619873047 1.1568000316619873047 1.1952512264251708984 1.4110108613967895508 1.1568000316619873047 1.1568000316619873047 1.2091376781463623047 2.0775156021118164062 1.5263693332672119141 1.6374486684799194336 2.3926141262054443359 1.7197349071502685547 1.990998387336730957 1.9290468692779541016 1.4355772733688354492 1.8873877525329589844 
1.1568000316619873047 1.1568000316619873047 1.1568000316619873047 1.1664130687713623047 1.2379753589630126953 1.3949884176254272461 1.5434554815292358398 1.2166141271591186523 1.3383795022964477539 1.4302374124526977539 1.5285041332244873047 1.6064740419387817383 2.3072459697723388672 2.4234879016876220703 1.38651275634765625 1.863173365592956543 1.6812446117401123047 1.3522645235061645508 1.9212141036987304688 
1.1568000316619873047 1.1568000316619873047 1.2240911722183227539 1.1813665628433227539 1.1899113655090332031 1.5220959186553955078 2.5805945396423339844 1.2849737405776977539 1.3309019804000854492 1.2112725973129272461 1.3180828094482421875 1.5915213823318481445 2.3819231986999511719 1.406070709228515625 1.6351253986358642578 1.4075756072998046875 1.8813074827194213867 1.1685490608215332031 1.2582684755325317383 
1.2272958755493164062 1.5648199319839477539 1.7122191190719604492 1.1674809455871582031 1.2294307947158813477 1.5690933465957641602 2.3359973430633544922 1.8478692770004272461 1.3159487247467041016 1.2924479246139526367 1.3106083869934082031 1.4201296567916870117 2.4235227108001708984 1.3013963699340820312 1.1769762039184570312 1.1612153053283691406 1.4664576053619384766 1.3084714412689208984 1.1906228065490722656 
1.4676213264465332031 2.6233189105987548828 1.4355778694152832031 1.3020637035369873047 1.386443018913269043 1.8275748491287231445 1.6214296817779541016 1.4985939264297485352 1.4355781078338623047 1.4013978242874145508 1.3255615234375 1.2807396650314331055 2.676952362060546875 1.2828581333160400391 1.1568000316619873047 1.2102249860763549805 1.2531973123550415039 1.2572016716003417969 2.1309192180633544922 
1.9877933263778686523 2.4267873764038085938 1.1760261058807373047 1.3693546056747436523 1.4526681900024414062 1.5381160974502563477 1.4409183263778686523 2.1052863597869873047 1.96429443359375 2.0144648551940917969 1.518755793571472168 1.8991161584854125977 3.5430285930633544922 1.2046662569046020508 1.1893842220306396484 1.320675969123840332 1.2239749431610107422 1.9771102666854858398 1.4003298282623291016 
1.877778172492980957 2.3477463722229003906 1.1568000316619873047 1.2251592874526977539 1.4313058853149414062 1.7592166662216186523 1.7325133085250854492 1.730370640754699707 1.3741943836212158203 1.4130141735076904297 1.2609807252883911133 1.7502927780151367188 2.1311953067779541016 1.5327489376068115234 1.2038549184799194336 1.3308899402618408203 1.1568000316619873047 2.2922041416168212891 1.8265070915222167969 
1.3565387725830078125 1.7047432661056518555 1.4943246841430664062 1.1568000316619873047 1.7859194278717041016 1.4537360668182373047 1.7164914608001708984 1.3522617816925048828 1.190270543098449707 1.2625257968902587891 2.6230566501617431641 1.3489859104156494141 2.3656783103942871094 1.7222485542297363281 1.8006852865219116211 1.2007278203964233398 1.3052675724029541016 1.6908565759658813477 3.7138631343841552734 
1.1706856489181518555 2.1373293399810791016 1.511414647102355957 1.1664130687713623047 1.3736274242401123047 1.4548035860061645508 1.7602847814559936523 1.6949903964996337891 1.8170554637908935547 1.2496781349182128906 1.1630392074584960938 2.2551465034484863281 1.6275779008865356445 1.5611636638641357422 2.120235443115234375 1.398189544677734375 1.3469213247299194336 1.4195560216903686523 1.1568000316619873047 
1.3811042308807373047 1.7752393484115600586 1.274290919303894043 1.4932559728622436523 1.5680233240127563477 1.6873704195022583008 1.2611699104309082031 1.2751495838165283203 1.5451436042785644531 1.4719774723052978516 1.1880639791488647461 2.0472073554992675781 2.2022905349731445312 1.4943335056304931641 1.8895263671875 1.213409423828125 1.2016603946685791016 1.2251590490341186523 1.2244457006454467773 
2.0241093635559082031 1.3597415685653686523 1.5541341304779052734 1.4067387580871582031 1.2440496683120727539 1.1568000316619873047 1.2959057092666625977 1.2112085819244384766 1.4048923254013061523 1.2197260856628417969 1.1568000316619873047 1.433472752571105957 2.2481873035430908203 1.6263564825057983398 1.4633487462997436523 1.7410587072372436523 1.2497260570526123047 1.4740298986434936523 1.2920947074890136719 
1.7966005802154541016 1.5434557199478149414 1.7213702201843261719 1.2429425716400146484 1.4443944692611694336 2.0289654731750488281 2.0187046527862548828 1.6116750240325927734 1.3944256305694580078 1.2966440916061401367 1.1777559518814086914 1.1568000316619873047 1.6380612850189208984 2.0743093490600585938 1.7389202117919921875 1.3373086452484130859 1.1792299747467041016 1.1568000316619873047 1.4612122774124145508 
1.2828377485275268555 1.5600143671035766602 1.2246624231338500977 4.2771539688110351562 3.6038076877593994141 1.5966125726699829102 1.3532317876815795898 2.3543670177459716797 1.2575613260269165039 1.7634798288345336914 1.5060728788375854492 1.7261044979095458984 1.3875128030776977539 1.9877924919128417969 1.4612127542495727539 1.3586734533309936523 1.4409174919128417969 1.6983338594436645508 1.6168017387390136719 
1.6524050235748291016 1.5217322111129760742 1.3550218343734741211 2.5801978111267089844 1.9763283729553222656 1.196688532829284668 2.8669695854187011719 2.0277764797210693359 1.3202213048934936523 1.3917806148529052734 1.6385124921798706055 2.1511907577514648438 1.7122191190719604492 1.2817692756652832031 1.6759039163589477539 1.5028690099716186523 2.0241086483001708984 2.4652392864227294922 1.1568000316619873047 
1.3052679300308227539 1.4305685758590698242 4.2653751373291015625 1.4380022287368774414 1.9332606792449951172 1.3254938125610351562 2.4776418209075927734 1.7965997457504272461 1.2529302835464477539 1.3116765022277832031 1.3778995275497436523 1.3511961698532104492 1.2871099710464477539 1.1877747774124145508 1.5338445901870727539 1.3447870016098022461 1.3640141487121582031 1.3330385684967041016 1.1568000316619873047 
1.5722963809967041016 1.4997959136962890625 2.1079199314117431641 2.6326746940612792969 1.2671277523040771484 1.3121453523635864258 1.508209228515625 1.5840363502502441406 1.1952515840530395508 1.3106083869934082031 1.2614748477935791016 1.2732243537902832031 1.1664130687713623047 1.7763063907623291016 1.6684266328811645508 1.1770942211151123047 1.4633487462997436523 1.3373113870620727539 1.1568000316619873047 
1.7325133085250854492 1.6049144268035888672 1.6978677511215209961 1.1568000316619873047 1.4569821357727050781 1.2801873683929443359 1.2112728357315063477 1.5103452205657958984 1.2283637523651123047 1.3864390850067138672 1.5306327342987060547 1.2539983987808227539 1.3106083869934082031 1.2753607034683227539 1.1568000316619873047 1.2454534769058227539 1.6310423612594604492 1.3116759061813354492 1.1568000316619873047 
2.0593562126159667969 1.5260350704193115234 4.1471648216247558594 1.1568000316619873047 1.3915559053421020508 1.8745692968368530273 1.3009953498840332031 2.5773909091949462891 1.2390449047088623047 1.1568000316619873047 1.2796332836151123047 1.6726964712142944336 2.3231804370880126953 1.4291657209396362305 1.4580034017562866211 1.6748247146606445312 1.4419864416122436523 1.5616152286529541016 1.5220947265625 
2.1608273983001708984 1.7172635793685913086 1.7440816164016723633 1.5135598182678222656 1.7102874517440795898 1.4238286018371582031 1.6224980354309082031 1.5210263729095458984 1.3031315803527832031 1.3992618322372436523 1.8222348690032958984 2.3381335735321044922 1.8895260095596313477 1.2753607034683227539 1.1568000316619873047 1.4259645938873291016 1.1568000316619873047 1.2091366052627563477 1.6844439506530761719 
1.6716307401657104492 1.3713383674621582031 2.0026075839996337891 2.0367939472198486328 2.0123586654663085938 1.7923282384872436523 1.507142186164855957 1.2903133630752563477 1.1760261058807373047 1.1760261058807373047 1.1674809455871582031 1.1941831111907958984 1.1728214025497436523 1.1568000316619873047 1.1568000316619873047 1.2070008516311645508 1.4259637594223022461 1.1760261058807373047 1.1770948171615600586 
1.1796309947967529297 1.2506605386734008789 3.2141191959381103516 3.3485684394836425781 1.4992638826370239258 1.8239710330963134766 1.341984868049621582 1.2278296947479248047 1.2937855720520019531 1.1568000316619873047 1.1568000316619873047 1.1568000316619873047 1.1568000316619873047 1.1568000316619873047 1.1568000316619873047 1.3318362236022949219 1.1568000316619873047 1.1568000316619873047 1.1568000316619873047 
