ncols        19
nrows        23
xllcorner    508536.404131802963
yllcorner    5265348.997906560078
cellsize     570.000000000000
NODATA_value -9999
0.0021999999880790710449 0.0021999999880790710449 0.0021999999880790710449 0.0021999999880790710449 0.0021999999880790710449 0.0021999999880790710449 0.0021999999880790710449 0.0022376731503754854202 0.0021999999880790710449 0.0021999999880790710449 0.0021999999880790710449 0.0021999999880790710449 0.0024144044145941734314 0.0027546097990125417709 0.0031405882909893989563 0.0059939054772257804871 0.0050332406535744667053 0.0045983376912772655487 0.0029649122152477502823 
0.0021999999880790710449 0.0021999999880790710449 0.0021999999880790710449 0.0021999999880790710449 0.0021999999880790710449 0.0022155125625431537628 0.0025263158604502677917 0.0023479224182665348053 0.0021999999880790710449 0.0021999999880790710449 0.0023052631877362728119 0.0023396122269332408905 0.0033581005409359931946 0.0033822222612798213959 0.0029581992421299219131 0.0056371190585196018219 0.0042188363149762153625 0.0051318556070327758789 0.0038070173468440771103 
0.0021999999880790710449 0.0021999999880790710449 0.0021999999880790710449 0.0021999999880790710449 0.0021999999880790710449 0.0022759002167731523514 0.0026997230015695095062 0.0021999999880790710449 0.0021999999880790710449 0.0023030471056699752808 0.0040116342715919017792 0.0029324099887162446976 0.003148611169308423996 0.0046279998496174812317 0.0033108012285083532333 0.0038421051576733589172 0.003716897452250123024 0.002749030478298664093 0.0036385965067893266678 
0.0021999999880790710449 0.0021999999880790710449 0.0021999999880790710449 0.0022188364528119564056 0.0023601108696311712265 0.0026681439485400915146 0.0029612188227474689484 0.0023180055432021617889 0.0025578946806490421295 0.0027373961638659238815 0.002931301947683095932 0.0030875345692038536072 0.004455737769603729248 0.0046904976479709148407 0.0026541033294051885605 0.0035871148575097322464 0.003231578972190618515 0.0025844874326139688492 0.0037017543800175189972 
0.0021999999880790710449 0.0021999999880790710449 0.0023318559397011995316 0.0022481994237750768661 0.0022659280803054571152 0.0029202215373516082764 0.0049955677241086959839 0.0024531856179237365723 0.0025434903800487518311 0.002307479269802570343 0.0025174515321850776672 0.0030559557490050792694 0.0046090907417237758636 0.0026929292362183332443 0.0031411391682922840118 0.0026924812700599431992 0.003622478339821100235 0.0022232686169445514679 0.0023999998811632394791 
0.0023396122269332408905 0.0030022161081433296204 0.0032891966402530670166 0.0022210525348782539368 0.002343490254133939743 0.0030144043266773223877 0.0045185596682131290436 0.0035595567896962165833 0.002513019368052482605 0.0024675899185240268707 0.0025019389577209949493 0.0027182926423847675323 0.0046937498264014720917 0.0024838235694915056229 0.0022395348642021417618 0.0022091602440923452377 0.0028067692182958126068 0.0024975067935883998871 0.0022666666191071271896 
0.0028110803104937076569 0.0050770081579685211182 0.0027473683003336191177 0.0024858724791556596756 0.0026520774699747562408 0.0035229916684329509735 0.0031174514442682266235 0.0028742381837218999863 0.0027501385193318128586 0.0026814404409378767014 0.0025324099697172641754 0.0024440474808216094971 0.0051926700398325920105 0.0024469231721013784409 0.0021999999880790710449 0.0023048191796988248825 0.0023891564924269914627 0.0023972298949956893921 0.0041087716817855834961 
0.0038343488704413175583 0.0046958448365330696106 0.0022376731503754854202 0.0026166203897446393967 0.0027828253805637359619 0.0029495845083147287369 0.0027595567516982555389 0.0040659280493855476379 0.0037855955306440591812 0.0038859811611473560333 0.0029116128571331501007 0.0036574848927557468414 0.0068852454423904418945 0.0022937930189073085785 0.0022642253898084163666 0.0025224999990314245224 0.0023331011179834604263 0.0038077561184763908386 0.0026771929115056991577 
0.0036204985808581113815 0.0045396122150123119354 0.0021999999880790710449 0.0023340720217674970627 0.0027407202869653701782 0.0033855955116450786591 0.0033307478297501802444 0.0033301939256489276886 0.0026267061475664377213 0.0027039472479373216629 0.0024043477606028318405 0.0033642633352428674698 0.0041162162087857723236 0.0029385713860392570496 0.0022922034841030836105 0.0025432836264371871948 0.0021999999880790710449 0.0044260388240218162537 0.0035122805275022983551 
0.0025977839250117540359 0.003278116229921579361 0.0028648199513554573059 0.0021999999880790710449 0.0034354568924754858017 0.0027839334215968847275 0.0032997229136526584625 0.0025855954736471176147 0.0022659723181277513504 0.002407741965726017952 0.0050884354859590530396 0.0025786834303289651871 0.0045891893096268177032 0.0033092650119215250015 0.0034628205467015504837 0.0022860758472234010696 0.0024914126843214035034 0.0032465374097228050232 0.007210526149719953537 
0.0022277007810771465302 0.0041268696077167987823 0.0029002770315855741501 0.0022188364528119564056 0.0026265927590429782867 0.0027861495036631822586 0.0033867035526782274246 0.0032574017532169818878 0.0034958904143422842026 0.0023832116276025772095 0.002212297637015581131 0.0043595959432423114777 0.0031255814246833324432 0.0029955054633319377899 0.0040947366505861282349 0.0026753463316708803177 0.0025739611592143774033 0.0027152353432029485703 0.0021999999880790710449 
0.0026409972924739122391 0.0034188365098088979721 0.0024310250300914049149 0.0028603877872228622437 0.003008310217410326004 0.0032416000030934810638 0.002404511207714676857 0.0024336632341146469116 0.0029628570191562175751 0.0028191304299980401993 0.0022612612228840589523 0.0039486843161284923553 0.004253691062331199646 0.0028623144607990980148 0.0036432133056223392487 0.0023113572970032691956 0.0022880886681377887726 0.0023340720217674970627 0.0023333332501351833344 
0.0039052630309015512466 0.0025983378291130065918 0.0029817174654453992844 0.0026908586733043193817 0.0023715328425168991089 0.0021999999880790710449 0.0024734176695346832275 0.0023067484144121408463 0.0026868216227740049362 0.0023236111737787723541 0.0021999999880790710449 0.0027428572066128253937 0.0043432526290416717529 0.0031220628879964351654 0.0028016620781272649765 0.0033479223493486642838 0.0023828253615647554398 0.0028227146249264478683 0.0024666667450219392776 
0.0034565096721053123474 0.0029606646858155727386 0.0033106016926467418671 0.0023695034906268119812 0.0027657458558678627014 0.003909523598849773407 0.0038894116878509521484 0.0030937499832361936569 0.0026697674766182899475 0.0024746479466557502747 0.002241304377093911171 0.0021999999880790710449 0.0031436090357601642609 0.0039983377791941165924 0.0033429362811148166656 0.0025556785985827445984 0.0022443213965743780136 0.0021999999880790710449 0.0027964911423623561859 
0.0024481993168592453003 0.0029919999651610851288 0.0023336000740528106689 0.0083142854273319244385 0.0069999997504055500031 0.0030631248373538255692 0.0025864150375127792358 0.0045599997974932193756 0.0023986061569303274155 0.003393351798877120018 0.0028847644571214914322 0.0033157893922179937363 0.0026531855110079050064 0.003829916706308722496 0.0027988918591290712357 0.0025955678429454565048 0.0027573406696319580078 0.0032626038882881402969 0.0031052629929035902023 
0.003172853030264377594 0.0029160713311284780502 0.0025901407934725284576 0.0049914889968931674957 0.0038102893158793449402 0.0022781610023230314255 0.0055670589208602905273 0.0039070588536560535431 0.0025202215183526277542 0.0026626039762049913406 0.0031479224562644958496 0.0041601108387112617493 0.0032897505443543195724 0.002445983467623591423 0.0032204985618591308594 0.0028792242519557476044 0.00390193890780210495 0.0047662048600614070892 0.0021999999880790710449 
0.0024914126843214035034 0.0027379998937249183655 0.0082912044599652290344 0.0027558011934161186218 0.0037246574647724628448 0.002532500075176358223 0.0047907801344990730286 0.0034537394531071186066 0.0023883655667304992676 0.0025036011356860399246 0.0026332410052418708801 0.0025811633095145225525 0.0024559556040912866592 0.0022609417792409658432 0.0029412740841507911682 0.0025689750909805297852 0.0026066482532769441605 0.002546260366216301918 0.0021999999880790710449 
0.0030155123677104711533 0.0028720928821712732315 0.0040666665881872177124 0.0050919540226459503174 0.002417341107502579689 0.002504316624253988266 0.0028886427171528339386 0.0030421053525060415268 0.0022759002167731523514 0.0025013850536197423935 0.0024055400863289833069 0.002428254811093211174 0.0022188364528119564056 0.003416620427742600441 0.0032038779463618993759 0.0022398892324417829514 0.0028016620781272649765 0.0025545705575495958328 0.0021999999880790710449 
0.003329085884615778923 0.0030828828457742929459 0.0032612902577966451645 0.0021999999880790710449 0.0027895765379071235657 0.0024430768098682165146 0.002307479269802570343 0.0028936287853866815567 0.0023407202679663896561 0.0026526316069066524506 0.0029362880159169435501 0.0023905816487967967987 0.0025013850536197423935 0.0024326869752258062363 0.0021999999880790710449 0.0023739612661302089691 0.0031296398956328630447 0.0025041550397872924805 0.0021999999880790710449 
0.0039722989313304424286 0.0029265016783028841019 0.0080595742911100387573 0.0021999999880790710449 0.0026611764915287494659 0.0036138503346592187881 0.0024825483560562133789 0.0049855955876410007477 0.0023617728147655725479 0.0021999999880790710449 0.0024415513034909963608 0.0032132964115589857101 0.0044880886562168598175 0.0027373961638659238815 0.002792797749862074852 0.0032216066028922796249 0.0027595567516982555389 0.0029944598209112882614 0.0029157893732190132141 
0.0041717449203133583069 0.0033003718126565217972 0.0033507691696286201477 0.0028990653809159994125 0.0032864864915609359741 0.0027240996714681386948 0.0031152353622019290924 0.0029146813321858644485 0.0024869805201888084412 0.0026753463316708803177 0.0035052630119025707245 0.0045157894492149353027 0.0036371189635246992111 0.0024326869752258062363 0.0021999999880790710449 0.0027274237945675849915 0.0021999999880790710449 0.0023030471056699752808 0.0032421052455902099609 
0.0032094181515276432037 0.0026210525538772344589 0.0038580643013119697571 0.0039245397783815860748 0.0038764541968703269958 0.0034487533848732709885 0.00289030466228723526 0.0024620499461889266968 0.0022376731503754854202 0.0022376731503754854202 0.0022210525348782539368 0.0022736841347068548203 0.0022315790411084890366 0.0021999999880790710449 0.0021999999880790710449 0.0022986149415373802185 0.0027279776986688375473 0.0022376731503754854202 0.0022421053145080804825 
0.002244736766442656517 0.0023842104710638523102 0.0062315785326063632965 0.0064947367645800113678 0.002871052594855427742 0.0035105261486023664474 0.0025657895021140575409 0.0023394736927002668381 0.0024684211239218711853 0.0021999999880790710449 0.0021999999880790710449 0.0021999999880790710449 0.0021999999880790710449 0.0021999999880790710449 0.0021999999880790710449 0.0025434209965169429779 0.0021999999880790710449 0.0021999999880790710449 0.0021999999880790710449 
