ncols        87
nrows        107
xllcorner    508536.404131802963
yllcorner    5265618.997906560078
cellsize     120.000000000000
NODATA_value -9999
0.27599999308586120605 0.27599999308586120605 0.27599999308586120605 0.27599999308586120605 0.27599999308586120605 0.27599999308586120605 0.27599999308586120605 0.27599999308586120605 0.27599999308586120605 0.27599999308586120605 0.27599999308586120605 0.27599999308586120605 0.27599999308586120605 0.27599999308586120605 0.27599999308586120605 0.27599999308586120605 0.27599999308586120605 0.27599999308586120605 0.27599999308586120605 0.27599999308586120605 0.27599999308586120605 0.27599999308586120605 0.27599999308586120605 0.27599999308586120605 0.27599999308586120605 0.27599999308586120605 0.27599999308586120605 0.27599999308586120605 0.27599999308586120605 0.27599999308586120605 0.27599999308586120605 0.27599999308586120605 0.27599999308586120605 0.27599999308586120605 0.27599999308586120605 0.27599999308586120605 0.27599999308586120605 0.27599999308586120605 0.27599999308586120605 0.27599999308586120605 0.27599999308586120605 0.27599999308586120605 0.27599999308586120605 0.27599999308586120605 0.27599999308586120605 0.27599999308586120605 0.27599999308586120605 0.27599999308586120605 0.27599999308586120605 0.27599999308586120605 0.27599999308586120605 0.27599999308586120605 0.27599999308586120605 0.27599999308586120605 0.27599999308586120605 0.27599999308586120605 0.27599999308586120605 0.27599999308586120605 0.27599999308586120605 0.27599999308586120605 0.27599999308586120605 0.27599999308586120605 0.27599999308586120605 0.27599999308586120605 0.27599999308586120605 0.27599999308586120605 0.27599999308586120605 0.27599999308586120605 0.27599999308586120605 0.27599999308586120605 0.77042496204376220703 1.0521436929702758789 1.747799992561340332 4.0417437553405761719 1.5120749473571777344 0.68993747234344482422 2.1962375640869140625 1.0521436929702758789 0.92566251754760742188 3.2541000843048095703 4.2889623641967773438 1.7362999916076660156 2.8516499996185302734 2.1444938182830810547 1.8915250301361083984 1.2131187915802001953 1.9087749719619750977 
0.27599999308586120605 0.27599999308586120605 0.27599999308586120605 0.27599999308586120605 0.27599999308586120605 0.27599999308586120605 0.27599999308586120605 0.27599999308586120605 0.27599999308586120605 0.27599999308586120605 0.27599999308586120605 0.27599999308586120605 0.27599999308586120605 0.27599999308586120605 0.27599999308586120605 0.27599999308586120605 0.27599999308586120605 0.27599999308586120605 0.27599999308586120605 0.27599999308586120605 0.27599999308586120605 0.27599999308586120605 0.27599999308586120605 0.27599999308586120605 0.27599999308586120605 0.27599999308586120605 0.27599999308586120605 0.27599999308586120605 0.27599999308586120605 0.27599999308586120605 0.27599999308586120605 0.27599999308586120605 0.27599999308586120605 0.27599999308586120605 0.27599999308586120605 0.27599999308586120605 0.27599999308586120605 0.27599999308586120605 0.27599999308586120605 0.27599999308586120605 0.27599999308586120605 0.27599999308586120605 0.27599999308586120605 0.27599999308586120605 0.27599999308586120605 0.27599999308586120605 0.27599999308586120605 0.27599999308586120605 0.27599999308586120605 0.27599999308586120605 0.27599999308586120605 0.27599999308586120605 0.27599999308586120605 0.27599999308586120605 0.27599999308586120605 0.27599999308586120605 0.27599999308586120605 0.27599999308586120605 0.27599999308586120605 0.27599999308586120605 0.27599999308586120605 0.60370624065399169922 0.60370624065399169922 0.27599999308586120605 0.27599999308586120605 0.27599999308586120605 0.31624373793601989746 1.6788125038146972656 0.68419373035430908203 0.68419373035430908203 2.0352625846862792969 2.2767250537872314453 3.9612562656402587891 3.3460874557495117188 4.3694500923156738281 2.0639998912811279297 1.7420500516891479492 2.3629686832427978516 3.9555063247680664062 4.9041314125061035156 2.6504311561584472656 0.39098125696182250977 0.66119372844696044922 1.9547749757766723633 0.68993747234344482422 1.4488375186920166016 0.25299999117851257324 
0.27599999308586120605 0.27599999308586120605 0.27599999308586120605 0.27599999308586120605 0.27599999308586120605 0.27599999308586120605 0.27599999308586120605 0.27599999308586120605 0.27599999308586120605 0.27599999308586120605 0.27599999308586120605 0.27599999308586120605 0.27599999308586120605 0.27599999308586120605 0.27599999308586120605 0.27599999308586120605 0.27599999308586120605 0.27599999308586120605 0.27599999308586120605 0.27599999308586120605 0.27599999308586120605 0.27599999308586120605 0.27599999308586120605 0.27599999308586120605 0.27599999308586120605 0.27599999308586120605 0.27599999308586120605 0.27599999308586120605 0.27599999308586120605 0.27599999308586120605 0.27599999308586120605 0.27599999308586120605 0.27599999308586120605 0.27599999308586120605 0.27599999308586120605 0.27599999308586120605 0.27599999308586120605 0.27599999308586120605 0.27599999308586120605 0.27599999308586120605 0.27599999308586120605 0.27599999308586120605 0.27599999308586120605 0.27599999308586120605 0.27599999308586120605 0.27599999308586120605 0.27599999308586120605 0.27599999308586120605 0.27599999308586120605 0.27599999308586120605 0.27599999308586120605 0.27599999308586120605 0.27599999308586120605 0.27599999308586120605 0.27599999308586120605 0.27599999308586120605 0.27599999308586120605 0.27599999308586120605 0.27599999308586120605 0.27599999308586120605 0.27599999308586120605 0.27024999260902404785 0.27599999308586120605 0.27599999308586120605 1.9530076980590820312 0.27599999308586120605 0.27599999308586120605 0.27599999308586120605 0.39673125743865966797 0.92565625905990600586 3.3058438301086425781 4.0819873809814453125 4.9443750381469726562 4.9443750381469726562 3.4610686302185058594 1.2763500213623046875 2.2997250556945800781 3.3863313198089599609 1.7247999906539916992 4.3292064666748046875 2.0755062103271484375 1.747799992561340332 3.3058438301086425781 2.4032125473022460938 3.0356249809265136719 0.67268747091293334961 0.20700000226497650146 
0.27599999308586120605 0.27599999308586120605 0.27599999308586120605 0.27599999308586120605 0.27599999308586120605 0.27599999308586120605 0.27599999308586120605 0.27599999308586120605 0.27599999308586120605 0.27599999308586120605 0.27599999308586120605 0.27599999308586120605 0.27599999308586120605 0.27599999308586120605 0.27599999308586120605 0.27599999308586120605 0.27599999308586120605 0.27599999308586120605 0.27599999308586120605 0.27599999308586120605 0.27599999308586120605 0.27599999308586120605 0.27599999308586120605 0.27599999308586120605 0.27599999308586120605 0.27599999308586120605 0.27599999308586120605 0.27599999308586120605 0.27599999308586120605 0.27599999308586120605 0.27599999308586120605 0.27599999308586120605 0.27599999308586120605 0.27599999308586120605 0.27599999308586120605 0.27599999308586120605 0.27599999308586120605 0.27599999308586120605 0.27599999308586120605 0.27599999308586120605 0.27599999308586120605 0.27599999308586120605 0.27599999308586120605 0.27599999308586120605 0.27599999308586120605 0.27599999308586120605 0.27599999308586120605 0.27599999308586120605 0.27599999308586120605 0.27599999308586120605 0.27599999308586120605 0.27599999308586120605 0.27599999308586120605 0.27599999308586120605 0.27599999308586120605 0.27599999308586120605 0.27599999308586120605 0.27599999308586120605 0.44846248626708984375 0.27599999308586120605 0.27599999308586120605 0.25874999165534973145 3.6565501689910888672 3.8807687759399414062 1.5868250131607055664 2.0237667560577392578 1.0923874378204345703 0.27599999308586120605 0.47721874713897705078 1.6213124990463256836 1.0061436891555786133 3.7945249080657958984 4.6569123268127441406 3.7945249080657958984 3.1391124725341796875 2.1962375640869140625 1.7075562477111816406 2.60443115234375 1.6213186979293823242 1.9087749719619750977 3.0931186676025390625 2.7309186458587646484 0.84516876935958862305 3.3863313198089599609 1.9835187196731567383 0.37371873855590820312 0.22999998927116394043 
0.27599999308586120605 0.27599999308586120605 0.27599999308586120605 0.27599999308586120605 0.27599999308586120605 0.27599999308586120605 0.27599999308586120605 0.27599999308586120605 0.27599999308586120605 0.27599999308586120605 0.27599999308586120605 0.27599999308586120605 0.27599999308586120605 0.27599999308586120605 0.27599999308586120605 0.27599999308586120605 0.27599999308586120605 0.27599999308586120605 0.27599999308586120605 0.27599999308586120605 0.27599999308586120605 0.27599999308586120605 0.27599999308586120605 0.27599999308586120605 0.27599999308586120605 0.27599999308586120605 0.27599999308586120605 0.27599999308586120605 0.27599999308586120605 0.27599999308586120605 0.27599999308586120605 0.27599999308586120605 0.27599999308586120605 0.27599999308586120605 1.2993625402450561523 0.64394998550415039062 0.27599999308586120605 0.27599999308586120605 0.27599999308586120605 0.27599999308586120605 0.27599999308586120605 0.27599999308586120605 0.27599999308586120605 0.27599999308586120605 0.27599999308586120605 0.27599999308586120605 0.27599999308586120605 0.27599999308586120605 0.27599999308586120605 0.27599999308586120605 0.27599999308586120605 0.27599999308586120605 0.27599999308586120605 0.27599999308586120605 0.27599999308586120605 0.27599999308586120605 0.27599999308586120605 0.60370624065399169922 0.93141251802444458008 1.6960562467575073242 0.39097499847412109375 0.7646687626838684082 0.30474373698234558105 2.2926537990570068359 5.1915936470031738281 5.0823583602905273438 0.27599999308586120605 0.27599999308586120605 0.88540625572204589844 1.9087749719619750977 1.5580687522888183594 3.0183813571929931641 3.3460874557495117188 2.4434561729431152344 3.1391124725341796875 4.0819873809814453125 3.4265749454498291016 2.4837000370025634766 0.31624373793601989746 1.4488375186920166016 1.5983186960220336914 4.0819873809814453125 2.9378936290740966797 3.4553186893463134766 1.2936062812805175781 0.28748750686645507812 0.25299999117851257324 
0.27599999308586120605 0.27599999308586120605 0.27599999308586120605 0.27599999308586120605 0.27599999308586120605 0.27599999308586120605 0.27599999308586120605 0.27599999308586120605 0.27599999308586120605 0.27599999308586120605 0.27599999308586120605 0.27599999308586120605 0.27599999308586120605 0.27599999308586120605 0.27599999308586120605 0.27599999308586120605 0.27599999308586120605 0.27599999308586120605 0.27599999308586120605 0.27599999308586120605 0.27599999308586120605 0.27599999308586120605 0.27599999308586120605 0.27599999308586120605 0.27599999308586120605 0.27599999308586120605 0.27599999308586120605 0.27599999308586120605 0.27599999308586120605 0.27599999308586120605 0.27599999308586120605 0.27599999308586120605 0.27599999308586120605 0.31624373793601989746 0.31624373793601989746 0.55770623683929443359 0.27599999308586120605 0.27599999308586120605 0.27599999308586120605 0.27599999308586120605 0.27599999308586120605 0.27599999308586120605 0.27599999308586120605 0.27599999308586120605 0.27599999308586120605 0.27599999308586120605 0.27599999308586120605 0.27599999308586120605 0.27599999308586120605 0.27599999308586120605 0.27599999308586120605 0.27599999308586120605 0.27599999308586120605 0.27599999308586120605 0.27599999308586120605 0.27599999308586120605 0.27599999308586120605 0.35648748278617858887 0.27599999308586120605 0.27599999308586120605 0.31624373793601989746 1.0406436920166015625 0.27599999308586120605 0.27599999308586120605 4.5361814498901367188 5.5192999839782714844 0.27599999308586120605 0.27599999308586120605 0.24149999022483825684 1.3740999698638916016 0.72443747520446777344 4.5361814498901367188 5.5192999839782714844 4.0819873809814453125 2.6446750164031982422 4.3292064666748046875 3.3863313198089599609 1.1728750467300415039 0.27599999308586120605 0.31624373793601989746 4.2487187385559082031 5.5192999839782714844 2.1559937000274658203 0.45996248722076416016 0.26449373364448547363 0.20700000226497650146 0.27599999308586120605 
0.27599999308586120605 0.27599999308586120605 0.27599999308586120605 0.27599999308586120605 0.27599999308586120605 0.27599999308586120605 0.27599999308586120605 0.27599999308586120605 0.27599999308586120605 0.27599999308586120605 0.27599999308586120605 0.27599999308586120605 0.27599999308586120605 0.27599999308586120605 0.27599999308586120605 0.27599999308586120605 0.27599999308586120605 0.27599999308586120605 0.27599999308586120605 0.27599999308586120605 0.27599999308586120605 0.27599999308586120605 0.27599999308586120605 0.27599999308586120605 0.27599999308586120605 0.27599999308586120605 0.27599999308586120605 0.27599999308586120605 0.27599999308586120605 0.27599999308586120605 0.27599999308586120605 1.2303625345230102539 0.35648748278617858887 0.30474373698234558105 0.27599999308586120605 0.92566251754760742188 0.93141251802444458008 0.27599999308586120605 0.27599999308586120605 0.27599999308586120605 0.27599999308586120605 0.27599999308586120605 0.27599999308586120605 0.27599999308586120605 0.27599999308586120605 0.27599999308586120605 0.27599999308586120605 0.27599999308586120605 0.27599999308586120605 0.27599999308586120605 0.27599999308586120605 0.27599999308586120605 1.6385687589645385742 0.27599999308586120605 0.27599999308586120605 0.27599999308586120605 0.27599999308586120605 0.97165626287460327148 2.4032125473022460938 1.6270687580108642578 0.27599999308586120605 0.27599999308586120605 0.27599999308586120605 0.27599999308586120605 2.4032125473022460938 2.8976500034332275391 0.27599999308586120605 0.27599999308586120605 0.27599999308586120605 0.27599999308586120605 0.27599999308586120605 2.4837000370025634766 3.5070624351501464844 3.4668188095092773438 3.1736061573028564453 4.8983812332153320312 3.7945249080657958984 0.35648748278617858887 0.97165626287460327148 2.610187530517578125 4.6569123268127441406 5.2318372726440429688 2.8516499996185302734 0.72443747520446777344 2.4319562911987304688 1.2648625373840332031 0.41397500038146972656 
0.27599999308586120605 0.27599999308586120605 0.27599999308586120605 0.27599999308586120605 0.27599999308586120605 0.27599999308586120605 0.27599999308586120605 0.27599999308586120605 0.27599999308586120605 0.27599999308586120605 0.27599999308586120605 0.27599999308586120605 0.27599999308586120605 0.27599999308586120605 0.27599999308586120605 0.27599999308586120605 0.27599999308586120605 0.27599999308586120605 0.27599999308586120605 0.27599999308586120605 0.27599999308586120605 0.27599999308586120605 0.27599999308586120605 0.27599999308586120605 0.27599999308586120605 0.27599999308586120605 0.27599999308586120605 0.27599999308586120605 0.27599999308586120605 0.93141251802444458008 1.0118999481201171875 0.68419373035430908203 0.27599999308586120605 0.27599999308586120605 0.27599999308586120605 0.27599999308586120605 0.27599999308586120605 0.27599999308586120605 0.27599999308586120605 0.27599999308586120605 0.27599999308586120605 0.27599999308586120605 0.27599999308586120605 0.27599999308586120605 0.27599999308586120605 0.27599999308586120605 0.27599999308586120605 0.27599999308586120605 0.27599999308586120605 0.27599999308586120605 0.27599999308586120605 0.27599999308586120605 0.99465000629425048828 1.7420500516891479492 0.27599999308586120605 0.27599999308586120605 0.27599999308586120605 0.27599999308586120605 2.3629686832427978516 4.3292064666748046875 0.27599999308586120605 0.27599999308586120605 0.27599999308586120605 1.6404833793640136719 5.136016845703125 2.6063554286956787109 0.27599999308586120605 0.85858887434005737305 0.37506154179573059082 0.35648748278617858887 1.9547749757766723633 3.3460874557495117188 3.2195999622344970703 2.610187530517578125 0.41972500085830688477 2.0237624645233154297 4.6569123268127441406 0.27599999308586120605 1.0118999481201171875 3.3863313198089599609 4.0417437553405761719 4.3292064666748046875 2.7309186458587646484 2.8976500034332275391 3.6335499286651611328 4.3292064666748046875 5.5192999839782714844 
0.27599999308586120605 0.27599999308586120605 0.27599999308586120605 0.27599999308586120605 0.27599999308586120605 0.27599999308586120605 0.27599999308586120605 0.27599999308586120605 0.27599999308586120605 0.27599999308586120605 0.27599999308586120605 0.27599999308586120605 0.27599999308586120605 0.27599999308586120605 0.27599999308586120605 0.27599999308586120605 0.27599999308586120605 0.27599999308586120605 0.27599999308586120605 0.27599999308586120605 0.27599999308586120605 0.27599999308586120605 0.27599999308586120605 0.27599999308586120605 0.27599999308586120605 0.27599999308586120605 0.27599999308586120605 0.27599999308586120605 0.27599999308586120605 2.610187530517578125 0.34498748183250427246 0.27599999308586120605 0.27599999308586120605 1.6385687589645385742 0.27599999308586120605 0.27599999308586120605 0.27599999308586120605 0.27599999308586120605 0.27599999308586120605 0.27599999308586120605 0.27599999308586120605 0.27599999308586120605 0.27599999308586120605 0.27599999308586120605 0.27599999308586120605 0.27599999308586120605 0.27599999308586120605 0.27599999308586120605 0.27599999308586120605 1.6385687589645385742 0.33348748087882995605 0.27599999308586120605 0.27024999260902404785 0.27599999308586120605 0.35648748278617858887 0.27599999308586120605 0.27599999308586120605 0.27599999308586120605 0.97165626287460327148 4.9041314125061035156 1.0118999481201171875 0.27599999308586120605 1.6941416263580322266 0.84516876935958862305 4.8638873100280761719 4.8638873100280761719 0.27599999308586120605 1.8014583587646484375 1.460337519645690918 1.4200937747955322266 2.4434561729431152344 2.4434561729431152344 2.5641875267028808594 1.3798500299453735352 0.68419373035430908203 0.64394998550415039062 3.6335499286651611328 0.27599999308586120605 0.31624373793601989746 0.27024999260902404785 1.2936124801635742188 2.4779500961303710938 4.0417437553405761719 1.9547749757766723633 0.67843747138977050781 0.24149999022483825684 1.7247999906539916992 
0.27599999308586120605 0.27599999308586120605 0.27599999308586120605 0.27599999308586120605 0.27599999308586120605 0.27599999308586120605 0.27599999308586120605 0.27599999308586120605 0.27599999308586120605 0.27599999308586120605 0.27599999308586120605 0.27599999308586120605 0.27599999308586120605 0.27599999308586120605 0.27599999308586120605 0.27599999308586120605 0.27599999308586120605 0.27599999308586120605 0.27599999308586120605 0.27599999308586120605 0.27599999308586120605 0.27599999308586120605 0.27599999308586120605 0.27599999308586120605 0.597949981689453125 0.27599999308586120605 0.27599999308586120605 0.27599999308586120605 0.27599999308586120605 0.31624373793601989746 0.27599999308586120605 0.27599999308586120605 0.27599999308586120605 1.6385687589645385742 0.27599999308586120605 0.27599999308586120605 0.27599999308586120605 0.27599999308586120605 0.27599999308586120605 0.27599999308586120605 0.27599999308586120605 0.27599999308586120605 0.27599999308586120605 0.27599999308586120605 0.27599999308586120605 0.27599999308586120605 0.27599999308586120605 0.27599999308586120605 0.27599999308586120605 1.1326313018798828125 1.8225312232971191406 0.76468122005462646484 0.27599999308586120605 0.60370624065399169922 0.47721874713897705078 0.27599999308586120605 0.27599999308586120605 0.35648748278617858887 1.3798500299453735352 2.8918936252593994141 0.27599999308586120605 0.27599999308586120605 0.43697500228881835938 1.7831768989562988281 3.1122832298278808594 3.1965999603271484375 0.27599999308586120605 1.5127222537994384766 0.7288615107536315918 1.0118999481201171875 0.27599999308586120605 3.0586249828338623047 2.6446750164031982422 0.76468122005462646484 0.35648748278617858887 3.9095125198364257812 2.0755062103271484375 0.27599999308586120605 0.35648748278617858887 0.25299999117851257324 1.2706124782562255859 1.69029998779296875 2.6274311542510986328 2.4434561729431152344 0.18400000035762786865 0.85091251134872436523 5.5192999839782714844 
0.27599999308586120605 0.27599999308586120605 0.27599999308586120605 0.27599999308586120605 0.27599999308586120605 0.27599999308586120605 0.27599999308586120605 0.27599999308586120605 0.27599999308586120605 0.27599999308586120605 0.27599999308586120605 0.27599999308586120605 0.27599999308586120605 0.27599999308586120605 0.27599999308586120605 0.27599999308586120605 0.27599999308586120605 0.27599999308586120605 0.27599999308586120605 0.27599999308586120605 0.27599999308586120605 0.27599999308586120605 0.27599999308586120605 0.27599999308586120605 0.27599999308586120605 0.27599999308586120605 0.27599999308586120605 0.47720623016357421875 0.36223125457763671875 0.47721874713897705078 0.31624373793601989746 0.27599999308586120605 0.27599999308586120605 0.27599999308586120605 0.27599999308586120605 0.27599999308586120605 0.27599999308586120605 0.27599999308586120605 0.27599999308586120605 0.27599999308586120605 0.27599999308586120605 0.27599999308586120605 0.27599999308586120605 0.27599999308586120605 0.27599999308586120605 0.27599999308586120605 0.27599999308586120605 0.97165626287460327148 0.76468122005462646484 2.0352625846862792969 0.88541251420974731445 1.8282874822616577148 0.31624373793601989746 2.1559937000274658203 1.2591187953948974609 0.27599999308586120605 0.27599999308586120605 0.84516876935958862305 0.64394998550415039062 1.8282874822616577148 0.27599999308586120605 0.47146248817443847656 3.2195999622344970703 3.0586249828338623047 4.2621331214904785156 2.8384928703308105469 0.71294164657592773438 1.0578899383544921875 1.9580571651458740234 1.9490187168121337891 1.2993625402450561523 2.9781374931335449219 3.7542812824249267578 1.7880437374114990234 1.3798500299453735352 0.62094998359680175781 0.31624373793601989746 0.27599999308586120605 1.6673125028610229492 1.2591187953948974609 2.8516499996185302734 1.9030250310897827148 0.655437469482421875 1.0578875541687011719 0.22999374568462371826 0.22425000369548797607 4.2084751129150390625 
0.27599999308586120605 0.27599999308586120605 0.27599999308586120605 0.27599999308586120605 0.27599999308586120605 0.27599999308586120605 0.27599999308586120605 0.27599999308586120605 0.27599999308586120605 0.27599999308586120605 0.27599999308586120605 0.27599999308586120605 0.27599999308586120605 0.27599999308586120605 0.27599999308586120605 0.27599999308586120605 0.27599999308586120605 0.27599999308586120605 0.27599999308586120605 0.27599999308586120605 0.27599999308586120605 0.27599999308586120605 0.27599999308586120605 0.27599999308586120605 0.27599999308586120605 0.27599999308586120605 0.27599999308586120605 0.27599999308586120605 0.30474373698234558105 0.31624373793601989746 0.68419373035430908203 0.27599999308586120605 0.27599999308586120605 0.27599999308586120605 0.27599999308586120605 0.27599999308586120605 0.27599999308586120605 0.27599999308586120605 0.27599999308586120605 0.27599999308586120605 0.27599999308586120605 0.27599999308586120605 0.27599999308586120605 0.27599999308586120605 0.27599999308586120605 0.27599999308586120605 0.64394998550415039062 0.27599999308586120605 0.27599999308586120605 0.60370624065399169922 1.719056248664855957 2.1157500743865966797 0.92565625905990600586 0.35648748278617858887 0.93141251802444458008 0.27599999308586120605 0.72443747520446777344 0.27599999308586120605 1.9950187206268310547 1.5408250093460083008 0.87391668558120727539 0.27599999308586120605 2.2383999824523925781 0.43697500228881835938 3.1552100181579589844 4.7527332305908203125 0.68419373035430908203 0.27599999308586120605 1.760935664176940918 2.5584375858306884766 0.39673125743865966797 0.97165626287460327148 1.661556243896484375 1.7075562477111816406 0.97165626287460327148 0.27599999308586120605 0.27599999308586120605 0.64394998550415039062 0.64394998550415039062 3.5473124980926513672 1.9662687778472900391 1.2303687334060668945 0.22999998927116394043 0.22999998927116394043 0.37946873903274536133 0.32198125123977661133 2.8746500015258789062 
0.27599999308586120605 0.27599999308586120605 0.27599999308586120605 0.27599999308586120605 0.27599999308586120605 0.27599999308586120605 0.27599999308586120605 0.27599999308586120605 0.27599999308586120605 0.27599999308586120605 0.27599999308586120605 0.27599999308586120605 0.27599999308586120605 0.27599999308586120605 0.27599999308586120605 0.27599999308586120605 0.27599999308586120605 0.27599999308586120605 0.27599999308586120605 0.27024999260902404785 0.27599999308586120605 0.27599999308586120605 0.27599999308586120605 0.27599999308586120605 0.27599999308586120605 0.27599999308586120605 0.27599999308586120605 0.27599999308586120605 0.60370624065399169922 1.9145312309265136719 1.6385687589645385742 0.27599999308586120605 0.27599999308586120605 0.27599999308586120605 0.27599999308586120605 0.27599999308586120605 0.27599999308586120605 0.27599999308586120605 0.27599999308586120605 0.27599999308586120605 0.27599999308586120605 0.27599999308586120605 0.27599999308586120605 0.27599999308586120605 0.27599999308586120605 0.27599999308586120605 0.27599999308586120605 0.27599999308586120605 0.31624373793601989746 3.55306243896484375 3.2196061611175537109 3.7542812824249267578 0.55770623683929443359 0.80492496490478515625 2.0295062065124511719 0.64394998550415039062 1.0118999481201171875 0.31624373793601989746 1.6270687580108642578 1.3798500299453735352 0.32965832948684692383 0.27599999308586120605 0.31892666220664978027 3.8430776596069335938 5.5192999839782714844 4.3588385581970214844 2.5641875267028808594 1.6941416263580322266 2.0640063285827636719 0.98890000581741333008 0.27599999308586120605 0.27599999308586120605 0.27599999308586120605 0.43697500228881835938 2.7424187660217285156 0.31624373793601989746 0.64394998550415039062 2.610187530517578125 0.51746249198913574219 1.7420500516891479492 1.2361187934875488281 0.27599999308586120605 0.27599999308586120605 0.27599999308586120605 0.25299999117851257324 0.53470623493194580078 0.78189998865127563477 
0.27599999308586120605 0.27599999308586120605 0.27599999308586120605 0.27599999308586120605 0.27599999308586120605 0.27599999308586120605 0.27599999308586120605 0.27599999308586120605 0.27599999308586120605 0.27599999308586120605 0.27599999308586120605 0.27599999308586120605 0.27599999308586120605 0.27599999308586120605 0.27599999308586120605 0.27599999308586120605 0.27599999308586120605 0.27599999308586120605 0.27599999308586120605 0.27599999308586120605 0.27599999308586120605 0.27599999308586120605 0.27599999308586120605 0.27599999308586120605 0.27599999308586120605 0.27599999308586120605 0.27599999308586120605 0.27599999308586120605 1.2591187953948974609 3.2253563404083251953 0.27599999308586120605 0.60370624065399169922 0.60370624065399169922 0.27599999308586120605 0.27599999308586120605 0.27599999308586120605 0.27599999308586120605 0.27599999308586120605 0.27599999308586120605 0.27599999308586120605 0.27599999308586120605 0.27599999308586120605 0.27599999308586120605 0.27599999308586120605 0.31624373793601989746 0.27599999308586120605 0.27599999308586120605 0.27599999308586120605 2.8976500034332275391 2.610187530517578125 2.3227250576019287109 3.5070624351501464844 2.2767250537872314453 0.68419373035430908203 0.80492496490478515625 0.68419373035430908203 2.1157500743865966797 1.0118999481201171875 0.60370624065399169922 0.76660001277923583984 0.64394998550415039062 0.27599999308586120605 0.60370624065399169922 3.9861667156219482422 4.0015001296997070312 1.6673125028610229492 0.60370624065399169922 0.82025831937789916992 0.35648748278617858887 0.27599999308586120605 0.27599999308586120605 0.60370624065399169922 1.0118999481201171875 2.0352625846862792969 1.9145312309265136719 2.4032125473022460938 1.6270687580108642578 0.64394998550415039062 0.72443747520446777344 3.9612562656402587891 2.5871875286102294922 0.27599999308586120605 0.27599999308586120605 0.27599999308586120605 0.22999998927116394043 0.25299999117851257324 0.27599999308586120605 
0.27599999308586120605 0.27599999308586120605 0.27599999308586120605 0.27599999308586120605 0.27599999308586120605 0.27599999308586120605 0.27599999308586120605 0.27599999308586120605 0.27599999308586120605 0.27599999308586120605 0.27599999308586120605 0.27599999308586120605 0.27599999308586120605 0.27599999308586120605 0.27599999308586120605 0.27599999308586120605 0.27599999308586120605 0.27599999308586120605 0.60370624065399169922 0.27599999308586120605 0.27599999308586120605 0.27599999308586120605 0.27599999308586120605 0.27599999308586120605 0.27599999308586120605 0.27599999308586120605 0.27599999308586120605 0.27599999308586120605 1.4258375167846679688 0.31624373793601989746 0.27599999308586120605 0.60370624065399169922 0.27599999308586120605 0.27599999308586120605 0.27599999308586120605 0.27599999308586120605 0.27599999308586120605 0.27599999308586120605 0.27599999308586120605 0.27599999308586120605 0.27599999308586120605 0.60370624065399169922 1.6270687580108642578 0.64394998550415039062 1.0521436929702758789 0.27599999308586120605 0.27599999308586120605 0.64394998550415039062 1.2591187953948974609 0.64394998550415039062 2.6906750202178955078 1.8282874822616577148 0.43697500228881835938 0.39673125743865966797 0.39673125743865966797 0.27599999308586120605 1.4200937747955322266 1.9490187168121337891 2.7711625099182128906 1.5005812644958496094 0.27599999308586120605 0.27599999308586120605 0.24840000271797180176 3.4751222133636474609 3.1391124725341796875 0.27599999308586120605 0.27599999308586120605 0.64394998550415039062 0.27599999308586120605 0.27599999308586120605 0.27599999308586120605 0.97165626287460327148 1.0521436929702758789 4.3292064666748046875 4.9443750381469726562 3.0988688468933105469 0.64394998550415039062 0.27599999308586120605 0.60370624065399169922 2.610187530517578125 0.93141251802444458008 0.60370624065399169922 0.27599999308586120605 0.27599999308586120605 0.32198747992515563965 0.27599999308586120605 2.8976500034332275391 
0.27599999308586120605 0.27599999308586120605 0.27599999308586120605 0.27599999308586120605 0.27599999308586120605 0.27599999308586120605 0.27599999308586120605 0.27599999308586120605 0.27599999308586120605 0.27599999308586120605 0.27599999308586120605 0.27599999308586120605 0.27599999308586120605 0.27599999308586120605 0.27599999308586120605 0.27599999308586120605 0.27599999308586120605 0.27599999308586120605 0.27599999308586120605 0.27599999308586120605 0.27599999308586120605 0.27599999308586120605 0.27024999260902404785 0.44846248626708984375 0.30474373698234558105 0.27599999308586120605 0.76468122005462646484 0.27599999308586120605 2.3227250576019287109 0.72443747520446777344 0.41971874237060546875 0.30474373698234558105 0.27599999308586120605 0.27599999308586120605 0.27599999308586120605 0.27599999308586120605 0.27599999308586120605 0.27599999308586120605 0.27599999308586120605 0.27599999308586120605 0.27599999308586120605 2.1272499561309814453 1.747799992561340332 1.6098186969757080078 0.26449999213218688965 0.27599999308586120605 1.2591187953948974609 4.0819873809814453125 1.6270687580108642578 1.2131187915802001953 0.27024999260902404785 0.20125000178813934326 0.20125000178813934326 0.18975000083446502686 0.27599373459815979004 1.9720187187194824219 0.97165626287460327148 2.8918936252593994141 0.72443747520446777344 0.93141251802444458008 1.5523250102996826172 0.27599999308586120605 2.8884499073028564453 2.5296916961669921875 4.0819873809814453125 0.43697500228881835938 0.27599999308586120605 2.7079186439514160156 0.44271874427795410156 0.27599999308586120605 0.27599999308586120605 0.25299999117851257324 0.22999998927116394043 2.5699436664581298828 3.9612562656402587891 0.80492496490478515625 2.4032125473022460938 0.27599999308586120605 0.27599999308586120605 2.0352625846862792969 0.27599999308586120605 0.25874999165534973145 0.24149999022483825684 0.25874999165534973145 0.37373125553131103516 0.64394998550415039062 2.8976500034332275391 
0.27599999308586120605 0.27599999308586120605 0.27599999308586120605 0.27599999308586120605 0.27599999308586120605 0.27599999308586120605 0.27599999308586120605 0.27599999308586120605 0.27599999308586120605 0.27599999308586120605 0.27599999308586120605 0.27599999308586120605 0.27599999308586120605 0.27599999308586120605 0.27599999308586120605 0.27599999308586120605 0.27599999308586120605 0.27599999308586120605 0.27599999308586120605 0.27599999308586120605 0.27599999308586120605 0.27599999308586120605 1.0406436920166015625 0.41971874237060546875 0.33348748087882995605 0.27599999308586120605 0.31624373793601989746 0.25299999117851257324 2.9378936290740966797 0.35648748278617858887 0.41971874237060546875 0.27599999308586120605 0.27599999308586120605 0.27599999308586120605 0.27599999308586120605 0.27599999308586120605 0.27599999308586120605 1.6385687589645385742 0.27599999308586120605 1.6788125038146972656 1.6270687580108642578 0.25299999117851257324 0.27599999308586120605 0.23574998974800109863 0.24149999022483825684 0.26449999213218688965 0.27599373459815979004 1.6385624408721923828 3.2655999660491943359 0.68419373035430908203 0.27599999308586120605 0.18975000083446502686 0.18400000035762786865 0.18400000035762786865 0.31048125028610229492 0.91988748311996459961 2.2824687957763671875 4.0819873809814453125 1.2993625402450561523 2.2422375679016113281 4.7527332305908203125 1.0118999481201171875 4.5350298881530761719 2.6151142120361328125 4.3694500923156738281 0.3833166658878326416 1.6673125028610229492 1.0118999481201171875 0.39673125743865966797 0.27599999308586120605 0.27599999308586120605 0.24149999022483825684 0.25299999117851257324 3.3058438301086425781 3.6335499286651611328 0.68419373035430908203 1.2993625402450561523 0.27599999308586120605 2.0755062103271484375 2.0755062103271484375 0.27599999308586120605 0.21850000321865081787 0.29323124885559082031 0.19550000131130218506 0.24724999070167541504 2.2824811935424804688 0.75892502069473266602 
0.27599999308586120605 0.27599999308586120605 0.27599999308586120605 0.27599999308586120605 0.27599999308586120605 0.27599999308586120605 0.27599999308586120605 0.27599999308586120605 0.27599999308586120605 0.27599999308586120605 0.27599999308586120605 0.27599999308586120605 0.27599999308586120605 0.27599999308586120605 0.27599999308586120605 0.27599999308586120605 0.27599999308586120605 0.27599999308586120605 0.27599999308586120605 0.27599999308586120605 0.27599999308586120605 0.27599999308586120605 0.27599999308586120605 0.27599999308586120605 0.27599999308586120605 0.27599999308586120605 0.60370624065399169922 1.5868250131607055664 2.3629686832427978516 0.33348748087882995605 1.3740937709808349609 0.27599999308586120605 0.27599999308586120605 0.27599999308586120605 0.27599999308586120605 7.0888438224792480469 0.27599999308586120605 1.4200937747955322266 0.68419373035430908203 1.3625999689102172852 0.24149999022483825684 0.22999998927116394043 0.25299999117851257324 0.21850000321865081787 2.6331813335418701172 0.18400000035762786865 0.18400000035762786865 0.22999998927116394043 0.60370624065399169922 0.24724999070167541504 0.27599999308586120605 0.18400000035762786865 0.18400000035762786865 0.18400000035762786865 0.22425000369548797607 0.76468122005462646484 2.8114061355590820312 1.5983124971389770508 2.2767250537872314453 1.5127222537994384766 1.9133800268173217773 0.82025831937789916992 4.354122161865234375 3.6028833389282226562 4.9367113113403320312 1.2572000026702880859 0.31624373793601989746 0.31624373793601989746 0.84516876935958862305 0.27599999308586120605 0.27599999308586120605 0.27599999308586120605 0.27599999308586120605 0.67269372940063476562 0.31624373793601989746 0.27599999308586120605 0.68419373035430908203 1.3798500299453735352 2.0755062103271484375 0.93141251802444458008 0.27599999308586120605 0.25299999117851257324 0.21275000274181365967 0.21850000321865081787 1.2476187944412231445 1.3396062850952148438 1.5868250131607055664 
0.27599999308586120605 0.27599999308586120605 0.27599999308586120605 0.27599999308586120605 0.27599999308586120605 0.27599999308586120605 0.27599999308586120605 0.27599999308586120605 0.27599999308586120605 0.27599999308586120605 0.27599999308586120605 0.27599999308586120605 0.27599999308586120605 0.27599999308586120605 0.27599999308586120605 0.27599999308586120605 0.27599999308586120605 0.27599999308586120605 0.27599999308586120605 0.27599999308586120605 0.27599999308586120605 0.27599999308586120605 0.27599999308586120605 0.38522499799728393555 0.27599999308586120605 0.27599999308586120605 0.67844372987747192383 0.93141251802444458008 1.6673125028610229492 1.7880437374114990234 1.5868250131607055664 0.27599999308586120605 0.27599999308586120605 0.27599999308586120605 1.6385687589645385742 0.36223125457763671875 0.27599999308586120605 0.64394998550415039062 0.26449999213218688965 0.66693747043609619141 1.3166062831878662109 0.21850000321865081787 0.19550000131130218506 0.21850000321865081787 0.91991251707077026367 0.18400000035762786865 0.18400000035762786865 0.19550000131130218506 0.25299999117851257324 0.25874999165534973145 0.26449999213218688965 0.24724999070167541504 0.24724999070167541504 0.36222499608993530273 0.25874999165534973145 0.80492496490478515625 2.1962375640869140625 1.460337519645690918 0.52365386486053466797 0.64394998550415039062 3.3345916271209716797 3.55306243896484375 3.4265749454498291016 0.92565625905990600586 1.0118999481201171875 0.31892666220664978027 2.5664899349212646484 0.39673125743865966797 0.31624373793601989746 0.27599999308586120605 0.27599999308586120605 0.27599999308586120605 0.27599999308586120605 0.30474373698234558105 0.27599999308586120605 0.27599999308586120605 0.27599999308586120605 1.2591187953948974609 3.0586249828338623047 0.64394998550415039062 0.27599999308586120605 0.27599999308586120605 0.25299999117851257324 0.62669998407363891602 2.4032125473022460938 1.2591187953948974609 1.5868250131607055664 
0.27599999308586120605 0.27599999308586120605 0.27599999308586120605 0.27599999308586120605 0.27599999308586120605 0.27599999308586120605 0.27599999308586120605 0.27599999308586120605 0.27599999308586120605 0.27599999308586120605 0.27599999308586120605 0.27599999308586120605 0.27599999308586120605 0.27599999308586120605 0.27599999308586120605 0.27599999308586120605 0.27599999308586120605 0.27599999308586120605 0.27599999308586120605 0.27599999308586120605 0.27599999308586120605 0.36223125457763671875 0.27599999308586120605 0.27599999308586120605 0.27599999308586120605 0.27599999308586120605 0.6036999821662902832 0.27599999308586120605 3.5933063030242919922 2.3227250576019287109 2.5699436664581298828 0.60370624065399169922 0.27599999308586120605 0.27599999308586120605 0.49446249008178710938 0.30474373698234558105 0.27599999308586120605 0.27599999308586120605 0.25874999165534973145 0.31623125076293945312 0.6611874699592590332 0.22425000369548797607 0.18975000083446502686 0.21275000274181365967 0.20700000226497650146 0.21849374473094940186 0.25299373269081115723 0.20700000226497650146 0.27599999308586120605 0.27599999308586120605 0.30474373698234558105 0.24149999022483825684 0.30474373698234558105 0.44846248626708984375 0.27599999308586120605 1.3166062831878662109 2.1157500743865966797 1.747799992561340332 0.77681112289428710938 0.7288615107536315918 2.5403077602386474609 3.5507600307464599609 0.84516876935958862305 0.27599999308586120605 0.27599999308586120605 0.27599999308586120605 3.5481286048889160156 3.2870600223541259766 3.4265749454498291016 1.6270687580108642578 0.7288615107536315918 0.27599999308586120605 0.27599999308586120605 0.27599999308586120605 0.39097499847412109375 2.2422375679016113281 2.5699436664581298828 2.0352625846862792969 4.3292064666748046875 1.6673125028610229492 0.30474373698234558105 0.29324373602867126465 0.27599999308586120605 0.27599999308586120605 0.31624373793601989746 0.27599999308586120605 0.27599999308586120605 
0.27599999308586120605 0.27599999308586120605 0.27599999308586120605 0.27599999308586120605 0.27599999308586120605 0.27599999308586120605 0.27599999308586120605 0.27599999308586120605 0.27599999308586120605 0.27599999308586120605 0.27599999308586120605 0.27599999308586120605 0.27599999308586120605 0.27599999308586120605 0.27599999308586120605 0.27599999308586120605 0.27599999308586120605 0.27599999308586120605 0.27599999308586120605 0.27599999308586120605 0.27599999308586120605 0.27599999308586120605 0.27599999308586120605 0.27599999308586120605 0.27599999308586120605 0.27599999308586120605 2.3629686832427978516 0.84516876935958862305 3.3058438301086425781 4.8638873100280761719 5.5192999839782714844 5.5192999839782714844 2.2422375679016113281 0.72443747520446777344 0.68419373035430908203 0.27599999308586120605 0.27599999308586120605 0.27599999308586120605 0.27599999308586120605 0.27023750543594360352 0.32198747992515563965 0.21275000274181365967 0.18400000035762786865 0.20700000226497650146 0.21275000274181365967 0.21275000274181365967 0.27024373412132263184 0.21850000321865081787 0.27599999308586120605 0.30474373698234558105 0.41971874237060546875 0.67844372987747192383 0.97165626287460327148 0.25299999117851257324 1.5695749521255493164 1.2648562192916870117 1.2073625326156616211 0.27599999308586120605 1.5868250131607055664 4.9949698448181152344 4.3292064666748046875 0.64394998550415039062 0.27599999308586120605 0.27599999308586120605 1.2035416364669799805 4.06720733642578125 4.9443750381469726562 4.9443750381469726562 0.78850001096725463867 0.33348748087882995605 0.41971874237060546875 0.27599999308586120605 0.27599999308586120605 0.27599999308586120605 1.0463874340057373047 0.98890000581741333008 0.31624373793601989746 1.2591187953948974609 1.9547749757766723633 1.4200937747955322266 1.6903063058853149414 0.25299999117851257324 0.27599999308586120605 0.27599999308586120605 0.26449999213218688965 0.35648125410079956055 0.27599999308586120605 
0.27599999308586120605 0.27599999308586120605 0.27599999308586120605 0.27599999308586120605 0.27599999308586120605 0.27599999308586120605 0.27599999308586120605 0.27599999308586120605 0.27599999308586120605 0.27599999308586120605 0.27599999308586120605 0.27599999308586120605 0.27599999308586120605 0.27599999308586120605 0.27599999308586120605 0.27599999308586120605 0.27599999308586120605 0.27599999308586120605 0.27599999308586120605 0.27599999308586120605 0.27599999308586120605 0.27599999308586120605 0.27599999308586120605 0.27599999308586120605 0.27599999308586120605 0.27599999308586120605 0.89691251516342163086 3.3863313198089599609 0.47721874713897705078 3.2655999660491943359 4.8638873100280761719 3.7542812824249267578 1.5868250131607055664 5.7262749671936035156 0.27599999308586120605 0.27599999308586120605 0.27599999308586120605 0.27599999308586120605 0.64394998550415039062 0.26449999213218688965 0.25874999165534973145 0.21850000321865081787 0.18975000083446502686 0.19550000131130218506 0.18400000035762786865 0.25298750400543212891 0.25874373316764831543 0.22425000369548797607 0.27599999308586120605 0.41971874237060546875 0.45995622873306274414 0.27599999308586120605 1.9950187206268310547 0.27599999308586120605 2.5411937236785888672 1.2073625326156616211 1.1326313018798828125 2.0379154682159423828 1.1422166824340820312 2.9321374893188476562 2.6504311561584472656 0.27599999308586120605 0.27599999308586120605 0.27599999308586120605 2.5898385047912597656 0.62555330991744995117 1.7740857601165771484 0.67933076620101928711 1.4534399509429931641 0.27599999308586120605 0.27599999308586120605 0.27599999308586120605 0.27599999308586120605 0.27599999308586120605 0.27599999308586120605 0.27599999308586120605 0.27599999308586120605 0.93141251802444458008 0.64394998550415039062 0.27599999308586120605 0.27599999308586120605 0.27024999260902404785 0.27599999308586120605 0.27599999308586120605 0.27599999308586120605 0.27599999308586120605 0.27599999308586120605 
0.27599999308586120605 0.27599999308586120605 0.27599999308586120605 0.27599999308586120605 0.27599999308586120605 0.27599999308586120605 0.27599999308586120605 0.27599999308586120605 0.27599999308586120605 0.27599999308586120605 0.27599999308586120605 0.27599999308586120605 0.27599999308586120605 0.93141251802444458008 0.93141251802444458008 0.60370624065399169922 0.30474373698234558105 0.27599999308586120605 0.27599999308586120605 0.27599999308586120605 0.27599999308586120605 0.27599999308586120605 0.27599999308586120605 0.43697500228881835938 0.60370624065399169922 1.6385687589645385742 0.30474373698234558105 0.72443747520446777344 2.7309186458587646484 2.4319562911987304688 0.33348748087882995605 0.84516876935958862305 1.0923874378204345703 1.6385687589645385742 0.72443747520446777344 0.27599999308586120605 0.60370624065399169922 0.97165626287460327148 1.6270687580108642578 0.27599999308586120605 0.27599999308586120605 0.79917502403259277344 2.0697562694549560547 0.27599999308586120605 0.27599999308586120605 0.31049373745918273926 0.27599999308586120605 0.27599999308586120605 0.27599999308586120605 0.27599999308586120605 0.93141251802444458008 0.59220623970031738281 0.27599999308586120605 0.27024999260902404785 0.27599999308586120605 0.93141251802444458008 0.27599999308586120605 0.55770623683929443359 0.27599999308586120605 3.1391124725341796875 1.6673125028610229492 1.5868250131607055664 0.39673125743865966797 0.85858887434005737305 4.5764250755310058594 1.8282874822616577148 0.27599999308586120605 0.27599999308586120605 0.27599999308586120605 0.27599999308586120605 0.27599999308586120605 0.27599999308586120605 1.9530076980590820312 3.0011374950408935547 0.85858887434005737305 0.27599999308586120605 1.5868250131607055664 2.8976500034332275391 0.35648748278617858887 0.27599999308586120605 0.27599999308586120605 0.27599999308586120605 0.27599999308586120605 0.27599999308586120605 0.27599999308586120605 0.27599999308586120605 0.27599999308586120605 
0.27599999308586120605 0.27599999308586120605 0.27599999308586120605 0.27599999308586120605 0.27599999308586120605 0.27599999308586120605 0.27599999308586120605 0.27599999308586120605 0.27599999308586120605 0.27599999308586120605 0.27599999308586120605 0.27599999308586120605 1.2591187953948974609 1.2591187953948974609 0.27599999308586120605 0.27599999308586120605 0.27599999308586120605 0.27599999308586120605 0.27599999308586120605 0.27599999308586120605 0.27599999308586120605 0.27599999308586120605 0.68419373035430908203 0.35648748278617858887 1.7880437374114990234 0.43697500228881835938 0.39673125743865966797 1.1326313018798828125 0.68419373035430908203 1.747799992561340332 1.0003750324249267578 1.8455312252044677734 1.6385687589645385742 0.31624373793601989746 0.30474373698234558105 0.35073748230934143066 2.6504311561584472656 0.60370624065399169922 0.25299999117851257324 0.27599999308586120605 0.27599999308586120605 0.64394998550415039062 0.31624373793601989746 0.27599999308586120605 0.27599999308586120605 0.33348748087882995605 0.34498125314712524414 0.23574998974800109863 0.27599999308586120605 0.27599999308586120605 0.27024999260902404785 0.27024999260902404785 0.60370624065399169922 0.25874999165534973145 1.6385687589645385742 0.27599999308586120605 0.27599999308586120605 0.31624373793601989746 2.0237667560577392578 2.6446750164031982422 2.4434561729431152344 0.597949981689453125 1.4411777257919311523 0.34038999676704406738 1.0826615095138549805 2.962039947509765625 0.27599999308586120605 0.27599999308586120605 0.27599999308586120605 0.27599999308586120605 0.27599999308586120605 0.35264998674392700195 0.27599999308586120605 0.27599999308586120605 0.27599999308586120605 0.60370624065399169922 3.2655999660491943359 1.7075562477111816406 0.27599999308586120605 0.27599999308586120605 0.27599999308586120605 0.93141251802444458008 0.27599999308586120605 0.27599999308586120605 0.27599999308586120605 0.27599999308586120605 0.27599999308586120605 
0.27599999308586120605 0.27599999308586120605 0.27599999308586120605 0.27599999308586120605 0.27599999308586120605 0.27599999308586120605 0.27599999308586120605 0.72443747520446777344 0.31624373793601989746 0.27599999308586120605 0.27599999308586120605 0.27599999308586120605 3.8807687759399414062 0.27599999308586120605 0.27599999308586120605 0.27599999308586120605 0.27599999308586120605 0.27599999308586120605 0.27599999308586120605 0.27599999308586120605 0.27599999308586120605 0.27599999308586120605 0.27599999308586120605 0.47721874713897705078 0.35648748278617858887 0.27599999308586120605 1.0521436929702758789 1.2993625402450561523 1.9547749757766723633 2.4837000370025634766 1.5925562381744384766 2.4434561729431152344 2.6906750202178955078 2.0755062103271484375 3.0183813571929931641 3.2368500232696533203 2.6331813335418701172 1.9145312309265136719 0.64394998550415039062 1.0061500072479248047 0.92566251754760742188 0.27599999308586120605 0.27599999308586120605 0.27599999308586120605 0.26449999213218688965 0.40246874094009399414 0.47145622968673706055 0.37947499752044677734 0.27599999308586120605 0.27599999308586120605 0.27599999308586120605 1.5868250131607055664 2.610187530517578125 0.27599999308586120605 0.27599999308586120605 0.27599999308586120605 0.32965832948684692383 0.27599999308586120605 3.1488461494445800781 3.7945249080657958984 2.5020999908447265625 0.597949981689453125 0.27599999308586120605 0.49063333868980407715 0.27599999308586120605 0.27599999308586120605 0.27599999308586120605 0.27599999308586120605 0.27599999308586120605 0.27599999308586120605 0.27599999308586120605 0.27599999308586120605 0.27599999308586120605 0.27599999308586120605 0.27599999308586120605 0.27599999308586120605 1.0250428915023803711 1.3246599435806274414 0.27599999308586120605 0.27599999308586120605 0.27599999308586120605 2.8976500034332275391 0.27599999308586120605 0.27599999308586120605 0.27599999308586120605 0.27599999308586120605 0.27599999308586120605 
0.27599999308586120605 0.27599999308586120605 0.27599999308586120605 0.27599999308586120605 0.27599999308586120605 0.27599999308586120605 0.29899373650550842285 2.4434561729431152344 1.747799992561340332 0.27599999308586120605 0.27599999308586120605 1.5868250131607055664 1.9145312309265136719 0.27599999308586120605 0.27599999308586120605 0.27599999308586120605 0.27599999308586120605 0.27599999308586120605 0.27599999308586120605 0.27599999308586120605 0.33348748087882995605 0.30474373698234558105 0.27599999308586120605 1.0923874378204345703 0.27599999308586120605 0.27599999308586120605 1.6213186979293823242 1.414343714714050293 3.5070624351501464844 3.5933063030242919922 3.3863313198089599609 1.57532501220703125 3.0183813571929931641 0.27599999308586120605 0.27599999308586120605 0.35648748278617858887 2.1099998950958251953 1.7190500497817993164 1.2533687353134155273 1.6270687580108642578 0.31624373793601989746 0.27599999308586120605 0.27599999308586120605 0.27599999308586120605 0.32198747992515563965 0.27598750591278076172 0.27024999260902404785 0.27599999308586120605 0.27599999308586120605 0.27599999308586120605 0.27599999308586120605 1.2591187953948974609 0.93141251802444458008 0.27599999308586120605 0.27599999308586120605 0.78850001096725463867 4.1969747543334960938 2.1559937000274658203 3.5507600307464599609 3.7945249080657958984 1.2572000026702880859 0.27599999308586120605 0.27599999308586120605 0.27599999308586120605 0.76468122005462646484 0.27599999308586120605 0.27599999308586120605 0.27599999308586120605 0.27599999308586120605 0.80032998323440551758 0.27599999308586120605 0.27599999308586120605 0.39673125743865966797 0.597949981689453125 0.27599999308586120605 0.27599999308586120605 4.8638873100280761719 1.149883270263671875 0.27599999308586120605 0.27599999308586120605 0.27599999308586120605 0.93141251802444458008 0.27599999308586120605 0.27599999308586120605 0.27599999308586120605 0.27599999308586120605 0.27599999308586120605 
0.27599999308586120605 0.27599999308586120605 0.27599999308586120605 0.27599999308586120605 0.27599999308586120605 0.27599999308586120605 0.93141251802444458008 0.93141251802444458008 0.27599999308586120605 0.31624373793601989746 2.2422375679016113281 3.2253563404083251953 0.27599999308586120605 0.27599999308586120605 0.27599999308586120605 0.27599999308586120605 0.27599999308586120605 0.30474373698234558105 0.30474373698234558105 0.31623747944831848145 0.38522499799728393555 0.26449999213218688965 0.25874999165534973145 0.24724999070167541504 1.6385687589645385742 0.27599999308586120605 1.0463937520980834961 2.3572187423706054688 2.9321374893188476562 3.3863313198089599609 2.3169748783111572266 1.3740937709808349609 2.2824811935424804688 0.27599999308586120605 0.27599999308586120605 1.0003999471664428711 0.92566251754760742188 1.6960562467575073242 0.27599999308586120605 0.26449999213218688965 0.27024999260902404785 0.27599999308586120605 0.27599999308586120605 0.27599999308586120605 0.27599999308586120605 0.19550000131130218506 0.34498748183250427246 1.2821124792098999023 0.27599999308586120605 0.27599999308586120605 0.27599999308586120605 0.27599999308586120605 0.27599999308586120605 0.27599999308586120605 0.27599999308586120605 0.27599999308586120605 1.1630214452743530273 0.67933076620101928711 2.6959846019744873047 2.5641875267028808594 0.27599999308586120605 0.27599999308586120605 0.27599999308586120605 0.32965832948684692383 0.27599999308586120605 0.27599999308586120605 0.27599999308586120605 0.27599999308586120605 0.27599999308586120605 0.27599999308586120605 0.27599999308586120605 0.27599999308586120605 0.85858887434005737305 0.60370624065399169922 0.27599999308586120605 0.27599999308586120605 5.5192999839782714844 2.0237667560577392578 0.27599999308586120605 1.2591187953948974609 0.27599999308586120605 0.60370624065399169922 0.27599999308586120605 0.36223125457763671875 0.27599999308586120605 0.27599999308586120605 0.27599999308586120605 
0.27599999308586120605 0.27599999308586120605 1.7880437374114990234 1.1326313018798828125 0.27599999308586120605 0.27599999308586120605 0.27599999308586120605 2.9378936290740966797 1.9547749757766723633 1.5810687541961669922 1.2591187953948974609 4.5361814498901367188 0.27599999308586120605 0.27599999308586120605 0.27599999308586120605 0.27599999308586120605 0.27599999308586120605 0.27599999308586120605 0.23574998974800109863 0.25874999165534973145 0.25874999165534973145 0.23574998974800109863 0.22999998927116394043 0.27599999308586120605 0.27599999308586120605 0.29899373650550842285 0.41972500085830688477 1.9547749757766723633 1.5810687541961669922 0.34498125314712524414 1.3281062841415405273 0.68419373035430908203 1.9950187206268310547 0.27599999308586120605 0.27599999308586120605 1.0406436920166015625 1.0923874378204345703 1.747799992561340332 0.27599999308586120605 0.25874999165534973145 0.29324373602867126465 0.60370624065399169922 0.27599999308586120605 0.27599999308586120605 0.27599999308586120605 0.25874999165534973145 0.31048750877380371094 0.30473750829696655273 0.27599999308586120605 0.27599999308586120605 0.27599999308586120605 0.27599999308586120605 0.27599999308586120605 0.27599999308586120605 2.7309186458587646484 0.93141251802444458008 2.5020999908447265625 1.747799992561340332 3.4035778045654296875 1.3740937709808349609 0.27599999308586120605 0.27599999308586120605 0.54173332452774047852 0.27599999308586120605 0.42929998040199279785 0.27599999308586120605 0.27599999308586120605 0.54173332452774047852 0.27599999308586120605 0.27599999308586120605 0.27599999308586120605 0.27599999308586120605 0.27599999308586120605 0.27599999308586120605 0.27599999308586120605 0.27599999308586120605 5.5192999839782714844 0.62555330991744995117 0.93141251802444458008 0.60370624065399169922 0.27599999308586120605 0.27599999308586120605 4.3637065887451171875 3.0011374950408935547 0.30474373698234558105 0.27599999308586120605 0.39097499847412109375 
0.27599999308586120605 0.27599999308586120605 0.27599999308586120605 0.35648748278617858887 0.27599999308586120605 0.27024999260902404785 0.27599999308586120605 1.6270687580108642578 2.5699436664581298828 1.7880437374114990234 0.27599999308586120605 1.5868250131607055664 0.27599999308586120605 0.27599999308586120605 0.27599999308586120605 0.27599999308586120605 0.27599999308586120605 0.27599999308586120605 0.23574998974800109863 0.26449999213218688965 0.22999998927116394043 1.3396062850952148438 0.26449999213218688965 0.27599999308586120605 0.27599999308586120605 0.35648748278617858887 0.60370624065399169922 0.39673125743865966797 0.80492496490478515625 0.38523125648498535156 0.72443747520446777344 0.64394998550415039062 2.9781374931335449219 0.27599999308586120605 0.27599999308586120605 0.28749373555183410645 0.62092500925064086914 0.59218126535415649414 0.30474373698234558105 0.25874999165534973145 0.31623125076293945312 0.68419373035430908203 0.27599999308586120605 0.27599999308586120605 0.27599999308586120605 0.27599999308586120605 0.18975000083446502686 1.3740937709808349609 1.0118999481201171875 0.27599999308586120605 0.27599999308586120605 0.27599999308586120605 0.27599999308586120605 1.6558110713958740234 1.2591187953948974609 0.27599999308586120605 1.3396062850952148438 2.729000091552734375 3.7502999305725097656 4.0819873809814453125 0.40478000044822692871 0.27599999308586120605 0.27599999308586120605 0.27599999308586120605 0.27599999308586120605 0.27599999308586120605 0.27599999308586120605 0.27599999308586120605 0.27599999308586120605 0.40822499990463256836 0.22999998927116394043 0.24149999022483825684 0.27024999260902404785 0.27599999308586120605 0.27599999308586120605 0.27599999308586120605 0.27599999308586120605 0.27599999308586120605 0.60370624065399169922 0.60370624065399169922 0.27599999308586120605 0.27599999308586120605 7.0888438224792480469 3.0011374950408935547 0.30474373698234558105 0.29899373650550842285 0.27599999308586120605 
0.27599999308586120605 0.27599999308586120605 0.27599999308586120605 0.27599999308586120605 0.27599999308586120605 0.30474373698234558105 0.64394998550415039062 2.5699436664581298828 2.9378936290740966797 2.3227250576019287109 1.2591187953948974609 0.27599999308586120605 0.26449999213218688965 0.27599999308586120605 0.27599999308586120605 0.27599999308586120605 0.27599999308586120605 0.27599999308586120605 0.27599999308586120605 2.2422375679016113281 0.27599999308586120605 0.27599999308586120605 0.72443747520446777344 0.27599999308586120605 0.27599999308586120605 0.27599999308586120605 1.3798500299453735352 2.3227250576019287109 0.35648748278617858887 0.67269372940063476562 1.1096312999725341797 0.68419373035430908203 2.6906750202178955078 0.88541251420974731445 0.27599999308586120605 0.33348748087882995605 0.47720623016357421875 0.33348748087882995605 0.27599999308586120605 0.44846874475479125977 0.67844372987747192383 0.39673125743865966797 0.27599999308586120605 0.27599999308586120605 0.27599999308586120605 0.32773125171661376953 0.24149999022483825684 2.0295124053955078125 0.27599999308586120605 0.27599999308586120605 0.27599999308586120605 0.27599999308586120605 0.27599999308586120605 0.97165626287460327148 0.31624373793601989746 0.27599999308586120605 0.3219928443431854248 2.2855691909790039062 3.4955666065216064453 4.054569244384765625 0.32965832948684692383 0.22999998927116394043 0.60370624065399169922 0.60370624065399169922 0.27599999308586120605 0.27599999308586120605 0.27599999308586120605 0.27599999308586120605 0.27599999308586120605 0.25874999165534973145 0.18400000035762786865 0.18400000035762786865 0.24149999022483825684 0.27599999308586120605 0.27599999308586120605 0.27599999308586120605 0.27599999308586120605 0.27599999308586120605 0.27599999308586120605 0.27599999308586120605 0.27599999308586120605 0.26449999213218688965 13.9016876220703125 0.36223125457763671875 0.27599999308586120605 0.25299999117851257324 0.27599999308586120605 
0.27599999308586120605 0.27599999308586120605 0.31624373793601989746 0.27599999308586120605 0.33348748087882995605 0.30474373698234558105 1.0291436910629272461 5.1915936470031738281 4.9443750381469726562 5.1915936470031738281 0.93141251802444458008 0.27599999308586120605 1.0923874378204345703 0.27599999308586120605 0.27599999308586120605 0.27599999308586120605 0.27599999308586120605 0.27599999308586120605 1.2591187953948974609 1.2591187953948974609 0.27599999308586120605 0.27599999308586120605 0.36223125457763671875 0.27599999308586120605 0.30474373698234558105 0.33348748087882995605 2.1157500743865966797 2.7309186458587646484 0.63819372653961181641 0.45996248722076416016 0.74168121814727783203 0.64394998550415039062 1.7075562477111816406 2.4837000370025634766 0.27599999308586120605 0.27599999308586120605 0.24724999070167541504 0.27599999308586120605 0.27599999308586120605 0.60944998264312744141 0.27599999308586120605 0.27599999308586120605 0.27599999308586120605 0.27599999308586120605 0.27599999308586120605 0.27599373459815979004 0.22999998927116394043 0.655437469482421875 0.27599999308586120605 0.27599999308586120605 0.27599999308586120605 0.27599999308586120605 0.27599999308586120605 0.27599999308586120605 0.27599999308586120605 0.93141251802444458008 0.27599999308586120605 2.5165500640869140625 2.4837000370025634766 4.3694500923156738281 2.2383999824523925781 0.27599999308586120605 0.27599999308586120605 0.37948125600814819336 0.65052139759063720703 1.8489899635314941406 0.27599999308586120605 0.27599999308586120605 0.27599999308586120605 0.27599999308586120605 0.20125000178813934326 0.20700000226497650146 0.27599999308586120605 0.27599999308586120605 0.27599999308586120605 1.6673125028610229492 0.24724999070167541504 0.27599999308586120605 1.5868250131607055664 0.27599999308586120605 0.27599999308586120605 0.27599999308586120605 0.27599999308586120605 0.33348748087882995605 0.33348748087882995605 1.2591187953948974609 2.8976500034332275391 
0.27599999308586120605 0.43697500228881835938 1.7880437374114990234 0.35648748278617858887 0.60370624065399169922 0.63244998455047607422 2.8976500034332275391 4.2889623641967773438 4.9443750381469726562 4.5361814498901367188 0.27599999308586120605 0.27599999308586120605 0.76468122005462646484 0.27599999308586120605 0.27599999308586120605 0.27599999308586120605 0.60370624065399169922 0.27599999308586120605 0.31624373793601989746 0.43697500228881835938 0.27599999308586120605 0.27599999308586120605 0.33348748087882995605 0.50594997406005859375 0.47720623016357421875 0.27599999308586120605 1.0118999481201171875 1.7075562477111816406 1.8685312271118164062 0.72443747520446777344 0.27599999308586120605 0.31624373793601989746 0.27599999308586120605 0.97165626287460327148 0.60370624065399169922 0.27599999308586120605 0.27599999308586120605 0.60370624065399169922 0.91991251707077026367 0.72443747520446777344 0.35648748278617858887 0.64394998550415039062 0.27599999308586120605 0.27599999308586120605 0.93141251802444458008 0.97165626287460327148 0.24724999070167541504 0.21275000274181365967 0.27599999308586120605 1.2591187953948974609 0.27599999308586120605 0.27599999308586120605 0.27599999308586120605 0.27599999308586120605 0.27599999308586120605 0.27599999308586120605 1.6443125009536743164 4.5994200706481933594 3.9248416423797607422 3.2870600223541259766 0.34754443168640136719 0.27599999308586120605 0.27599999308586120605 0.35073748230934143066 0.27599999308586120605 0.27599999308586120605 0.27599999308586120605 0.27599999308586120605 0.27599999308586120605 0.27599999308586120605 0.21275000274181365967 0.22999998927116394043 0.27599999308586120605 0.27599999308586120605 0.27599999308586120605 1.392992854118347168 1.2246187925338745117 1.889323115348815918 1.149883270263671875 0.27599999308586120605 0.27599999308586120605 0.27599999308586120605 0.27599999308586120605 0.27599999308586120605 0.27599999308586120605 2.2422375679016113281 0.27599999308586120605 
0.27599999308586120605 0.60370624065399169922 1.7075562477111816406 1.5868250131607055664 4.2084751129150390625 1.3281062841415405273 2.6791749000549316406 4.2084751129150390625 1.9950187206268310547 0.27599999308586120605 0.27599999308586120605 1.5868250131607055664 0.60370624065399169922 0.27599999308586120605 0.27599999308586120605 0.27599999308586120605 0.39673125743865966797 1.0923874378204345703 1.9145312309265136719 0.93141251802444458008 0.27599999308586120605 0.27599999308586120605 0.27599999308586120605 0.41971874237060546875 1.4258375167846679688 0.47721874713897705078 3.4668188095092773438 1.489081263542175293 1.1326313018798828125 0.98890000581741333008 0.27599999308586120605 2.0352625846862792969 1.0923874378204345703 0.35648748278617858887 0.27599999308586120605 2.1157500743865966797 0.35648748278617858887 1.460337519645690918 2.9781374931335449219 0.45996874570846557617 1.707550048828125 0.27599999308586120605 0.27599999308586120605 0.27599999308586120605 1.2993625402450561523 2.4837000370025634766 1.9145312309265136719 0.30474373698234558105 0.39673125743865966797 0.39673125743865966797 0.27599999308586120605 0.27599999308586120605 0.27599999308586120605 0.27599999308586120605 0.27599999308586120605 0.27599999308586120605 0.78850001096725463867 4.1394801139831542969 3.9861667156219482422 0.92698460817337036133 0.32553076744079589844 0.27599999308586120605 0.27599999308586120605 0.27599999308586120605 0.27599999308586120605 0.27599999308586120605 0.3088499903678894043 0.27599999308586120605 0.27599999308586120605 0.27599999308586120605 0.20700000226497650146 0.21275000274181365967 0.27599999308586120605 0.27599999308586120605 0.27599999308586120605 0.27599999308586120605 0.27599999308586120605 0.27599999308586120605 0.27599999308586120605 0.27599999308586120605 0.27599999308586120605 0.27599999308586120605 0.26449999213218688965 0.27599999308586120605 0.27599999308586120605 3.2253563404083251953 0.27599999308586120605 
0.27599999308586120605 0.27599999308586120605 1.5868250131607055664 2.7711625099182128906 1.8282874822616577148 2.874637603759765625 3.5070624351501464844 3.4668188095092773438 1.5005812644958496094 0.27599999308586120605 0.27599999308586120605 0.97165626287460327148 0.27599999308586120605 0.27599999308586120605 0.27599999308586120605 0.27599999308586120605 0.39673125743865966797 2.8976500034332275391 1.5868250131607055664 1.2591187953948974609 0.27599999308586120605 0.27599999308586120605 0.27024999260902404785 1.2936124801635742188 1.7075562477111816406 0.68419373035430908203 2.0352625846862792969 1.0463937520980834961 0.35648748278617858887 0.29899373650550842285 0.27599999308586120605 1.6270687580108642578 0.47721874713897705078 0.27599999308586120605 0.93141251802444458008 1.5868250131607055664 0.97165626287460327148 2.7309186458587646484 1.4200937747955322266 3.9612562656402587891 2.8861436843872070312 0.27024999260902404785 0.60370624065399169922 1.3798500299453735352 1.2591187953948974609 4.616668701171875 1.2131187915802001953 0.50020623207092285156 0.27599999308586120605 0.27599999308586120605 0.27599999308586120605 0.31049373745918273926 0.30473750829696655273 0.59220623970031738281 1.9145312309265136719 1.2993625402450561523 1.5178300142288208008 2.3457167148590087891 4.7527332305908203125 2.1865077018737792969 0.32553076744079589844 0.27599999308586120605 0.27599999308586120605 1.0826615095138549805 2.0237667560577392578 0.27599999308586120605 0.27599999308586120605 0.27599999308586120605 0.27599999308586120605 0.27599999308586120605 0.22425000369548797607 0.20125000178813934326 0.26449999213218688965 0.27024999260902404785 0.24724999070167541504 0.39557999372482299805 0.27599999308586120605 0.27599999308586120605 0.51746249198913574219 0.27599999308586120605 0.27599999308586120605 0.27599999308586120605 0.21850000321865081787 0.27599999308586120605 0.27599999308586120605 2.2422375679016113281 0.27599999308586120605 
0.27599999308586120605 0.27599999308586120605 0.27599999308586120605 2.2824811935424804688 2.8918936252593994141 5.2318372726440429688 4.9443750381469726562 1.3050937652587890625 0.27599999308586120605 0.27599999308586120605 0.27599999308586120605 0.27599999308586120605 0.27599999308586120605 0.27599999308586120605 0.27599999308586120605 0.27599999308586120605 0.27599999308586120605 2.2422375679016113281 1.2591187953948974609 0.27599999308586120605 0.27599999308586120605 0.58645623922348022461 2.4204561710357666016 1.7420500516891479492 0.30474373698234558105 1.0693874359130859375 0.60370624065399169922 0.23574998974800109863 0.27599999308586120605 0.27599999308586120605 0.27599999308586120605 0.93141251802444458008 2.5239436626434326172 1.7880437374114990234 1.2591187953948974609 2.3227250576019287109 2.9321374893188476562 2.8114061355590820312 2.3227250576019287109 0.97165626287460327148 0.35648748278617858887 1.9145312309265136719 0.93141251802444458008 1.3913437128067016602 0.74168121814727783203 3.6220500469207763672 0.64394998550415039062 1.6270687580108642578 0.27599999308586120605 0.27599999308586120605 0.27599999308586120605 0.39097499847412109375 0.75318121910095214844 0.27599999308586120605 0.60370624065399169922 0.60370624065399169922 0.35648748278617858887 3.2195999622344970703 4.2051858901977539062 4.3694500923156738281 0.27599999308586120605 0.27599999308586120605 0.27599999308586120605 0.27599999308586120605 0.27599999308586120605 0.27599999308586120605 0.27599999308586120605 0.27599999308586120605 0.27599999308586120605 0.27599999308586120605 0.27599999308586120605 0.19550000131130218506 0.20125000178813934326 0.20125000178813934326 0.21685713529586791992 0.27599999308586120605 0.57494997978210449219 3.3904428482055664062 0.68419373035430908203 0.27599999308586120605 0.27599999308586120605 0.27024999260902404785 0.26449999213218688965 0.60370624065399169922 1.9145312309265136719 3.2253563404083251953 1.5868250131607055664 
0.27599999308586120605 0.64394998550415039062 0.31624373793601989746 4.616668701171875 3.2195999622344970703 5.2318372726440429688 3.4150750637054443359 0.32773748040199279785 0.27599999308586120605 0.27599999308586120605 0.27599999308586120605 0.27599999308586120605 0.27599999308586120605 0.27599999308586120605 0.27599999308586120605 0.27599999308586120605 0.27599999308586120605 1.5868250131607055664 0.27599999308586120605 0.27599999308586120605 0.27599999308586120605 1.6270687580108642578 1.7880437374114990234 0.35648748278617858887 0.27599999308586120605 0.27599999308586120605 0.27599999308586120605 0.27599999308586120605 1.9547749757766723633 0.25299999117851257324 0.22999998927116394043 0.25874999165534973145 0.93141251802444458008 1.9950187206268310547 0.27599999308586120605 0.35648748278617858887 1.7880437374114990234 4.0417437553405761719 1.9547749757766723633 0.93141251802444458008 0.27599999308586120605 0.27599999308586120605 0.31624373793601989746 0.99465000629425048828 0.25874999165534973145 0.64394998550415039062 0.27599999308586120605 0.71294164657592773438 1.1104571819305419922 0.24149999022483825684 0.35073748230934143066 0.27599999308586120605 0.33348748087882995605 0.68993747234344482422 3.5933063030242919922 2.6151142120361328125 2.1310832500457763672 2.3457167148590087891 4.2084751129150390625 3.2195999622344970703 1.8282874822616577148 0.27599999308586120605 0.27599999308586120605 0.27599999308586120605 0.27599999308586120605 0.27599999308586120605 0.27599999308586120605 0.27599999308586120605 0.27599999308586120605 0.27599999308586120605 0.27024999260902404785 0.18400000035762786865 0.18400000035762786865 0.25874376296997070312 1.3491833209991455078 0.27599999308586120605 0.27599999308586120605 0.27599999308586120605 0.27599999308586120605 0.27599999308586120605 0.27599999308586120605 0.27599999308586120605 0.27599999308586120605 2.2422375679016113281 3.581806182861328125 0.60370624065399169922 0.27599999308586120605 
0.30474373698234558105 0.60370624065399169922 1.3396062850952148438 4.2487187385559082031 3.5070624351501464844 4.6569123268127441406 3.0471251010894775391 0.27024999260902404785 0.27599999308586120605 0.27599999308586120605 0.27599999308586120605 0.27599999308586120605 0.27599999308586120605 0.27599999308586120605 0.27599999308586120605 0.27599999308586120605 0.27599999308586120605 0.27599999308586120605 0.27599999308586120605 0.27599999308586120605 0.27599999308586120605 1.6270687580108642578 0.80492496490478515625 0.27599999308586120605 0.27599999308586120605 0.27599999308586120605 0.60370624065399169922 0.93141251802444458008 1.1326313018798828125 0.23574998974800109863 0.25299999117851257324 0.26449999213218688965 1.2591187953948974609 3.1391124725341796875 0.76468122005462646484 0.27599999308586120605 2.6504311561584472656 3.7140374183654785156 1.0291436910629272461 3.5473124980926513672 2.9781374931335449219 1.0521436929702758789 1.5868250131607055664 1.7650437355041503906 2.9263937473297119141 2.3629686832427978516 0.92910999059677124023 0.44846248626708984375 3.00496673583984375 0.35648748278617858887 0.37506154179573059082 0.27599999308586120605 0.27599999308586120605 0.64394998550415039062 0.27599999308586120605 1.060959935188293457 2.9781374931335449219 4.7527332305908203125 4.2084751129150390625 3.0586249828338623047 3.2604889869689941406 0.28749373555183410645 0.59220623970031738281 0.67933076620101928711 0.27599999308586120605 0.27599999308586120605 0.27599999308586120605 0.27599999308586120605 0.27599999308586120605 0.27599999308586120605 0.27599999308586120605 0.21275000274181365967 0.22999998927116394043 1.0521436929702758789 1.3675866127014160156 0.27599999308586120605 0.27599999308586120605 0.24724999070167541504 0.41971874237060546875 0.30474373698234558105 0.26449999213218688965 0.27599999308586120605 1.2591187953948974609 3.9095125198364257812 3.9095125198364257812 0.63244998455047607422 0.27599999308586120605 
0.30474373698234558105 0.64394998550415039062 4.616668701171875 1.5408250093460083008 2.4032125473022460938 3.7945249080657958984 1.2648625373840332031 0.27024999260902404785 0.27599999308586120605 0.27599999308586120605 0.27599999308586120605 0.27599999308586120605 0.27599999308586120605 0.27599999308586120605 0.27599999308586120605 0.27599999308586120605 0.27599999308586120605 0.27599999308586120605 0.27599999308586120605 0.27599999308586120605 0.27599999308586120605 0.27599999308586120605 0.35648748278617858887 0.27599999308586120605 0.27599999308586120605 0.64394998550415039062 2.3227250576019287109 2.4032125473022460938 0.47720623016357421875 0.27599999308586120605 0.27599999308586120605 0.27599999308586120605 0.27599999308586120605 1.1326313018798828125 0.43697500228881835938 1.5868250131607055664 0.60370624065399169922 2.5699436664581298828 2.2422375679016113281 1.3396062850952148438 0.27599999308586120605 2.2824811935424804688 2.5699436664581298828 0.60370624065399169922 0.35648748278617858887 3.1122832298278808594 1.460337519645690918 0.44846248626708984375 5.136016845703125 1.2993625402450561523 0.27599999308586120605 0.27599999308586120605 0.27599999308586120605 0.91991251707077026367 1.9030312299728393555 4.2487187385559082031 5.5192999839782714844 5.5192999839782714844 3.2195999622344970703 4.6454167366027832031 1.6941416263580322266 0.27599999308586120605 0.31624373793601989746 0.33348748087882995605 0.35264998674392700195 0.27599999308586120605 0.27599999308586120605 0.27599999308586120605 0.33348748087882995605 0.38522499799728393555 0.27599999308586120605 0.27024999260902404785 0.60370624065399169922 1.3396062850952148438 0.27599999308586120605 0.27599999308586120605 0.44846248626708984375 0.27599999308586120605 0.28749373555183410645 0.26449999213218688965 0.27599999308586120605 0.27599999308586120605 0.93141251802444458008 5.1915936470031738281 2.2997250556945800781 0.27599999308586120605 0.27599999308586120605 
0.33348748087882995605 3.9210124015808105469 3.0988688468933105469 0.39673125743865966797 1.2993625402450561523 4.3694500923156738281 1.5350687503814697266 0.41971874237060546875 0.27599999308586120605 0.27599999308586120605 0.27599999308586120605 0.27599999308586120605 0.27599999308586120605 0.27599999308586120605 0.27599999308586120605 0.27599999308586120605 0.27599999308586120605 0.27599999308586120605 0.27599999308586120605 0.27599999308586120605 0.27599999308586120605 0.27599999308586120605 0.27599999308586120605 0.27599999308586120605 0.68419373035430908203 2.1559937000274658203 0.84516876935958862305 1.5810687541961669922 1.6212999820709228516 0.27599999308586120605 0.27599999308586120605 0.27599999308586120605 1.9547749757766723633 3.0586249828338623047 2.0352625846862792969 0.84516876935958862305 2.610187530517578125 0.76468122005462646484 3.2253563404083251953 0.27599999308586120605 0.72443747520446777344 0.93141251802444458008 0.27599999308586120605 0.27599999308586120605 0.27599999308586120605 1.3645166158676147461 0.67022854089736938477 1.9593700170516967773 1.747799992561340332 0.32965832948684692383 0.27599999308586120605 0.27599999308586120605 0.64394998550415039062 1.9547749757766723633 1.6742132902145385742 3.008029937744140625 5.5192999839782714844 3.9861667156219482422 1.8459199666976928711 2.8209888935089111328 1.6841154098510742188 0.40478000044822692871 0.35073748230934143066 1.1786124706268310547 0.35264998674392700195 0.27599999308586120605 0.27599999308586120605 0.27599999308586120605 0.37564998865127563477 0.48295831680297851562 0.27599999308586120605 0.27599999308586120605 0.27599999308586120605 0.35648748278617858887 2.1310832500457763672 0.27599999308586120605 0.27599999308586120605 0.27599999308586120605 0.27599999308586120605 0.27599999308586120605 0.25874999165534973145 0.27599999308586120605 2.2422375679016113281 2.8976500034332275391 3.2541000843048095703 0.60370624065399169922 0.27599999308586120605 
0.64394998550415039062 3.4668188095092773438 1.2131187915802001953 0.27599999308586120605 2.3227250576019287109 4.9443750381469726562 2.0352625846862792969 0.33348748087882995605 0.27599999308586120605 0.27599999308586120605 0.27599999308586120605 0.27599999308586120605 0.27599999308586120605 0.27599999308586120605 0.27599999308586120605 0.27599999308586120605 0.27599999308586120605 0.27599999308586120605 0.27599999308586120605 0.60370624065399169922 0.27599999308586120605 0.27599999308586120605 0.27599999308586120605 1.0521436929702758789 1.2591187953948974609 1.8282874822616577148 0.60370624065399169922 5.1915936470031738281 0.60370624065399169922 0.27599999308586120605 0.27599999308586120605 1.9145312309265136719 1.747799992561340332 0.27599999308586120605 0.48296248912811279297 0.96015626192092895508 0.5634562373161315918 1.3568500280380249023 1.2591187953948974609 0.27599999308586120605 0.64394998550415039062 0.27599999308586120605 0.27599999308586120605 0.27599999308586120605 0.93141251802444458008 3.5415599346160888672 2.2422375679016113281 3.0471251010894775391 0.18400000035762786865 0.18400000035762786865 0.20125000178813934326 0.24149999022483825684 0.27599999308586120605 0.27599999308586120605 0.27599999308586120605 1.9133800268173217773 4.3694500923156738281 3.9861667156219482422 1.6673125028610229492 1.149883270263671875 0.97165626287460327148 0.3833166658878326416 0.27599999308586120605 1.5695749521255493164 0.26942855119705200195 0.27599999308586120605 0.27599999308586120605 0.27599999308586120605 0.27599999308586120605 0.27599999308586120605 0.27599999308586120605 0.76660001277923583984 0.45997142791748046875 0.31624373793601989746 0.27599999308586120605 0.27599999308586120605 0.27599999308586120605 0.27599999308586120605 0.27024999260902404785 0.24149999022483825684 0.25874999165534973145 0.26449999213218688965 1.5695749521255493164 5.1915936470031738281 4.8638873100280761719 2.2422375679016113281 0.27599999308586120605 
1.3396062850952148438 3.2195999622344970703 1.4200937747955322266 0.27599999308586120605 0.97165626287460327148 4.3292064666748046875 4.0015001296997070312 0.27599999308586120605 0.27599999308586120605 0.27599999308586120605 0.27599999308586120605 0.27599999308586120605 0.27599999308586120605 0.27599999308586120605 0.27599999308586120605 0.27599999308586120605 0.27599999308586120605 0.27599999308586120605 1.6270687580108642578 2.2824811935424804688 0.27599999308586120605 0.27599999308586120605 0.76468122005462646484 0.72443747520446777344 0.27599999308586120605 0.27599999308586120605 1.2591187953948974609 1.4200937747955322266 2.2824811935424804688 0.27599999308586120605 0.27599999308586120605 4.5764250755310058594 2.1157500743865966797 0.27599999308586120605 0.39097499847412109375 0.70140624046325683594 0.44271248579025268555 0.39097499847412109375 0.27599999308586120605 0.27599999308586120605 0.27599999308586120605 0.27599999308586120605 0.27599999308586120605 0.64394998550415039062 1.9547749757766723633 0.71294164657592773438 1.149883270263671875 1.1345499753952026367 0.21275000274181365967 0.25299999117851257324 0.19550000131130218506 0.20125000178813934326 0.27024999260902404785 0.27599999308586120605 0.27599999308586120605 1.0250428915023803711 5.136016845703125 5.5192999839782714844 4.1526212692260742188 0.67460834980010986328 0.27599999308586120605 0.37564998865127563477 1.7740857601165771484 0.93141251802444458008 0.27599999308586120605 0.27599999308586120605 0.25299999117851257324 0.27024999260902404785 0.27599999308586120605 0.27599999308586120605 0.27599999308586120605 0.27599999308586120605 0.27599999308586120605 0.27599999308586120605 0.27599999308586120605 0.27599999308586120605 0.27599999308586120605 0.27599999308586120605 0.27599999308586120605 0.27599999308586120605 0.27024999260902404785 1.5810749530792236328 1.2591187953948974609 1.6443125009536743164 1.6155687570571899414 0.27599999308586120605 0.27599999308586120605 
3.0471251010894775391 1.6443063020706176758 0.31624373793601989746 0.27599999308586120605 0.60370624065399169922 2.6906750202178955078 3.5070624351501464844 3.3863313198089599609 0.27599999308586120605 0.27599999308586120605 0.27599999308586120605 0.27599999308586120605 0.27599999308586120605 0.27599999308586120605 0.27599999308586120605 0.27599999308586120605 0.27599999308586120605 0.27599999308586120605 1.2591187953948974609 2.2824811935424804688 0.27599999308586120605 0.64394998550415039062 0.76468122005462646484 1.414343714714050293 0.27599999308586120605 1.5868250131607055664 1.2591187953948974609 0.64394998550415039062 0.60370624065399169922 0.27599999308586120605 0.27599999308586120605 4.0015001296997070312 1.3396062850952148438 0.25874999165534973145 0.33348748087882995605 0.73589998483657836914 0.36796873807907104492 0.27599999308586120605 0.27599999308586120605 0.97165626287460327148 0.27599999308586120605 0.32198998332023620605 0.27599999308586120605 0.27599999308586120605 0.27599999308586120605 0.62555330991744995117 0.27599999308586120605 0.27599999308586120605 0.26449999213218688965 0.20125000178813934326 0.20125000178813934326 0.24724999070167541504 0.26449999213218688965 0.24149999022483825684 0.27599999308586120605 2.0666933059692382812 2.523128509521484375 1.3798460960388183594 0.49063333868980407715 0.26373332738876342773 2.0237667560577392578 0.86471998691558837891 0.60370624065399169922 0.27599999308586120605 0.90266251564025878906 0.7359333038330078125 0.70964998006820678711 0.27599999308586120605 0.27599999308586120605 0.27599999308586120605 0.27599999308586120605 0.27599999308586120605 0.67933076620101928711 0.27599999308586120605 0.27599999308586120605 0.27599999308586120605 0.27599999308586120605 0.27599999308586120605 0.27599999308586120605 0.27599999308586120605 0.25874999165534973145 1.3625999689102172852 1.2993625402450561523 1.2993625402450561523 2.5699436664581298828 1.2591187953948974609 0.27599999308586120605 
3.2195999622344970703 0.76468122005462646484 0.27599999308586120605 0.27599999308586120605 0.27599999308586120605 0.27599999308586120605 3.3863313198089599609 4.9443750381469726562 2.1157500743865966797 0.27599999308586120605 0.27599999308586120605 0.27599999308586120605 0.27599999308586120605 0.27599999308586120605 0.27599999308586120605 0.27599999308586120605 0.27599999308586120605 0.27599999308586120605 0.27599999308586120605 0.60370624065399169922 0.27599999308586120605 0.27599999308586120605 1.3338562250137329102 1.443087458610534668 0.72443747520446777344 0.31624373793601989746 0.31624373793601989746 0.27599999308586120605 0.27024999260902404785 0.27599999308586120605 1.6270687580108642578 1.5868250131607055664 0.27599999308586120605 0.27599999308586120605 0.27599999308586120605 0.25874999165534973145 0.18400000035762786865 0.26449999213218688965 0.60370624065399169922 0.60370624065399169922 0.27599999308586120605 0.27599999308586120605 0.27599999308586120605 0.27599999308586120605 0.27599999308586120605 0.27599999308586120605 0.27599999308586120605 0.27024999260902404785 0.27598750591278076172 0.28748124837875366211 0.91416251659393310547 0.93141251802444458008 0.25299999117851257324 0.28173750638961791992 0.27599373459815979004 0.27599999308586120605 0.27599999308586120605 1.3798500299453735352 1.6404833793640136719 3.3882498741149902344 1.9950187206268310547 3.3460874557495117188 3.0988688468933105469 0.76660001277923583984 1.0118999481201171875 0.60370624065399169922 3.2655999660491943359 0.60370624065399169922 0.27599999308586120605 0.27599999308586120605 0.27599999308586120605 0.93141251802444458008 2.0237667560577392578 0.27599999308586120605 0.27599999308586120605 0.44846248626708984375 0.27599999308586120605 0.25299999117851257324 0.19550000131130218506 0.27024999260902404785 1.6385687589645385742 1.5868250131607055664 0.64394998550415039062 4.2889623641967773438 1.2591187953948974609 5.5192999839782714844 5.5192999839782714844 
1.7420437335968017578 0.39673125743865966797 0.27599999308586120605 0.27599999308586120605 0.27599999308586120605 0.27599999308586120605 1.3396062850952148438 4.9443750381469726562 3.7542812824249267578 0.27599999308586120605 0.27599999308586120605 0.27599999308586120605 0.27599999308586120605 0.27599999308586120605 0.27599999308586120605 0.27599999308586120605 0.27599999308586120605 0.27599999308586120605 0.27599999308586120605 0.27599999308586120605 0.27599999308586120605 0.27599999308586120605 3.3058438301086425781 1.1671249866485595703 2.3169748783111572266 2.2824811935424804688 0.27599999308586120605 1.604068756103515625 0.31624373793601989746 0.43697500228881835938 4.5764250755310058594 0.72443747520446777344 0.93141251802444458008 0.27599999308586120605 0.27599999308586120605 0.26449999213218688965 0.23574998974800109863 0.27599999308586120605 0.27599999308586120605 0.27599999308586120605 0.27599999308586120605 0.50594997406005859375 0.31432500481605529785 0.27599999308586120605 0.27599999308586120605 0.27599999308586120605 0.27599999308586120605 0.34498748183250427246 0.6899083256721496582 0.67266249656677246094 1.9600769281387329102 0.22999998927116394043 0.20700000226497650146 0.41395834088325500488 0.36222499608993530273 0.27599999308586120605 0.60370624065399169922 1.3396062850952148438 1.7831768989562988281 3.2195999622344970703 1.7109999656677246094 2.3733201026916503906 2.0237667560577392578 3.4955666065216064453 1.3645166158676147461 2.1668555736541748047 4.8638873100280761719 1.9388538599014282227 0.27599999308586120605 0.67933076620101928711 0.27599999308586120605 0.27599999308586120605 0.27599999308586120605 0.27599999308586120605 0.27599999308586120605 0.27024999260902404785 0.64394998550415039062 0.60370624065399169922 0.25874999165534973145 0.27599999308586120605 0.33348748087882995605 1.2878625392913818359 0.27599999308586120605 2.2422375679016113281 0.27599999308586120605 3.8807687759399414062 5.5192999839782714844 
2.2767250537872314453 0.35648748278617858887 0.27599999308586120605 0.27599999308586120605 0.27599999308586120605 0.27599999308586120605 1.460337519645690918 1.3396062850952148438 1.7880437374114990234 2.1157500743865966797 0.68419373035430908203 0.27599999308586120605 0.27599999308586120605 0.27599999308586120605 0.27599999308586120605 0.27599999308586120605 0.27599999308586120605 0.27599999308586120605 0.27599999308586120605 0.27599999308586120605 0.27599999308586120605 1.2591187953948974609 4.0417437553405761719 0.93141251802444458008 2.9263937473297119141 0.31624373793601989746 0.27599999308586120605 0.93141251802444458008 0.26449999213218688965 2.0352625846862792969 3.8807687759399414062 0.64394998550415039062 2.0755062103271484375 0.55770623683929443359 0.27599999308586120605 0.27599999308586120605 0.27599999308586120605 0.93141251802444458008 0.27599999308586120605 0.27599999308586120605 0.27599999308586120605 0.27599999308586120605 1.149883270263671875 0.27599999308586120605 0.27599999308586120605 0.27599999308586120605 0.93141251802444458008 0.25299999117851257324 0.73589998483657836914 0.67841249704360961914 0.27599999308586120605 0.19933333992958068848 0.36222499608993530273 0.50594162940979003906 0.43121248483657836914 0.27599999308586120605 0.27599999308586120605 1.4534399509429931641 4.3694500923156738281 2.7596600055694580078 1.6328083276748657227 0.35648748278617858887 0.27599999308586120605 1.9145312309265136719 3.55306243896484375 1.9145312309265136719 0.60370624065399169922 1.9133800268173217773 3.6466927528381347656 3.55306243896484375 1.3246599435806274414 0.27599999308586120605 0.27599999308586120605 0.27599999308586120605 0.27599999308586120605 0.24724999070167541504 0.97165626287460327148 0.31624373793601989746 0.27599999308586120605 0.27599999308586120605 0.27599999308586120605 0.27599999308586120605 0.60370624065399169922 3.55306243896484375 1.9145312309265136719 3.8807687759399414062 5.5192999839782714844 
0.597949981689453125 0.93141251802444458008 0.27599999308586120605 0.27599999308586120605 0.27599999308586120605 0.27599999308586120605 0.76468122005462646484 0.27599999308586120605 0.27599999308586120605 3.3460874557495117188 2.6906750202178955078 0.35648748278617858887 0.27599999308586120605 0.27599999308586120605 0.27599999308586120605 0.27599999308586120605 0.27599999308586120605 0.27599999308586120605 0.27599999308586120605 0.27599999308586120605 0.93141251802444458008 3.9612562656402587891 2.8976500034332275391 0.27599999308586120605 0.27599999308586120605 0.27599999308586120605 0.47721874713897705078 0.60370624065399169922 0.32198747992515563965 0.27599999308586120605 0.60370624065399169922 0.96015626192092895508 0.26449999213218688965 0.72443747520446777344 0.33348748087882995605 0.39097499847412109375 0.66119372844696044922 0.60370624065399169922 0.27599999308586120605 0.27599999308586120605 0.27599999308586120605 0.27599999308586120605 0.27599999308586120605 0.27599999308586120605 0.27599999308586120605 0.27599999308586120605 0.62094998359680175781 0.39096248149871826172 0.73589998483657836914 1.1326187849044799805 1.149883270263671875 0.98890000581741333008 0.71294164657592773438 0.73589998483657836914 0.33347499370574951172 0.24149999022483825684 0.27599999308586120605 0.40478000044822692871 2.0697500705718994141 3.2195999622344970703 0.65160834789276123047 0.60370624065399169922 0.27599999308586120605 0.31624373793601989746 0.60370624065399169922 0.27599999308586120605 0.27599999308586120605 0.27599999308586120605 1.0923874378204345703 2.6545357704162597656 1.9133800268173217773 0.27599999308586120605 0.27599999308586120605 0.27599999308586120605 0.27599999308586120605 1.2591187953948974609 0.27599999308586120605 0.27599999308586120605 0.27599999308586120605 0.27599999308586120605 0.27599999308586120605 0.27599999308586120605 0.26449999213218688965 0.27599999308586120605 0.60370624065399169922 1.2591187953948974609 1.5868250131607055664 
1.0463875532150268555 1.0118999481201171875 0.27599999308586120605 0.27599999308586120605 0.27599999308586120605 0.27599999308586120605 0.27599999308586120605 0.27599999308586120605 0.27599999308586120605 2.7711625099182128906 1.3338500261306762695 0.27599999308586120605 0.27599999308586120605 0.27599999308586120605 0.27599999308586120605 0.27599999308586120605 0.27599999308586120605 0.27599999308586120605 0.27599999308586120605 0.97165626287460327148 3.0183813571929931641 0.31624373793601989746 0.27599999308586120605 0.27599999308586120605 0.27599999308586120605 0.27599999308586120605 0.64394998550415039062 0.27599999308586120605 0.33348748087882995605 2.3112249374389648438 0.31624373793601989746 1.8972812891006469727 0.25874999165534973145 0.27599999308586120605 0.39097499847412109375 0.50594997406005859375 0.27024999260902404785 0.27024999260902404785 0.27599999308586120605 0.27599999308586120605 0.27599999308586120605 0.27599999308586120605 0.27599999308586120605 0.27599999308586120605 0.27599999308586120605 0.60370624065399169922 1.2591187953948974609 0.47145000100135803223 0.50083333253860473633 0.27024999260902404785 0.37564164400100708008 0.65705710649490356445 0.59792500734329223633 0.2759933173656463623 0.25874999165534973145 0.21275000274181365967 0.23574998974800109863 0.23574998974800109863 2.9513082504272460938 2.2855691909790039062 0.82025831937789916992 1.3798500299453735352 0.97165626287460327148 0.27599999308586120605 0.27599999308586120605 0.27599999308586120605 0.27599999308586120605 0.27599999308586120605 0.49446249008178710938 0.62270766496658325195 0.27599999308586120605 0.27599999308586120605 0.27599999308586120605 0.27599999308586120605 0.27599999308586120605 0.27599999308586120605 0.27599999308586120605 0.27599999308586120605 0.27599999308586120605 1.9145312309265136719 0.93141251802444458008 0.27599999308586120605 1.57532501220703125 1.9087812900543212891 0.25299999117851257324 1.9145312309265136719 5.5192999839782714844 
0.97165626287460327148 0.27599999308586120605 0.27599999308586120605 0.27599999308586120605 0.27599999308586120605 0.27599999308586120605 0.27599999308586120605 0.27599999308586120605 0.27599999308586120605 3.4265749454498291016 2.1962375640869140625 0.47721874713897705078 0.27599999308586120605 0.27599999308586120605 0.27599999308586120605 0.27599999308586120605 0.27599999308586120605 0.27599999308586120605 0.27599999308586120605 2.3227250576019287109 2.2824811935424804688 0.27599999308586120605 0.35648748278617858887 0.35648748278617858887 0.27599999308586120605 0.27599999308586120605 0.27599999308586120605 0.27599999308586120605 0.27599999308586120605 0.27599999308586120605 0.27599999308586120605 0.27599999308586120605 0.24149999022483825684 0.23574998974800109863 0.27599999308586120605 0.41971874237060546875 0.36798125505447387695 0.23574998974800109863 0.27599999308586120605 0.27599999308586120605 0.27599999308586120605 0.27599999308586120605 3.0011374950408935547 0.27599999308586120605 0.27599999308586120605 0.27599999308586120605 0.52894371747970581055 0.73589998483657836914 0.2836583256721496582 0.27599999308586120605 0.32773748040199279785 0.43121248483657836914 0.28749373555183410645 0.27599999308586120605 0.27024999260902404785 0.24724999070167541504 0.27024999260902404785 0.27599999308586120605 2.729000091552734375 3.7715332508087158203 1.3396062850952148438 2.4837000370025634766 0.76468122005462646484 0.64394998550415039062 0.27599999308586120605 0.27599999308586120605 0.80492496490478515625 0.39673125743865966797 1.3568500280380249023 0.23574998974800109863 0.33348748087882995605 0.27599999308586120605 0.27599999308586120605 0.27599999308586120605 0.27599999308586120605 0.27599999308586120605 0.27599999308586120605 0.27599999308586120605 0.27599999308586120605 0.93141251802444458008 0.60370624065399169922 0.27599999308586120605 1.5868250131607055664 0.27599999308586120605 0.27599999308586120605 1.5868250131607055664 2.8976500034332275391 
0.27599999308586120605 0.27599999308586120605 0.27599999308586120605 0.27599999308586120605 0.27599999308586120605 0.27599999308586120605 0.27599999308586120605 0.27599999308586120605 2.2422375679016113281 3.3863313198089599609 4.3694500923156738281 1.6213124990463256836 0.31624373793601989746 0.27599999308586120605 0.27599999308586120605 0.27599999308586120605 0.27599999308586120605 0.27599999308586120605 0.27599999308586120605 1.0348937511444091797 0.35648748278617858887 0.27599999308586120605 0.43697500228881835938 0.27599999308586120605 1.6673125028610229492 1.2936124801635742188 0.27599999308586120605 1.9030312299728393555 2.1157500743865966797 0.97165626287460327148 1.7880437374114990234 1.0118999481201171875 0.25299999117851257324 1.2418687343597412109 0.23574998974800109863 0.27599999308586120605 0.44846248626708984375 0.44156000018119812012 0.27599999308586120605 0.64394998550415039062 1.1038866043090820312 0.27599999308586120605 0.27599999308586120605 0.27599999308586120605 0.60370624065399169922 0.27599999308586120605 0.32198998332023620605 0.32197999954223632812 0.27599999308586120605 0.27024999260902404785 0.26449999213218688965 0.27599999308586120605 0.27599999308586120605 0.27599999308586120605 0.86471998691558837891 0.71294164657592773438 0.27599999308586120605 2.3629686832427978516 5.136016845703125 5.5192999839782714844 3.6512384414672851562 1.9950187206268310547 2.0874462127685546875 1.6941416263580322266 1.0826615095138549805 0.27599999308586120605 1.9547749757766723633 1.0693874359130859375 0.24149999022483825684 0.91416251659393310547 0.61518126726150512695 0.58643126487731933594 0.33348748087882995605 0.27599999308586120605 0.27599999308586120605 0.27599999308586120605 0.60370624065399169922 0.27599999308586120605 0.25874999165534973145 1.6270687580108642578 0.27599999308586120605 0.27599999308586120605 0.27599999308586120605 0.27599999308586120605 0.60370624065399169922 0.27599999308586120605 0.27599999308586120605 
0.27599999308586120605 0.27599999308586120605 0.27599999308586120605 0.27599999308586120605 0.27599999308586120605 0.27599999308586120605 0.72443747520446777344 2.4837000370025634766 4.6569123268127441406 2.4032125473022460938 1.3798500299453735352 0.68419373035430908203 0.64394998550415039062 0.27599999308586120605 0.27599999308586120605 0.27024999260902404785 0.27599999308586120605 0.27599999308586120605 0.60370624065399169922 0.27599999308586120605 0.27599999308586120605 0.27599999308586120605 0.27599999308586120605 0.27599999308586120605 0.28174373507499694824 0.22999998927116394043 2.3342249393463134766 1.8857812881469726562 0.96590626239776611328 0.27599999308586120605 0.60370624065399169922 1.2936062812805175781 0.26449999213218688965 3.55306243896484375 0.29899373650550842285 0.44024285674095153809 0.50594997406005859375 0.31623747944831848145 0.80032998323440551758 2.2824811935424804688 2.8976500034332275391 0.27599999308586120605 0.27599999308586120605 0.26285713911056518555 0.27599999308586120605 0.27599999308586120605 0.27599999308586120605 0.32773748040199279785 0.27599999308586120605 0.27599999308586120605 0.27599999308586120605 0.27599999308586120605 0.27599999308586120605 0.27599999308586120605 0.27599999308586120605 2.6151142120361328125 1.4641666412353515625 1.8489899635314941406 1.5868250131607055664 0.27599999308586120605 0.27599999308586120605 0.27599999308586120605 1.0710357427597045898 0.28749373555183410645 0.25760000944137573242 1.621318817138671875 2.1732375621795654297 0.79916876554489135742 0.60370624065399169922 0.93141251802444458008 0.47146248817443847656 0.50594997406005859375 0.64966875314712524414 0.27599999308586120605 0.27599999308586120605 0.60370624065399169922 1.9145312309265136719 0.26449999213218688965 0.22999374568462371826 0.37946873903274536133 0.27024999260902404785 0.60370624065399169922 0.72443747520446777344 0.93141251802444458008 1.9145312309265136719 0.27599999308586120605 0.27599999308586120605 
0.31624373793601989746 0.27599999308586120605 0.27599999308586120605 0.27599999308586120605 0.27599999308586120605 0.27599999308586120605 1.9950187206268310547 4.6569123268127441406 4.6569123268127441406 3.3863313198089599609 0.43697500228881835938 0.27599999308586120605 0.27599999308586120605 0.27599999308586120605 0.27024999260902404785 0.21275000274181365967 0.27024999260902404785 0.27599999308586120605 0.27599999308586120605 0.27599999308586120605 0.27599999308586120605 0.27599999308586120605 0.27599999308586120605 0.27599999308586120605 0.27599999308586120605 0.26449999213218688965 0.35073748230934143066 0.37948125600814819336 0.27024999260902404785 0.32773751020431518555 2.6504311561584472656 2.5986812114715576172 0.75318121910095214844 2.5699436664581298828 2.2997250556945800781 0.36223125457763671875 0.27599999308586120605 0.27599999308586120605 3.5507600307464599609 3.0586249828338623047 1.9120643138885498047 0.35648748278617858887 0.25299999117851257324 0.24149999022483825684 0.27599999308586120605 0.68419373035430908203 0.27599999308586120605 0.27599999308586120605 0.27599999308586120605 0.27599999308586120605 0.27599999308586120605 0.27599999308586120605 0.27599999308586120605 0.27599999308586120605 1.149883270263671875 3.486370086669921875 1.8014583587646484375 0.93141251802444458008 2.1310832500457763672 3.4219799041748046875 0.36798569560050964355 0.27599999308586120605 0.27599999308586120605 0.27599999308586120605 0.27599999308586120605 0.27599999308586120605 0.97165626287460327148 0.37373125553131103516 2.8976500034332275391 0.31624373793601989746 0.83366876840591430664 0.27599999308586120605 0.27599999308586120605 0.27599999308586120605 0.27599999308586120605 0.27599999308586120605 0.27599999308586120605 0.30474373698234558105 0.58643126487731933594 0.27024999260902404785 0.27599999308586120605 0.27599999308586120605 0.27599999308586120605 2.2422375679016113281 0.27599999308586120605 0.27599999308586120605 0.27599999308586120605 
0.39673125743865966797 0.27599999308586120605 0.27599999308586120605 0.27599999308586120605 0.27599999308586120605 0.27599999308586120605 1.9145312309265136719 2.5239436626434326172 2.5641875267028808594 0.43697500228881835938 0.31624373793601989746 0.26449999213218688965 0.27599999308586120605 0.27599999308586120605 0.27599999308586120605 0.27599999308586120605 0.27599999308586120605 0.27599999308586120605 0.27599999308586120605 0.27599999308586120605 0.27599999308586120605 0.27024999260902404785 2.8976500034332275391 1.2591187953948974609 0.27024999260902404785 0.27599999308586120605 0.27599999308586120605 0.66119372844696044922 0.27599999308586120605 1.2476187944412231445 2.8976500034332275391 2.4434561729431152344 0.83366876840591430664 1.0521436929702758789 2.4032125473022460938 0.27599999308586120605 0.27599999308586120605 0.80032998323440551758 3.1889443397521972656 2.2422375679016113281 0.27599999308586120605 0.27599999308586120605 0.27599999308586120605 0.59283334016799926758 0.40247499942779541016 0.7288615107536315918 0.27599999308586120605 0.27599999308586120605 0.27599999308586120605 0.27599999308586120605 0.27599999308586120605 0.27599999308586120605 0.27599999308586120605 2.6216833591461181641 2.0379154682159423828 1.9388538599014282227 0.27599999308586120605 0.97165626287460327148 3.1983768939971923828 1.6941416263580322266 0.27599999308586120605 0.27599999308586120605 0.27599999308586120605 0.27599999308586120605 0.27599999308586120605 1.2878625392913818359 3.2655999660491943359 3.4438188076019287109 5.1915936470031738281 4.5764250755310058594 1.1326313018798828125 0.27599999308586120605 0.30474373698234558105 0.27599999308586120605 0.33348748087882995605 1.9145312309265136719 0.60370624065399169922 0.27599999308586120605 0.36223125457763671875 0.33348748087882995605 0.27599999308586120605 0.27599999308586120605 0.27599999308586120605 2.8976500034332275391 0.27599999308586120605 0.27599999308586120605 0.27599999308586120605 
0.68419373035430908203 0.27599999308586120605 0.27599999308586120605 0.27599999308586120605 0.27599999308586120605 0.27599999308586120605 2.3227250576019287109 4.0417437553405761719 1.3798500299453735352 0.27599999308586120605 1.2591187953948974609 0.22999998927116394043 0.41971874237060546875 0.39097499847412109375 0.30474373698234558105 0.27599999308586120605 0.27599999308586120605 0.27599999308586120605 0.27599999308586120605 0.27599999308586120605 0.27599999308586120605 0.25874999165534973145 0.60370624065399169922 0.30474373698234558105 0.41971874237060546875 1.6615624427795410156 1.6788125038146972656 0.27599999308586120605 0.60370624065399169922 4.9041314125061035156 5.2318372726440429688 3.3288373947143554688 0.3088499903678894043 3.4649066925048828125 1.9145312309265136719 0.27599999308586120605 0.27599999308586120605 0.27599999308586120605 3.7715332508087158203 2.0774250030517578125 0.27599999308586120605 0.27599999308586120605 0.27599999308586120605 0.3833166658878326416 0.27599999308586120605 0.27599999308586120605 1.8200786113739013672 0.27599999308586120605 0.27599999308586120605 0.27599999308586120605 0.27599999308586120605 0.27599999308586120605 0.27599999308586120605 3.1983768939971923828 1.5850538015365600586 0.62555330991744995117 0.27599999308586120605 0.27599999308586120605 2.0237667560577392578 1.5355230569839477539 0.27599999308586120605 0.27599999308586120605 0.27599999308586120605 0.27599999308586120605 0.93141251802444458008 2.0352625846862792969 3.5933063030242919922 3.0988688468933105469 1.8282874822616577148 2.5239436626434326172 0.36223125457763671875 0.27599999308586120605 0.27599999308586120605 0.27599999308586120605 0.30474373698234558105 0.35648748278617858887 0.27599999308586120605 0.27599999308586120605 0.27599999308586120605 0.25874999165534973145 0.27599999308586120605 0.27599999308586120605 0.27599999308586120605 1.9145312309265136719 0.33348748087882995605 0.27599999308586120605 0.27599999308586120605 
1.6960562467575073242 0.27599999308586120605 0.27599999308586120605 0.27599999308586120605 0.27599999308586120605 0.64394998550415039062 3.7542812824249267578 1.8282874822616577148 0.64394998550415039062 0.27599999308586120605 0.27599999308586120605 0.27599999308586120605 0.27599999308586120605 0.96015626192092895508 0.27599999308586120605 0.27599999308586120605 0.27599999308586120605 0.27599999308586120605 0.60370624065399169922 0.76468122005462646484 0.60370624065399169922 1.2476187944412231445 0.27599999308586120605 0.36223125457763671875 0.27599999308586120605 0.27599999308586120605 0.27599999308586120605 0.27599999308586120605 3.55306243896484375 5.5192999839782714844 2.610187530517578125 0.74819999933242797852 0.51746249198913574219 1.9883846044540405273 0.27599999308586120605 0.27599999308586120605 0.27599999308586120605 0.74250715970993041992 2.6906750202178955078 0.35648748278617858887 0.27599999308586120605 0.27599999308586120605 0.80032998323440551758 0.93141251802444458008 0.27599999308586120605 0.27599999308586120605 0.27599999308586120605 0.69651424884796142578 0.27599999308586120605 0.27599999308586120605 0.27599999308586120605 2.8976500034332275391 3.3460874557495117188 0.41751536726951599121 0.42930832505226135254 0.27599999308586120605 0.27599999308586120605 1.9547749757766723633 3.4035778045654296875 3.5078332424163818359 0.27599999308586120605 0.27599999308586120605 0.27599999308586120605 0.7288615107536315918 1.9547749757766723633 1.6270687580108642578 1.6673125028610229492 0.96590000391006469727 0.71868127584457397461 2.3112249374389648438 0.30474373698234558105 0.27599999308586120605 0.27599999308586120605 0.27599999308586120605 0.27599999308586120605 0.27599999308586120605 0.27599999308586120605 0.27599999308586120605 0.27599999308586120605 0.27599999308586120605 0.27599999308586120605 0.27599999308586120605 0.27599999308586120605 0.27599999308586120605 0.93141251802444458008 0.27599999308586120605 0.27599999308586120605 
0.27024999260902404785 0.27599999308586120605 0.27599999308586120605 0.27599999308586120605 0.60370624065399169922 1.747799992561340332 2.6906750202178955078 0.27599999308586120605 0.27599999308586120605 0.27599999308586120605 0.27599999308586120605 0.33348748087882995605 0.27599999308586120605 0.27599999308586120605 0.31624373793601989746 1.9547749757766723633 0.27599999308586120605 2.3227250576019287109 0.31624373793601989746 0.27599999308586120605 0.27599999308586120605 0.61519998311996459961 0.25874999165534973145 0.27599999308586120605 0.27599999308586120605 0.27599999308586120605 0.27599999308586120605 0.27599999308586120605 1.5868250131607055664 3.3641571998596191406 0.93141251802444458008 0.27599999308586120605 0.27599999308586120605 1.3246599435806274414 0.27599999308586120605 0.27599999308586120605 0.27599999308586120605 0.43697500228881835938 0.80032998323440551758 0.27599999308586120605 0.27599999308586120605 0.27599999308586120605 0.27599999308586120605 0.27599999308586120605 0.60370624065399169922 0.27599999308586120605 0.27599999308586120605 0.27599999308586120605 4.2084751129150390625 2.2422375679016113281 0.27599999308586120605 2.9378936290740966797 4.2889623641967773438 4.2084751129150390625 4.2621331214904785156 0.27599999308586120605 1.1958750486373901367 4.06720733642578125 2.3227250576019287109 2.9896357059478759766 0.27599999308586120605 0.27599999308586120605 0.27599999308586120605 0.27599999308586120605 0.27599999308586120605 0.27599999308586120605 1.2591187953948974609 1.9547749757766723633 0.27599999308586120605 0.31624373793601989746 0.27599999308586120605 0.27599999308586120605 0.27599999308586120605 0.27599999308586120605 0.27599999308586120605 0.36223125457763671875 0.27599999308586120605 0.27599999308586120605 0.60370624065399169922 0.27599999308586120605 0.27599999308586120605 0.27599999308586120605 0.27599999308586120605 0.27599999308586120605 0.27599999308586120605 1.5983188152313232422 0.27599999308586120605 
0.27599999308586120605 0.27599999308586120605 0.27599999308586120605 0.27599999308586120605 2.9263937473297119141 1.9317687749862670898 1.5005812644958496094 0.27599999308586120605 0.27599999308586120605 0.27599999308586120605 0.30474373698234558105 0.30474373698234558105 0.27599999308586120605 0.27599999308586120605 1.3798500299453735352 1.5868250131607055664 0.27599999308586120605 0.93141251802444458008 3.2253563404083251953 3.794525146484375 3.3863313198089599609 2.9378936290740966797 0.27599999308586120605 0.27599999308586120605 0.27599999308586120605 0.27599999308586120605 0.27599999308586120605 2.9781374931335449219 1.4411777257919311523 0.76660001277923583984 0.60370624065399169922 0.27599999308586120605 0.27599999308586120605 0.27599999308586120605 0.27599999308586120605 1.5868250131607055664 2.3733201026916503906 0.27599999308586120605 0.27599999308586120605 0.27599999308586120605 0.27599999308586120605 2.0927584171295166016 0.27599999308586120605 2.0953111648559570312 3.55306243896484375 0.27599999308586120605 0.27599999308586120605 0.27599999308586120605 5.5192999839782714844 1.6788083314895629883 0.26577776670455932617 2.610187530517578125 1.9145312309265136719 3.4419083595275878906 2.5664899349212646484 1.6941416263580322266 0.93141251802444458008 2.0973498821258544922 0.27599999308586120605 0.85858887434005737305 2.6216833591461181641 0.27599999308586120605 0.27599999308586120605 0.27599999308586120605 0.27599999308586120605 0.60370624065399169922 3.2655999660491943359 1.3683500289916992188 0.70143747329711914062 0.31624373793601989746 0.72443747520446777344 0.31624373793601989746 0.27599999308586120605 0.27599999308586120605 0.27599999308586120605 0.96015626192092895508 0.30474373698234558105 0.30474373698234558105 0.93141251802444458008 0.27599999308586120605 0.27024999260902404785 0.24149999022483825684 0.23574998974800109863 0.22999998927116394043 0.25874999165534973145 0.33348748087882995605 0.27599999308586120605 
0.27599999308586120605 0.60370624065399169922 0.27599999308586120605 1.9950187206268310547 2.8056561946868896484 2.3572125434875488281 0.31624373793601989746 0.27599999308586120605 0.27599999308586120605 0.27599999308586120605 0.27599999308586120605 0.27599999308586120605 0.27599999308586120605 0.27599999308586120605 0.27024999260902404785 0.27599999308586120605 0.27599999308586120605 0.31624373793601989746 1.5638250112533569336 1.5868250131607055664 1.6960562467575073242 0.34498125314712524414 0.31624373793601989746 0.27599999308586120605 0.26449999213218688965 0.41397500038146972656 1.3453500270843505859 3.4101500511169433594 0.27599999308586120605 1.4105132818222045898 0.56217777729034423828 1.6385687589645385742 1.6385687589645385742 0.85858887434005737305 0.27599999308586120605 0.60370624065399169922 1.0250428915023803711 0.93141251802444458008 0.27599999308586120605 0.27599999308586120605 0.7288615107536315918 5.7262749671936035156 2.3227250576019287109 4.4706401824951171875 0.64394998550415039062 0.27599999308586120605 0.27599999308586120605 0.27599999308586120605 4.5994200706481933594 0.39673125743865966797 2.962039947509765625 1.149883270263671875 0.27599999308586120605 0.32965832948684692383 0.7288615107536315918 1.460337519645690918 0.27599999308586120605 1.9883846044540405273 1.0826615095138549805 4.4706401824951171875 3.6512384414672851562 0.27599999308586120605 0.27599999308586120605 0.27599999308586120605 0.27599999308586120605 0.27599999308586120605 4.2084751129150390625 1.0808812379837036133 1.3395999670028686523 0.59795624017715454102 2.9781374931335449219 1.2993625402450561523 0.25299999117851257324 0.27024999260902404785 0.27599999308586120605 0.30474373698234558105 0.27599999308586120605 0.30474373698234558105 0.27599999308586120605 0.27599999308586120605 0.24724999070167541504 0.18400000035762786865 0.18400000035762786865 0.18400000035762786865 0.20700000226497650146 0.27599999308586120605 0.27599999308586120605 
0.59795624017715454102 0.60370624065399169922 0.93141251802444458008 3.5070624351501464844 2.7309186458587646484 1.9950187206268310547 0.27599999308586120605 0.27599999308586120605 0.27599999308586120605 1.2591187953948974609 1.6673125028610229492 0.30474373698234558105 0.27599999308586120605 0.27599999308586120605 0.25874999165534973145 0.27599999308586120605 0.27599999308586120605 0.24724999070167541504 0.21850000321865081787 0.23574998974800109863 0.27599999308586120605 0.91991251707077026367 1.4915499687194824219 0.27599999308586120605 0.26986664533615112305 0.26892307400703430176 2.2000665664672851562 4.4706401824951171875 0.27599999308586120605 4.5135664939880371094 2.3733201026916503906 0.34754443168640136719 0.71294164657592773438 0.27599999308586120605 0.27599999308586120605 0.27599999308586120605 0.27599999308586120605 1.1613750457763671875 0.27599999308586120605 0.71294164657592773438 1.5850538015365600586 5.263050079345703125 0.93141251802444458008 1.9950187206268310547 0.27599999308586120605 0.27599999308586120605 0.27599999308586120605 1.5868250131607055664 3.1153533458709716797 0.60370624065399169922 0.27599999308586120605 0.27599999308586120605 0.27599999308586120605 0.27599999308586120605 1.4534399509429931641 3.8918230533599853516 0.2116000056266784668 4.7550921440124511719 3.4751222133636474609 3.9059770107269287109 0.34754443168640136719 0.27599999308586120605 3.1889443397521972656 0.27599999308586120605 0.27599999308586120605 0.91991251707077026367 2.2077374458312988281 0.90841251611709594727 0.84516876935958862305 0.60370624065399169922 4.8638873100280761719 2.6504311561584472656 1.2591187953948974609 2.2824811935424804688 0.27599999308586120605 0.27599999308586120605 0.27599999308586120605 0.27599999308586120605 0.27599999308586120605 0.27599999308586120605 0.24149999022483825684 0.18400000035762786865 0.18400000035762786865 0.18975000083446502686 0.5634562373161315918 0.27599999308586120605 0.27599999308586120605 
0.27599999308586120605 0.27599999308586120605 1.5868250131607055664 3.1793563365936279297 1.5005812644958496094 0.27599999308586120605 0.27599999308586120605 0.27599999308586120605 0.27599999308586120605 0.27599999308586120605 0.27599999308586120605 0.96015626192092895508 0.41971874237060546875 0.27599999308586120605 0.27599999308586120605 1.1326313018798828125 0.60370624065399169922 1.6385687589645385742 0.27599999308586120605 0.27599999308586120605 0.27599999308586120605 0.27599999308586120605 0.27599999308586120605 0.27599999308586120605 0.27599999308586120605 0.27599999308586120605 0.27599999308586120605 0.32965832948684692383 0.32965832948684692383 1.4411777257919311523 0.27599999308586120605 0.71294164657592773438 0.27599999308586120605 0.30665999650955200195 0.30474373698234558105 0.27599999308586120605 0.27599999308586120605 0.27599999308586120605 0.27599999308586120605 0.27599999308586120605 0.27599999308586120605 2.2422375679016113281 0.93141251802444458008 0.27599999308586120605 0.27599999308586120605 0.27599999308586120605 0.27599999308586120605 0.27599999308586120605 0.27599999308586120605 0.27599999308586120605 0.27599999308586120605 0.27599999308586120605 0.27599999308586120605 0.27599999308586120605 3.0993154048919677734 3.8430776596069335938 0.27599999308586120605 3.1417691707611083984 2.7167398929595947266 3.9555063247680664062 0.27599999308586120605 0.93141251802444458008 4.0015001296997070312 0.27599999308586120605 0.27599999308586120605 0.60370624065399169922 0.27599999308586120605 0.27599999308586120605 0.27599999308586120605 0.27599999308586120605 1.9547749757766723633 3.2253563404083251953 0.35648748278617858887 0.68419373035430908203 0.27599999308586120605 0.27599999308586120605 0.27599999308586120605 0.27599999308586120605 0.27599999308586120605 0.27599999308586120605 0.25299999117851257324 0.18400000035762786865 0.18400000035762786865 0.5634562373161315918 0.60370624065399169922 0.27599999308586120605 0.27599999308586120605 
0.27599999308586120605 0.60370624065399169922 2.7711625099182128906 2.3629686832427978516 0.27599999308586120605 0.27599999308586120605 0.27599999308586120605 0.27599999308586120605 1.2591187953948974609 0.60370624065399169922 1.747799992561340332 0.71868121623992919922 0.36223125457763671875 0.27599999308586120605 0.27599999308586120605 0.93141251802444458008 1.0521436929702758789 0.27599999308586120605 0.27599999308586120605 0.27599999308586120605 0.27599999308586120605 0.27599999308586120605 0.27599999308586120605 0.27599999308586120605 0.27599999308586120605 0.27599999308586120605 0.27599999308586120605 0.27599999308586120605 0.44682857394218444824 0.27599999308586120605 0.27599999308586120605 0.80032998323440551758 0.68227499723434448242 1.2495332956314086914 0.91991001367568969727 0.27599999308586120605 0.27599999308586120605 0.27599999308586120605 0.27599999308586120605 0.27599999308586120605 0.27599999308586120605 2.8976500034332275391 0.27599999308586120605 0.27599999308586120605 0.27599999308586120605 0.27599999308586120605 0.27599999308586120605 0.27599999308586120605 0.27599999308586120605 0.27599999308586120605 0.27599999308586120605 0.27599999308586120605 0.27599999308586120605 0.27599999308586120605 0.93141251802444458008 0.93141251802444458008 0.71294164657592773438 5.1907715797424316406 1.9087749719619750977 2.4744999408721923828 1.3396062850952148438 0.93141251802444458008 1.9145312309265136719 0.39097499847412109375 0.30474373698234558105 0.27599999308586120605 0.27599999308586120605 0.27599999308586120605 0.27599999308586120605 0.27599999308586120605 0.27599999308586120605 2.3227250576019287109 1.3396062850952148438 0.27599999308586120605 0.76468122005462646484 0.68419373035430908203 0.27599999308586120605 0.27599999308586120605 0.97165626287460327148 0.27599999308586120605 0.22425000369548797607 0.18400000035762786865 0.19550000131130218506 1.8167874813079833984 0.27599999308586120605 0.27599999308586120605 0.27599999308586120605 
0.93141251802444458008 2.6906750202178955078 1.1326313018798828125 0.31624373793601989746 0.27599999308586120605 0.30474373698234558105 0.27599999308586120605 0.60370624065399169922 2.8976500034332275391 0.36223125457763671875 0.47720623016357421875 0.41971874237060546875 0.39097499847412109375 0.27599999308586120605 0.27599999308586120605 0.27599999308586120605 0.31624373793601989746 0.30474373698234558105 0.36223125457763671875 0.27599999308586120605 0.39097499847412109375 0.33118665218353271484 0.27599999308586120605 0.27599999308586120605 0.27599999308586120605 0.27599999308586120605 0.27599999308586120605 0.27599999308586120605 5.1206889152526855469 0.27599999308586120605 0.27599999308586120605 3.3269250392913818359 0.27599999308586120605 2.4607083797454833984 0.27599999308586120605 0.27599999308586120605 0.27599999308586120605 0.27599999308586120605 0.27599999308586120605 0.27599999308586120605 0.27599999308586120605 0.27599999308586120605 0.27599999308586120605 0.27599999308586120605 0.27599999308586120605 0.27599999308586120605 0.27599999308586120605 0.27599999308586120605 0.27599999308586120605 0.27599999308586120605 0.27599999308586120605 0.27599999308586120605 0.27599999308586120605 0.27599999308586120605 0.27599999308586120605 0.27599999308586120605 0.27599999308586120605 2.4530415534973144531 2.5388865470886230469 0.69757497310638427734 0.35648125410079956055 2.3054749965667724609 1.0521436929702758789 0.27599999308586120605 0.27599999308586120605 0.31624373793601989746 0.27599999308586120605 0.27599999308586120605 0.24149999022483825684 0.27599999308586120605 0.27599999308586120605 3.55306243896484375 1.6270687580108642578 0.27599999308586120605 1.3798500299453735352 1.0521436929702758789 0.27599999308586120605 0.60370624065399169922 2.0352625846862792969 0.23574998974800109863 0.24149999022483825684 0.25299999117851257324 0.27599999308586120605 1.9547749757766723633 4.2487187385559082031 0.27599999308586120605 0.27599999308586120605 
1.9950187206268310547 5.2318372726440429688 2.2824811935424804688 1.7880437374114990234 0.27599999308586120605 0.27599999308586120605 0.68419373035430908203 1.2993625402450561523 0.27599999308586120605 0.60370624065399169922 1.3396062850952148438 0.35648748278617858887 2.5986874103546142578 2.0352625846862792969 0.27599999308586120605 0.27599999308586120605 0.27599999308586120605 0.82790625095367431641 0.61518746614456176758 0.27599999308586120605 0.26066666841506958008 0.27599999308586120605 0.27599999308586120605 0.27599999308586120605 0.39557999372482299805 0.27599999308586120605 0.27599999308586120605 0.27599999308586120605 2.7455153465270996094 2.1847417354583740234 2.3733201026916503906 0.27599999308586120605 0.27599999308586120605 0.27599999308586120605 0.27599999308586120605 0.27599999308586120605 0.27599999308586120605 0.27599999308586120605 0.32965832948684692383 0.27599999308586120605 0.27599999308586120605 0.60370624065399169922 0.27599999308586120605 0.27599999308586120605 0.27599999308586120605 0.27599999308586120605 1.0250428915023803711 1.0118999481201171875 0.27599999308586120605 0.25299999117851257324 0.26184615492820739746 0.27599999308586120605 0.24149999022483825684 0.24149999022483825684 0.27599999308586120605 0.27599999308586120605 0.27599999308586120605 0.27599999308586120605 0.44846248626708984375 0.55901539325714111328 0.27599999308586120605 1.558074951171875 3.1391124725341796875 0.35648748278617858887 0.60370624065399169922 0.27599999308586120605 0.27599999308586120605 0.27599999308586120605 0.27599999308586120605 0.27599999308586120605 1.9145312309265136719 2.5699436664581298828 0.27599999308586120605 0.27599999308586120605 0.68419373035430908203 0.27599999308586120605 0.27599999308586120605 0.27599999308586120605 0.68419373035430908203 0.21850000321865081787 0.25874999165534973145 0.60370624065399169922 1.2418687343597412109 0.29324373602867126465 0.93141251802444458008 1.9950187206268310547 1.5868250131607055664 
3.2655999660491943359 4.5764250755310058594 0.35648748278617858887 0.27599999308586120605 0.27599999308586120605 0.27599999308586120605 0.62094998359680175781 0.25299999117851257324 2.5699436664581298828 2.2824811935424804688 2.3629686832427978516 0.73018121719360351562 0.60370624065399169922 2.2824811935424804688 1.0923874378204345703 0.27599999308586120605 0.27599999308586120605 0.27599999308586120605 0.27599999308586120605 0.27599999308586120605 0.27599999308586120605 0.27599999308586120605 2.2824811935424804688 0.27599999308586120605 0.27599999308586120605 0.27599999308586120605 0.97165626287460327148 0.34038999676704406738 4.2084751129150390625 3.3345916271209716797 3.9146223068237304688 0.32965832948684692383 0.27599999308586120605 0.27599999308586120605 0.27599999308586120605 0.27599999308586120605 0.27599999308586120605 0.27599999308586120605 0.27599999308586120605 0.27599999308586120605 1.2591187953948974609 1.9950187206268310547 0.93141251802444458008 1.6673125028610229492 0.27599999308586120605 0.27599999308586120605 1.3995642662048339844 1.2591187953948974609 0.21938461065292358398 0.21275000274181365967 0.18400000035762786865 0.19550000131130218506 0.18400000035762786865 0.18400000035762786865 0.25476923584938049316 0.27599999308586120605 0.27599999308586120605 0.27599999308586120605 0.27599999308586120605 1.2591187953948974609 1.2993625402450561523 3.55306243896484375 5.5192999839782714844 4.2084751129150390625 0.27599999308586120605 0.27599999308586120605 0.27599999308586120605 0.27599999308586120605 0.27599999308586120605 1.2591187953948974609 4.2372188568115234375 0.47720623016357421875 0.23574998974800109863 1.6270687580108642578 0.76468122005462646484 0.27599999308586120605 0.27599999308586120605 0.27599999308586120605 0.27599999308586120605 0.24724999070167541504 0.22999998927116394043 0.21850000321865081787 0.21850000321865081787 0.25874999165534973145 0.27599999308586120605 0.60370624065399169922 2.8976500034332275391 
3.9612562656402587891 2.0755062103271484375 0.27599999308586120605 0.27599999308586120605 0.27599999308586120605 0.60370624065399169922 1.3396062850952148438 0.30474373698234558105 1.0521436929702758789 1.3396062850952148438 0.53470623493194580078 0.66116875410079956055 0.47720623016357421875 0.31624373793601989746 0.60370624065399169922 0.27599999308586120605 0.27599999308586120605 0.27599999308586120605 2.1946001052856445312 0.26679998636245727539 0.5749562382698059082 0.27599999308586120605 0.27599999308586120605 0.27599999308586120605 0.27599999308586120605 0.85858887434005737305 1.3246599435806274414 1.1630214452743530273 0.32710000872611999512 1.5868250131607055664 0.76660001277923583984 0.27599999308586120605 0.27599999308586120605 0.79113000631332397461 0.27599999308586120605 0.93013334274291992188 0.70526665449142456055 0.65052139759063720703 0.64394998550415039062 0.26066666841506958008 0.61328667402267456055 1.6295285224914550781 0.27599999308586120605 1.2993625402450561523 0.93141251802444458008 0.27599999308586120605 0.27599999308586120605 0.27599999308586120605 0.27599999308586120605 0.21850000321865081787 0.18400000035762786865 0.18400000035762786865 0.18400000035762786865 0.18400000035762786865 0.27599999308586120605 0.27599999308586120605 0.27599999308586120605 0.27599999308586120605 0.27599999308586120605 0.27599999308586120605 1.6673125028610229492 4.5361814498901367188 5.5192999839782714844 0.93141251802444458008 0.27599999308586120605 0.27599999308586120605 0.27599999308586120605 0.27599999308586120605 0.27599999308586120605 1.5868250131607055664 1.2533687353134155273 0.35647499561309814453 0.44846248626708984375 0.27599999308586120605 0.27599999308586120605 0.27599999308586120605 0.27599999308586120605 0.27599999308586120605 0.27599999308586120605 0.27599999308586120605 0.27599999308586120605 0.22425000369548797607 0.22999998927116394043 0.27599999308586120605 0.27599999308586120605 0.27024999260902404785 0.22999998927116394043 
3.0586249828338623047 0.72443747520446777344 0.27599999308586120605 0.27599999308586120605 0.27599999308586120605 0.27599999308586120605 0.68419373035430908203 0.27599999308586120605 0.33348748087882995605 0.27599999308586120605 1.9145312309265136719 1.3970937728881835938 0.27599999308586120605 0.27599999308586120605 0.27599999308586120605 0.27599999308586120605 0.27599999308586120605 0.27599999308586120605 0.27599999308586120605 1.57532501220703125 2.6151142120361328125 0.27599999308586120605 0.27599999308586120605 1.5868250131607055664 4.3957357406616210938 1.1958750486373901367 0.23766666650772094727 0.27599999308586120605 0.71294164657592773438 0.27599999308586120605 0.27599999308586120605 0.27599999308586120605 0.25299999117851257324 1.1345499753952026367 2.3733201026916503906 0.27599999308586120605 3.1391124725341796875 0.27599999308586120605 0.26285713911056518555 0.19550000131130218506 0.20700000226497650146 0.27599999308586120605 0.27599999308586120605 0.27599999308586120605 0.27599999308586120605 0.27599999308586120605 0.27599999308586120605 0.27599999308586120605 0.27599999308586120605 0.20700000226497650146 0.18400000035762786865 0.18400000035762786865 0.18400000035762786865 0.18400000035762786865 0.27599999308586120605 0.27599999308586120605 0.27599999308586120605 0.27599999308586120605 0.27599999308586120605 0.27599999308586120605 0.27599999308586120605 4.8638873100280761719 5.5192999839782714844 0.27599999308586120605 0.27599999308586120605 0.27599999308586120605 0.27599999308586120605 0.68419373035430908203 0.31624373793601989746 2.2824811935424804688 0.43121248483657836914 0.52319371700286865234 0.26449999213218688965 0.27599999308586120605 0.27599999308586120605 0.30474373698234558105 0.36223125457763671875 0.27599999308586120605 0.27599999308586120605 0.27599999308586120605 0.27599999308586120605 0.27024999260902404785 0.21850000321865081787 0.27599999308586120605 0.27599999308586120605 0.24149999022483825684 0.18400000035762786865 
3.2253563404083251953 0.31624373793601989746 0.27599999308586120605 0.27599999308586120605 0.72443747520446777344 0.27599999308586120605 0.31624373793601989746 0.97165626287460327148 1.6960500478744506836 0.92566251754760742188 0.27599999308586120605 0.77839231491088867188 0.27599999308586120605 0.27599999308586120605 0.27599999308586120605 0.27599999308586120605 0.27599999308586120605 0.27599999308586120605 0.27599999308586120605 0.34754443168640136719 1.58426666259765625 1.9931000471115112305 4.7702569961547851562 5.1915936470031738281 5.5192999839782714844 5.5192999839782714844 1.5127222537994384766 0.71294164657592773438 2.6063554286956787109 1.0826615095138549805 0.67933076620101928711 0.27599999308586120605 3.00496673583984375 3.2870600223541259766 0.27599999308586120605 0.27599999308586120605 0.27599999308586120605 0.73589998483657836914 0.70052307844161987305 0.64391875267028808594 0.49445000290870666504 0.27599999308586120605 0.27599999308586120605 0.27599999308586120605 0.27599999308586120605 0.27599999308586120605 0.27599999308586120605 0.23919999599456787109 0.24061538279056549072 0.24533332884311676025 0.18400000035762786865 0.18400000035762786865 0.18400000035762786865 0.24533332884311676025 0.25146666169166564941 0.27599999308586120605 0.27599999308586120605 0.27599999308586120605 0.27599999308586120605 0.27599999308586120605 0.27599999308586120605 0.93141251802444458008 3.2253563404083251953 0.93141251802444458008 1.3396062850952148438 0.27599999308586120605 0.27599999308586120605 0.97165626287460327148 3.3058438301086425781 0.64394998550415039062 0.36223125457763671875 0.27599999308586120605 0.27024999260902404785 0.27599999308586120605 0.27599999308586120605 0.27599999308586120605 0.30474373698234558105 0.27599999308586120605 0.27599999308586120605 0.26449999213218688965 0.27599999308586120605 0.27599999308586120605 0.27599999308586120605 0.27599999308586120605 0.27599999308586120605 0.25874999165534973145 0.22999998927116394043 
0.31624373793601989746 0.27599999308586120605 0.27599999308586120605 0.60370624065399169922 1.7880437374114990234 0.97165626287460327148 1.9547749757766723633 2.9378936290740966797 0.61517500877380371094 0.39671874046325683594 0.27599999308586120605 0.27599999308586120605 0.27599999308586120605 0.27024999260902404785 0.26449999213218688965 0.31432500481605529785 0.31137692928314208984 0.27599999308586120605 2.8976500034332275391 5.0823583602905273438 5.5192999839782714844 5.5192999839782714844 5.5192999839782714844 5.5192999839782714844 3.1889443397521972656 4.1210865974426269531 1.5355230569839477539 1.3246599435806274414 2.4607083797454833984 2.2920582294464111328 2.9513082504272460938 1.6270687580108642578 0.93141251802444458008 0.92757499217987060547 0.55194443464279174805 0.60370624065399169922 2.3227250576019287109 0.73589998483657836914 0.73589998483657836914 0.73589998483657836914 0.36223125457763671875 0.27599999308586120605 0.27599999308586120605 0.27599999308586120605 0.27599999308586120605 0.37948125600814819336 0.93141251802444458008 0.24314285814762115479 0.18400000035762786865 0.18400000035762786865 0.18400000035762786865 0.18400000035762786865 0.18400000035762786865 0.18400000035762786865 0.26449999213218688965 0.27599999308586120605 0.27599999308586120605 0.27599999308586120605 0.27599999308586120605 0.27599999308586120605 0.27599999308586120605 0.27599999308586120605 0.27599999308586120605 0.27599999308586120605 0.97165626287460327148 0.27599999308586120605 0.27599999308586120605 4.8638873100280761719 2.0755062103271484375 0.27599999308586120605 0.27599999308586120605 0.27599999308586120605 0.27599999308586120605 0.27599999308586120605 0.27599999308586120605 0.27599999308586120605 0.25874999165534973145 0.24149999022483825684 0.26449999213218688965 0.31049373745918273926 0.27599999308586120605 0.27599999308586120605 0.27599999308586120605 0.27599999308586120605 0.27599999308586120605 0.27599999308586120605 0.27599999308586120605 
0.60370624065399169922 0.27599999308586120605 0.27599999308586120605 0.27599999308586120605 0.27599999308586120605 0.97165626287460327148 1.3798500299453735352 0.27599999308586120605 0.30474373698234558105 0.27599999308586120605 0.27599999308586120605 0.27599999308586120605 0.27024999260902404785 0.25874999165534973145 0.27599999308586120605 0.27599999308586120605 3.2253563404083251953 5.5192999839782714844 5.5192999839782714844 5.5192999839782714844 5.5192999839782714844 5.5192999839782714844 3.6335499286651611328 3.1889443397521972656 5.5192999839782714844 2.7136688232421875 0.24724999070167541504 2.8976500034332275391 5.5192999839782714844 2.1004083156585693359 0.62348890304565429688 0.27599999308586120605 0.27599999308586120605 0.27599999308586120605 1.3396062850952148438 1.9746999740600585938 3.0969500541687011719 1.168249964714050293 0.73589998483657836914 0.65924996137619018555 0.27599999308586120605 0.27599999308586120605 0.27599999308586120605 0.24724999070167541504 0.28749373555183410645 1.1038750410079956055 0.27599999308586120605 0.24149999022483825684 0.18400000035762786865 0.18400000035762786865 0.18400000035762786865 0.18400000035762786865 0.18400000035762786865 0.18400000035762786865 0.25299999117851257324 0.27599999308586120605 0.27599999308586120605 0.27599999308586120605 0.27599999308586120605 0.27599999308586120605 0.68419373035430908203 0.35648748278617858887 0.60370624065399169922 1.5868250131607055664 1.7075562477111816406 1.2591187953948974609 2.6504311561584472656 2.610187530517578125 0.76468122005462646484 0.27599999308586120605 0.27599999308586120605 0.27599999308586120605 0.27599999308586120605 0.27599999308586120605 0.27599999308586120605 0.27599999308586120605 0.21850000321865081787 0.23574998974800109863 0.23574998974800109863 0.41971874237060546875 0.27599999308586120605 0.27599999308586120605 0.27599999308586120605 0.27599999308586120605 0.27599999308586120605 0.27599999308586120605 0.27599999308586120605 
0.31624373793601989746 0.93141251802444458008 0.27599999308586120605 0.27599999308586120605 0.27599999308586120605 0.60370624065399169922 1.2591187953948974609 0.27599999308586120605 0.27599999308586120605 0.27599999308586120605 0.27599999308586120605 0.27599999308586120605 0.27599999308586120605 0.27599999308586120605 0.27599999308586120605 1.5868250131607055664 5.5192999839782714844 5.5192999839782714844 5.5192999839782714844 5.5192999839782714844 3.2604889869689941406 3.4342417716979980469 1.5868250131607055664 1.3396062850952148438 0.35648748278617858887 0.31049373745918273926 0.26449999213218688965 1.9145312309265136719 3.1889443397521972656 0.31845384836196899414 0.60370624065399169922 0.20125000178813934326 0.24149999022483825684 0.27599999308586120605 0.27599999308586120605 0.26833331584930419922 0.49445000290870666504 0.7030499577522277832 0.4882615208625793457 0.30474373698234558105 0.27599999308586120605 0.27599999308586120605 0.27599999308586120605 0.25299999117851257324 0.29899373650550842285 0.37947499752044677734 0.43121248483657836914 0.35647499561309814453 0.18400000035762786865 0.21275000274181365967 0.24149999022483825684 0.18400000035762786865 0.21275000274181365967 0.22425000369548797607 0.27599999308586120605 0.27599999308586120605 0.27599999308586120605 0.27599999308586120605 0.27599999308586120605 0.27599999308586120605 0.27599999308586120605 2.5699436664581298828 5.2318372726440429688 5.2318372726440429688 3.55306243896484375 2.2824811935424804688 2.0237624645233154297 0.35648748278617858887 0.35648748278617858887 0.27599999308586120605 0.27599999308586120605 0.27599999308586120605 0.27599999308586120605 0.27599999308586120605 0.27599999308586120605 0.22425000369548797607 0.18400000035762786865 0.21850000321865081787 0.31624373793601989746 0.28174373507499694824 1.9145312309265136719 0.27599999308586120605 0.27599999308586120605 0.27599999308586120605 0.27599999308586120605 0.27599999308586120605 0.27599999308586120605 
0.27599999308586120605 0.68419373035430908203 1.3798500299453735352 0.27599999308586120605 0.27599999308586120605 2.8976500034332275391 0.27599999308586120605 0.27599999308586120605 0.27599999308586120605 0.50019997358322143555 0.27599999308586120605 0.27599999308586120605 0.27599999308586120605 0.27599999308586120605 0.27599999308586120605 5.1915936470031738281 5.5192999839782714844 3.8807687759399414062 4.2084751129150390625 4.8622426986694335938 3.0264298915863037109 0.23657143115997314453 0.26066666841506958008 0.27024999260902404785 0.27599999308586120605 0.27599999308586120605 0.27599999308586120605 0.27599999308586120605 0.27599999308586120605 0.27599999308586120605 0.24149999022483825684 0.19550000131130218506 0.25874999165534973145 0.27599999308586120605 0.24149999022483825684 0.27599999308586120605 0.58259999752044677734 0.65924996137619018555 0.33348748087882995605 0.27599999308586120605 0.27599999308586120605 0.27599999308586120605 0.27599999308586120605 0.27599999308586120605 0.91416251659393310547 1.2591187953948974609 0.30474373698234558105 0.49444374442100524902 0.19550000131130218506 0.27599999308586120605 0.93141251802444458008 0.25874999165534973145 1.9145312309265136719 2.8746500015258789062 2.8861498832702636719 3.55306243896484375 2.8976500034332275391 0.93141251802444458008 0.27599999308586120605 0.26449999213218688965 1.5868250131607055664 2.610187530517578125 2.610187530517578125 1.3396062850952148438 0.27599999308586120605 0.27599999308586120605 0.60370624065399169922 0.31624373793601989746 0.68419373035430908203 0.31624373793601989746 0.27599999308586120605 0.27599999308586120605 0.27599999308586120605 0.60370624065399169922 2.2422375679016113281 2.2364873886108398438 0.27024999260902404785 0.27024999260902404785 0.27599999308586120605 0.27599999308586120605 4.8638873100280761719 2.2422375679016113281 0.27599999308586120605 0.31624373793601989746 0.27599999308586120605 0.39673125743865966797 0.597949981689453125 
0.27599999308586120605 0.27599999308586120605 0.27599999308586120605 0.27599999308586120605 1.5868250131607055664 0.93141251802444458008 0.31624373793601989746 0.27599999308586120605 0.27599999308586120605 0.48039999604225158691 0.42929998040199279785 0.42929998040199279785 0.27599999308586120605 0.27599999308586120605 5.5192999839782714844 5.5192999839782714844 5.5192999839782714844 5.5192999839782714844 4.9443750381469726562 3.5078332424163818359 4.6569123268127441406 0.71868747472763061523 1.6500624418258666992 0.58645623922348022461 0.27599999308586120605 0.27599999308586120605 0.27599999308586120605 0.27599999308586120605 0.27599999308586120605 0.27599999308586120605 0.27599999308586120605 0.27024999260902404785 0.27599999308586120605 0.27599999308586120605 0.27599999308586120605 0.36798000335693359375 0.7030499577522277832 0.41971874237060546875 0.27599999308586120605 0.26449999213218688965 0.27599999308586120605 0.27599999308586120605 0.27599999308586120605 1.9145312309265136719 2.5699436664581298828 0.47720623016357421875 0.67841249704360961914 0.49444374442100524902 0.94290626049041748047 4.2084751129150390625 3.2655999660491943359 1.9145312309265136719 0.27599999308586120605 1.5868250131607055664 1.9145312309265136719 1.9950187206268310547 1.9145312309265136719 0.27599999308586120605 0.25874999165534973145 0.26449999213218688965 0.93141251802444458008 0.39673125743865966797 1.6270687580108642578 0.27599999308586120605 0.27599999308586120605 0.27599999308586120605 0.27599999308586120605 0.27599999308586120605 0.27599999308586120605 0.68419373035430908203 0.27599999308586120605 0.27599999308586120605 0.60370624065399169922 1.9145312309265136719 0.93141251802444458008 0.27599999308586120605 0.27599999308586120605 0.27599999308586120605 0.27599999308586120605 1.5868250131607055664 3.8807687759399414062 0.60370624065399169922 1.6673125028610229492 2.1559937000274658203 3.5933063030242919922 3.55306243896484375 2.8976500034332275391 
2.9781374931335449219 1.6673125028610229492 0.27599999308586120605 0.27599999308586120605 1.9145312309265136719 0.27599999308586120605 0.71293747425079345703 0.35648748278617858887 2.5699436664581298828 0.43121874332427978516 0.50594997406005859375 0.47720623016357421875 0.33348748087882995605 1.5868250131607055664 1.5868250131607055664 5.5192999839782714844 5.5192999839782714844 5.5192999839782714844 5.5192999839782714844 1.6270687580108642578 0.82791668176651000977 0.42929998040199279785 3.55306243896484375 1.3798500299453735352 0.27599999308586120605 0.27599999308586120605 0.27599999308586120605 0.27599999308586120605 0.58259999752044677734 0.27599999308586120605 0.27599999308586120605 0.27599999308586120605 0.24149999022483825684 0.25299999117851257324 0.27599999308586120605 0.35264998674392700195 1.4315812587738037109 0.27599999308586120605 0.27599999308586120605 0.27599999308586120605 0.60370624065399169922 0.60370624065399169922 0.27599999308586120605 1.2591187953948974609 0.27599999308586120605 0.44846248626708984375 0.70715624094009399414 0.48295000195503234863 1.2591187953948974609 3.55306243896484375 2.5699436664581298828 0.33348748087882995605 0.36223125457763671875 0.30474373698234558105 0.30474373698234558105 0.64394998550415039062 0.27599999308586120605 0.27599999308586120605 0.93141251802444458008 2.9781374931335449219 0.60370624065399169922 0.93141251802444458008 0.97165626287460327148 0.27599999308586120605 0.27599999308586120605 0.27599999308586120605 0.27599999308586120605 0.27599999308586120605 0.27599999308586120605 1.3798500299453735352 0.27599999308586120605 0.27599999308586120605 0.27599999308586120605 0.27599999308586120605 0.27599999308586120605 1.5868250131607055664 2.6504311561584472656 2.5699436664581298828 2.9378936290740966797 1.0923874378204345703 0.72443747520446777344 0.80492496490478515625 5.2318372726440429688 5.5192999839782714844 5.2318372726440429688 2.2422375679016113281 0.43697500228881835938 
0.93141251802444458008 0.27599999308586120605 0.27599999308586120605 0.93141251802444458008 0.60370624065399169922 0.31624373793601989746 0.67268747091293334961 1.3338562250137329102 2.2824811935424804688 0.31432500481605529785 0.33348748087882995605 0.27599999308586120605 0.26449999213218688965 0.27599999308586120605 3.00496673583984375 5.5192999839782714844 2.9781374931335449219 4.8638873100280761719 1.604068756103515625 1.2591187953948974609 0.47720623016357421875 0.41971874237060546875 1.6155687570571899414 3.3058438301086425781 0.60370624065399169922 0.27599999308586120605 0.27599999308586120605 0.27599999308586120605 0.27599999308586120605 0.27599999308586120605 0.27599999308586120605 0.27599999308586120605 0.27599999308586120605 0.27599999308586120605 0.27599999308586120605 2.5699436664581298828 1.5868250131607055664 0.27599999308586120605 0.27599999308586120605 1.9145312309265136719 1.2476187944412231445 0.23574998974800109863 0.21850000321865081787 0.26449999213218688965 0.27599999308586120605 0.27599999308586120605 0.56343746185302734375 0.44846248626708984375 1.2591187953948974609 0.80492496490478515625 0.27599999308586120605 0.67841249704360961914 0.73589998483657836914 0.73589998483657836914 0.70715624094009399414 0.67841249704360961914 0.27599999308586120605 0.27599999308586120605 0.60370624065399169922 1.4200937747955322266 0.27599999308586120605 0.30474373698234558105 0.27599999308586120605 0.27599999308586120605 0.27599999308586120605 0.27599999308586120605 0.27599999308586120605 0.27599999308586120605 0.76468122005462646484 1.7880437374114990234 1.6270687580108642578 0.60370624065399169922 1.2993625402450561523 1.6673125028610229492 0.93141251802444458008 1.2591187953948974609 0.27599999308586120605 0.60370624065399169922 3.5933063030242919922 3.2253563404083251953 4.9041314125061035156 4.2487187385559082031 4.9443750381469726562 4.5361814498901367188 5.5192999839782714844 1.0521436929702758789 0.27599999308586120605 
0.27599999308586120605 0.27599999308586120605 0.27599999308586120605 3.3058438301086425781 1.7362999916076660156 2.9378936290740966797 1.57532501220703125 0.91991251707077026367 0.27599999308586120605 0.27599999308586120605 0.27599999308586120605 0.27599999308586120605 0.27599999308586120605 5.0823583602905273438 4.9949698448181152344 2.8976500034332275391 0.27599999308586120605 0.27599999308586120605 0.30665832757949829102 0.68994283676147460938 0.34169998764991760254 0.36798000335693359375 1.6155687570571899414 3.0586249828338623047 0.27599999308586120605 0.27599999308586120605 0.27599999308586120605 0.27599999308586120605 0.27599999308586120605 0.73589998483657836914 0.44024997949600219727 2.2422375679016113281 1.0923874378204345703 0.27599999308586120605 1.5868250131607055664 2.5699436664581298828 0.60370624065399169922 0.27599999308586120605 2.5699436664581298828 0.24149999022483825684 0.18400000035762786865 0.18400000035762786865 0.20700000226497650146 0.27024999260902404785 0.27599999308586120605 0.27599999308586120605 0.27599999308586120605 0.27599999308586120605 0.27599999308586120605 0.27599999308586120605 0.27599999308586120605 0.70715624094009399414 0.73589998483657836914 0.73589998483657836914 0.73589998483657836914 0.39097499847412109375 0.27599999308586120605 0.27599999308586120605 1.9145312309265136719 3.3460874557495117188 0.27599999308586120605 0.33348748087882995605 0.27599999308586120605 0.27599999308586120605 0.27599999308586120605 0.27599999308586120605 0.27599999308586120605 0.60370624065399169922 0.88541251420974731445 2.8976500034332275391 3.5933063030242919922 3.2253563404083251953 2.2824811935424804688 0.68419373035430908203 0.60370624065399169922 0.27599999308586120605 0.27599999308586120605 0.64394998550415039062 1.9145312309265136719 3.55306243896484375 3.2253563404083251953 0.31624373793601989746 0.97165626287460327148 2.5699436664581298828 2.9781374931335449219 0.27599999308586120605 0.27599999308586120605 
0.27599999308586120605 0.27599999308586120605 0.60370624065399169922 4.2487187385559082031 0.70718747377395629883 0.60370624065399169922 0.31624373793601989746 0.27599999308586120605 0.27599999308586120605 0.90841251611709594727 0.27599999308586120605 0.25760000944137573242 0.42547500133514404297 1.4488166570663452148 3.9555063247680664062 1.9145312309265136719 0.27599999308586120605 0.27599999308586120605 2.1310832500457763672 1.4442399740219116211 0.26942855119705200195 2.0973401069641113281 2.8861498832702636719 0.97165626287460327148 0.27599999308586120605 0.27599999308586120605 0.27599999308586120605 0.27599999308586120605 0.62092500925064086914 0.73589998483657836914 0.44024997949600219727 2.6308798789978027344 0.30474373698234558105 1.2591187953948974609 5.5192999839782714844 1.5868250131607055664 0.93141251802444458008 1.9145312309265136719 0.24149999022483825684 0.18400000035762786865 0.18400000035762786865 0.18400000035762786865 0.22999998927116394043 0.27599999308586120605 0.27024999260902404785 0.27599999308586120605 0.24724999070167541504 0.27599999308586120605 0.27599999308586120605 0.27599999308586120605 0.27599999308586120605 0.53469371795654296875 0.73589998483657836914 0.73589998483657836914 0.70715624094009399414 0.27599999308586120605 0.27599999308586120605 0.27599999308586120605 1.2591187953948974609 3.2655999660491943359 0.27599999308586120605 0.31624373793601989746 0.60370624065399169922 0.27599999308586120605 0.60370624065399169922 1.0923874378204345703 0.27599999308586120605 0.27599999308586120605 0.68419373035430908203 0.93141251802444458008 0.93141251802444458008 0.68419373035430908203 0.60370624065399169922 0.27599999308586120605 0.27599999308586120605 0.27599999308586120605 0.27599999308586120605 1.0118999481201171875 1.3396062850952148438 1.3396062850952148438 0.93141251802444458008 3.9612562656402587891 1.2591187953948974609 0.27599999308586120605 0.27599999308586120605 0.27599999308586120605 0.27599999308586120605 
0.27599999308586120605 0.27599999308586120605 0.60370624065399169922 0.93141251802444458008 0.31624373793601989746 0.93141251802444458008 0.26184615492820739746 0.63737857341766357422 0.97165626287460327148 0.7288615107536315918 0.23766666650772094727 2.4530415534973144531 3.4342417716979980469 4.3628711700439453125 5.5192999839782714844 1.6270687580108642578 0.27599999308586120605 0.27599999308586120605 0.26833331584930419922 1.3951749801635742188 0.59795624017715454102 2.3169748783111572266 0.59220623970031738281 0.27599999308586120605 0.27599999308586120605 0.27599999308586120605 0.27599999308586120605 0.27599999308586120605 0.58259999752044677734 0.70715624094009399414 1.9145312309265136719 0.655437469482421875 0.47145622968673706055 2.6849186420440673828 5.1915936470031738281 1.5868250131607055664 0.27599999308586120605 0.23574998974800109863 0.18400000035762786865 0.18400000035762786865 0.18400000035762786865 0.18975000083446502686 0.25874999165534973145 0.27599999308586120605 0.27599999308586120605 0.27024999260902404785 0.91991251707077026367 1.2591187953948974609 0.27599999308586120605 0.27599999308586120605 0.27599999308586120605 0.27599999308586120605 0.64966875314712524414 0.73589998483657836914 0.47720623016357421875 0.27599999308586120605 0.27599999308586120605 0.27599999308586120605 2.9378936290740966797 2.610187530517578125 0.27599999308586120605 1.5868250131607055664 0.60370624065399169922 0.27599999308586120605 0.27599999308586120605 1.3396062850952148438 0.60370624065399169922 1.9547749757766723633 1.3798500299453735352 1.2993625402450561523 0.27599999308586120605 0.31624373793601989746 0.93141251802444458008 0.27599999308586120605 0.27599999308586120605 0.27599999308586120605 0.27599999308586120605 0.31624373793601989746 0.64394998550415039062 0.31624373793601989746 0.27599999308586120605 0.93141251802444458008 0.27599999308586120605 0.27599999308586120605 0.27599999308586120605 0.27599999308586120605 0.27599999308586120605 
0.27599999308586120605 0.27599999308586120605 0.27599999308586120605 0.27599999308586120605 0.27599999308586120605 1.0003999471664428711 0.30665832757949829102 2.2422375679016113281 1.0118999481201171875 0.27599999308586120605 0.60370624065399169922 4.2084751129150390625 5.5192999839782714844 5.5192999839782714844 5.5192999839782714844 0.24724374711513519287 0.24149999022483825684 0.27599999308586120605 0.93141251802444458008 0.79725831747055053711 1.2591187953948974609 1.747799992561340332 0.44846248626708984375 0.27599999308586120605 0.27599999308586120605 0.27599999308586120605 0.27599999308586120605 0.39097499847412109375 0.70715624094009399414 0.42929998040199279785 1.5868250131607055664 0.50594162940979003906 0.56343746185302734375 1.3453500270843505859 4.2084751129150390625 0.93141251802444458008 0.27599999308586120605 0.19550000131130218506 0.18400000035762786865 0.20125000178813934326 0.26449999213218688965 0.27599999308586120605 0.27599999308586120605 0.27024999260902404785 0.27599999308586120605 0.27599999308586120605 0.26449999213218688965 0.21275000274181365967 0.24724999070167541504 0.27599999308586120605 0.27599999308586120605 0.27599999308586120605 0.30474373698234558105 0.36223125457763671875 0.27599999308586120605 1.5868250131607055664 0.27599999308586120605 0.27599999308586120605 1.2591187953948974609 1.5868250131607055664 0.64394998550415039062 0.27599999308586120605 0.27599999308586120605 0.27599999308586120605 0.30474373698234558105 0.27599999308586120605 0.27599999308586120605 0.62669998407363891602 0.60370624065399169922 0.27599999308586120605 0.27599999308586120605 0.27599999308586120605 0.27599999308586120605 0.97165626287460327148 0.27599999308586120605 0.27599999308586120605 0.27599999308586120605 0.27599999308586120605 0.27599999308586120605 0.27599999308586120605 0.27599999308586120605 0.27599999308586120605 0.27599999308586120605 0.27599999308586120605 0.27599999308586120605 0.27599999308586120605 0.27599999308586120605 
0.27599999308586120605 0.27599999308586120605 0.27599999308586120605 0.27599999308586120605 0.27599999308586120605 0.56920623779296875 0.93141251802444458008 1.0710357427597045898 0.27599999308586120605 0.27599999308586120605 3.55306243896484375 5.1915936470031738281 5.5192999839782714844 5.5192999839782714844 5.5192999839782714844 2.8803999423980712891 0.30474373698234558105 0.44846248626708984375 0.27599999308586120605 0.61328667402267456055 1.9145312309265136719 1.3396062850952148438 0.3088499903678894043 1.4534399509429931641 0.39673125743865966797 0.27599999308586120605 0.27599999308586120605 0.50594997406005859375 0.59439229965209960938 0.27599999308586120605 0.28306922316551208496 0.46570000052452087402 0.29324373602867126465 2.5699436664581298828 5.1915936470031738281 4.2084751129150390625 0.27599999308586120605 0.20700000226497650146 0.18400000035762786865 0.25299999117851257324 0.27599999308586120605 1.2591187953948974609 0.93141251802444458008 0.27599999308586120605 0.27599999308586120605 0.27599999308586120605 0.21275000274181365967 0.25874999165534973145 0.21850000321865081787 0.27599999308586120605 0.60370624065399169922 0.60370624065399169922 0.27599999308586120605 0.27599999308586120605 0.27599999308586120605 2.2422375679016113281 0.27599999308586120605 0.27599999308586120605 0.27599999308586120605 0.29899373650550842285 0.27599999308586120605 0.27599999308586120605 0.27599999308586120605 0.27599999308586120605 0.33348748087882995605 0.30474373698234558105 0.27599999308586120605 0.60370624065399169922 0.27599999308586120605 0.27599999308586120605 1.747799992561340332 1.9547749757766723633 2.5699436664581298828 1.2591187953948974609 0.27599999308586120605 0.27599999308586120605 0.27599999308586120605 0.27599999308586120605 0.27599999308586120605 0.27599999308586120605 0.27599999308586120605 0.27599999308586120605 0.27599999308586120605 0.27599999308586120605 0.27599999308586120605 0.27599999308586120605 0.27599999308586120605 
0.27599999308586120605 0.27599999308586120605 0.26449999213218688965 0.59795624017715454102 0.93141251802444458008 3.3460874557495117188 0.69651424884796142578 1.5868250131607055664 0.27599999308586120605 1.149883270263671875 5.5192999839782714844 5.5192999839782714844 4.2084751129150390625 5.5192999839782714844 5.5192999839782714844 4.2429685592651367188 1.5822199583053588867 0.27599999308586120605 0.60370624065399169922 0.27599999308586120605 0.27599999308586120605 0.27599999308586120605 0.27599999308586120605 2.9896357059478759766 0.60370624065399169922 0.60370624065399169922 0.27599999308586120605 0.27599999308586120605 0.32198998332023620605 0.26942855119705200195 1.8489899635314941406 2.5641937255859375 4.2084751129150390625 2.5699436664581298828 2.5699436664581298828 0.93141251802444458008 0.27599999308586120605 0.24149999022483825684 0.21850000321865081787 0.27599999308586120605 0.27599999308586120605 0.27599999308586120605 0.27599999308586120605 0.27599999308586120605 0.27599999308586120605 0.24724999070167541504 0.25299999117851257324 0.22425000369548797607 0.25299999117851257324 0.60370624065399169922 2.8976500034332275391 1.2591187953948974609 0.27599999308586120605 0.27599999308586120605 0.27599999308586120605 0.27599999308586120605 0.27024999260902404785 0.27599999308586120605 0.27599999308586120605 0.26449999213218688965 0.27599999308586120605 0.27599999308586120605 0.27599999308586120605 0.27024999260902404785 0.27599999308586120605 0.27599999308586120605 0.27599999308586120605 0.43697500228881835938 0.97165626287460327148 0.64394998550415039062 0.35648748278617858887 0.27024999260902404785 0.32198747992515563965 0.33348748087882995605 0.27599999308586120605 0.27599999308586120605 0.27599999308586120605 0.27599999308586120605 0.27599999308586120605 0.27599999308586120605 2.2824811935424804688 0.27599999308586120605 0.27599999308586120605 0.31624373793601989746 0.60370624065399169922 0.27599999308586120605 0.27599999308586120605 
0.93141251802444458008 2.0755062103271484375 0.27599999308586120605 0.93141251802444458008 1.2591187953948974609 1.8282874822616577148 1.2035416364669799805 0.27599999308586120605 0.27599999308586120605 5.0823583602905273438 5.5192999839782714844 5.1447787284851074219 1.5868250131607055664 5.1915936470031738281 5.5192999839782714844 3.1851062774658203125 3.9861667156219482422 0.39673125743865966797 1.3108583688735961914 1.6229571104049682617 0.68419373035430908203 0.65052139759063720703 3.8788499832153320312 2.2824811935424804688 0.27599999308586120605 1.2591187953948974609 0.27599999308586120605 0.27599999308586120605 1.0250428915023803711 0.27599999308586120605 1.5868250131607055664 5.5192999839782714844 5.5192999839782714844 0.93141251802444458008 0.27599999308586120605 0.27024999260902404785 0.27599999308586120605 0.27599999308586120605 0.26449999213218688965 0.27599999308586120605 0.27599999308586120605 0.27599999308586120605 2.5699436664581298828 2.2767312526702880859 0.27599999308586120605 0.23574998974800109863 0.22999998927116394043 0.27599999308586120605 2.8976500034332275391 0.60370624065399169922 0.27599999308586120605 0.27599999308586120605 0.27599999308586120605 0.27599999308586120605 0.93141251802444458008 0.27599999308586120605 0.24149999022483825684 1.0118999481201171875 0.31049373745918273926 1.2131187915802001953 0.27024999260902404785 0.27599999308586120605 0.27599999308586120605 0.26449999213218688965 0.27599999308586120605 0.27599999308586120605 1.2591187953948974609 3.673793792724609375 2.2422375679016113281 0.27599999308586120605 0.27599999308586120605 0.27024999260902404785 0.32198747992515563965 0.31048750877380371094 0.27599999308586120605 0.27599999308586120605 0.60370624065399169922 0.27599999308586120605 0.27599999308586120605 0.27599999308586120605 2.6504311561584472656 0.60370624065399169922 0.27599999308586120605 0.74168121814727783203 2.610187530517578125 0.27599999308586120605 0.27599999308586120605 
0.27599999308586120605 0.27599999308586120605 0.27599999308586120605 0.27599999308586120605 0.27599999308586120605 0.27599999308586120605 0.27599999308586120605 0.27599999308586120605 0.27599999308586120605 5.0823583602905273438 5.5192999839782714844 5.1159691810607910156 2.3641200065612792969 5.1915936470031738281 5.5192999839782714844 5.5192999839782714844 2.6370110511779785156 0.27599999308586120605 0.78850001096725463867 2.1525466442108154297 3.1488461494445800781 2.1668555736541748047 1.3396062850952148438 0.27599999308586120605 0.27599999308586120605 0.27599999308586120605 0.27599999308586120605 1.3995642662048339844 0.27599999308586120605 3.0724265575408935547 0.93141251802444458008 2.8976500034332275391 3.2253563404083251953 0.27599999308586120605 0.26449999213218688965 0.21850000321865081787 0.22999998927116394043 0.25874999165534973145 0.27599999308586120605 0.27599999308586120605 0.27599999308586120605 0.27599999308586120605 1.9145312309265136719 1.9087812900543212891 0.27599999308586120605 0.27599999308586120605 0.27599999308586120605 0.27599999308586120605 0.27599999308586120605 0.27599999308586120605 0.60370624065399169922 0.27599999308586120605 0.27599999308586120605 0.27599999308586120605 2.2422375679016113281 0.27599999308586120605 0.27599999308586120605 0.27599999308586120605 0.27599999308586120605 0.27599999308586120605 0.25874999165534973145 0.59795624017715454102 0.60370624065399169922 0.27599999308586120605 0.27599999308586120605 0.27599999308586120605 1.5868250131607055664 2.7309186458587646484 0.60370624065399169922 0.27599999308586120605 0.27599999308586120605 0.27599999308586120605 0.27599999308586120605 0.27599999308586120605 0.27599999308586120605 0.27599999308586120605 0.27599999308586120605 0.93141251802444458008 0.27599999308586120605 1.460337519645690918 3.8807687759399414062 0.60370624065399169922 1.5868250131607055664 0.34498748183250427246 0.27599999308586120605 0.27599999308586120605 0.27599999308586120605 
2.3629686832427978516 0.27599999308586120605 0.93141251802444458008 2.5699436664581298828 0.60370624065399169922 0.60370624065399169922 0.27599999308586120605 0.27599999308586120605 1.5868250131607055664 2.4607083797454833984 4.9213747978210449219 3.9401667118072509766 3.6220500469207763672 1.2131187915802001953 5.5192999839782714844 3.5185625553131103516 0.19166666269302368164 0.27599999308586120605 0.27599999308586120605 0.27599999308586120605 0.27599999308586120605 1.3396062850952148438 1.7880437374114990234 2.0237667560577392578 0.27599999308586120605 0.27599999308586120605 1.149883270263671875 2.2422375679016113281 0.27599999308586120605 2.2422375679016113281 1.9145312309265136719 0.27599999308586120605 0.27599999308586120605 0.27599999308586120605 0.30473750829696655273 0.39096248149871826172 0.28748124837875366211 0.35646873712539672852 0.31048750877380371094 0.27599999308586120605 0.27599999308586120605 0.27599999308586120605 0.27599999308586120605 0.27599999308586120605 0.27599999308586120605 0.27599999308586120605 0.27599999308586120605 0.27599999308586120605 0.27599999308586120605 0.27599999308586120605 1.6270687580108642578 0.27599999308586120605 0.27599999308586120605 0.27599999308586120605 0.27599999308586120605 0.27599999308586120605 0.27599999308586120605 0.27599999308586120605 0.27599999308586120605 0.26449999213218688965 0.19550000131130218506 0.91991251707077026367 0.91991251707077026367 0.25874999165534973145 0.93140625953674316406 3.9957499504089355469 4.9443750381469726562 3.673793792724609375 0.91991251707077026367 1.2993625402450561523 1.6270687580108642578 0.27599999308586120605 0.27599999308586120605 0.27599999308586120605 0.27599999308586120605 0.27599999308586120605 0.27599999308586120605 1.0521436929702758789 0.27599999308586120605 1.2591187953948974609 4.2487187385559082031 2.0755062103271484375 1.6673125028610229492 0.27599999308586120605 0.27599999308586120605 0.27599999308586120605 0.27599999308586120605 
1.5868250131607055664 0.27599999308586120605 0.27599999308586120605 0.27024999260902404785 1.2591187953948974609 0.27599999308586120605 0.27599999308586120605 0.27599999308586120605 5.1447787284851074219 5.0823583602905273438 3.4878916740417480469 2.0053598880767822266 0.27599999308586120605 0.27599999308586120605 4.2084751129150390625 3.1908562183380126953 0.27023750543594360352 0.27599999308586120605 0.27599999308586120605 0.27599999308586120605 0.27599999308586120605 0.60370624065399169922 0.60370624065399169922 0.27599999308586120605 0.60370624065399169922 0.67933076620101928711 3.1889443397521972656 0.27599999308586120605 0.31137692928314208984 0.93141251802444458008 2.2422375679016113281 1.2591187953948974609 0.27599999308586120605 0.27599999308586120605 0.27024999260902404785 0.22425000369548797607 0.56343126296997070312 0.70140624046325683594 0.32773125171661376953 0.31624373793601989746 0.27599999308586120605 0.27599999308586120605 0.27599999308586120605 0.27599999308586120605 0.27599999308586120605 0.60370624065399169922 0.27599999308586120605 0.27599999308586120605 0.27599999308586120605 0.27599999308586120605 0.27599999308586120605 0.27599999308586120605 0.27599999308586120605 0.27599999308586120605 0.27599999308586120605 0.27599999308586120605 0.27599999308586120605 0.27599999308586120605 0.27599999308586120605 0.22425000369548797607 0.18400000035762786865 0.18400000035762786865 0.18400000035762786865 0.18400000035762786865 0.51745623350143432617 2.0237624645233154297 2.9781374931335449219 2.9321436882019042969 0.58070623874664306641 0.64394998550415039062 0.27599999308586120605 0.27599999308586120605 0.27599999308586120605 0.27599999308586120605 0.27599999308586120605 0.27599999308586120605 0.60370624065399169922 0.31624373793601989746 0.31624373793601989746 2.2824811935424804688 1.9145312309265136719 1.2361187934875488281 0.20125000178813934326 0.27024999260902404785 0.27599999308586120605 0.27599999308586120605 0.27599999308586120605 
0.84516876935958862305 1.2993625402450561523 0.27599999308586120605 0.5749562382698059082 0.27599999308586120605 0.27599999308586120605 0.27599999308586120605 0.27599999308586120605 1.5868250131607055664 5.5192999839782714844 2.3227250576019287109 5.0823583602905273438 1.9892624616622924805 2.5297000408172607422 5.5192999839782714844 3.2253563404083251953 0.27599999308586120605 0.27599999308586120605 0.27599999308586120605 0.27599999308586120605 0.27599999308586120605 0.27599999308586120605 0.27599999308586120605 0.27599999308586120605 0.27599999308586120605 0.60370624065399169922 0.71294164657592773438 0.27599999308586120605 0.27599999308586120605 1.2591187953948974609 2.8976500034332275391 0.60370624065399169922 0.27599999308586120605 0.27599999308586120605 0.27599999308586120605 0.25874999165534973145 0.56343126296997070312 0.52893751859664916992 0.25299999117851257324 0.27599999308586120605 0.27599999308586120605 0.27599999308586120605 0.27599999308586120605 0.27599999308586120605 0.60370624065399169922 2.5699436664581298828 0.27599999308586120605 0.27599999308586120605 0.27599999308586120605 0.27599999308586120605 0.27599999308586120605 0.27599999308586120605 0.27599999308586120605 0.27599999308586120605 0.27599999308586120605 0.27599999308586120605 0.27599999308586120605 0.27599999308586120605 0.22425000369548797607 0.20125000178813934326 0.21850000321865081787 0.21850000321865081787 0.23574998974800109863 0.94865000247955322266 1.2763625383377075195 1.0118999481201171875 2.3227250576019287109 1.2591187953948974609 0.27599999308586120605 1.0521436929702758789 0.27599999308586120605 0.27599999308586120605 0.27599999308586120605 0.27599999308586120605 0.27599999308586120605 0.27599999308586120605 0.27599999308586120605 0.27599999308586120605 0.27599999308586120605 0.27599999308586120605 0.27599999308586120605 0.21275000274181365967 0.20700000226497650146 0.23574998974800109863 0.27599999308586120605 0.27599999308586120605 0.27599999308586120605 
0.31624373793601989746 0.27599999308586120605 0.27599999308586120605 2.5699436664581298828 0.25874999165534973145 0.27599999308586120605 0.53224283456802368164 0.26449999213218688965 0.25299999117851257324 3.0908200740814208984 4.8638873100280761719 4.6454167366027832031 3.0011374950408935547 0.27599999308586120605 5.5192999839782714844 0.25874999165534973145 0.23574998974800109863 0.27599999308586120605 0.27599999308586120605 0.27599999308586120605 0.27599999308586120605 0.27599999308586120605 0.27599999308586120605 0.27599999308586120605 0.27599999308586120605 0.27599999308586120605 0.27599999308586120605 0.27599999308586120605 0.27024999260902404785 0.27599999308586120605 0.27599999308586120605 0.27599999308586120605 3.0011374950408935547 0.27599999308586120605 0.27599999308586120605 0.27599999308586120605 0.36221873760223388672 0.6899312138557434082 0.31624373793601989746 0.27599999308586120605 0.27599999308586120605 0.27599999308586120605 0.27599999308586120605 0.27599999308586120605 0.27599999308586120605 1.9145312309265136719 0.27599999308586120605 0.27599999308586120605 0.24724999070167541504 1.2418687343597412109 0.63819998502731323242 0.27599999308586120605 0.27599999308586120605 3.55306243896484375 0.27599999308586120605 0.27599999308586120605 0.27599999308586120605 0.23574998974800109863 0.18400000035762786865 0.23574998974800109863 0.21275000274181365967 0.18400000035762786865 0.25299999117851257324 0.93141251802444458008 1.9892687797546386719 0.26449999213218688965 0.64394998550415039062 0.27599999308586120605 0.27599999308586120605 0.27599999308586120605 0.27599999308586120605 0.27599999308586120605 0.27599999308586120605 0.27599999308586120605 0.27599999308586120605 0.27599999308586120605 0.27599999308586120605 0.27599999308586120605 0.27599999308586120605 0.27599999308586120605 0.27599999308586120605 0.26449999213218688965 0.18400000035762786865 0.18975000083446502686 0.27599999308586120605 0.27599999308586120605 0.27599999308586120605 
2.8976500034332275391 0.93141251802444458008 0.27599999308586120605 2.8861498832702636719 0.27024999260902404785 0.63244998455047607422 3.8251917362213134766 0.41397500038146972656 0.25299999117851257324 0.7288615107536315918 1.2591187953948974609 2.2926537990570068359 0.27599999308586120605 0.46917000412940979004 5.0823583602905273438 0.22999998927116394043 0.18400000035762786865 0.27599999308586120605 0.27599999308586120605 0.24149999022483825684 0.25874999165534973145 0.27599999308586120605 0.27599999308586120605 0.27599999308586120605 0.27599999308586120605 0.53779232501983642578 0.27599999308586120605 0.27599999308586120605 0.30474373698234558105 0.27599999308586120605 0.27599999308586120605 0.27599999308586120605 0.27599999308586120605 0.27599999308586120605 0.27599999308586120605 0.27599999308586120605 0.31623747944831848145 1.0463937520980834961 0.27599999308586120605 0.27599999308586120605 0.27599999308586120605 0.27599999308586120605 0.27599999308586120605 0.27599999308586120605 0.27599999308586120605 0.60370624065399169922 0.24149999022483825684 0.21275000274181365967 0.19550000131130218506 0.56343126296997070312 0.33348125219345092773 0.27599999308586120605 0.27599999308586120605 1.2591187953948974609 0.35648748278617858887 0.27599999308586120605 0.27599999308586120605 0.22425000369548797607 0.18400000035762786865 0.18975000083446502686 0.18400000035762786865 0.26449373364448547363 1.5868250131607055664 3.2253563404083251953 1.9432749748229980469 0.35648748278617858887 0.27599999308586120605 0.27599999308586120605 0.27599999308586120605 0.27599999308586120605 0.27599999308586120605 0.27599999308586120605 0.27599999308586120605 0.27599999308586120605 0.60370624065399169922 2.9378936290740966797 1.5868250131607055664 0.27599999308586120605 0.27599999308586120605 0.27599999308586120605 0.27599999308586120605 0.24149999022483825684 0.22425000369548797607 0.28173750638961791992 0.27024999260902404785 0.27599999308586120605 0.27599999308586120605 
0.27599999308586120605 0.27599999308586120605 2.2422375679016113281 1.57532501220703125 0.25874999165534973145 1.5714917182922363281 2.7455153465270996094 0.76660001277923583984 0.24840000271797180176 0.21850000321865081787 0.27599999308586120605 2.6063554286956787109 2.1847417354583740234 1.5868250131607055664 5.1697468757629394531 1.5561583042144775391 0.18400000035762786865 0.27599999308586120605 0.27599999308586120605 0.27024999260902404785 0.27599999308586120605 0.27599999308586120605 1.149883270263671875 0.27599999308586120605 1.5355230569839477539 0.38523125648498535156 1.6385687589645385742 0.27599999308586120605 0.27599999308586120605 0.27599999308586120605 0.27599999308586120605 0.27599999308586120605 0.27599999308586120605 0.27599999308586120605 0.93141251802444458008 0.26449999213218688965 0.27599999308586120605 0.27599999308586120605 0.27599999308586120605 0.27599999308586120605 0.27599999308586120605 0.27599999308586120605 0.27599999308586120605 0.27024999260902404785 0.22425000369548797607 0.20700000226497650146 0.31048750877380371094 0.45995000004768371582 0.58643126487731933594 0.56343746185302734375 0.56343126296997070312 0.27024999260902404785 0.27599999308586120605 0.27599999308586120605 1.5868250131607055664 0.60370624065399169922 0.25874999165534973145 0.18400000035762786865 0.20125000178813934326 0.24149999022483825684 0.21850000321865081787 0.26449999213218688965 0.27599999308586120605 0.60370624065399169922 0.27599999308586120605 0.27599999308586120605 0.27599999308586120605 0.27599999308586120605 0.27599999308586120605 0.27599999308586120605 0.27599999308586120605 0.27599999308586120605 0.27599999308586120605 0.27599999308586120605 0.27599999308586120605 1.0118999481201171875 0.60370624065399169922 0.27599999308586120605 0.27599999308586120605 0.27599999308586120605 0.27599999308586120605 0.27599999308586120605 0.27599999308586120605 0.66119372844696044922 0.30474373698234558105 0.27599999308586120605 0.27599999308586120605 
0.27599999308586120605 0.27599999308586120605 2.5699436664581298828 0.27599999308586120605 0.93141251802444458008 2.0467584133148193359 1.9746866226196289062 0.80492496490478515625 1.833221435546875 0.21850000321865081787 0.27599999308586120605 0.62555330991744995117 2.5680248737335205078 0.27599999308586120605 5.5192999839782714844 3.55306243896484375 0.27599999308586120605 0.27599999308586120605 0.27599999308586120605 0.27599999308586120605 0.27599999308586120605 1.1321922540664672852 0.64394998550415039062 0.27599999308586120605 0.27599999308586120605 0.27599999308586120605 0.27599999308586120605 0.27599999308586120605 0.27599999308586120605 0.27599999308586120605 0.27599999308586120605 0.27599999308586120605 0.39097499847412109375 0.27599999308586120605 0.97165626287460327148 0.27599999308586120605 0.27599999308586120605 0.27599999308586120605 0.27599999308586120605 0.27599999308586120605 0.27599999308586120605 0.27599999308586120605 0.27599999308586120605 0.25299999117851257324 0.45995000004768371582 0.56343126296997070312 0.42545625567436218262 0.48295000195503234863 0.30474373698234558105 0.27599999308586120605 0.27024999260902404785 0.27599999308586120605 0.27599999308586120605 0.27599999308586120605 0.27599999308586120605 0.27599999308586120605 0.26449999213218688965 0.18975000083446502686 0.21850000321865081787 0.60370624065399169922 2.2307374477386474609 0.24724999070167541504 0.27599999308586120605 0.60370624065399169922 0.27599999308586120605 0.27599999308586120605 0.26449999213218688965 0.25874999165534973145 0.27599999308586120605 0.27599999308586120605 0.27599999308586120605 0.27599999308586120605 0.27599999308586120605 0.27599999308586120605 0.27599999308586120605 0.27599999308586120605 0.27599999308586120605 3.2655999660491943359 0.27599999308586120605 0.27599999308586120605 0.27599999308586120605 0.97165626287460327148 0.60370624065399169922 0.27599999308586120605 0.27599999308586120605 0.27599999308586120605 0.27599999308586120605 
0.27599999308586120605 0.60370624065399169922 2.2307374477386474609 0.27599999308586120605 0.24149999022483825684 0.93141251802444458008 0.41396999359130859375 0.31432500481605529785 0.29899165034294128418 0.22999998927116394043 0.27599999308586120605 1.149883270263671875 4.5361814498901367188 2.2422375679016113281 2.4607083797454833984 2.2422375679016113281 0.27599999308586120605 0.27599999308586120605 0.27599999308586120605 0.27599999308586120605 0.27599999308586120605 2.5388898849487304688 1.5868250131607055664 0.34038999676704406738 0.24971428513526916504 0.27024999260902404785 0.27599999308586120605 0.27599999308586120605 0.27599999308586120605 0.27599999308586120605 0.27599999308586120605 0.27599999308586120605 0.30474373698234558105 0.34498748183250427246 0.27599999308586120605 1.7075562477111816406 1.5868250131607055664 0.26449999213218688965 1.7075562477111816406 0.27599999308586120605 0.27599999308586120605 0.27599999308586120605 0.27599999308586120605 0.27599999308586120605 0.32773748040199279785 0.35073125362396240234 0.34498125314712524414 0.27599999308586120605 0.27599999308586120605 0.27599999308586120605 0.27599999308586120605 0.39097499847412109375 0.27599999308586120605 0.25874999165534973145 0.24724999070167541504 0.27024999260902404785 0.27599999308586120605 0.27599999308586120605 0.27599999308586120605 0.27599999308586120605 0.24724999070167541504 0.21850000321865081787 0.27024999260902404785 0.27599999308586120605 0.23574998974800109863 0.26449999213218688965 0.27599999308586120605 0.27024999260902404785 0.25874999165534973145 0.27599999308586120605 0.27599999308586120605 0.27599999308586120605 0.27599999308586120605 0.27599999308586120605 0.27599999308586120605 0.27599999308586120605 0.93141251802444458008 3.2655999660491943359 0.93141251802444458008 0.31049373745918273926 0.27599999308586120605 2.6504311561584472656 0.27024999260902404785 0.27599999308586120605 0.27599999308586120605 0.27599999308586120605 0.27599999308586120605 
0.27599999308586120605 2.3629686832427978516 4.8983812332153320312 0.63244998455047607422 0.27024373412132263184 1.9432749748229980469 0.66436666250228881836 0.27599999308586120605 0.27599999308586120605 0.56728333234786987305 0.32965832948684692383 1.4411777257919311523 5.1915936470031738281 2.1486070156097412109 2.7228732109069824219 1.5868250131607055664 0.27599999308586120605 0.27599999308586120605 0.27599999308586120605 0.27599999308586120605 0.27599999308586120605 2.0379154682159423828 1.4534399509429931641 2.2926537990570068359 0.31432500481605529785 0.39097499847412109375 0.29899373650550842285 0.27599999308586120605 0.27599999308586120605 0.27599999308586120605 0.27599999308586120605 0.27599999308586120605 0.27599999308586120605 0.47146248817443847656 2.8919000625610351562 2.8976500034332275391 1.2591187953948974609 0.27024999260902404785 0.60370624065399169922 0.97165626287460327148 0.27599999308586120605 0.27599999308586120605 0.27599999308586120605 0.27599999308586120605 0.27599999308586120605 0.27599999308586120605 0.27599999308586120605 0.27599999308586120605 0.27599999308586120605 0.27599999308586120605 1.3396062850952148438 0.60370624065399169922 0.27599999308586120605 0.25299999117851257324 0.20700000226497650146 0.20125000178813934326 1.57532501220703125 2.2422375679016113281 0.27599999308586120605 0.27599999308586120605 0.22425000369548797607 0.27599999308586120605 0.27599999308586120605 0.27599999308586120605 0.27599999308586120605 0.27599999308586120605 0.26449999213218688965 0.24724999070167541504 0.21275000274181365967 0.27599999308586120605 0.27599999308586120605 0.27599999308586120605 0.27599999308586120605 0.27599999308586120605 0.27599999308586120605 0.27599999308586120605 1.5868250131607055664 4.2084751129150390625 0.93141251802444458008 1.2016187906265258789 0.20125000178813934326 0.22425000369548797607 0.26449999213218688965 0.27599999308586120605 0.27599999308586120605 0.27599999308586120605 0.27599999308586120605 
0.27599999308586120605 2.5699436664581298828 4.3694500923156738281 0.27024999260902404785 2.6906750202178955078 1.776531219482421875 0.69297999143600463867 0.37454998493194580078 0.27024999260902404785 0.27599999308586120605 0.39673125743865966797 0.71294164657592773438 5.5192999839782714844 4.4706401824951171875 2.2926537990570068359 0.27599999308586120605 0.27599999308586120605 0.27599999308586120605 0.27599999308586120605 0.27599999308586120605 0.85858887434005737305 2.1464133262634277344 0.3154214322566986084 0.27599999308586120605 0.27599999308586120605 1.1038812398910522461 1.7075562477111816406 0.27599999308586120605 0.27599999308586120605 0.24149999022483825684 0.25874999165534973145 0.30474373698234558105 0.27599999308586120605 2.4089562892913818359 1.9145312309265136719 1.9145312309265136719 0.27599999308586120605 0.27599999308586120605 1.0521436929702758789 0.31624373793601989746 0.27599999308586120605 0.27599999308586120605 0.27599999308586120605 0.27599999308586120605 0.27599999308586120605 0.27599999308586120605 0.27599999308586120605 0.27599999308586120605 0.27599999308586120605 0.27599999308586120605 2.9378936290740966797 0.93141251802444458008 0.27599999308586120605 0.24149999022483825684 0.23574998974800109863 0.88541251420974731445 2.684925079345703125 3.2655999660491943359 1.2591187953948974609 0.27599999308586120605 0.22999998927116394043 0.27599999308586120605 0.27599999308586120605 0.27599999308586120605 0.27599999308586120605 0.27599999308586120605 0.27599999308586120605 0.22999998927116394043 0.25299999117851257324 0.27599999308586120605 0.27599999308586120605 0.27599999308586120605 0.60370624065399169922 0.27599999308586120605 0.27599999308586120605 0.27599999308586120605 0.27599999308586120605 0.93141251802444458008 0.27599999308586120605 0.27024999260902404785 0.25299999117851257324 0.26449999213218688965 0.26449999213218688965 2.2824811935424804688 0.27599999308586120605 0.27599999308586120605 0.27599999308586120605 
0.27599999308586120605 3.3058438301086425781 4.5764250755310058594 0.64394998550415039062 0.93141251802444458008 0.36223125457763671875 0.36798000335693359375 0.3088499903678894043 0.39673125743865966797 0.60370624065399169922 0.50596249103546142578 0.27599999308586120605 5.5192999839782714844 4.8638873100280761719 3.7715332508087158203 0.60370624065399169922 0.27599999308586120605 0.27599999308586120605 0.27599999308586120605 0.60370624065399169922 0.31624373793601989746 0.27599999308586120605 0.27599999308586120605 0.27599999308586120605 2.5699436664581298828 2.4032063484191894531 0.91416251659393310547 1.4085937738418579102 0.23574998974800109863 0.25299999117851257324 0.20125000178813934326 0.27599999308586120605 0.27599999308586120605 1.5868250131607055664 4.3292064666748046875 0.64394998550415039062 0.60370624065399169922 0.27599999308586120605 0.93141251802444458008 0.31624373793601989746 0.27599999308586120605 0.27599999308586120605 0.27599999308586120605 0.27024999260902404785 0.27599999308586120605 0.27599999308586120605 0.27599999308586120605 0.27599999308586120605 0.27599999308586120605 0.27599999308586120605 1.5868250131607055664 0.26449999213218688965 0.25299999117851257324 0.19550000131130218506 0.22425000369548797607 0.60370624065399169922 0.31624373793601989746 1.9145312309265136719 2.610187530517578125 1.2418687343597412109 0.18975000083446502686 0.18975000083446502686 0.18975000083446502686 0.24149999022483825684 0.24724999070167541504 0.27024373412132263184 0.47720623016357421875 0.59218126535415649414 0.27599999308586120605 0.27599999308586120605 0.27599999308586120605 0.60370624065399169922 0.63242501020431518555 0.33348748087882995605 0.27599999308586120605 0.27599999308586120605 0.27599999308586120605 0.68419373035430908203 1.6673125028610229492 1.2591187953948974609 1.9547749757766723633 0.60370624065399169922 1.8972812891006469727 3.8807687759399414062 3.7140374183654785156 3.55306243896484375 1.5868250131607055664 
0.27599999308586120605 1.0866374969482421875 4.0417437553405761719 0.72443747520446777344 0.27599999308586120605 0.31624373793601989746 0.74613332748413085938 0.27599999308586120605 0.60370624065399169922 0.60370624065399169922 2.0352625846862792969 0.34754443168640136719 5.5192999839782714844 2.8976500034332275391 1.5868250131607055664 2.2422375679016113281 0.27599999308586120605 0.27599999308586120605 0.27599999308586120605 0.27599999308586120605 2.0379154682159423828 0.27599999308586120605 0.27599999308586120605 0.27599999308586120605 3.2655999660491943359 0.54620623588562011719 0.22999998927116394043 1.1211313009262084961 0.24149999022483825684 0.25299999117851257324 0.20700000226497650146 0.27599999308586120605 1.5868250131607055664 5.5192999839782714844 5.5192999839782714844 5.1915936470031738281 0.60370624065399169922 0.27599999308586120605 0.27599999308586120605 0.27599999308586120605 0.27599999308586120605 0.27599999308586120605 0.27599999308586120605 0.27599999308586120605 0.27599999308586120605 0.27599999308586120605 0.27599999308586120605 0.27599999308586120605 0.27599999308586120605 0.27599999308586120605 0.27599999308586120605 0.27024999260902404785 0.25299373269081115723 0.32197499275207519531 0.42545625567436218262 0.22425000369548797607 0.27599999308586120605 1.5868250131607055664 2.5699436664581298828 4.2889623641967773438 1.6730562448501586914 0.50595623254776000977 0.21275000274181365967 0.21850000321865081787 0.24149999022483825684 0.59218126535415649414 0.67841249704360961914 0.97737497091293334961 0.60370624065399169922 0.27599999308586120605 0.27599999308586120605 0.41971874237060546875 0.56343746185302734375 0.41971874237060546875 0.33348748087882995605 0.27599999308586120605 0.27599999308586120605 0.27599999308586120605 0.60370624065399169922 0.27599999308586120605 0.27599999308586120605 1.2591187953948974609 0.92566251754760742188 0.31624373793601989746 0.43697500228881835938 0.27599999308586120605 0.27599999308586120605 
0.27599999308586120605 0.94290626049041748047 2.6504311561584472656 3.3863313198089599609 0.27599999308586120605 0.31624373793601989746 3.00496673583984375 0.27599999308586120605 0.27599999308586120605 1.4915499687194824219 0.39673125743865966797 1.2035416364669799805 0.27599999308586120605 5.5192999839782714844 0.71294164657592773438 2.2422375679016113281 2.4561100006103515625 0.27599999308586120605 0.27599999308586120605 0.60370624065399169922 2.962039947509765625 0.27599999308586120605 0.27599999308586120605 0.31624373793601989746 3.1218562126159667969 0.51744997501373291016 0.54044997692108154297 0.82791876792907714844 1.2476187944412231445 0.22999998927116394043 0.25874999165534973145 0.27599999308586120605 1.5868250131607055664 3.8807687759399414062 5.5192999839782714844 5.5192999839782714844 2.6906750202178955078 0.27599999308586120605 0.60370624065399169922 0.60370624065399169922 0.27599999308586120605 0.27599999308586120605 0.27599999308586120605 0.27599999308586120605 0.27599999308586120605 0.27599999308586120605 0.27599999308586120605 0.27599999308586120605 0.27599999308586120605 0.27599999308586120605 0.31624373793601989746 0.26449999213218688965 0.22999374568462371826 0.35646873712539672852 0.29323124885559082031 0.91990625858306884766 2.610187530517578125 4.8638873100280761719 2.5699436664581298828 0.35648748278617858887 4.2084751129150390625 3.9612562656402587891 0.39673125743865966797 0.23574374616146087646 0.70143121480941772461 0.78766876459121704102 1.5868250131607055664 1.3166062831878662109 0.68419373035430908203 0.27599999308586120605 0.27599999308586120605 0.44846248626708984375 0.47720623016357421875 0.73589998483657836914 0.53469371795654296875 0.30474373698234558105 1.9145312309265136719 1.9547749757766723633 0.27599999308586120605 0.27599999308586120605 0.27599999308586120605 0.27599999308586120605 0.27599999308586120605 0.27599999308586120605 0.27599999308586120605 0.27599999308586120605 0.27599999308586120605 
0.25299999117851257324 1.3568500280380249023 3.8807687759399414062 0.35648748278617858887 0.27024999260902404785 0.59220623970031738281 4.3909068107604980469 0.35648748278617858887 0.27599999308586120605 0.80032998323440551758 1.7075562477111816406 0.65160834789276123047 4.2084751129150390625 4.8638873100280761719 3.3345916271209716797 1.5868250131607055664 0.27599999308586120605 0.27599999308586120605 0.27599999308586120605 1.0826615095138549805 1.9145312309265136719 0.24149999022483825684 0.21850000321865081787 0.92566251754760742188 0.89115625619888305664 0.73018121719360351562 0.45421874523162841797 0.33348748087882995605 0.60370624065399169922 0.26449999213218688965 0.27599999308586120605 0.27599999308586120605 0.27599999308586120605 0.39098125696182250977 1.2591187953948974609 3.8807687759399414062 3.673793792724609375 0.27599999308586120605 0.93141251802444458008 0.27599999308586120605 0.27599999308586120605 0.27599999308586120605 0.27599999308586120605 0.27599999308586120605 0.27599999308586120605 0.27599999308586120605 0.27599999308586120605 0.27599999308586120605 0.27599999308586120605 0.27599999308586120605 0.47721874713897705078 0.60370624065399169922 0.19550000131130218506 0.18400000035762786865 0.28749373555183410645 2.8976500034332275391 4.9443750381469726562 5.5192999839782714844 2.1157500743865966797 0.27599999308586120605 0.60370624065399169922 1.2591187953948974609 0.51746249198913574219 0.21275000274181365967 1.3223562240600585938 1.2591187953948974609 0.60370624065399169922 0.27599999308586120605 0.27599999308586120605 0.27599999308586120605 0.27599999308586120605 0.27599999308586120605 0.51746249198913574219 0.86815625429153442383 0.47720623016357421875 0.93141251802444458008 1.5868250131607055664 0.27599999308586120605 0.27599999308586120605 0.27599999308586120605 0.27599999308586120605 0.27599999308586120605 0.27599999308586120605 0.27599999308586120605 0.27599999308586120605 0.27599999308586120605 0.27599999308586120605 
0.68419373035430908203 1.6270687580108642578 2.9378936290740966797 0.64394998550415039062 1.2188687324523925781 1.0463812351226806641 0.90457499027252197266 0.3219928443431854248 2.5699436664581298828 4.3694500923156738281 1.9950187206268310547 2.0237667560577392578 3.6335499286651611328 1.5868250131607055664 1.4859923124313354492 4.2084751129150390625 0.27599999308586120605 0.27599999308586120605 0.27599999308586120605 0.27599999308586120605 0.60370624065399169922 0.18975000083446502686 0.20700000226497650146 1.2361187934875488281 2.2824811935424804688 0.60370624065399169922 0.27599999308586120605 0.27599999308586120605 0.27599999308586120605 0.27599999308586120605 0.27599999308586120605 0.27599999308586120605 0.27599999308586120605 0.64394998550415039062 0.24149999022483825684 0.58070623874664306641 2.2422375679016113281 0.27599999308586120605 0.97165626287460327148 0.27599999308586120605 0.27599999308586120605 0.27599999308586120605 0.27599999308586120605 0.27599999308586120605 0.27599999308586120605 0.27599999308586120605 0.27599999308586120605 0.27599999308586120605 0.27599999308586120605 0.27599999308586120605 0.60370624065399169922 1.9030312299728393555 0.20125000178813934326 0.5634562373161315918 3.8807687759399414062 5.5192999839782714844 5.5192999839782714844 5.5192999839782714844 2.2824811935424804688 2.2422375679016113281 1.9145312309265136719 0.27599999308586120605 1.2993625402450561523 2.9378936290740966797 0.62669998407363891602 0.27599999308586120605 0.27599999308586120605 0.27599999308586120605 0.27599999308586120605 0.27599999308586120605 0.25299999117851257324 0.26449999213218688965 0.25874999165534973145 1.9145312309265136719 2.2422375679016113281 0.27599999308586120605 0.27599999308586120605 0.27599999308586120605 0.27599999308586120605 0.27599999308586120605 0.27599999308586120605 0.27599999308586120605 0.27599999308586120605 0.27599999308586120605 0.27599999308586120605 0.27599999308586120605 0.27599999308586120605 
0.27599999308586120605 2.6504311561584472656 1.1326313018798828125 0.27599999308586120605 0.58070623874664306641 0.18400000035762786865 0.22999998927116394043 0.24149999022483825684 0.32197999954223632812 4.354122161865234375 3.2253563404083251953 5.136016845703125 1.8489899635314941406 2.1486070156097412109 0.97510665655136108398 5.5192999839782714844 0.27599999308586120605 0.26679998636245727539 0.45076999068260192871 0.45288461446762084961 4.2602124214172363281 0.18400000035762786865 0.21850000321865081787 1.5868250131607055664 0.97165626287460327148 0.43697500228881835938 0.27599999308586120605 1.2591187953948974609 0.27599999308586120605 0.27599999308586120605 0.25874999165534973145 0.28174373507499694824 2.2824811935424804688 1.3798500299453735352 0.21275000274181365967 0.19550000131130218506 0.59220623970031738281 2.5699436664581298828 0.93141251802444458008 0.27599999308586120605 0.27599999308586120605 0.27599999308586120605 0.27599999308586120605 1.6270687580108642578 2.2422375679016113281 1.5868250131607055664 1.2591187953948974609 2.2824811935424804688 1.2591187953948974609 2.9723875522613525391 3.0413749217987060547 4.2889623641967773438 3.3058438301086425781 4.9041314125061035156 4.8638873100280761719 3.3863313198089599609 3.9612562656402587891 2.9781374931335449219 3.8807687759399414062 4.2084751129150390625 1.8282874822616577148 0.31624373793601989746 0.27599999308586120605 0.27599999308586120605 0.27599999308586120605 0.27599999308586120605 0.27599999308586120605 0.27599999308586120605 0.27599999308586120605 0.23574998974800109863 0.18975000083446502686 0.26449999213218688965 0.24724999070167541504 0.27599999308586120605 1.9145312309265136719 0.27599999308586120605 0.27599999308586120605 0.27599999308586120605 0.27599999308586120605 0.27599999308586120605 0.27599999308586120605 0.27599999308586120605 0.27599999308586120605 0.27599999308586120605 0.27599999308586120605 0.33348748087882995605 0.62092500925064086914 
0.24724999070167541504 2.9781374931335449219 1.0521436929702758789 0.93141251802444458008 0.21275000274181365967 0.21275000274181365967 0.19550000131130218506 0.20371428132057189941 0.18400000035762786865 1.7017999887466430664 1.6404833793640136719 5.5192999839782714844 0.27599999308586120605 1.5868250131607055664 0.27599999308586120605 0.27599999308586120605 0.27599999308586120605 0.26285713911056518555 0.24149999022483825684 2.2383999824523925781 5.1858439445495605469 0.5634562373161315918 0.23574998974800109863 4.2372188568115234375 1.2993625402450561523 0.93141251802444458008 0.27599999308586120605 0.60370624065399169922 0.27599999308586120605 0.27599999308586120605 0.22425000369548797607 0.76468122005462646484 2.2422375679016113281 2.9378936290740966797 0.19550000131130218506 0.18400000035762786865 0.25299999117851257324 2.8976500034332275391 1.2993625402450561523 2.2422375679016113281 0.60370624065399169922 0.27599999308586120605 0.27599999308586120605 0.27599999308586120605 1.9547749757766723633 0.93141251802444458008 0.27599999308586120605 0.60370624065399169922 0.60370624065399169922 1.9145312309265136719 1.5868250131607055664 3.5933063030242919922 4.2084751129150390625 2.2422375679016113281 0.60370624065399169922 1.9145312309265136719 0.93141251802444458008 0.24149999022483825684 0.60370624065399169922 2.2824811935424804688 0.27599999308586120605 0.27599999308586120605 0.27599999308586120605 0.27599999308586120605 0.27599999308586120605 0.27599999308586120605 0.27599999308586120605 0.27599999308586120605 0.24724999070167541504 0.20125000178813934326 0.25874999165534973145 0.27599999308586120605 0.26449999213218688965 0.27599999308586120605 3.2253563404083251953 0.60370624065399169922 0.27599999308586120605 0.27599999308586120605 0.27599999308586120605 0.27599999308586120605 0.27599999308586120605 0.27599999308586120605 0.27599999308586120605 0.27599999308586120605 0.27599999308586120605 0.32773125171661376953 0.36797499656677246094 
0.62669998407363891602 3.5933063030242919922 3.0183813571929931641 1.6673125028610229492 3.1391124725341796875 1.7880312204360961914 0.47966426610946655273 0.85858333110809326172 0.68994164466857910156 0.26285713911056518555 2.2422375679016113281 0.27599999308586120605 0.27599999308586120605 4.2851247787475585938 0.71294164657592773438 1.2591187953948974609 0.27599999308586120605 0.27599999308586120605 0.27599999308586120605 4.2889623641967773438 1.2591187953948974609 0.51746249198913574219 0.27599999308586120605 0.27599999308586120605 0.27599999308586120605 0.27599999308586120605 0.27599999308586120605 0.27599999308586120605 0.27599999308586120605 0.55770623683929443359 0.22999998927116394043 1.3798500299453735352 3.3863313198089599609 2.2767312526702880859 0.20125000178813934326 0.18400000035762786865 0.21850000321865081787 0.60370624065399169922 0.27599999308586120605 0.60370624065399169922 0.27599999308586120605 0.27599999308586120605 0.27599999308586120605 0.27599999308586120605 0.27599999308586120605 0.27599999308586120605 0.27599999308586120605 0.27599999308586120605 0.27599999308586120605 0.27024999260902404785 0.27599999308586120605 0.27599999308586120605 0.27599999308586120605 0.27599999308586120605 0.27599999308586120605 0.27599999308586120605 0.27599999308586120605 0.18975000083446502686 0.25874999165534973145 0.24724999070167541504 0.25874999165534973145 0.27599999308586120605 0.27599999308586120605 0.27599999308586120605 0.27599999308586120605 0.27599999308586120605 0.27599999308586120605 0.27599999308586120605 0.22999998927116394043 0.22425000369548797607 0.22425000369548797607 0.21850000321865081787 0.27024999260902404785 0.27599999308586120605 0.93141251802444458008 0.27599999308586120605 0.27599999308586120605 0.27599999308586120605 0.27599999308586120605 0.27599999308586120605 0.27599999308586120605 0.27599999308586120605 0.27599999308586120605 0.39097499847412109375 0.28749373555183410645 0.28749373555183410645 0.43697500228881835938 
2.2422375679016113281 4.0417437553405761719 2.2767312526702880859 4.2774624824523925781 2.3112249374389648438 1.7880437374114990234 0.23353846371173858643 0.58645623922348022461 1.1728750467300415039 0.69760835170745849609 0.25874999165534973145 0.27599999308586120605 1.3995642662048339844 3.55306243896484375 2.4607083797454833984 0.27599999308586120605 0.27599999308586120605 0.27599999308586120605 0.27599999308586120605 0.25146666169166564941 0.27599999308586120605 0.27599999308586120605 0.27599999308586120605 0.27599999308586120605 0.64394998550415039062 0.68419373035430908203 1.2591187953948974609 0.60370624065399169922 1.4200937747955322266 1.747799992561340332 0.31624373793601989746 0.68419373035430908203 1.9432749748229980469 0.19550000131130218506 0.35646873712539672852 0.18400000035762786865 0.24724999070167541504 0.60370624065399169922 0.27599999308586120605 0.27599999308586120605 0.27599999308586120605 0.27599999308586120605 0.24149999022483825684 0.27599999308586120605 0.27599999308586120605 0.27599999308586120605 0.27599999308586120605 0.27599999308586120605 0.27599999308586120605 0.27599999308586120605 0.27599999308586120605 0.27599999308586120605 0.27599999308586120605 0.27599999308586120605 0.27599999308586120605 0.22425000369548797607 0.18975000083446502686 0.18975000083446502686 0.25299999117851257324 0.18400000035762786865 0.22425000369548797607 0.27599999308586120605 0.27599999308586120605 0.27599999308586120605 0.27599999308586120605 0.27599999308586120605 0.27599999308586120605 0.27024999260902404785 0.23574998974800109863 0.20700000226497650146 0.19550000131130218506 0.18975000083446502686 0.27599999308586120605 0.27599999308586120605 0.27599999308586120605 0.27599999308586120605 0.27599999308586120605 0.27599999308586120605 0.27599999308586120605 0.27599999308586120605 0.27599999308586120605 0.27599999308586120605 0.27599999308586120605 0.29324373602867126465 0.26449999213218688965 1.7420500516891479492 1.9087749719619750977 
3.8807687759399414062 0.60370624065399169922 1.2476187944412231445 0.85666251182556152344 0.88541251420974731445 0.27599999308586120605 0.27599999308586120605 0.60370624065399169922 1.0250428915023803711 0.62555330991744995117 0.58070623874664306641 2.2926537990570068359 4.9949698448181152344 2.5143666267395019531 2.8976500034332275391 1.149883270263671875 0.39097499847412109375 0.27599999308586120605 0.27599999308586120605 0.27599999308586120605 0.27599999308586120605 0.93141251802444458008 3.55306243896484375 2.8976500034332275391 3.2253563404083251953 3.9555063247680664062 2.6331813335418701172 1.3338562250137329102 1.0521436929702758789 1.0521436929702758789 0.60370624065399169922 0.93141251802444458008 0.25299999117851257324 0.32197499275207519531 0.21849374473094940186 0.18400000035762786865 0.22425000369548797607 0.60370624065399169922 0.27599999308586120605 0.27599999308586120605 0.27599999308586120605 0.27599999308586120605 0.27024999260902404785 0.27599999308586120605 0.27599999308586120605 0.27599999308586120605 0.27599999308586120605 0.26449999213218688965 0.27599999308586120605 0.27024999260902404785 0.27024999260902404785 0.27599999308586120605 0.27599999308586120605 0.27599999308586120605 0.27024999260902404785 0.35646873712539672852 0.21849374473094940186 0.29898124933242797852 0.22999998927116394043 0.18400000035762786865 0.19550000131130218506 0.27599999308586120605 0.27599999308586120605 0.27599999308586120605 0.27599999308586120605 0.27599999308586120605 0.27599999308586120605 0.20700000226497650146 0.18400000035762786865 0.25299999117851257324 0.23574998974800109863 0.24724999070167541504 0.27599999308586120605 0.27599999308586120605 0.27599999308586120605 0.27599999308586120605 0.27599999308586120605 0.27599999308586120605 0.60370624065399169922 0.27599999308586120605 0.60370624065399169922 0.27599999308586120605 0.27599999308586120605 0.27599999308586120605 0.27599999308586120605 1.0118999481201171875 0.27599999308586120605 
0.60370624065399169922 0.26449999213218688965 1.2476187944412231445 0.85666251182556152344 0.23574998974800109863 0.27599999308586120605 0.27599999308586120605 1.3246599435806274414 0.25628569722175598145 1.0755846500396728516 5.0823583602905273438 1.149883270263671875 1.1882083415985107422 2.3733201026916503906 3.2253563404083251953 1.9145312309265136719 0.27599999308586120605 0.27599999308586120605 0.27599999308586120605 0.27599999308586120605 0.27599999308586120605 5.5192999839782714844 4.5361814498901367188 2.2422375679016113281 0.60370624065399169922 0.27599999308586120605 0.25874999165534973145 1.9145312309265136719 1.1728750467300415039 2.4032125473022460938 1.3396062850952148438 0.97165626287460327148 1.5810749530792236328 0.28174373507499694824 0.24724999070167541504 0.56920623779296875 0.25874999165534973145 0.27599999308586120605 0.27599999308586120605 0.27599999308586120605 0.27599999308586120605 0.27599999308586120605 0.93141251802444458008 0.27599999308586120605 0.27599999308586120605 0.27599999308586120605 0.27599999308586120605 0.27024999260902404785 0.24149999022483825684 0.27599999308586120605 0.27599999308586120605 0.27024999260902404785 0.25299999117851257324 0.26449999213218688965 0.24724999070167541504 0.19550000131130218506 0.18400000035762786865 0.18975000083446502686 0.18975000083446502686 0.18400000035762786865 0.18400000035762786865 0.27599999308586120605 0.27599999308586120605 0.27599999308586120605 0.27599999308586120605 0.27599999308586120605 0.24149999022483825684 0.18400000035762786865 0.21275000274181365967 0.24724999070167541504 0.27599999308586120605 0.27599999308586120605 0.27599999308586120605 0.27599999308586120605 0.27599999308586120605 0.33348748087882995605 0.27599999308586120605 1.2591187953948974609 3.5933063030242919922 2.5699436664581298828 0.93141251802444458008 0.27599999308586120605 0.27599999308586120605 0.27599999308586120605 0.27599999308586120605 0.27599999308586120605 0.27599999308586120605 
0.27024999260902404785 0.20700000226497650146 1.9260250329971313477 2.8631498813629150391 1.5868250131607055664 0.31624373793601989746 1.2993625402450561523 0.60370624065399169922 0.27599999308586120605 3.1889443397521972656 0.60370624065399169922 0.27599999308586120605 2.5986874103546142578 4.8523874282836914062 3.1851062774658203125 5.1915936470031738281 0.93141251802444458008 0.27599999308586120605 0.27599999308586120605 1.5868250131607055664 1.9145312309265136719 3.2253563404083251953 0.24149999022483825684 0.24724999070167541504 0.27599999308586120605 0.27599999308586120605 0.27599999308586120605 1.9950187206268310547 0.92565625905990600586 0.80492496490478515625 0.27599999308586120605 0.27599999308586120605 0.27599999308586120605 0.27599999308586120605 0.27599999308586120605 0.27599999308586120605 0.27599999308586120605 0.27599999308586120605 0.27599999308586120605 0.27599999308586120605 0.27599999308586120605 0.27599999308586120605 0.93141251802444458008 0.27599999308586120605 0.27599999308586120605 0.27599999308586120605 0.27599999308586120605 0.27599999308586120605 0.27599999308586120605 0.27599999308586120605 0.22999998927116394043 0.26449999213218688965 0.27599999308586120605 0.27599999308586120605 0.27599999308586120605 0.27024999260902404785 0.24149999022483825684 0.27599999308586120605 0.20125000178813934326 0.19550000131130218506 0.24149999022483825684 0.27599999308586120605 0.27599999308586120605 0.27599999308586120605 0.26449999213218688965 0.24724999070167541504 0.22425000369548797607 0.18400000035762786865 0.20125000178813934326 0.27599999308586120605 0.27599999308586120605 0.27599999308586120605 0.27599999308586120605 0.27599999308586120605 0.27599999308586120605 0.30474373698234558105 0.44846248626708984375 0.27599999308586120605 0.27599999308586120605 0.27599999308586120605 0.27599999308586120605 0.27599999308586120605 0.27599999308586120605 0.27599999308586120605 0.27599999308586120605 0.27599999308586120605 0.27599999308586120605 
0.26449999213218688965 0.18400000035762786865 0.18400000035762786865 1.61556243896484375 1.2591187953948974609 0.27599999308586120605 0.27599999308586120605 0.60370624065399169922 0.27599999308586120605 3.2253563404083251953 0.27599999308586120605 2.8976500034332275391 2.5699436664581298828 3.5415625572204589844 3.2196061611175537109 5.5192999839782714844 2.9493937492370605469 0.27599999308586120605 0.27599999308586120605 3.2253563404083251953 2.5699436664581298828 0.27599999308586120605 0.25874999165534973145 0.21850000321865081787 1.5868250131607055664 0.27599999308586120605 0.27599999308586120605 1.6673125028610229492 1.9547749757766723633 0.68419373035430908203 0.27599999308586120605 0.27599999308586120605 0.27599999308586120605 0.60370624065399169922 0.27599999308586120605 0.27599999308586120605 2.2422375679016113281 0.27599999308586120605 0.27599999308586120605 0.27599999308586120605 0.27599999308586120605 0.27599999308586120605 0.27599999308586120605 0.27599999308586120605 0.25874999165534973145 0.27024999260902404785 0.27024999260902404785 0.27599999308586120605 0.27024999260902404785 0.30473750829696655273 0.20125000178813934326 0.27599999308586120605 0.25874999165534973145 0.27599999308586120605 0.27599999308586120605 0.27599999308586120605 0.25299999117851257324 0.25299999117851257324 0.19550000131130218506 0.21850000321865081787 0.21275000274181365967 0.27599999308586120605 0.27599999308586120605 0.27599999308586120605 0.23574998974800109863 0.18400000035762786865 0.18400000035762786865 0.21275000274181365967 0.21275000274181365967 0.27599999308586120605 0.27599999308586120605 0.27599999308586120605 0.27599999308586120605 0.27599999308586120605 0.27599999308586120605 0.27599999308586120605 0.30474373698234558105 0.27599999308586120605 0.27599999308586120605 0.27599999308586120605 0.27599999308586120605 0.27599999308586120605 0.27599999308586120605 0.27599999308586120605 0.27599999308586120605 0.26449999213218688965 0.25299999117851257324 
0.26449999213218688965 0.18400000035762786865 0.18400000035762786865 0.5634562373161315918 0.27599999308586120605 0.27599999308586120605 0.60370624065399169922 0.64394998550415039062 0.27599999308586120605 2.2307374477386474609 1.2418687343597412109 5.1915936470031738281 5.1915936470031738281 2.5699436664581298828 3.2253563404083251953 4.8638873100280761719 1.2591187953948974609 2.2422375679016113281 1.2591187953948974609 0.27599999308586120605 2.5699436664581298828 0.27599999308586120605 0.24724999070167541504 0.27599999308586120605 1.9547749757766723633 1.9145312309265136719 0.27599999308586120605 1.0118999481201171875 2.8918936252593994141 0.31624373793601989746 0.27599999308586120605 0.27599999308586120605 0.27599999308586120605 0.27024999260902404785 0.60370624065399169922 0.27599999308586120605 0.93141251802444458008 0.27599999308586120605 0.27599999308586120605 0.27599999308586120605 0.27599999308586120605 0.27599999308586120605 0.27599999308586120605 0.27599999308586120605 0.27024999260902404785 0.27024999260902404785 0.23574998974800109863 0.24149999022483825684 0.18400000035762786865 0.22425000369548797607 0.19550000131130218506 0.27599999308586120605 0.27599999308586120605 0.27599999308586120605 0.26449999213218688965 0.26449999213218688965 0.30474373698234558105 0.22999998927116394043 0.25299999117851257324 0.27599999308586120605 0.27599999308586120605 0.27599999308586120605 0.27599999308586120605 0.27599999308586120605 0.23574998974800109863 0.22999998927116394043 0.21850000321865081787 0.27599999308586120605 0.26449999213218688965 0.27599999308586120605 0.27599999308586120605 0.27599999308586120605 0.27599999308586120605 0.27599999308586120605 1.6155687570571899414 0.27599999308586120605 0.27599999308586120605 0.27599999308586120605 0.27599999308586120605 0.27599999308586120605 0.27599999308586120605 0.27599999308586120605 0.27599999308586120605 0.27599999308586120605 0.24149999022483825684 0.18975000083446502686 0.20700000226497650146 
0.24724999070167541504 0.18400000035762786865 0.18400000035762786865 0.22999998927116394043 0.27599999308586120605 0.27599999308586120605 0.93141251802444458008 0.27599999308586120605 0.30474373698234558105 1.5235749483108520508 1.5465749502182006836 5.5192999839782714844 5.1915936470031738281 2.2422375679016113281 3.55306243896484375 5.5192999839782714844 4.8638873100280761719 1.9145312309265136719 2.8976500034332275391 2.5699436664581298828 1.2476187944412231445 0.25874999165534973145 0.27599999308586120605 0.27599999308586120605 1.0521436929702758789 2.5699436664581298828 0.27599999308586120605 0.31624373793601989746 1.7880437374114990234 0.60370624065399169922 0.27599999308586120605 0.27599999308586120605 0.27599999308586120605 0.25874999165534973145 0.27599999308586120605 0.97165626287460327148 0.27599999308586120605 0.27599999308586120605 0.27599999308586120605 0.27599999308586120605 0.27599999308586120605 0.60370624065399169922 1.2591187953948974609 0.27599999308586120605 0.25874999165534973145 0.23574998974800109863 0.19550000131130218506 0.18400000035762786865 0.18400000035762786865 0.18975000083446502686 0.20125000178813934326 0.27599999308586120605 0.27599999308586120605 0.27599999308586120605 0.27599999308586120605 0.27599999308586120605 0.27599999308586120605 0.27599999308586120605 0.27599999308586120605 0.27599999308586120605 0.27599999308586120605 0.27599999308586120605 0.27599999308586120605 0.27599999308586120605 0.27599999308586120605 0.27599999308586120605 0.27599999308586120605 0.27599999308586120605 0.27599999308586120605 0.27599999308586120605 0.27599999308586120605 0.27599999308586120605 0.27599999308586120605 0.96015626192092895508 0.60370624065399169922 0.27599999308586120605 0.27599999308586120605 0.27599999308586120605 0.27599999308586120605 0.27599999308586120605 0.27599999308586120605 0.27024999260902404785 0.27599999308586120605 0.27599999308586120605 0.27599999308586120605 0.27599999308586120605 0.22999998927116394043 
0.18400000035762786865 0.18400000035762786865 0.18400000035762786865 0.24149999022483825684 0.27599999308586120605 0.27599999308586120605 0.27599999308586120605 0.27599999308586120605 0.24149999022483825684 1.517825007438659668 2.8746500015258789062 5.5192999839782714844 3.0126249790191650391 0.27599999308586120605 4.2084751129150390625 5.5192999839782714844 3.55306243896484375 0.27599999308586120605 0.27599999308586120605 0.27599999308586120605 0.27599999308586120605 0.27599999308586120605 0.27599999308586120605 0.27599999308586120605 0.27599999308586120605 4.8638873100280761719 0.27599999308586120605 0.35648748278617858887 1.9087749719619750977 1.1728750467300415039 0.27599999308586120605 0.27599999308586120605 0.27599999308586120605 0.27599999308586120605 0.27599999308586120605 0.22999998927116394043 0.25299999117851257324 0.27599999308586120605 0.27599999308586120605 0.27599999308586120605 0.27599999308586120605 0.27599999308586120605 1.5868250131607055664 0.27599999308586120605 0.26449999213218688965 0.18400000035762786865 0.18400000035762786865 0.18400000035762786865 0.18400000035762786865 0.18400000035762786865 0.19550000131130218506 0.27599999308586120605 0.27599999308586120605 0.27599999308586120605 0.27599999308586120605 0.27599999308586120605 0.27599999308586120605 0.27599999308586120605 0.27599999308586120605 0.27599999308586120605 0.27599999308586120605 0.27599999308586120605 0.27599999308586120605 0.27599999308586120605 0.27599999308586120605 0.27599999308586120605 0.27599999308586120605 0.27599999308586120605 0.27599999308586120605 0.27599999308586120605 0.27599999308586120605 0.27599999308586120605 0.33348748087882995605 1.5868250131607055664 0.33348748087882995605 0.27599999308586120605 0.27599999308586120605 0.27599999308586120605 0.27599999308586120605 0.22999998927116394043 0.22999998927116394043 0.21850000321865081787 0.25299999117851257324 0.27599999308586120605 0.27599999308586120605 0.27599999308586120605 0.18400000035762786865 
