ncols        87
nrows        107
xllcorner    508536.404131802963
yllcorner    5265618.997906560078
cellsize     120.000000000000
NODATA_value -9999
0.0021999999880790710449 0.0021999999880790710449 0.0021999999880790710449 0.0021999999880790710449 0.0021999999880790710449 0.0021999999880790710449 0.0021999999880790710449 0.0021999999880790710449 0.0021999999880790710449 0.0021999999880790710449 0.0021999999880790710449 0.0021999999880790710449 0.0021999999880790710449 0.0021999999880790710449 0.0021999999880790710449 0.0021999999880790710449 0.0021999999880790710449 0.0021999999880790710449 0.0021999999880790710449 0.0021999999880790710449 0.0021999999880790710449 0.0021999999880790710449 0.0021999999880790710449 0.0021999999880790710449 0.0021999999880790710449 0.0021999999880790710449 0.0021999999880790710449 0.0021999999880790710449 0.0021999999880790710449 0.0021999999880790710449 0.0021999999880790710449 0.0021999999880790710449 0.0021999999880790710449 0.0021999999880790710449 0.0021999999880790710449 0.0021999999880790710449 0.0021999999880790710449 0.0021999999880790710449 0.0021999999880790710449 0.0021999999880790710449 0.0021999999880790710449 0.0021999999880790710449 0.0021999999880790710449 0.0021999999880790710449 0.0021999999880790710449 0.0021999999880790710449 0.0021999999880790710449 0.0021999999880790710449 0.0021999999880790710449 0.0021999999880790710449 0.0021999999880790710449 0.0021999999880790710449 0.0021999999880790710449 0.0021999999880790710449 0.0021999999880790710449 0.0021999999880790710449 0.0021999999880790710449 0.0021999999880790710449 0.0021999999880790710449 0.0021999999880790710449 0.0021999999880790710449 0.0021999999880790710449 0.0021999999880790710449 0.0021999999880790710449 0.0021999999880790710449 0.0021999999880790710449 0.0021999999880790710449 0.0021999999880790710449 0.0021999999880790710449 0.0021999999880790710449 0.0062437499873340129852 0.0085312500596046447754 0.014200000092387199402 0.032881248742341995239 0.012293750420212745667 0.0055812499485909938812 0.017862500622868537903 0.0085312500596046447754 0.0074937501922249794006 0.026462500914931297302 0.034887500107288360596 0.014112499542534351349 0.023199999704957008362 0.017443750053644180298 0.015393749810755252838 0.0098562501370906829834 0.01552500016987323761 
0.0021999999880790710449 0.0021999999880790710449 0.0021999999880790710449 0.0021999999880790710449 0.0021999999880790710449 0.0021999999880790710449 0.0021999999880790710449 0.0021999999880790710449 0.0021999999880790710449 0.0021999999880790710449 0.0021999999880790710449 0.0021999999880790710449 0.0021999999880790710449 0.0021999999880790710449 0.0021999999880790710449 0.0021999999880790710449 0.0021999999880790710449 0.0021999999880790710449 0.0021999999880790710449 0.0021999999880790710449 0.0021999999880790710449 0.0021999999880790710449 0.0021999999880790710449 0.0021999999880790710449 0.0021999999880790710449 0.0021999999880790710449 0.0021999999880790710449 0.0021999999880790710449 0.0021999999880790710449 0.0021999999880790710449 0.0021999999880790710449 0.0021999999880790710449 0.0021999999880790710449 0.0021999999880790710449 0.0021999999880790710449 0.0021999999880790710449 0.0021999999880790710449 0.0021999999880790710449 0.0021999999880790710449 0.0021999999880790710449 0.0021999999880790710449 0.0021999999880790710449 0.0021999999880790710449 0.0021999999880790710449 0.0021999999880790710449 0.0021999999880790710449 0.0021999999880790710449 0.0021999999880790710449 0.0021999999880790710449 0.0021999999880790710449 0.0021999999880790710449 0.0021999999880790710449 0.0021999999880790710449 0.0021999999880790710449 0.0021999999880790710449 0.0021999999880790710449 0.0021999999880790710449 0.0021999999880790710449 0.0021999999880790710449 0.0021999999880790710449 0.0021999999880790710449 0.0048687499947845935822 0.0048687499947845935822 0.0021999999880790710449 0.0021999999880790710449 0.0021999999880790710449 0.0025312500074505805969 0.013624999672174453735 0.0055312500335276126862 0.0055312500335276126862 0.016537500545382499695 0.018525000661611557007 0.032218750566244125366 0.027212500572204589844 0.035549998283386230469 0.016793750226497650146 0.014156250283122062683 0.019206250086426734924 0.032175000756978988647 0.039893750101327896118 0.021543750539422035217 0.0031500000040978193283 0.0053562498651444911957 0.015875000506639480591 0.0055999998003244400024 0.011775000020861625671 0.0020250000525265932083 
0.0021999999880790710449 0.0021999999880790710449 0.0021999999880790710449 0.0021999999880790710449 0.0021999999880790710449 0.0021999999880790710449 0.0021999999880790710449 0.0021999999880790710449 0.0021999999880790710449 0.0021999999880790710449 0.0021999999880790710449 0.0021999999880790710449 0.0021999999880790710449 0.0021999999880790710449 0.0021999999880790710449 0.0021999999880790710449 0.0021999999880790710449 0.0021999999880790710449 0.0021999999880790710449 0.0021999999880790710449 0.0021999999880790710449 0.0021999999880790710449 0.0021999999880790710449 0.0021999999880790710449 0.0021999999880790710449 0.0021999999880790710449 0.0021999999880790710449 0.0021999999880790710449 0.0021999999880790710449 0.0021999999880790710449 0.0021999999880790710449 0.0021999999880790710449 0.0021999999880790710449 0.0021999999880790710449 0.0021999999880790710449 0.0021999999880790710449 0.0021999999880790710449 0.0021999999880790710449 0.0021999999880790710449 0.0021999999880790710449 0.0021999999880790710449 0.0021999999880790710449 0.0021999999880790710449 0.0021999999880790710449 0.0021999999880790710449 0.0021999999880790710449 0.0021999999880790710449 0.0021999999880790710449 0.0021999999880790710449 0.0021999999880790710449 0.0021999999880790710449 0.0021999999880790710449 0.0021999999880790710449 0.0021999999880790710449 0.0021999999880790710449 0.0021999999880790710449 0.0021999999880790710449 0.0021999999880790710449 0.0021999999880790710449 0.0021999999880790710449 0.0021999999880790710449 0.0021562499459832906723 0.0021999999880790710449 0.0021999999880790710449 0.015853846445679664612 0.0021999999880790710449 0.0021999999880790710449 0.0021999999880790710449 0.0031937500461935997009 0.0075187496840953826904 0.026881249621510505676 0.033212501555681228638 0.040224999189376831055 0.040224999189376831055 0.028162499889731407166 0.010393749922513961792 0.018687499687075614929 0.02754374966025352478 0.014024999924004077911 0.035218749195337295532 0.016868749633431434631 0.014200000092387199402 0.026881249621510505676 0.019537499174475669861 0.024700000882148742676 0.0054687499068677425385 0.0016749999485909938812 
0.0021999999880790710449 0.0021999999880790710449 0.0021999999880790710449 0.0021999999880790710449 0.0021999999880790710449 0.0021999999880790710449 0.0021999999880790710449 0.0021999999880790710449 0.0021999999880790710449 0.0021999999880790710449 0.0021999999880790710449 0.0021999999880790710449 0.0021999999880790710449 0.0021999999880790710449 0.0021999999880790710449 0.0021999999880790710449 0.0021999999880790710449 0.0021999999880790710449 0.0021999999880790710449 0.0021999999880790710449 0.0021999999880790710449 0.0021999999880790710449 0.0021999999880790710449 0.0021999999880790710449 0.0021999999880790710449 0.0021999999880790710449 0.0021999999880790710449 0.0021999999880790710449 0.0021999999880790710449 0.0021999999880790710449 0.0021999999880790710449 0.0021999999880790710449 0.0021999999880790710449 0.0021999999880790710449 0.0021999999880790710449 0.0021999999880790710449 0.0021999999880790710449 0.0021999999880790710449 0.0021999999880790710449 0.0021999999880790710449 0.0021999999880790710449 0.0021999999880790710449 0.0021999999880790710449 0.0021999999880790710449 0.0021999999880790710449 0.0021999999880790710449 0.0021999999880790710449 0.0021999999880790710449 0.0021999999880790710449 0.0021999999880790710449 0.0021999999880790710449 0.0021999999880790710449 0.0021999999880790710449 0.0021999999880790710449 0.0021999999880790710449 0.0021999999880790710449 0.0021999999880790710449 0.0021999999880790710449 0.0036249998956918716431 0.0021999999880790710449 0.0021999999880790710449 0.0020687500946223735809 0.029725000262260437012 0.031556248664855957031 0.012875000014901161194 0.016433333978056907654 0.0088625000789761543274 0.0021999999880790710449 0.0038562498521059751511 0.013187499716877937317 0.0081812497228384017944 0.030874999240040779114 0.037887498736381530762 0.030874999240040779114 0.025537500157952308655 0.017862500622868537903 0.01386875007301568985 0.021193750202655792236 0.013162500225007534027 0.01552500016987323761 0.025162499397993087769 0.022206250578165054321 0.0068562501110136508942 0.02754374966025352478 0.01611874997615814209 0.0030437500681728124619 0.0018500000005587935448 
0.0021999999880790710449 0.0021999999880790710449 0.0021999999880790710449 0.0021999999880790710449 0.0021999999880790710449 0.0021999999880790710449 0.0021999999880790710449 0.0021999999880790710449 0.0021999999880790710449 0.0021999999880790710449 0.0021999999880790710449 0.0021999999880790710449 0.0021999999880790710449 0.0021999999880790710449 0.0021999999880790710449 0.0021999999880790710449 0.0021999999880790710449 0.0021999999880790710449 0.0021999999880790710449 0.0021999999880790710449 0.0021999999880790710449 0.0021999999880790710449 0.0021999999880790710449 0.0021999999880790710449 0.0021999999880790710449 0.0021999999880790710449 0.0021999999880790710449 0.0021999999880790710449 0.0021999999880790710449 0.0021999999880790710449 0.0021999999880790710449 0.0021999999880790710449 0.0021999999880790710449 0.0021999999880790710449 0.010537499561905860901 0.0052000000141561031342 0.0021999999880790710449 0.0021999999880790710449 0.0021999999880790710449 0.0021999999880790710449 0.0021999999880790710449 0.0021999999880790710449 0.0021999999880790710449 0.0021999999880790710449 0.0021999999880790710449 0.0021999999880790710449 0.0021999999880790710449 0.0021999999880790710449 0.0021999999880790710449 0.0021999999880790710449 0.0021999999880790710449 0.0021999999880790710449 0.0021999999880790710449 0.0021999999880790710449 0.0021999999880790710449 0.0021999999880790710449 0.0021999999880790710449 0.0048687499947845935822 0.0075375000014901161194 0.01376875024288892746 0.0031500000040978193283 0.0062062498182058334351 0.0024375000502914190292 0.018623076379299163818 0.042231250554323196411 0.041341666132211685181 0.0021999999880790710449 0.0021999999880790710449 0.0071937497705221176147 0.01552500016987323761 0.012668750248849391937 0.024543749168515205383 0.027212500572204589844 0.019868750125169754028 0.025537500157952308655 0.033212501555681228638 0.027875000610947608948 0.020199999213218688965 0.0025312500074505805969 0.011775000020861625671 0.012987500056624412537 0.033212501555681228638 0.023881249129772186279 0.028112500905990600586 0.010512500070035457611 0.0023250000085681676865 0.0020250000525265932083 
0.0021999999880790710449 0.0021999999880790710449 0.0021999999880790710449 0.0021999999880790710449 0.0021999999880790710449 0.0021999999880790710449 0.0021999999880790710449 0.0021999999880790710449 0.0021999999880790710449 0.0021999999880790710449 0.0021999999880790710449 0.0021999999880790710449 0.0021999999880790710449 0.0021999999880790710449 0.0021999999880790710449 0.0021999999880790710449 0.0021999999880790710449 0.0021999999880790710449 0.0021999999880790710449 0.0021999999880790710449 0.0021999999880790710449 0.0021999999880790710449 0.0021999999880790710449 0.0021999999880790710449 0.0021999999880790710449 0.0021999999880790710449 0.0021999999880790710449 0.0021999999880790710449 0.0021999999880790710449 0.0021999999880790710449 0.0021999999880790710449 0.0021999999880790710449 0.0021999999880790710449 0.0025312500074505805969 0.0025312500074505805969 0.0045187501236796379089 0.0021999999880790710449 0.0021999999880790710449 0.0021999999880790710449 0.0021999999880790710449 0.0021999999880790710449 0.0021999999880790710449 0.0021999999880790710449 0.0021999999880790710449 0.0021999999880790710449 0.0021999999880790710449 0.0021999999880790710449 0.0021999999880790710449 0.0021999999880790710449 0.0021999999880790710449 0.0021999999880790710449 0.0021999999880790710449 0.0021999999880790710449 0.0021999999880790710449 0.0021999999880790710449 0.0021999999880790710449 0.0021999999880790710449 0.0028625000268220901489 0.0021999999880790710449 0.0021999999880790710449 0.0025312500074505805969 0.0084375003352761268616 0.0021999999880790710449 0.0021999999880790710449 0.036893751472234725952 0.044900000095367431641 0.0021999999880790710449 0.0021999999880790710449 0.0019374999683350324631 0.011156249791383743286 0.0058625000528991222382 0.036893751472234725952 0.044900000095367431641 0.033212501555681228638 0.021524999290704727173 0.035218749195337295532 0.02754374966025352478 0.0095250001177191734314 0.0021999999880790710449 0.0025312500074505805969 0.034556251019239425659 0.044900000095367431641 0.017531249672174453735 0.0037374999374151229858 0.0021312499884516000748 0.0016749999485909938812 0.0021999999880790710449 
0.0021999999880790710449 0.0021999999880790710449 0.0021999999880790710449 0.0021999999880790710449 0.0021999999880790710449 0.0021999999880790710449 0.0021999999880790710449 0.0021999999880790710449 0.0021999999880790710449 0.0021999999880790710449 0.0021999999880790710449 0.0021999999880790710449 0.0021999999880790710449 0.0021999999880790710449 0.0021999999880790710449 0.0021999999880790710449 0.0021999999880790710449 0.0021999999880790710449 0.0021999999880790710449 0.0021999999880790710449 0.0021999999880790710449 0.0021999999880790710449 0.0021999999880790710449 0.0021999999880790710449 0.0021999999880790710449 0.0021999999880790710449 0.0021999999880790710449 0.0021999999880790710449 0.0021999999880790710449 0.0021999999880790710449 0.0021999999880790710449 0.0099999997764825820923 0.0028625000268220901489 0.0024375000502914190292 0.0021999999880790710449 0.0074937501922249794006 0.0075375000014901161194 0.0021999999880790710449 0.0021999999880790710449 0.0021999999880790710449 0.0021999999880790710449 0.0021999999880790710449 0.0021999999880790710449 0.0021999999880790710449 0.0021999999880790710449 0.0021999999880790710449 0.0021999999880790710449 0.0021999999880790710449 0.0021999999880790710449 0.0021999999880790710449 0.0021999999880790710449 0.0021999999880790710449 0.013293750584125518799 0.0021999999880790710449 0.0021999999880790710449 0.0021999999880790710449 0.0021999999880790710449 0.0078687500208616256714 0.019537499174475669861 0.013206250034272670746 0.0021999999880790710449 0.0021999999880790710449 0.0021999999880790710449 0.0021999999880790710449 0.019537499174475669861 0.023550000041723251343 0.0021999999880790710449 0.0021999999880790710449 0.0021999999880790710449 0.0021999999880790710449 0.0021999999880790710449 0.020199999213218688965 0.028537500649690628052 0.028206249698996543884 0.025824999436736106873 0.039850000292062759399 0.030874999240040779114 0.0028625000268220901489 0.0078687500208616256714 0.02121249958872795105 0.037887498736381530762 0.042562499642372131348 0.023199999704957008362 0.0058625000528991222382 0.019781250506639480591 0.010274999774992465973 0.0033499998971819877625 
0.0021999999880790710449 0.0021999999880790710449 0.0021999999880790710449 0.0021999999880790710449 0.0021999999880790710449 0.0021999999880790710449 0.0021999999880790710449 0.0021999999880790710449 0.0021999999880790710449 0.0021999999880790710449 0.0021999999880790710449 0.0021999999880790710449 0.0021999999880790710449 0.0021999999880790710449 0.0021999999880790710449 0.0021999999880790710449 0.0021999999880790710449 0.0021999999880790710449 0.0021999999880790710449 0.0021999999880790710449 0.0021999999880790710449 0.0021999999880790710449 0.0021999999880790710449 0.0021999999880790710449 0.0021999999880790710449 0.0021999999880790710449 0.0021999999880790710449 0.0021999999880790710449 0.0021999999880790710449 0.0075375000014901161194 0.0082000000402331352234 0.0055312500335276126862 0.0021999999880790710449 0.0021999999880790710449 0.0021999999880790710449 0.0021999999880790710449 0.0021999999880790710449 0.0021999999880790710449 0.0021999999880790710449 0.0021999999880790710449 0.0021999999880790710449 0.0021999999880790710449 0.0021999999880790710449 0.0021999999880790710449 0.0021999999880790710449 0.0021999999880790710449 0.0021999999880790710449 0.0021999999880790710449 0.0021999999880790710449 0.0021999999880790710449 0.0021999999880790710449 0.0021999999880790710449 0.0080687496811151504517 0.014156250283122062683 0.0021999999880790710449 0.0021999999880790710449 0.0021999999880790710449 0.0021999999880790710449 0.019206250086426734924 0.035218749195337295532 0.0021999999880790710449 0.0021999999880790710449 0.0021999999880790710449 0.013316666707396507263 0.04178333282470703125 0.02117777802050113678 0.0021999999880790710449 0.0069444444961845874786 0.0030153845436871051788 0.0028625000268220901489 0.015875000506639480591 0.027212500572204589844 0.026200000196695327759 0.02121249958872795105 0.0033937499392777681351 0.016449999064207077026 0.037887498736381530762 0.0021999999880790710449 0.0082000000402331352234 0.02754374966025352478 0.032881248742341995239 0.035218749195337295532 0.022206250578165054321 0.023550000041723251343 0.029549999162554740906 0.035218749195337295532 0.044900000095367431641 
0.0021999999880790710449 0.0021999999880790710449 0.0021999999880790710449 0.0021999999880790710449 0.0021999999880790710449 0.0021999999880790710449 0.0021999999880790710449 0.0021999999880790710449 0.0021999999880790710449 0.0021999999880790710449 0.0021999999880790710449 0.0021999999880790710449 0.0021999999880790710449 0.0021999999880790710449 0.0021999999880790710449 0.0021999999880790710449 0.0021999999880790710449 0.0021999999880790710449 0.0021999999880790710449 0.0021999999880790710449 0.0021999999880790710449 0.0021999999880790710449 0.0021999999880790710449 0.0021999999880790710449 0.0021999999880790710449 0.0021999999880790710449 0.0021999999880790710449 0.0021999999880790710449 0.0021999999880790710449 0.02121249958872795105 0.0027687500696629285812 0.0021999999880790710449 0.0021999999880790710449 0.013293750584125518799 0.0021999999880790710449 0.0021999999880790710449 0.0021999999880790710449 0.0021999999880790710449 0.0021999999880790710449 0.0021999999880790710449 0.0021999999880790710449 0.0021999999880790710449 0.0021999999880790710449 0.0021999999880790710449 0.0021999999880790710449 0.0021999999880790710449 0.0021999999880790710449 0.0021999999880790710449 0.0021999999880790710449 0.013293750584125518799 0.0026750001125037670135 0.0021999999880790710449 0.0021562499459832906723 0.0021999999880790710449 0.0028625000268220901489 0.0021999999880790710449 0.0021999999880790710449 0.0021999999880790710449 0.0078687500208616256714 0.039893750101327896118 0.0082000000402331352234 0.0021999999880790710449 0.013758333399891853333 0.0068562501110136508942 0.039562501013278961182 0.039562501013278961182 0.0021999999880790710449 0.014641666784882545471 0.011862499639391899109 0.011531249620020389557 0.019868750125169754028 0.019868750125169754028 0.020862499251961708069 0.011199999600648880005 0.0055312500335276126862 0.0052000000141561031342 0.029549999162554740906 0.0021999999880790710449 0.0025312500074505805969 0.0021562499459832906723 0.010493749752640724182 0.020156249403953552246 0.032881248742341995239 0.015875000506639480591 0.0055125001817941665649 0.0019374999683350324631 0.014024999924004077911 
0.0021999999880790710449 0.0021999999880790710449 0.0021999999880790710449 0.0021999999880790710449 0.0021999999880790710449 0.0021999999880790710449 0.0021999999880790710449 0.0021999999880790710449 0.0021999999880790710449 0.0021999999880790710449 0.0021999999880790710449 0.0021999999880790710449 0.0021999999880790710449 0.0021999999880790710449 0.0021999999880790710449 0.0021999999880790710449 0.0021999999880790710449 0.0021999999880790710449 0.0021999999880790710449 0.0021999999880790710449 0.0021999999880790710449 0.0021999999880790710449 0.0021999999880790710449 0.0021999999880790710449 0.0048500001430511474609 0.0021999999880790710449 0.0021999999880790710449 0.0021999999880790710449 0.0021999999880790710449 0.0025312500074505805969 0.0021999999880790710449 0.0021999999880790710449 0.0021999999880790710449 0.013293750584125518799 0.0021999999880790710449 0.0021999999880790710449 0.0021999999880790710449 0.0021999999880790710449 0.0021999999880790710449 0.0021999999880790710449 0.0021999999880790710449 0.0021999999880790710449 0.0021999999880790710449 0.0021999999880790710449 0.0021999999880790710449 0.0021999999880790710449 0.0021999999880790710449 0.0021999999880790710449 0.0021999999880790710449 0.0091937500983476638794 0.014818750321865081787 0.0061937500722706317902 0.0021999999880790710449 0.0048687499947845935822 0.0038562498521059751511 0.0021999999880790710449 0.0021999999880790710449 0.0028625000268220901489 0.011199999600648880005 0.023531250655651092529 0.0021999999880790710449 0.0021999999880790710449 0.0035250000655651092529 0.014499999582767486572 0.02531666681170463562 0.026000000536441802979 0.0021999999880790710449 0.01227777823805809021 0.0058923074975609779358 0.0082000000402331352234 0.0021999999880790710449 0.024875000119209289551 0.021524999290704727173 0.0061937500722706317902 0.0028625000268220901489 0.031800001859664916992 0.016868749633431434631 0.0021999999880790710449 0.0028625000268220901489 0.0020250000525265932083 0.010318749584257602692 0.013756250031292438507 0.02136250026524066925 0.019868750125169754028 0.0015000000130385160446 0.0069249998778104782104 0.044900000095367431641 
0.0021999999880790710449 0.0021999999880790710449 0.0021999999880790710449 0.0021999999880790710449 0.0021999999880790710449 0.0021999999880790710449 0.0021999999880790710449 0.0021999999880790710449 0.0021999999880790710449 0.0021999999880790710449 0.0021999999880790710449 0.0021999999880790710449 0.0021999999880790710449 0.0021999999880790710449 0.0021999999880790710449 0.0021999999880790710449 0.0021999999880790710449 0.0021999999880790710449 0.0021999999880790710449 0.0021999999880790710449 0.0021999999880790710449 0.0021999999880790710449 0.0021999999880790710449 0.0021999999880790710449 0.0021999999880790710449 0.0021999999880790710449 0.0021999999880790710449 0.0038624999579042196274 0.002912499941885471344 0.0038562498521059751511 0.0025312500074505805969 0.0021999999880790710449 0.0021999999880790710449 0.0021999999880790710449 0.0021999999880790710449 0.0021999999880790710449 0.0021999999880790710449 0.0021999999880790710449 0.0021999999880790710449 0.0021999999880790710449 0.0021999999880790710449 0.0021999999880790710449 0.0021999999880790710449 0.0021999999880790710449 0.0021999999880790710449 0.0021999999880790710449 0.0021999999880790710449 0.0078687500208616256714 0.0061937500722706317902 0.016537500545382499695 0.0071875001303851604462 0.014862500131130218506 0.0025312500074505805969 0.017531249672174453735 0.010206250473856925964 0.0021999999880790710449 0.0021999999880790710449 0.0068562501110136508942 0.0052000000141561031342 0.014862500131130218506 0.0021999999880790710449 0.0038125000428408384323 0.026200000196695327759 0.024875000119209289551 0.03466666489839553833 0.023107143118977546692 0.0057583334855735301971 0.0085899997502565383911 0.015914285555481910706 0.015856249257922172546 0.010537499561905860901 0.024212500080466270447 0.030543750151991844177 0.014531250111758708954 0.011199999600648880005 0.0050249998457729816437 0.0025312500074505805969 0.0021999999880790710449 0.013537500053644180298 0.010206250473856925964 0.023199999704957008362 0.015481250360608100891 0.0053312499076128005981 0.0086000002920627593994 0.0018749999580904841423 0.0018062499584630131721 0.034225001931190490723 
0.0021999999880790710449 0.0021999999880790710449 0.0021999999880790710449 0.0021999999880790710449 0.0021999999880790710449 0.0021999999880790710449 0.0021999999880790710449 0.0021999999880790710449 0.0021999999880790710449 0.0021999999880790710449 0.0021999999880790710449 0.0021999999880790710449 0.0021999999880790710449 0.0021999999880790710449 0.0021999999880790710449 0.0021999999880790710449 0.0021999999880790710449 0.0021999999880790710449 0.0021999999880790710449 0.0021999999880790710449 0.0021999999880790710449 0.0021999999880790710449 0.0021999999880790710449 0.0021999999880790710449 0.0021999999880790710449 0.0021999999880790710449 0.0021999999880790710449 0.0021999999880790710449 0.0024375000502914190292 0.0025312500074505805969 0.0055312500335276126862 0.0021999999880790710449 0.0021999999880790710449 0.0021999999880790710449 0.0021999999880790710449 0.0021999999880790710449 0.0021999999880790710449 0.0021999999880790710449 0.0021999999880790710449 0.0021999999880790710449 0.0021999999880790710449 0.0021999999880790710449 0.0021999999880790710449 0.0021999999880790710449 0.0021999999880790710449 0.0021999999880790710449 0.0052000000141561031342 0.0021999999880790710449 0.0021999999880790710449 0.0048687499947845935822 0.013956249691545963287 0.017200000584125518799 0.0075187496840953826904 0.0028625000268220901489 0.0075375000014901161194 0.0021999999880790710449 0.0058625000528991222382 0.0021999999880790710449 0.016206249594688415527 0.012524999678134918213 0.0070833330973982810974 0.0021999999880790710449 0.018200000748038291931 0.0035250000655651092529 0.025669999420642852783 0.038666665554046630859 0.0055312500335276126862 0.0021999999880790710449 0.014328571036458015442 0.02081874944269657135 0.0031937500461935997009 0.0078687500208616256714 0.013518749736249446869 0.01386875007301568985 0.0078687500208616256714 0.0021999999880790710449 0.0021999999880790710449 0.0052000000141561031342 0.0052000000141561031342 0.028843749314546585083 0.015987500548362731934 0.0099874995648860931396 0.0018500000005587935448 0.0018500000005587935448 0.0030937499832361936569 0.0026249999646097421646 0.023375000804662704468 
0.0021999999880790710449 0.0021999999880790710449 0.0021999999880790710449 0.0021999999880790710449 0.0021999999880790710449 0.0021999999880790710449 0.0021999999880790710449 0.0021999999880790710449 0.0021999999880790710449 0.0021999999880790710449 0.0021999999880790710449 0.0021999999880790710449 0.0021999999880790710449 0.0021999999880790710449 0.0021999999880790710449 0.0021999999880790710449 0.0021999999880790710449 0.0021999999880790710449 0.0021999999880790710449 0.0021562499459832906723 0.0021999999880790710449 0.0021999999880790710449 0.0021999999880790710449 0.0021999999880790710449 0.0021999999880790710449 0.0021999999880790710449 0.0021999999880790710449 0.0021999999880790710449 0.0048687499947845935822 0.015543749555945396423 0.013293750584125518799 0.0021999999880790710449 0.0021999999880790710449 0.0021999999880790710449 0.0021999999880790710449 0.0021999999880790710449 0.0021999999880790710449 0.0021999999880790710449 0.0021999999880790710449 0.0021999999880790710449 0.0021999999880790710449 0.0021999999880790710449 0.0021999999880790710449 0.0021999999880790710449 0.0021999999880790710449 0.0021999999880790710449 0.0021999999880790710449 0.0021999999880790710449 0.0025312500074505805969 0.028887499123811721802 0.026174999773502349854 0.030543750151991844177 0.0045187501236796379089 0.0065250000916421413422 0.01651874929666519165 0.0052000000141561031342 0.0082000000402331352234 0.0025312500074505805969 0.013206250034272670746 0.011199999600648880005 0.0026416666805744171143 0.0021999999880790710449 0.0025533332955092191696 0.031255554407835006714 0.044900000095367431641 0.035453844815492630005 0.020862499251961708069 0.013758333399891853333 0.016781250014901161194 0.0080249998718500137329 0.0021999999880790710449 0.0021999999880790710449 0.0021999999880790710449 0.0035250000655651092529 0.022293750196695327759 0.0025312500074505805969 0.0052000000141561031342 0.02121249958872795105 0.0041875001043081283569 0.014156250283122062683 0.010031250305473804474 0.0021999999880790710449 0.0021999999880790710449 0.0021999999880790710449 0.0020250000525265932083 0.0043374998494982719421 0.0063749998807907104492 
0.0021999999880790710449 0.0021999999880790710449 0.0021999999880790710449 0.0021999999880790710449 0.0021999999880790710449 0.0021999999880790710449 0.0021999999880790710449 0.0021999999880790710449 0.0021999999880790710449 0.0021999999880790710449 0.0021999999880790710449 0.0021999999880790710449 0.0021999999880790710449 0.0021999999880790710449 0.0021999999880790710449 0.0021999999880790710449 0.0021999999880790710449 0.0021999999880790710449 0.0021999999880790710449 0.0021999999880790710449 0.0021999999880790710449 0.0021999999880790710449 0.0021999999880790710449 0.0021999999880790710449 0.0021999999880790710449 0.0021999999880790710449 0.0021999999880790710449 0.0021999999880790710449 0.010206250473856925964 0.026218749582767486572 0.0021999999880790710449 0.0048687499947845935822 0.0048687499947845935822 0.0021999999880790710449 0.0021999999880790710449 0.0021999999880790710449 0.0021999999880790710449 0.0021999999880790710449 0.0021999999880790710449 0.0021999999880790710449 0.0021999999880790710449 0.0021999999880790710449 0.0021999999880790710449 0.0021999999880790710449 0.0025312500074505805969 0.0021999999880790710449 0.0021999999880790710449 0.0021999999880790710449 0.023550000041723251343 0.02121249958872795105 0.018874999135732650757 0.028537500649690628052 0.018525000661611557007 0.0055312500335276126862 0.0065250000916421413422 0.0055312500335276126862 0.017200000584125518799 0.0082000000402331352234 0.0048687499947845935822 0.0062000001780688762665 0.0052000000141561031342 0.0021999999880790710449 0.0048687499947845935822 0.03243333473801612854 0.032549999654293060303 0.013537500053644180298 0.0048687499947845935822 0.0066416664049029350281 0.0028625000268220901489 0.0021999999880790710449 0.0021999999880790710449 0.0048687499947845935822 0.0082000000402331352234 0.016537500545382499695 0.015543749555945396423 0.019537499174475669861 0.013206250034272670746 0.0052000000141561031342 0.0058625000528991222382 0.032218750566244125366 0.021037500351667404175 0.0021999999880790710449 0.0021999999880790710449 0.0021999999880790710449 0.0018500000005587935448 0.0020250000525265932083 0.0021999999880790710449 
0.0021999999880790710449 0.0021999999880790710449 0.0021999999880790710449 0.0021999999880790710449 0.0021999999880790710449 0.0021999999880790710449 0.0021999999880790710449 0.0021999999880790710449 0.0021999999880790710449 0.0021999999880790710449 0.0021999999880790710449 0.0021999999880790710449 0.0021999999880790710449 0.0021999999880790710449 0.0021999999880790710449 0.0021999999880790710449 0.0021999999880790710449 0.0021999999880790710449 0.0048687499947845935822 0.0021999999880790710449 0.0021999999880790710449 0.0021999999880790710449 0.0021999999880790710449 0.0021999999880790710449 0.0021999999880790710449 0.0021999999880790710449 0.0021999999880790710449 0.0021999999880790710449 0.011581249535083770752 0.0025312500074505805969 0.0021999999880790710449 0.0048687499947845935822 0.0021999999880790710449 0.0021999999880790710449 0.0021999999880790710449 0.0021999999880790710449 0.0021999999880790710449 0.0021999999880790710449 0.0021999999880790710449 0.0021999999880790710449 0.0021999999880790710449 0.0048687499947845935822 0.013206250034272670746 0.0052000000141561031342 0.0085312500596046447754 0.0021999999880790710449 0.0021999999880790710449 0.0052000000141561031342 0.010206250473856925964 0.0052000000141561031342 0.021874999627470970154 0.014862500131130218506 0.0035250000655651092529 0.0031937500461935997009 0.0031937500461935997009 0.0021999999880790710449 0.011531249620020389557 0.015856249257922172546 0.022537499666213989258 0.012193749658763408661 0.0021999999880790710449 0.0021999999880790710449 0.0019900000188499689102 0.028277777135372161865 0.025537500157952308655 0.0021999999880790710449 0.0021999999880790710449 0.0052000000141561031342 0.0021999999880790710449 0.0021999999880790710449 0.0021999999880790710449 0.0078687500208616256714 0.0085312500596046447754 0.035218749195337295532 0.040224999189376831055 0.025206249207258224487 0.0052000000141561031342 0.0021999999880790710449 0.0048687499947845935822 0.02121249958872795105 0.0075375000014901161194 0.0048687499947845935822 0.0021999999880790710449 0.0021999999880790710449 0.0025875000283122062683 0.0021999999880790710449 0.023550000041723251343 
0.0021999999880790710449 0.0021999999880790710449 0.0021999999880790710449 0.0021999999880790710449 0.0021999999880790710449 0.0021999999880790710449 0.0021999999880790710449 0.0021999999880790710449 0.0021999999880790710449 0.0021999999880790710449 0.0021999999880790710449 0.0021999999880790710449 0.0021999999880790710449 0.0021999999880790710449 0.0021999999880790710449 0.0021999999880790710449 0.0021999999880790710449 0.0021999999880790710449 0.0021999999880790710449 0.0021999999880790710449 0.0021999999880790710449 0.0021999999880790710449 0.0021562499459832906723 0.0036249998956918716431 0.0024375000502914190292 0.0021999999880790710449 0.0061937500722706317902 0.0021999999880790710449 0.018874999135732650757 0.0058625000528991222382 0.0033875000663101673126 0.0024375000502914190292 0.0021999999880790710449 0.0021999999880790710449 0.0021999999880790710449 0.0021999999880790710449 0.0021999999880790710449 0.0021999999880790710449 0.0021999999880790710449 0.0021999999880790710449 0.0021999999880790710449 0.017287500202655792236 0.014200000092387199402 0.013074999675154685974 0.0021124999038875102997 0.0021999999880790710449 0.010206250473856925964 0.033212501555681228638 0.013206250034272670746 0.0098562501370906829834 0.0021562499459832906723 0.0016312500229105353355 0.0016312500229105353355 0.0015437500551342964172 0.00221875007264316082 0.0160187501460313797 0.0078687500208616256714 0.023531250655651092529 0.0058625000528991222382 0.0075375000014901161194 0.012612500227987766266 0.0021999999880790710449 0.023479999974370002747 0.020583333447575569153 0.033212501555681228638 0.0035250000655651092529 0.0021999999880790710449 0.022018749266862869263 0.003574999980628490448 0.0021999999880790710449 0.0021999999880790710449 0.0020250000525265932083 0.0018500000005587935448 0.020881250500679016113 0.032218750566244125366 0.0065250000916421413422 0.019537499174475669861 0.0021999999880790710449 0.0021999999880790710449 0.016537500545382499695 0.0021999999880790710449 0.0020687500946223735809 0.0019374999683350324631 0.0020687500946223735809 0.0030187498778104782104 0.0052000000141561031342 0.023550000041723251343 
0.0021999999880790710449 0.0021999999880790710449 0.0021999999880790710449 0.0021999999880790710449 0.0021999999880790710449 0.0021999999880790710449 0.0021999999880790710449 0.0021999999880790710449 0.0021999999880790710449 0.0021999999880790710449 0.0021999999880790710449 0.0021999999880790710449 0.0021999999880790710449 0.0021999999880790710449 0.0021999999880790710449 0.0021999999880790710449 0.0021999999880790710449 0.0021999999880790710449 0.0021999999880790710449 0.0021999999880790710449 0.0021999999880790710449 0.0021999999880790710449 0.0084437504410743713379 0.0033875000663101673126 0.0026750001125037670135 0.0021999999880790710449 0.0025312500074505805969 0.0020250000525265932083 0.023881249129772186279 0.0028625000268220901489 0.0033875000663101673126 0.0021999999880790710449 0.0021999999880790710449 0.0021999999880790710449 0.0021999999880790710449 0.0021999999880790710449 0.0021999999880790710449 0.013293750584125518799 0.0021999999880790710449 0.013624999672174453735 0.013206250034272670746 0.0020250000525265932083 0.0021999999880790710449 0.0018937500426545739174 0.0019374999683350324631 0.0021124999038875102997 0.0022249999456107616425 0.013318750075995922089 0.02655000053346157074 0.0055312500335276126862 0.0021999999880790710449 0.0015437500551342964172 0.0015000000130385160446 0.0015000000130385160446 0.0025187500286847352982 0.007481249980628490448 0.018574999645352363586 0.033212501555681228638 0.010537499561905860901 0.018212500959634780884 0.038666665554046630859 0.0082000000402331352234 0.036890000104904174805 0.021257143467664718628 0.035549998283386230469 0.0030833333730697631836 0.013537500053644180298 0.0082000000402331352234 0.0031937500461935997009 0.0021999999880790710449 0.0021999999880790710449 0.0019374999683350324631 0.0020250000525265932083 0.026881249621510505676 0.029549999162554740906 0.0055312500335276126862 0.010537499561905860901 0.0021999999880790710449 0.016868749633431434631 0.016868749633431434631 0.0021999999880790710449 0.0017625000327825546265 0.0023874999023973941803 0.0015874999808147549629 0.0019812500104308128357 0.01854375004768371582 0.0061749997548758983612 
0.0021999999880790710449 0.0021999999880790710449 0.0021999999880790710449 0.0021999999880790710449 0.0021999999880790710449 0.0021999999880790710449 0.0021999999880790710449 0.0021999999880790710449 0.0021999999880790710449 0.0021999999880790710449 0.0021999999880790710449 0.0021999999880790710449 0.0021999999880790710449 0.0021999999880790710449 0.0021999999880790710449 0.0021999999880790710449 0.0021999999880790710449 0.0021999999880790710449 0.0021999999880790710449 0.0021999999880790710449 0.0021999999880790710449 0.0021999999880790710449 0.0021999999880790710449 0.0021999999880790710449 0.0021999999880790710449 0.0021999999880790710449 0.0048687499947845935822 0.012875000014901161194 0.019206250086426734924 0.0026750001125037670135 0.011156249791383743286 0.0021999999880790710449 0.0021999999880790710449 0.0021999999880790710449 0.0021999999880790710449 0.057668749243021011353 0.0021999999880790710449 0.011531249620020389557 0.0055312500335276126862 0.011068750172853469849 0.0019374999683350324631 0.0018500000005587935448 0.0020250000525265932083 0.0017625000327825546265 0.02141249924898147583 0.0015000000130385160446 0.0015000000130385160446 0.0018500000005587935448 0.0048687499947845935822 0.0019812500104308128357 0.0021999999880790710449 0.0015000000130385160446 0.0015000000130385160446 0.0015000000130385160446 0.0018062499584630131721 0.0061937500722706317902 0.022868750616908073425 0.013000000268220901489 0.018525000661611557007 0.01227777823805809021 0.015540000051259994507 0.0066416664049029350281 0.035411112010478973389 0.029316667467355728149 0.040155556052923202515 0.010200000368058681488 0.0025312500074505805969 0.0025312500074505805969 0.0068562501110136508942 0.0021999999880790710449 0.0021999999880790710449 0.0021999999880790710449 0.0021999999880790710449 0.0054374998435378074646 0.0025312500074505805969 0.0021999999880790710449 0.0055312500335276126862 0.011199999600648880005 0.016868749633431434631 0.0075375000014901161194 0.0021999999880790710449 0.0020250000525265932083 0.0017187499906867742538 0.0017625000327825546265 0.010118749924004077911 0.010868749581277370453 0.012875000014901161194 
0.0021999999880790710449 0.0021999999880790710449 0.0021999999880790710449 0.0021999999880790710449 0.0021999999880790710449 0.0021999999880790710449 0.0021999999880790710449 0.0021999999880790710449 0.0021999999880790710449 0.0021999999880790710449 0.0021999999880790710449 0.0021999999880790710449 0.0021999999880790710449 0.0021999999880790710449 0.0021999999880790710449 0.0021999999880790710449 0.0021999999880790710449 0.0021999999880790710449 0.0021999999880790710449 0.0021999999880790710449 0.0021999999880790710449 0.0021999999880790710449 0.0021999999880790710449 0.0031062499620020389557 0.0021999999880790710449 0.0021999999880790710449 0.0054874997586011886597 0.0075375000014901161194 0.013537500053644180298 0.014531250111758708954 0.012875000014901161194 0.0021999999880790710449 0.0021999999880790710449 0.0021999999880790710449 0.013293750584125518799 0.002912499941885471344 0.0021999999880790710449 0.0052000000141561031342 0.0021124999038875102997 0.0054124998860061168671 0.010693750344216823578 0.0017625000327825546265 0.0015874999808147549629 0.0017625000327825546265 0.0074499999172985553741 0.0015000000130385160446 0.0015000000130385160446 0.0015874999808147549629 0.0020250000525265932083 0.0020687500946223735809 0.0021124999038875102997 0.0019812500104308128357 0.0019812500104308128357 0.0029312500264495611191 0.0020687500946223735809 0.0065250000916421413422 0.017862500622868537903 0.011862499639391899109 0.0042384616099298000336 0.0052000000141561031342 0.027108334004878997803 0.028887499123811721802 0.027875000610947608948 0.0075187496840953826904 0.0082000000402331352234 0.0025533332955092191696 0.020870000123977661133 0.0031937500461935997009 0.0025312500074505805969 0.0021999999880790710449 0.0021999999880790710449 0.0021999999880790710449 0.0021999999880790710449 0.0024375000502914190292 0.0021999999880790710449 0.0021999999880790710449 0.0021999999880790710449 0.010206250473856925964 0.024875000119209289551 0.0052000000141561031342 0.0021999999880790710449 0.0021999999880790710449 0.0020250000525265932083 0.0050687501206994056702 0.019537499174475669861 0.010206250473856925964 0.012875000014901161194 
0.0021999999880790710449 0.0021999999880790710449 0.0021999999880790710449 0.0021999999880790710449 0.0021999999880790710449 0.0021999999880790710449 0.0021999999880790710449 0.0021999999880790710449 0.0021999999880790710449 0.0021999999880790710449 0.0021999999880790710449 0.0021999999880790710449 0.0021999999880790710449 0.0021999999880790710449 0.0021999999880790710449 0.0021999999880790710449 0.0021999999880790710449 0.0021999999880790710449 0.0021999999880790710449 0.0021999999880790710449 0.0021999999880790710449 0.002912499941885471344 0.0021999999880790710449 0.0021999999880790710449 0.0021999999880790710449 0.0021999999880790710449 0.0048937499523162841797 0.0021999999880790710449 0.029218750074505805969 0.018874999135732650757 0.020881250500679016113 0.0048687499947845935822 0.0021999999880790710449 0.0021999999880790710449 0.0039999997243285179138 0.0024375000502914190292 0.0021999999880790710449 0.0021999999880790710449 0.0020687500946223735809 0.0025625000707805156708 0.0053750001825392246246 0.0018062499584630131721 0.0015437500551342964172 0.0017187499906867742538 0.0016749999485909938812 0.0017812500009313225746 0.0020437499042600393295 0.0016749999485909938812 0.0021999999880790710449 0.0021999999880790710449 0.0024375000502914190292 0.0019374999683350324631 0.0024437499232590198517 0.0036249998956918716431 0.0021999999880790710449 0.010693750344216823578 0.017200000584125518799 0.014200000092387199402 0.0063222222961485385895 0.0058923074975609779358 0.020661538466811180115 0.028880000114440917969 0.0068562501110136508942 0.0021999999880790710449 0.0021999999880790710449 0.0021999999880790710449 0.028871428221464157104 0.026739999651908874512 0.027875000610947608948 0.013206250034272670746 0.0058923074975609779358 0.0021999999880790710449 0.0021999999880790710449 0.0021999999880790710449 0.0031500000040978193283 0.018212500959634780884 0.020881250500679016113 0.016537500545382499695 0.035218749195337295532 0.013537500053644180298 0.0024375000502914190292 0.002349999966099858284 0.0021999999880790710449 0.0021999999880790710449 0.0025312500074505805969 0.0021999999880790710449 0.0021999999880790710449 
0.0021999999880790710449 0.0021999999880790710449 0.0021999999880790710449 0.0021999999880790710449 0.0021999999880790710449 0.0021999999880790710449 0.0021999999880790710449 0.0021999999880790710449 0.0021999999880790710449 0.0021999999880790710449 0.0021999999880790710449 0.0021999999880790710449 0.0021999999880790710449 0.0021999999880790710449 0.0021999999880790710449 0.0021999999880790710449 0.0021999999880790710449 0.0021999999880790710449 0.0021999999880790710449 0.0021999999880790710449 0.0021999999880790710449 0.0021999999880790710449 0.0021999999880790710449 0.0021999999880790710449 0.0021999999880790710449 0.0021999999880790710449 0.019206250086426734924 0.0068562501110136508942 0.026881249621510505676 0.039562501013278961182 0.044900000095367431641 0.044900000095367431641 0.018212500959634780884 0.0058625000528991222382 0.0055312500335276126862 0.0021999999880790710449 0.0021999999880790710449 0.0021999999880790710449 0.0021999999880790710449 0.0021937501151114702225 0.0025875000283122062683 0.0017187499906867742538 0.0015000000130385160446 0.0016749999485909938812 0.0017187499906867742538 0.0017187499906867742538 0.0021750000305473804474 0.0017625000327825546265 0.0021999999880790710449 0.0024375000502914190292 0.0033875000663101673126 0.0054874997586011886597 0.0078687500208616256714 0.0020250000525265932083 0.012743749655783176422 0.010287499986588954926 0.0098187495023012161255 0.0021999999880790710449 0.012875000014901161194 0.040630001574754714966 0.035218749195337295532 0.0052000000141561031342 0.0021999999880790710449 0.0021999999880790710449 0.0097583336755633354187 0.033078569918870925903 0.040224999189376831055 0.040224999189376831055 0.0063857142813503742218 0.0026750001125037670135 0.0033875000663101673126 0.0021999999880790710449 0.0021999999880790710449 0.0021999999880790710449 0.0084875002503395080566 0.0080124996602535247803 0.0025312500074505805969 0.010206250473856925964 0.015875000506639480591 0.011531249620020389557 0.013725000433623790741 0.0020250000525265932083 0.0021999999880790710449 0.0021999999880790710449 0.0021124999038875102997 0.0028687498997896909714 0.0021999999880790710449 
0.0021999999880790710449 0.0021999999880790710449 0.0021999999880790710449 0.0021999999880790710449 0.0021999999880790710449 0.0021999999880790710449 0.0021999999880790710449 0.0021999999880790710449 0.0021999999880790710449 0.0021999999880790710449 0.0021999999880790710449 0.0021999999880790710449 0.0021999999880790710449 0.0021999999880790710449 0.0021999999880790710449 0.0021999999880790710449 0.0021999999880790710449 0.0021999999880790710449 0.0021999999880790710449 0.0021999999880790710449 0.0021999999880790710449 0.0021999999880790710449 0.0021999999880790710449 0.0021999999880790710449 0.0021999999880790710449 0.0021999999880790710449 0.0072750002145767211914 0.02754374966025352478 0.0038562498521059751511 0.02655000053346157074 0.039562501013278961182 0.030543750151991844177 0.012875000014901161194 0.046575002372264862061 0.0021999999880790710449 0.0021999999880790710449 0.0021999999880790710449 0.0021999999880790710449 0.0052000000141561031342 0.0021124999038875102997 0.0020687500946223735809 0.0017625000327825546265 0.0015437500551342964172 0.0015874999808147549629 0.0015000000130385160446 0.0020624999888241291046 0.0020874999463558197021 0.0018062499584630131721 0.0021999999880790710449 0.0033875000663101673126 0.0037312500644475221634 0.0021999999880790710449 0.016206249594688415527 0.0021999999880790710449 0.020662499591708183289 0.0098249996080994606018 0.0091937500983476638794 0.016561537981033325195 0.0092583335936069488525 0.023862499743700027466 0.021543750539422035217 0.0021999999880790710449 0.0021999999880790710449 0.0021999999880790710449 0.021069230511784553528 0.0050466665998101234436 0.014399999752640724182 0.0054846154525876045227 0.011800000444054603577 0.0021999999880790710449 0.0021999999880790710449 0.0021999999880790710449 0.0021999999880790710449 0.0021999999880790710449 0.0021999999880790710449 0.0021999999880790710449 0.0021999999880790710449 0.0075375000014901161194 0.0052000000141561031342 0.0021999999880790710449 0.0021999999880790710449 0.0021562499459832906723 0.0021999999880790710449 0.0021999999880790710449 0.0021999999880790710449 0.0021999999880790710449 0.0021999999880790710449 
0.0021999999880790710449 0.0021999999880790710449 0.0021999999880790710449 0.0021999999880790710449 0.0021999999880790710449 0.0021999999880790710449 0.0021999999880790710449 0.0021999999880790710449 0.0021999999880790710449 0.0021999999880790710449 0.0021999999880790710449 0.0021999999880790710449 0.0021999999880790710449 0.0075375000014901161194 0.0075375000014901161194 0.0048687499947845935822 0.0024375000502914190292 0.0021999999880790710449 0.0021999999880790710449 0.0021999999880790710449 0.0021999999880790710449 0.0021999999880790710449 0.0021999999880790710449 0.0035250000655651092529 0.0048687499947845935822 0.013293750584125518799 0.0024437499232590198517 0.0058625000528991222382 0.022206250578165054321 0.019774999469518661499 0.0026750001125037670135 0.0068562501110136508942 0.0088625000789761543274 0.013293750584125518799 0.0058625000528991222382 0.0021999999880790710449 0.0048687499947845935822 0.0078687500208616256714 0.013206250034272670746 0.0021999999880790710449 0.0021999999880790710449 0.0064812498167157173157 0.016824999824166297913 0.0021999999880790710449 0.0021999999880790710449 0.0024874999653548002243 0.0021999999880790710449 0.0021999999880790710449 0.0021999999880790710449 0.0021999999880790710449 0.0075375000014901161194 0.0047812499105930328369 0.0021999999880790710449 0.0021562499459832906723 0.0021999999880790710449 0.0075375000014901161194 0.0021999999880790710449 0.0045187501236796379089 0.0021999999880790710449 0.025537500157952308655 0.013537500053644180298 0.012875000014901161194 0.0031937500461935997009 0.0069444444961845874786 0.037225000560283660889 0.014862500131130218506 0.0021999999880790710449 0.0021999999880790710449 0.0021999999880790710449 0.0021999999880790710449 0.0021999999880790710449 0.0021999999880790710449 0.015853846445679664612 0.024387501180171966553 0.0069444444961845874786 0.0021999999880790710449 0.012875000014901161194 0.023550000041723251343 0.0028625000268220901489 0.0021999999880790710449 0.0021999999880790710449 0.0021999999880790710449 0.0021999999880790710449 0.0021999999880790710449 0.0021999999880790710449 0.0021999999880790710449 0.0021999999880790710449 
0.0021999999880790710449 0.0021999999880790710449 0.0021999999880790710449 0.0021999999880790710449 0.0021999999880790710449 0.0021999999880790710449 0.0021999999880790710449 0.0021999999880790710449 0.0021999999880790710449 0.0021999999880790710449 0.0021999999880790710449 0.0021999999880790710449 0.010206250473856925964 0.010206250473856925964 0.0021999999880790710449 0.0021999999880790710449 0.0021999999880790710449 0.0021999999880790710449 0.0021999999880790710449 0.0021999999880790710449 0.0021999999880790710449 0.0021999999880790710449 0.0055312500335276126862 0.0028625000268220901489 0.014531250111758708954 0.0035250000655651092529 0.0031937500461935997009 0.0091937500983476638794 0.0055312500335276126862 0.014200000092387199402 0.008143750019371509552 0.015006249770522117615 0.013293750584125518799 0.0025312500074505805969 0.0024437499232590198517 0.0028187499847263097763 0.021543750539422035217 0.0048687499947845935822 0.0020250000525265932083 0.0021999999880790710449 0.0021999999880790710449 0.0052000000141561031342 0.0025312500074505805969 0.0021999999880790710449 0.0021999999880790710449 0.0026750001125037670135 0.00278125004842877388 0.0018937500426545739174 0.0021999999880790710449 0.0021999999880790710449 0.0021562499459832906723 0.0021562499459832906723 0.0048687499947845935822 0.0020687500946223735809 0.013293750584125518799 0.0021999999880790710449 0.0021999999880790710449 0.0025312500074505805969 0.016433333978056907654 0.021524999290704727173 0.019868750125169754028 0.0048500001430511474609 0.011688889004290103912 0.0027300000656396150589 0.0087692309170961380005 0.024080000817775726318 0.0021999999880790710449 0.0021999999880790710449 0.0021999999880790710449 0.0021999999880790710449 0.0021999999880790710449 0.0028333333320915699005 0.0021999999880790710449 0.0021999999880790710449 0.0021999999880790710449 0.0048687499947845935822 0.02655000053346157074 0.01386875007301568985 0.0021999999880790710449 0.0021999999880790710449 0.0021999999880790710449 0.0075375000014901161194 0.0021999999880790710449 0.0021999999880790710449 0.0021999999880790710449 0.0021999999880790710449 0.0021999999880790710449 
0.0021999999880790710449 0.0021999999880790710449 0.0021999999880790710449 0.0021999999880790710449 0.0021999999880790710449 0.0021999999880790710449 0.0021999999880790710449 0.0058625000528991222382 0.0025312500074505805969 0.0021999999880790710449 0.0021999999880790710449 0.0021999999880790710449 0.031556248664855957031 0.0021999999880790710449 0.0021999999880790710449 0.0021999999880790710449 0.0021999999880790710449 0.0021999999880790710449 0.0021999999880790710449 0.0021999999880790710449 0.0021999999880790710449 0.0021999999880790710449 0.0021999999880790710449 0.0038562498521059751511 0.0028625000268220901489 0.0021999999880790710449 0.0085312500596046447754 0.010537499561905860901 0.015875000506639480591 0.020199999213218688965 0.012956250458955764771 0.019868750125169754028 0.021874999627470970154 0.016868749633431434631 0.024543749168515205383 0.026331249624490737915 0.02141249924898147583 0.015543749555945396423 0.0052000000141561031342 0.0081562502309679985046 0.0074937501922249794006 0.0021999999880790710449 0.0021999999880790710449 0.0021999999880790710449 0.0021124999038875102997 0.0032562499400228261948 0.0038187499158084392548 0.0030624999199062585831 0.0021999999880790710449 0.0021999999880790710449 0.0021999999880790710449 0.012875000014901161194 0.02121249958872795105 0.0021999999880790710449 0.0021999999880790710449 0.0021999999880790710449 0.0026416666805744171143 0.0021999999880790710449 0.025599999353289604187 0.030874999240040779114 0.020339999347925186157 0.0048500001430511474609 0.0021999999880790710449 0.0039666667580604553223 0.0021999999880790710449 0.0021999999880790710449 0.0021999999880790710449 0.0021999999880790710449 0.0021999999880790710449 0.0021999999880790710449 0.0021999999880790710449 0.0021999999880790710449 0.0021999999880790710449 0.0021999999880790710449 0.0021999999880790710449 0.0021999999880790710449 0.0082999998703598976135 0.010739999823272228241 0.0021999999880790710449 0.0021999999880790710449 0.0021999999880790710449 0.023550000041723251343 0.0021999999880790710449 0.0021999999880790710449 0.0021999999880790710449 0.0021999999880790710449 0.0021999999880790710449 
0.0021999999880790710449 0.0021999999880790710449 0.0021999999880790710449 0.0021999999880790710449 0.0021999999880790710449 0.0021999999880790710449 0.0023999998811632394791 0.019868750125169754028 0.014200000092387199402 0.0021999999880790710449 0.0021999999880790710449 0.012875000014901161194 0.015543749555945396423 0.0021999999880790710449 0.0021999999880790710449 0.0021999999880790710449 0.0021999999880790710449 0.0021999999880790710449 0.0021999999880790710449 0.0021999999880790710449 0.0026750001125037670135 0.0024375000502914190292 0.0021999999880790710449 0.0088625000789761543274 0.0021999999880790710449 0.0021999999880790710449 0.013162500225007534027 0.011487499810755252838 0.028537500649690628052 0.029218750074505805969 0.02754374966025352478 0.012787500396370887756 0.024543749168515205383 0.0021999999880790710449 0.0021999999880790710449 0.0028625000268220901489 0.01715625077486038208 0.013981250114738941193 0.01016249973326921463 0.013206250034272670746 0.0025312500074505805969 0.0021999999880790710449 0.0021999999880790710449 0.0021999999880790710449 0.0025875000283122062683 0.0022374999243766069412 0.0021562499459832906723 0.0021999999880790710449 0.0021999999880790710449 0.0021999999880790710449 0.0021999999880790710449 0.010206250473856925964 0.0075375000014901161194 0.0021999999880790710449 0.0021999999880790710449 0.0063857142813503742218 0.034137498587369918823 0.017531249672174453735 0.028880000114440917969 0.030874999240040779114 0.010200000368058681488 0.0021999999880790710449 0.0021999999880790710449 0.0021999999880790710449 0.0061937500722706317902 0.0021999999880790710449 0.0021999999880790710449 0.0021999999880790710449 0.0021999999880790710449 0.0064699999056756496429 0.0021999999880790710449 0.0021999999880790710449 0.0031937500461935997009 0.0048500001430511474609 0.0021999999880790710449 0.0021999999880790710449 0.039562501013278961182 0.0093166669830679893494 0.0021999999880790710449 0.0021999999880790710449 0.0021999999880790710449 0.0075375000014901161194 0.0021999999880790710449 0.0021999999880790710449 0.0021999999880790710449 0.0021999999880790710449 0.0021999999880790710449 
0.0021999999880790710449 0.0021999999880790710449 0.0021999999880790710449 0.0021999999880790710449 0.0021999999880790710449 0.0021999999880790710449 0.0075375000014901161194 0.0075375000014901161194 0.0021999999880790710449 0.0025312500074505805969 0.018212500959634780884 0.026218749582767486572 0.0021999999880790710449 0.0021999999880790710449 0.0021999999880790710449 0.0021999999880790710449 0.0021999999880790710449 0.0024375000502914190292 0.0024375000502914190292 0.0025437499862164258957 0.0031062499620020389557 0.0021124999038875102997 0.0020687500946223735809 0.0019812500104308128357 0.013293750584125518799 0.0021999999880790710449 0.0084875002503395080566 0.019162500277161598206 0.023862499743700027466 0.02754374966025352478 0.018831249326467514038 0.011162499897181987762 0.01854375004768371582 0.0021999999880790710449 0.0021999999880790710449 0.0081125004217028617859 0.0074937501922249794006 0.013781249523162841797 0.0021999999880790710449 0.0021124999038875102997 0.0021562499459832906723 0.0021999999880790710449 0.0021999999880790710449 0.0021999999880790710449 0.0021999999880790710449 0.0015874999808147549629 0.0027749999426305294037 0.010406250134110450745 0.0021999999880790710449 0.0021999999880790710449 0.0021999999880790710449 0.0021999999880790710449 0.0021999999880790710449 0.0021999999880790710449 0.0021999999880790710449 0.0021999999880790710449 0.0094357142224907875061 0.0054846154525876045227 0.021907692775130271912 0.020862499251961708069 0.0021999999880790710449 0.0021999999880790710449 0.0021999999880790710449 0.0026416666805744171143 0.0021999999880790710449 0.0021999999880790710449 0.0021999999880790710449 0.0021999999880790710449 0.0021999999880790710449 0.0021999999880790710449 0.0021999999880790710449 0.0021999999880790710449 0.0069444444961845874786 0.0048687499947845935822 0.0021999999880790710449 0.0021999999880790710449 0.044900000095367431641 0.016433333978056907654 0.0021999999880790710449 0.010206250473856925964 0.0021999999880790710449 0.0048687499947845935822 0.0021999999880790710449 0.002912499941885471344 0.0021999999880790710449 0.0021999999880790710449 0.0021999999880790710449 
0.0021999999880790710449 0.0021999999880790710449 0.014531250111758708954 0.0091937500983476638794 0.0021999999880790710449 0.0021999999880790710449 0.0021999999880790710449 0.023881249129772186279 0.015875000506639480591 0.012856249697506427765 0.010206250473856925964 0.036893751472234725952 0.0021999999880790710449 0.0021999999880790710449 0.0021999999880790710449 0.0021999999880790710449 0.0021999999880790710449 0.0021999999880790710449 0.0018937500426545739174 0.0020687500946223735809 0.0020687500946223735809 0.0018937500426545739174 0.0018500000005587935448 0.0021999999880790710449 0.0021999999880790710449 0.0023999998811632394791 0.0033937499392777681351 0.015875000506639480591 0.012856249697506427765 0.0027937500271946191788 0.010774999856948852539 0.0055312500335276126862 0.016206249594688415527 0.0021999999880790710449 0.0021999999880790710449 0.0084437504410743713379 0.0088625000789761543274 0.014200000092387199402 0.0021999999880790710449 0.0020687500946223735809 0.0023562500718981027603 0.0048687499947845935822 0.0021999999880790710449 0.0021999999880790710449 0.0021999999880790710449 0.0020687500946223735809 0.0025124999228864908218 0.0024625000078231096268 0.0021999999880790710449 0.0021999999880790710449 0.0021999999880790710449 0.0021999999880790710449 0.0021999999880790710449 0.0021999999880790710449 0.022206250578165054321 0.0075375000014901161194 0.020339999347925186157 0.014200000092387199402 0.027688888832926750183 0.011181250214576721191 0.0021999999880790710449 0.0021999999880790710449 0.004377777688205242157 0.0021999999880790710449 0.0034666666761040687561 0.0021999999880790710449 0.0021999999880790710449 0.004377777688205242157 0.0021999999880790710449 0.0021999999880790710449 0.0021999999880790710449 0.0021999999880790710449 0.0021999999880790710449 0.0021999999880790710449 0.0021999999880790710449 0.0021999999880790710449 0.044900000095367431641 0.0050466665998101234436 0.0075375000014901161194 0.0048687499947845935822 0.0021999999880790710449 0.0021999999880790710449 0.035481251776218414307 0.024387501180171966553 0.0024375000502914190292 0.0021999999880790710449 0.0031500000040978193283 
0.0021999999880790710449 0.0021999999880790710449 0.0021999999880790710449 0.0028625000268220901489 0.0021999999880790710449 0.0021562499459832906723 0.0021999999880790710449 0.013206250034272670746 0.020881250500679016113 0.014531250111758708954 0.0021999999880790710449 0.012875000014901161194 0.0021999999880790710449 0.0021999999880790710449 0.0021999999880790710449 0.0021999999880790710449 0.0021999999880790710449 0.0021999999880790710449 0.0018937500426545739174 0.0021124999038875102997 0.0018500000005587935448 0.010868749581277370453 0.0021124999038875102997 0.0021999999880790710449 0.0021999999880790710449 0.0028625000268220901489 0.0048687499947845935822 0.0031937500461935997009 0.0065250000916421413422 0.0031062499620020389557 0.0058625000528991222382 0.0052000000141561031342 0.024212500080466270447 0.0021999999880790710449 0.0021999999880790710449 0.0023062499240040779114 0.0050499998033046722412 0.0048124999739229679108 0.0024375000502914190292 0.0020687500946223735809 0.0025625000707805156708 0.0055312500335276126862 0.0021999999880790710449 0.0021999999880790710449 0.0021999999880790710449 0.0021999999880790710449 0.0015437500551342964172 0.011181250214576721191 0.0082000000402331352234 0.0021999999880790710449 0.0021999999880790710449 0.0021999999880790710449 0.0021999999880790710449 0.01345555577427148819 0.010206250473856925964 0.0021999999880790710449 0.010868749581277370453 0.022199999541044235229 0.030515383929014205933 0.033212501555681228638 0.003259999910369515419 0.0021999999880790710449 0.0021999999880790710449 0.0021999999880790710449 0.0021999999880790710449 0.0021999999880790710449 0.0021999999880790710449 0.0021999999880790710449 0.0021999999880790710449 0.0032937501091510057449 0.0018500000005587935448 0.0019374999683350324631 0.0021562499459832906723 0.0021999999880790710449 0.0021999999880790710449 0.0021999999880790710449 0.0021999999880790710449 0.0021999999880790710449 0.0048687499947845935822 0.0048687499947845935822 0.0021999999880790710449 0.0021999999880790710449 0.057668749243021011353 0.024387501180171966553 0.0024375000502914190292 0.0023937500081956386566 0.0021999999880790710449 
0.0021999999880790710449 0.0021999999880790710449 0.0021999999880790710449 0.0021999999880790710449 0.0021999999880790710449 0.0024375000502914190292 0.0052000000141561031342 0.020881250500679016113 0.023881249129772186279 0.018874999135732650757 0.010206250473856925964 0.0021999999880790710449 0.0021124999038875102997 0.0021999999880790710449 0.0021999999880790710449 0.0021999999880790710449 0.0021999999880790710449 0.0021999999880790710449 0.0021999999880790710449 0.018212500959634780884 0.0021999999880790710449 0.0021999999880790710449 0.0058625000528991222382 0.0021999999880790710449 0.0021999999880790710449 0.0021999999880790710449 0.011199999600648880005 0.018874999135732650757 0.0028625000268220901489 0.0054374998435378074646 0.0090062497183680534363 0.0055312500335276126862 0.021874999627470970154 0.0071875001303851604462 0.0021999999880790710449 0.0026750001125037670135 0.0038624999579042196274 0.0026750001125037670135 0.0021999999880790710449 0.0036249998956918716431 0.0054874997586011886597 0.0031937500461935997009 0.0021999999880790710449 0.0021999999880790710449 0.0021999999880790710449 0.0026499999221414327621 0.0019374999683350324631 0.016493750736117362976 0.0021999999880790710449 0.0021999999880790710449 0.0021999999880790710449 0.0021999999880790710449 0.0021999999880790710449 0.0078687500208616256714 0.0025312500074505805969 0.0021999999880790710449 0.0025785714387893676758 0.018600000068545341492 0.028433334082365036011 0.032984614372253417969 0.0026416666805744171143 0.0018500000005587935448 0.0048687499947845935822 0.0048687499947845935822 0.0021999999880790710449 0.0021999999880790710449 0.0021999999880790710449 0.0021999999880790710449 0.0021999999880790710449 0.0020687500946223735809 0.0015000000130385160446 0.0015000000130385160446 0.0019374999683350324631 0.0021999999880790710449 0.0021999999880790710449 0.0021999999880790710449 0.0021999999880790710449 0.0021999999880790710449 0.0021999999880790710449 0.0021999999880790710449 0.0021999999880790710449 0.0021124999038875102997 0.11313749849796295166 0.002912499941885471344 0.0021999999880790710449 0.0020250000525265932083 0.0021999999880790710449 
0.0021999999880790710449 0.0021999999880790710449 0.0025312500074505805969 0.0021999999880790710449 0.0026750001125037670135 0.0024375000502914190292 0.0083437496796250343323 0.042231250554323196411 0.040224999189376831055 0.042231250554323196411 0.0075375000014901161194 0.0021999999880790710449 0.0088625000789761543274 0.0021999999880790710449 0.0021999999880790710449 0.0021999999880790710449 0.0021999999880790710449 0.0021999999880790710449 0.010206250473856925964 0.010206250473856925964 0.0021999999880790710449 0.0021999999880790710449 0.002912499941885471344 0.0021999999880790710449 0.0024375000502914190292 0.0026750001125037670135 0.017200000584125518799 0.022206250578165054321 0.0051812496967613697052 0.0037187500856816768646 0.0060062501579523086548 0.0052000000141561031342 0.01386875007301568985 0.020199999213218688965 0.0021999999880790710449 0.0021999999880790710449 0.0019812500104308128357 0.0021999999880790710449 0.0021999999880790710449 0.0049374997615814208984 0.0021999999880790710449 0.0021999999880790710449 0.0021999999880790710449 0.0021999999880790710449 0.0021999999880790710449 0.00221875007264316082 0.0018500000005587935448 0.0053187501616775989532 0.0021999999880790710449 0.0021999999880790710449 0.0021999999880790710449 0.0021999999880790710449 0.0021999999880790710449 0.0021999999880790710449 0.0021999999880790710449 0.0075375000014901161194 0.0021999999880790710449 0.020478570833802223206 0.020199999213218688965 0.035549998283386230469 0.018200000748038291931 0.0021999999880790710449 0.0021999999880790710449 0.0030499999411404132843 0.0052499999292194843292 0.015010000206530094147 0.0021999999880790710449 0.0021999999880790710449 0.0021999999880790710449 0.0021999999880790710449 0.0016312500229105353355 0.0016749999485909938812 0.0021999999880790710449 0.0021999999880790710449 0.0021999999880790710449 0.013537500053644180298 0.0019812500104308128357 0.0021999999880790710449 0.012875000014901161194 0.0021999999880790710449 0.0021999999880790710449 0.0021999999880790710449 0.0021999999880790710449 0.0026750001125037670135 0.0026750001125037670135 0.010206250473856925964 0.023550000041723251343 
0.0021999999880790710449 0.0035250000655651092529 0.014531250111758708954 0.0028625000268220901489 0.0048687499947845935822 0.0051062498241662979126 0.023550000041723251343 0.034887500107288360596 0.040224999189376831055 0.036893751472234725952 0.0021999999880790710449 0.0021999999880790710449 0.0061937500722706317902 0.0021999999880790710449 0.0021999999880790710449 0.0021999999880790710449 0.0048687499947845935822 0.0021999999880790710449 0.0025312500074505805969 0.0035250000655651092529 0.0021999999880790710449 0.0021999999880790710449 0.0026750001125037670135 0.0041000000201165676117 0.0038624999579042196274 0.0021999999880790710449 0.0082000000402331352234 0.01386875007301568985 0.015193750150501728058 0.0058625000528991222382 0.0021999999880790710449 0.0025312500074505805969 0.0021999999880790710449 0.0078687500208616256714 0.0048687499947845935822 0.0021999999880790710449 0.0021999999880790710449 0.0048687499947845935822 0.0074499999172985553741 0.0058625000528991222382 0.0028625000268220901489 0.0052000000141561031342 0.0021999999880790710449 0.0021999999880790710449 0.0075375000014901161194 0.0078687500208616256714 0.0019812500104308128357 0.0017187499906867742538 0.0021999999880790710449 0.010206250473856925964 0.0021999999880790710449 0.0021999999880790710449 0.0021999999880790710449 0.0021999999880790710449 0.0021999999880790710449 0.0021999999880790710449 0.013362499885261058807 0.03742000088095664978 0.031933333724737167358 0.026739999651908874512 0.0027888887561857700348 0.0021999999880790710449 0.0021999999880790710449 0.0028125001117587089539 0.0021999999880790710449 0.0021999999880790710449 0.0021999999880790710449 0.0021999999880790710449 0.0021999999880790710449 0.0021999999880790710449 0.0017187499906867742538 0.0018500000005587935448 0.0021999999880790710449 0.0021999999880790710449 0.0021999999880790710449 0.01130000036209821701 0.0099437497556209564209 0.015338461846113204956 0.0093166669830679893494 0.0021999999880790710449 0.0021999999880790710449 0.0021999999880790710449 0.0021999999880790710449 0.0021999999880790710449 0.0021999999880790710449 0.018212500959634780884 0.0021999999880790710449 
0.0021999999880790710449 0.0048687499947845935822 0.01386875007301568985 0.012875000014901161194 0.034225001931190490723 0.010774999856948852539 0.021781250834465026855 0.034225001931190490723 0.016206249594688415527 0.0021999999880790710449 0.0021999999880790710449 0.012875000014901161194 0.0048687499947845935822 0.0021999999880790710449 0.0021999999880790710449 0.0021999999880790710449 0.0031937500461935997009 0.0088625000789761543274 0.015543749555945396423 0.0075375000014901161194 0.0021999999880790710449 0.0021999999880790710449 0.0021999999880790710449 0.0033875000663101673126 0.011581249535083770752 0.0038562498521059751511 0.028206249698996543884 0.012099999934434890747 0.0091937500983476638794 0.0080249998718500137329 0.0021999999880790710449 0.016537500545382499695 0.0088625000789761543274 0.0028625000268220901489 0.0021999999880790710449 0.017200000584125518799 0.0028625000268220901489 0.011862499639391899109 0.024212500080466270447 0.0037249999586492776871 0.01389374956488609314 0.0021999999880790710449 0.0021999999880790710449 0.0021999999880790710449 0.010537499561905860901 0.020199999213218688965 0.015543749555945396423 0.0024375000502914190292 0.0031937500461935997009 0.0031937500461935997009 0.0021999999880790710449 0.0021999999880790710449 0.0021999999880790710449 0.0021999999880790710449 0.0021999999880790710449 0.0021999999880790710449 0.0063857142813503742218 0.033679999411106109619 0.03243333473801612854 0.0075230770744383335114 0.0026076922658830881119 0.0021999999880790710449 0.0021999999880790710449 0.0021999999880790710449 0.0021999999880790710449 0.0021999999880790710449 0.0024714285973459482193 0.0021999999880790710449 0.0021999999880790710449 0.0021999999880790710449 0.0016749999485909938812 0.0017187499906867742538 0.0021999999880790710449 0.0021999999880790710449 0.0021999999880790710449 0.0021999999880790710449 0.0021999999880790710449 0.0021999999880790710449 0.0021999999880790710449 0.0021999999880790710449 0.0021999999880790710449 0.0021999999880790710449 0.0021124999038875102997 0.0021999999880790710449 0.0021999999880790710449 0.026218749582767486572 0.0021999999880790710449 
0.0021999999880790710449 0.0021999999880790710449 0.012875000014901161194 0.022537499666213989258 0.014862500131130218506 0.023393750190734863281 0.028537500649690628052 0.028206249698996543884 0.012193749658763408661 0.0021999999880790710449 0.0021999999880790710449 0.0078687500208616256714 0.0021999999880790710449 0.0021999999880790710449 0.0021999999880790710449 0.0021999999880790710449 0.0031937500461935997009 0.023550000041723251343 0.012875000014901161194 0.010206250473856925964 0.0021999999880790710449 0.0021999999880790710449 0.0021562499459832906723 0.010493749752640724182 0.01386875007301568985 0.0055312500335276126862 0.016537500545382499695 0.0084875002503395080566 0.0028625000268220901489 0.0023937500081956386566 0.0021999999880790710449 0.013206250034272670746 0.0038562498521059751511 0.0021999999880790710449 0.0075375000014901161194 0.012875000014901161194 0.0078687500208616256714 0.022206250578165054321 0.011531249620020389557 0.032218750566244125366 0.023487500846385955811 0.0021562499459832906723 0.0048687499947845935822 0.011199999600648880005 0.010206250473856925964 0.037556249648332595825 0.0098562501370906829834 0.0040500001050531864166 0.0021999999880790710449 0.0021999999880790710449 0.0021999999880790710449 0.0024874999653548002243 0.0024562499020248651505 0.0047812499105930328369 0.015543749555945396423 0.010537499561905860901 0.012330000288784503937 0.01908333413302898407 0.038666665554046630859 0.017784615978598594666 0.0026076922658830881119 0.0021999999880790710449 0.0021999999880790710449 0.0087692309170961380005 0.016433333978056907654 0.0021999999880790710449 0.0021999999880790710449 0.0021999999880790710449 0.0021999999880790710449 0.0021999999880790710449 0.0018062499584630131721 0.0016312500229105353355 0.0021124999038875102997 0.0021562499459832906723 0.0019812500104308128357 0.0031799999997019767761 0.0021999999880790710449 0.0021999999880790710449 0.0041875001043081283569 0.0021999999880790710449 0.0021999999880790710449 0.0021999999880790710449 0.0017625000327825546265 0.0021999999880790710449 0.0021999999880790710449 0.018212500959634780884 0.0021999999880790710449 
0.0021999999880790710449 0.0021999999880790710449 0.0021999999880790710449 0.01854375004768371582 0.023531250655651092529 0.042562499642372131348 0.040224999189376831055 0.010618750005960464478 0.0021999999880790710449 0.0021999999880790710449 0.0021999999880790710449 0.0021999999880790710449 0.0021999999880790710449 0.0021999999880790710449 0.0021999999880790710449 0.0021999999880790710449 0.0021999999880790710449 0.018212500959634780884 0.010206250473856925964 0.0021999999880790710449 0.0021999999880790710449 0.0047375001013278961182 0.019693750888109207153 0.014156250283122062683 0.0024375000502914190292 0.0086749996989965438843 0.0048687499947845935822 0.0018937500426545739174 0.0021999999880790710449 0.0021999999880790710449 0.0021999999880790710449 0.0075375000014901161194 0.020531250163912773132 0.014531250111758708954 0.010206250473856925964 0.018874999135732650757 0.023862499743700027466 0.022868750616908073425 0.018874999135732650757 0.0078687500208616256714 0.0028625000268220901489 0.015543749555945396423 0.0075375000014901161194 0.01130000036209821701 0.0060187499038875102997 0.029462499544024467468 0.0052000000141561031342 0.013206250034272670746 0.0021999999880790710449 0.0021999999880790710449 0.0021999999880790710449 0.0031500000040978193283 0.0060999998822808265686 0.0021999999880790710449 0.0048687499947845935822 0.0048687499947845935822 0.0028625000268220901489 0.026200000196695327759 0.034214284271001815796 0.035549998283386230469 0.0021999999880790710449 0.0021999999880790710449 0.0021999999880790710449 0.0021999999880790710449 0.0021999999880790710449 0.0021999999880790710449 0.0021999999880790710449 0.0021999999880790710449 0.0021999999880790710449 0.0021999999880790710449 0.0021999999880790710449 0.0015874999808147549629 0.0016312500229105353355 0.0016312500229105353355 0.0017500000540167093277 0.0021999999880790710449 0.0046500000171363353729 0.027557143941521644592 0.0055312500335276126862 0.0021999999880790710449 0.0021999999880790710449 0.0021562499459832906723 0.0021124999038875102997 0.0048687499947845935822 0.015543749555945396423 0.026218749582767486572 0.012875000014901161194 
0.0021999999880790710449 0.0052000000141561031342 0.0025312500074505805969 0.037556249648332595825 0.026200000196695327759 0.042562499642372131348 0.027787499129772186279 0.0026374999433755874634 0.0021999999880790710449 0.0021999999880790710449 0.0021999999880790710449 0.0021999999880790710449 0.0021999999880790710449 0.0021999999880790710449 0.0021999999880790710449 0.0021999999880790710449 0.0021999999880790710449 0.012875000014901161194 0.0021999999880790710449 0.0021999999880790710449 0.0021999999880790710449 0.013206250034272670746 0.014531250111758708954 0.0028625000268220901489 0.0021999999880790710449 0.0021999999880790710449 0.0021999999880790710449 0.0021999999880790710449 0.015875000506639480591 0.0020250000525265932083 0.0018500000005587935448 0.0020687500946223735809 0.0075375000014901161194 0.016206249594688415527 0.0021999999880790710449 0.0028625000268220901489 0.014531250111758708954 0.032881248742341995239 0.015875000506639480591 0.0075375000014901161194 0.0021999999880790710449 0.0021999999880790710449 0.0025312500074505805969 0.0080624995753169059753 0.0020687500946223735809 0.0052000000141561031342 0.0021999999880790710449 0.0057583334855735301971 0.0090071428567171096802 0.0019374999683350324631 0.0028125001117587089539 0.0021999999880790710449 0.0026750001125037670135 0.0055812499485909938812 0.029218750074505805969 0.021257143467664718628 0.017316667363047599792 0.01908333413302898407 0.034225001931190490723 0.026200000196695327759 0.014862500131130218506 0.0021999999880790710449 0.0021999999880790710449 0.0021999999880790710449 0.0021999999880790710449 0.0021999999880790710449 0.0021999999880790710449 0.0021999999880790710449 0.0021999999880790710449 0.0021999999880790710449 0.0021562499459832906723 0.0015000000130385160446 0.0015000000130385160446 0.0020937500521540641785 0.010966666974127292633 0.0021999999880790710449 0.0021999999880790710449 0.0021999999880790710449 0.0021999999880790710449 0.0021999999880790710449 0.0021999999880790710449 0.0021999999880790710449 0.0021999999880790710449 0.018212500959634780884 0.02912499941885471344 0.0048687499947845935822 0.0021999999880790710449 
0.0024375000502914190292 0.0048687499947845935822 0.010868749581277370453 0.034556251019239425659 0.028537500649690628052 0.037887498736381530762 0.024787500500679016113 0.0021562499459832906723 0.0021999999880790710449 0.0021999999880790710449 0.0021999999880790710449 0.0021999999880790710449 0.0021999999880790710449 0.0021999999880790710449 0.0021999999880790710449 0.0021999999880790710449 0.0021999999880790710449 0.0021999999880790710449 0.0021999999880790710449 0.0021999999880790710449 0.0021999999880790710449 0.013206250034272670746 0.0065250000916421413422 0.0021999999880790710449 0.0021999999880790710449 0.0021999999880790710449 0.0048687499947845935822 0.0075375000014901161194 0.0091937500983476638794 0.0018937500426545739174 0.0020250000525265932083 0.0021124999038875102997 0.010206250473856925964 0.025537500157952308655 0.0061937500722706317902 0.0021999999880790710449 0.021543750539422035217 0.03021249920129776001 0.0083562498912215232849 0.028843749314546585083 0.024212500080466270447 0.0085312500596046447754 0.012875000014901161194 0.014343749731779098511 0.023787500336766242981 0.019206250086426734924 0.0075300000607967376709 0.0036249998956918716431 0.024433333426713943481 0.0028625000268220901489 0.0030153845436871051788 0.0021999999880790710449 0.0021999999880790710449 0.0052000000141561031342 0.0021999999880790710449 0.0086000002920627593994 0.024212500080466270447 0.038666665554046630859 0.034225001931190490723 0.024875000119209289551 0.026511110365390777588 0.0023125000298023223877 0.0047812499105930328369 0.0054846154525876045227 0.0021999999880790710449 0.0021999999880790710449 0.0021999999880790710449 0.0021999999880790710449 0.0021999999880790710449 0.0021999999880790710449 0.0021999999880790710449 0.0017187499906867742538 0.0018500000005587935448 0.0085312500596046447754 0.01109333336353302002 0.0021999999880790710449 0.0021999999880790710449 0.0019812500104308128357 0.0033875000663101673126 0.0024375000502914190292 0.0021124999038875102997 0.0021999999880790710449 0.010206250473856925964 0.0317937508225440979 0.0317937508225440979 0.0051062498241662979126 0.0021999999880790710449 
0.0024375000502914190292 0.0052000000141561031342 0.037556249648332595825 0.012524999678134918213 0.019537499174475669861 0.030874999240040779114 0.010274999774992465973 0.0021562499459832906723 0.0021999999880790710449 0.0021999999880790710449 0.0021999999880790710449 0.0021999999880790710449 0.0021999999880790710449 0.0021999999880790710449 0.0021999999880790710449 0.0021999999880790710449 0.0021999999880790710449 0.0021999999880790710449 0.0021999999880790710449 0.0021999999880790710449 0.0021999999880790710449 0.0021999999880790710449 0.0028625000268220901489 0.0021999999880790710449 0.0021999999880790710449 0.0052000000141561031342 0.018874999135732650757 0.019537499174475669861 0.0038624999579042196274 0.0021999999880790710449 0.0021999999880790710449 0.0021999999880790710449 0.0021999999880790710449 0.0091937500983476638794 0.0035250000655651092529 0.012875000014901161194 0.0048687499947845935822 0.020881250500679016113 0.018212500959634780884 0.010868749581277370453 0.0021999999880790710449 0.01854375004768371582 0.020881250500679016113 0.0048687499947845935822 0.0028625000268220901489 0.02531666681170463562 0.011862499639391899109 0.0036249998956918716431 0.04178333282470703125 0.010537499561905860901 0.0021999999880790710449 0.0021999999880790710449 0.0021999999880790710449 0.0074499999172985553741 0.015456249937415122986 0.034556251019239425659 0.044900000095367431641 0.044900000095367431641 0.026200000196695327759 0.037783332169055938721 0.013758333399891853333 0.0021999999880790710449 0.0025312500074505805969 0.0026750001125037670135 0.0028333333320915699005 0.0021999999880790710449 0.0021999999880790710449 0.0021999999880790710449 0.0026750001125037670135 0.0031062499620020389557 0.0021999999880790710449 0.0021562499459832906723 0.0048687499947845935822 0.010868749581277370453 0.0021999999880790710449 0.0021999999880790710449 0.0036249998956918716431 0.0021999999880790710449 0.0023062499240040779114 0.0021124999038875102997 0.0021999999880790710449 0.0021999999880790710449 0.0075375000014901161194 0.042231250554323196411 0.018687499687075614929 0.0021999999880790710449 0.0021999999880790710449 
0.0026750001125037670135 0.03188750147819519043 0.025206249207258224487 0.0031937500461935997009 0.010537499561905860901 0.035549998283386230469 0.012481249868869781494 0.0033875000663101673126 0.0021999999880790710449 0.0021999999880790710449 0.0021999999880790710449 0.0021999999880790710449 0.0021999999880790710449 0.0021999999880790710449 0.0021999999880790710449 0.0021999999880790710449 0.0021999999880790710449 0.0021999999880790710449 0.0021999999880790710449 0.0021999999880790710449 0.0021999999880790710449 0.0021999999880790710449 0.0021999999880790710449 0.0021999999880790710449 0.0055312500335276126862 0.017531249672174453735 0.0068562501110136508942 0.012856249697506427765 0.013193749822676181793 0.0021999999880790710449 0.0021999999880790710449 0.0021999999880790710449 0.015875000506639480591 0.024875000119209289551 0.016537500545382499695 0.0068562501110136508942 0.02121249958872795105 0.0061937500722706317902 0.026218749582767486572 0.0021999999880790710449 0.0058625000528991222382 0.0075375000014901161194 0.0021999999880790710449 0.0021999999880790710449 0.0021999999880790710449 0.011083332821726799011 0.0054285712540149688721 0.01593000069260597229 0.014200000092387199402 0.0026416666805744171143 0.0021999999880790710449 0.0021999999880790710449 0.0052000000141561031342 0.015875000506639480591 0.01358666643500328064 0.024460000917315483093 0.044900000095367431641 0.03243333473801612854 0.014999999664723873138 0.022944444790482521057 0.013684615492820739746 0.003259999910369515419 0.0028125001117587089539 0.0095750000327825546265 0.0028333333320915699005 0.0021999999880790710449 0.0021999999880790710449 0.0021999999880790710449 0.0030166667420417070389 0.0039083333685994148254 0.0021999999880790710449 0.0021999999880790710449 0.0021999999880790710449 0.0028625000268220901489 0.017316667363047599792 0.0021999999880790710449 0.0021999999880790710449 0.0021999999880790710449 0.0021999999880790710449 0.0021999999880790710449 0.0020687500946223735809 0.0021999999880790710449 0.018212500959634780884 0.023550000041723251343 0.02645624987781047821 0.0048687499947845935822 0.0021999999880790710449 
0.0052000000141561031342 0.028206249698996543884 0.0098562501370906829834 0.0021999999880790710449 0.018874999135732650757 0.040224999189376831055 0.016537500545382499695 0.0026750001125037670135 0.0021999999880790710449 0.0021999999880790710449 0.0021999999880790710449 0.0021999999880790710449 0.0021999999880790710449 0.0021999999880790710449 0.0021999999880790710449 0.0021999999880790710449 0.0021999999880790710449 0.0021999999880790710449 0.0021999999880790710449 0.0048687499947845935822 0.0021999999880790710449 0.0021999999880790710449 0.0021999999880790710449 0.0085312500596046447754 0.010206250473856925964 0.014862500131130218506 0.0048687499947845935822 0.042231250554323196411 0.0048687499947845935822 0.0021999999880790710449 0.0021999999880790710449 0.015543749555945396423 0.014200000092387199402 0.0021999999880790710449 0.0039125001057982444763 0.0077812499366700649261 0.0045624999329447746277 0.011012500151991844177 0.010206250473856925964 0.0021999999880790710449 0.0052000000141561031342 0.0021999999880790710449 0.0021999999880790710449 0.0021999999880790710449 0.0075375000014901161194 0.028799999505281448364 0.018212500959634780884 0.024787500500679016113 0.0015000000130385160446 0.0015000000130385160446 0.0016312500229105353355 0.0019374999683350324631 0.0021999999880790710449 0.0021999999880790710449 0.0021999999880790710449 0.015540000051259994507 0.035549998283386230469 0.03243333473801612854 0.013537500053644180298 0.0093166669830679893494 0.0078687500208616256714 0.0030833333730697631836 0.0021999999880790710449 0.012743749655783176422 0.0021500000730156898499 0.0021999999880790710449 0.0021999999880790710449 0.0021999999880790710449 0.0021999999880790710449 0.0021999999880790710449 0.0021999999880790710449 0.0062000001780688762665 0.0037142855580896139145 0.0025312500074505805969 0.0021999999880790710449 0.0021999999880790710449 0.0021999999880790710449 0.0021999999880790710449 0.0021562499459832906723 0.0019374999683350324631 0.0020687500946223735809 0.0021124999038875102997 0.012743749655783176422 0.042231250554323196411 0.039562501013278961182 0.018212500959634780884 0.0021999999880790710449 
0.010868749581277370453 0.026200000196695327759 0.011531249620020389557 0.0021999999880790710449 0.0078687500208616256714 0.035218749195337295532 0.032549999654293060303 0.0021999999880790710449 0.0021999999880790710449 0.0021999999880790710449 0.0021999999880790710449 0.0021999999880790710449 0.0021999999880790710449 0.0021999999880790710449 0.0021999999880790710449 0.0021999999880790710449 0.0021999999880790710449 0.0021999999880790710449 0.013206250034272670746 0.01854375004768371582 0.0021999999880790710449 0.0021999999880790710449 0.0061937500722706317902 0.0058625000528991222382 0.0021999999880790710449 0.0021999999880790710449 0.010206250473856925964 0.011531249620020389557 0.01854375004768371582 0.0021999999880790710449 0.0021999999880790710449 0.037225000560283660889 0.017200000584125518799 0.0021999999880790710449 0.0031500000040978193283 0.0057187499478459358215 0.0035812500864267349243 0.0031500000040978193283 0.0021999999880790710449 0.0021999999880790710449 0.0021999999880790710449 0.0021999999880790710449 0.0021999999880790710449 0.0052000000141561031342 0.015875000506639480591 0.0057583334855735301971 0.0093166669830679893494 0.0092000002041459083557 0.0017187499906867742538 0.0020250000525265932083 0.0015874999808147549629 0.0016312500229105353355 0.0021562499459832906723 0.0021999999880790710449 0.0021999999880790710449 0.0082999998703598976135 0.04178333282470703125 0.044900000095367431641 0.033785715699195861816 0.005466666538268327713 0.0021999999880790710449 0.0030166667420417070389 0.014399999752640724182 0.0075375000014901161194 0.0021999999880790710449 0.0021999999880790710449 0.0020250000525265932083 0.0021562499459832906723 0.0021999999880790710449 0.0021999999880790710449 0.0021999999880790710449 0.0021999999880790710449 0.0021999999880790710449 0.0021999999880790710449 0.0021999999880790710449 0.0021999999880790710449 0.0021999999880790710449 0.0021999999880790710449 0.0021999999880790710449 0.0021999999880790710449 0.0021562499459832906723 0.012831250205636024475 0.010206250473856925964 0.013349999673664569855 0.013112500309944152832 0.0021999999880790710449 0.0021999999880790710449 
0.024787500500679016113 0.013387500308454036713 0.0025312500074505805969 0.0021999999880790710449 0.0048687499947845935822 0.021874999627470970154 0.028537500649690628052 0.02754374966025352478 0.0021999999880790710449 0.0021999999880790710449 0.0021999999880790710449 0.0021999999880790710449 0.0021999999880790710449 0.0021999999880790710449 0.0021999999880790710449 0.0021999999880790710449 0.0021999999880790710449 0.0021999999880790710449 0.010206250473856925964 0.01854375004768371582 0.0021999999880790710449 0.0052000000141561031342 0.0061937500722706317902 0.011487499810755252838 0.0021999999880790710449 0.012875000014901161194 0.010206250473856925964 0.0052000000141561031342 0.0048687499947845935822 0.0021999999880790710449 0.0021999999880790710449 0.032549999654293060303 0.010868749581277370453 0.0020687500946223735809 0.0026750001125037670135 0.0060000000521540641785 0.0029937499202787876129 0.0021999999880790710449 0.0021999999880790710449 0.0078687500208616256714 0.0021999999880790710449 0.0025800000876188278198 0.0021999999880790710449 0.0021999999880790710449 0.0021999999880790710449 0.0050466665998101234436 0.0021999999880790710449 0.0021999999880790710449 0.0021124999038875102997 0.0016312500229105353355 0.0016312500229105353355 0.0019812500104308128357 0.0021124999038875102997 0.0019374999683350324631 0.0021999999880790710449 0.016786666586995124817 0.020500000566244125366 0.011215384118258953094 0.0039666667580604553223 0.00210666656494140625 0.016433333978056907654 0.0070000002160668373108 0.0048687499947845935822 0.0021999999880790710449 0.0073187500238418579102 0.0059666666202247142792 0.0057571427896618843079 0.0021999999880790710449 0.0021999999880790710449 0.0021999999880790710449 0.0021999999880790710449 0.0021999999880790710449 0.0054846154525876045227 0.0021999999880790710449 0.0021999999880790710449 0.0021999999880790710449 0.0021999999880790710449 0.0021999999880790710449 0.0021999999880790710449 0.0021999999880790710449 0.0020687500946223735809 0.011068750172853469849 0.010537499561905860901 0.010537499561905860901 0.020881250500679016113 0.010206250473856925964 0.0021999999880790710449 
0.026200000196695327759 0.0061937500722706317902 0.0021999999880790710449 0.0021999999880790710449 0.0021999999880790710449 0.0021999999880790710449 0.02754374966025352478 0.040224999189376831055 0.017200000584125518799 0.0021999999880790710449 0.0021999999880790710449 0.0021999999880790710449 0.0021999999880790710449 0.0021999999880790710449 0.0021999999880790710449 0.0021999999880790710449 0.0021999999880790710449 0.0021999999880790710449 0.0021999999880790710449 0.0048687499947845935822 0.0021999999880790710449 0.0021999999880790710449 0.010824999772012233734 0.011731250211596488953 0.0058625000528991222382 0.0025312500074505805969 0.0025312500074505805969 0.0021999999880790710449 0.0021562499459832906723 0.0021999999880790710449 0.013206250034272670746 0.012875000014901161194 0.0021999999880790710449 0.0021999999880790710449 0.0021999999880790710449 0.0020687500946223735809 0.0015000000130385160446 0.0021124999038875102997 0.0048687499947845935822 0.0048687499947845935822 0.0021999999880790710449 0.0021999999880790710449 0.0021999999880790710449 0.0021999999880790710449 0.0021999999880790710449 0.0021999999880790710449 0.0021999999880790710449 0.0021562499459832906723 0.0022374999243766069412 0.0023437500931322574615 0.0074062501080334186554 0.0075375000014901161194 0.0020250000525265932083 0.0022812499664723873138 0.00221875007264316082 0.0021999999880790710449 0.0021999999880790710449 0.011199999600648880005 0.013316666707396507263 0.027550000697374343872 0.016206249594688415527 0.027212500572204589844 0.025206249207258224487 0.0062000001780688762665 0.0082000000402331352234 0.0048687499947845935822 0.02655000053346157074 0.0048687499947845935822 0.0021999999880790710449 0.0021999999880790710449 0.0021999999880790710449 0.0075375000014901161194 0.016433333978056907654 0.0021999999880790710449 0.0021999999880790710449 0.0036249998956918716431 0.0021999999880790710449 0.0020250000525265932083 0.0015874999808147549629 0.0021562499459832906723 0.013293750584125518799 0.012875000014901161194 0.0052000000141561031342 0.034887500107288360596 0.010206250473856925964 0.044900000095367431641 0.044900000095367431641 
0.014181249774992465973 0.0031937500461935997009 0.0021999999880790710449 0.0021999999880790710449 0.0021999999880790710449 0.0021999999880790710449 0.010868749581277370453 0.040224999189376831055 0.030543750151991844177 0.0021999999880790710449 0.0021999999880790710449 0.0021999999880790710449 0.0021999999880790710449 0.0021999999880790710449 0.0021999999880790710449 0.0021999999880790710449 0.0021999999880790710449 0.0021999999880790710449 0.0021999999880790710449 0.0021999999880790710449 0.0021999999880790710449 0.0021999999880790710449 0.026881249621510505676 0.0094812503084540367126 0.018831249326467514038 0.01854375004768371582 0.0021999999880790710449 0.013031249865889549255 0.0025312500074505805969 0.0035250000655651092529 0.037225000560283660889 0.0058625000528991222382 0.0075375000014901161194 0.0021999999880790710449 0.0021999999880790710449 0.0021124999038875102997 0.0018937500426545739174 0.0021999999880790710449 0.0021999999880790710449 0.0021999999880790710449 0.0021999999880790710449 0.0041000000201165676117 0.0025166666600853204727 0.0021999999880790710449 0.0021999999880790710449 0.0021999999880790710449 0.0021999999880790710449 0.0027749999426305294037 0.0056250002235174179077 0.0054812501184642314911 0.015923077240586280823 0.0018500000005587935448 0.0016749999485909938812 0.0033750000875443220139 0.0029312500264495611191 0.0021999999880790710449 0.0048687499947845935822 0.010868749581277370453 0.014499999582767486572 0.026200000196695327759 0.013919999822974205017 0.019279999658465385437 0.016433333978056907654 0.028433334082365036011 0.011083332821726799011 0.017611110582947731018 0.039562501013278961182 0.015746153891086578369 0.0021999999880790710449 0.0054846154525876045227 0.0021999999880790710449 0.0021999999880790710449 0.0021999999880790710449 0.0021999999880790710449 0.0021999999880790710449 0.0021562499459832906723 0.0052000000141561031342 0.0048687499947845935822 0.0020687500946223735809 0.0021999999880790710449 0.0026750001125037670135 0.010443749837577342987 0.0021999999880790710449 0.018212500959634780884 0.0021999999880790710449 0.031556248664855957031 0.044900000095367431641 
0.018525000661611557007 0.0028625000268220901489 0.0021999999880790710449 0.0021999999880790710449 0.0021999999880790710449 0.0021999999880790710449 0.011862499639391899109 0.010868749581277370453 0.014531250111758708954 0.017200000584125518799 0.0055312500335276126862 0.0021999999880790710449 0.0021999999880790710449 0.0021999999880790710449 0.0021999999880790710449 0.0021999999880790710449 0.0021999999880790710449 0.0021999999880790710449 0.0021999999880790710449 0.0021999999880790710449 0.0021999999880790710449 0.010206250473856925964 0.032881248742341995239 0.0075375000014901161194 0.023793749511241912842 0.0025312500074505805969 0.0021999999880790710449 0.0075375000014901161194 0.0021124999038875102997 0.016537500545382499695 0.031556248664855957031 0.0052000000141561031342 0.016868749633431434631 0.0045187501236796379089 0.0021999999880790710449 0.0021999999880790710449 0.0021999999880790710449 0.0075375000014901161194 0.0021999999880790710449 0.0021999999880790710449 0.0021999999880790710449 0.0021999999880790710449 0.0093166669830679893494 0.0021999999880790710449 0.0021999999880790710449 0.0021999999880790710449 0.0075375000014901161194 0.0020250000525265932083 0.0060000000521540641785 0.0055249999277293682098 0.0021999999880790710449 0.0016166666755452752113 0.0029312500264495611191 0.0041249999776482582092 0.0034937500022351741791 0.0021999999880790710449 0.0021999999880790710449 0.011800000444054603577 0.035549998283386230469 0.022460000589489936829 0.013291666284203529358 0.0028625000268220901489 0.0021999999880790710449 0.015543749555945396423 0.028887499123811721802 0.015543749555945396423 0.0048687499947845935822 0.015540000051259994507 0.029650000855326652527 0.028887499123811721802 0.010739999823272228241 0.0021999999880790710449 0.0021999999880790710449 0.0021999999880790710449 0.0021999999880790710449 0.0019812500104308128357 0.0078687500208616256714 0.0025312500074505805969 0.0021999999880790710449 0.0021999999880790710449 0.0021999999880790710449 0.0021999999880790710449 0.0048687499947845935822 0.028887499123811721802 0.015543749555945396423 0.031556248664855957031 0.044900000095367431641 
0.0048500001430511474609 0.0075375000014901161194 0.0021999999880790710449 0.0021999999880790710449 0.0021999999880790710449 0.0021999999880790710449 0.0061937500722706317902 0.0021999999880790710449 0.0021999999880790710449 0.027212500572204589844 0.021874999627470970154 0.0028625000268220901489 0.0021999999880790710449 0.0021999999880790710449 0.0021999999880790710449 0.0021999999880790710449 0.0021999999880790710449 0.0021999999880790710449 0.0021999999880790710449 0.0021999999880790710449 0.0075375000014901161194 0.032218750566244125366 0.023550000041723251343 0.0021999999880790710449 0.0021999999880790710449 0.0021999999880790710449 0.0038562498521059751511 0.0048687499947845935822 0.0025875000283122062683 0.0021999999880790710449 0.0048687499947845935822 0.0077812499366700649261 0.0021124999038875102997 0.0058625000528991222382 0.0026750001125037670135 0.0031500000040978193283 0.0053437501192092895508 0.0048687499947845935822 0.0021999999880790710449 0.0021999999880790710449 0.0021999999880790710449 0.0021999999880790710449 0.0021999999880790710449 0.0021999999880790710449 0.0021999999880790710449 0.0021999999880790710449 0.0050249998457729816437 0.0031874999403953552246 0.0060000000521540641785 0.0092000002041459083557 0.0093166669830679893494 0.0080124996602535247803 0.0057583334855735301971 0.0060000000521540641785 0.0027125000488013029099 0.0019374999683350324631 0.0021999999880790710449 0.003259999910369515419 0.016850000247359275818 0.026200000196695327759 0.0052916663698852062225 0.0048687499947845935822 0.0021999999880790710449 0.0025312500074505805969 0.0048687499947845935822 0.0021999999880790710449 0.0021999999880790710449 0.0021999999880790710449 0.0088625000789761543274 0.021578570827841758728 0.015540000051259994507 0.0021999999880790710449 0.0021999999880790710449 0.0021999999880790710449 0.0021999999880790710449 0.010206250473856925964 0.0021999999880790710449 0.0021999999880790710449 0.0021999999880790710449 0.0021999999880790710449 0.0021999999880790710449 0.0021999999880790710449 0.0021124999038875102997 0.0021999999880790710449 0.0048687499947845935822 0.010206250473856925964 0.012875000014901161194 
0.0085124997422099113464 0.0082000000402331352234 0.0021999999880790710449 0.0021999999880790710449 0.0021999999880790710449 0.0021999999880790710449 0.0021999999880790710449 0.0021999999880790710449 0.0021999999880790710449 0.022537499666213989258 0.010850000195205211639 0.0021999999880790710449 0.0021999999880790710449 0.0021999999880790710449 0.0021999999880790710449 0.0021999999880790710449 0.0021999999880790710449 0.0021999999880790710449 0.0021999999880790710449 0.0078687500208616256714 0.024543749168515205383 0.0025312500074505805969 0.0021999999880790710449 0.0021999999880790710449 0.0021999999880790710449 0.0021999999880790710449 0.0052000000141561031342 0.0021999999880790710449 0.0026750001125037670135 0.018781250342726707458 0.0025312500074505805969 0.015412500128149986267 0.0020687500946223735809 0.0021999999880790710449 0.0031500000040978193283 0.0041000000201165676117 0.0021562499459832906723 0.0021562499459832906723 0.0021999999880790710449 0.0021999999880790710449 0.0021999999880790710449 0.0021999999880790710449 0.0021999999880790710449 0.0021999999880790710449 0.0021999999880790710449 0.0048687499947845935822 0.010206250473856925964 0.0038375000003725290298 0.0040777777321636676788 0.0021562499459832906723 0.0030333334580063819885 0.0053571430034935474396 0.0048750001005828380585 0.0022199999075382947922 0.0020687500946223735809 0.0017187499906867742538 0.0018937500426545739174 0.0018937500426545739174 0.023991666734218597412 0.018600000068545341492 0.0066416664049029350281 0.011199999600648880005 0.0078687500208616256714 0.0021999999880790710449 0.0021999999880790710449 0.0021999999880790710449 0.0021999999880790710449 0.0021999999880790710449 0.0039937500841915607452 0.0050538461655378341675 0.0021999999880790710449 0.0021999999880790710449 0.0021999999880790710449 0.0021999999880790710449 0.0021999999880790710449 0.0021999999880790710449 0.0021999999880790710449 0.0021999999880790710449 0.0021999999880790710449 0.015543749555945396423 0.0075375000014901161194 0.0021999999880790710449 0.012787500396370887756 0.015499999746680259705 0.0020250000525265932083 0.015543749555945396423 0.044900000095367431641 
0.0078687500208616256714 0.0021999999880790710449 0.0021999999880790710449 0.0021999999880790710449 0.0021999999880790710449 0.0021999999880790710449 0.0021999999880790710449 0.0021999999880790710449 0.0021999999880790710449 0.027875000610947608948 0.017862500622868537903 0.0038562498521059751511 0.0021999999880790710449 0.0021999999880790710449 0.0021999999880790710449 0.0021999999880790710449 0.0021999999880790710449 0.0021999999880790710449 0.0021999999880790710449 0.018874999135732650757 0.01854375004768371582 0.0021999999880790710449 0.0028625000268220901489 0.0028625000268220901489 0.0021999999880790710449 0.0021999999880790710449 0.0021999999880790710449 0.0021999999880790710449 0.0021999999880790710449 0.0021999999880790710449 0.0021999999880790710449 0.0021999999880790710449 0.0019374999683350324631 0.0018937500426545739174 0.0021999999880790710449 0.0033875000663101673126 0.0029687499627470970154 0.0018937500426545739174 0.0021999999880790710449 0.0021999999880790710449 0.0021999999880790710449 0.0021999999880790710449 0.024387501180171966553 0.0021999999880790710449 0.0021999999880790710449 0.0021999999880790710449 0.0042937500402331352234 0.0060000000521540641785 0.0022833333350718021393 0.0021999999880790710449 0.0026312500704079866409 0.0034937500022351741791 0.0023062499240040779114 0.0021999999880790710449 0.0021562499459832906723 0.0019812500104308128357 0.0021562499459832906723 0.0021999999880790710449 0.022199999541044235229 0.030666666105389595032 0.010868749581277370453 0.020199999213218688965 0.0061937500722706317902 0.0052000000141561031342 0.0021999999880790710449 0.0021999999880790710449 0.0065250000916421413422 0.0031937500461935997009 0.01102500036358833313 0.0018937500426545739174 0.0026750001125037670135 0.0021999999880790710449 0.0021999999880790710449 0.0021999999880790710449 0.0021999999880790710449 0.0021999999880790710449 0.0021999999880790710449 0.0021999999880790710449 0.0021999999880790710449 0.0075375000014901161194 0.0048687499947845935822 0.0021999999880790710449 0.012875000014901161194 0.0021999999880790710449 0.0021999999880790710449 0.012875000014901161194 0.023550000041723251343 
0.0021999999880790710449 0.0021999999880790710449 0.0021999999880790710449 0.0021999999880790710449 0.0021999999880790710449 0.0021999999880790710449 0.0021999999880790710449 0.0021999999880790710449 0.018212500959634780884 0.02754374966025352478 0.035549998283386230469 0.013187499716877937317 0.0025312500074505805969 0.0021999999880790710449 0.0021999999880790710449 0.0021999999880790710449 0.0021999999880790710449 0.0021999999880790710449 0.0021999999880790710449 0.0083999997004866600037 0.0028625000268220901489 0.0021999999880790710449 0.0035250000655651092529 0.0021999999880790710449 0.013537500053644180298 0.010493749752640724182 0.0021999999880790710449 0.015456249937415122986 0.017200000584125518799 0.0078687500208616256714 0.014531250111758708954 0.0082000000402331352234 0.0020250000525265932083 0.010075000114738941193 0.0018937500426545739174 0.0021999999880790710449 0.0036249998956918716431 0.0035800000187009572983 0.0021999999880790710449 0.0052000000141561031342 0.0089533329010009765625 0.0021999999880790710449 0.0021999999880790710449 0.0021999999880790710449 0.0048687499947845935822 0.0021999999880790710449 0.0025800000876188278198 0.0026100000832229852676 0.0021999999880790710449 0.0021562499459832906723 0.0021124999038875102997 0.0021999999880790710449 0.0021999999880790710449 0.0021999999880790710449 0.0070000002160668373108 0.0057583334855735301971 0.0021999999880790710449 0.019206250086426734924 0.04178333282470703125 0.044900000095367431641 0.029699999839067459106 0.016206249594688415527 0.016969230026006698608 0.013758333399891853333 0.0087692309170961380005 0.0021999999880790710449 0.015875000506639480591 0.0086749996989965438843 0.0019374999683350324631 0.0074062501080334186554 0.0049999998882412910461 0.004768750164657831192 0.0026750001125037670135 0.0021999999880790710449 0.0021999999880790710449 0.0021999999880790710449 0.0048687499947845935822 0.0021999999880790710449 0.0020687500946223735809 0.013206250034272670746 0.0021999999880790710449 0.0021999999880790710449 0.0021999999880790710449 0.0021999999880790710449 0.0048687499947845935822 0.0021999999880790710449 0.0021999999880790710449 
0.0021999999880790710449 0.0021999999880790710449 0.0021999999880790710449 0.0021999999880790710449 0.0021999999880790710449 0.0021999999880790710449 0.0058625000528991222382 0.020199999213218688965 0.037887498736381530762 0.019537499174475669861 0.011199999600648880005 0.0055312500335276126862 0.0052000000141561031342 0.0021999999880790710449 0.0021999999880790710449 0.0021562499459832906723 0.0021999999880790710449 0.0021999999880790710449 0.0048687499947845935822 0.0021999999880790710449 0.0021999999880790710449 0.0021999999880790710449 0.0021999999880790710449 0.0021999999880790710449 0.0022687499877065420151 0.0018500000005587935448 0.018962500616908073425 0.015324999578297138214 0.0078250002115964889526 0.0021999999880790710449 0.0048687499947845935822 0.010512500070035457611 0.0021124999038875102997 0.028887499123811721802 0.0023937500081956386566 0.0035785713698714971542 0.0041000000201165676117 0.0025437499862164258957 0.0064699999056756496429 0.01854375004768371582 0.023550000041723251343 0.0021999999880790710449 0.0021999999880790710449 0.0020999999251216650009 0.0021999999880790710449 0.0021999999880790710449 0.0021999999880790710449 0.0026312500704079866409 0.0021999999880790710449 0.0021999999880790710449 0.0021999999880790710449 0.0021999999880790710449 0.0021999999880790710449 0.0021999999880790710449 0.0021999999880790710449 0.021257143467664718628 0.011900000274181365967 0.015010000206530094147 0.012875000014901161194 0.0021999999880790710449 0.0021999999880790710449 0.0021999999880790710449 0.0086785713210701942444 0.0023125000298023223877 0.0020600000862032175064 0.013162500225007534027 0.017674999311566352844 0.0064812498167157173157 0.0048687499947845935822 0.0075375000014901161194 0.0038125000428408384323 0.0041000000201165676117 0.0052875000983476638794 0.0021999999880790710449 0.0021999999880790710449 0.0048687499947845935822 0.015543749555945396423 0.0021124999038875102997 0.0018687499687075614929 0.0030812500044703483582 0.0021562499459832906723 0.0048687499947845935822 0.0058625000528991222382 0.0075375000014901161194 0.015543749555945396423 0.0021999999880790710449 0.0021999999880790710449 
0.0025312500074505805969 0.0021999999880790710449 0.0021999999880790710449 0.0021999999880790710449 0.0021999999880790710449 0.0021999999880790710449 0.016206249594688415527 0.037887498736381530762 0.037887498736381530762 0.02754374966025352478 0.0035250000655651092529 0.0021999999880790710449 0.0021999999880790710449 0.0021999999880790710449 0.0021562499459832906723 0.0017187499906867742538 0.0021562499459832906723 0.0021999999880790710449 0.0021999999880790710449 0.0021999999880790710449 0.0021999999880790710449 0.0021999999880790710449 0.0021999999880790710449 0.0021999999880790710449 0.0021999999880790710449 0.0021124999038875102997 0.0028187499847263097763 0.0030624999199062585831 0.0021562499459832906723 0.0026437500491738319397 0.021543750539422035217 0.021143749356269836426 0.0061062499880790710449 0.020881250500679016113 0.018687499687075614929 0.002912499941885471344 0.0021999999880790710449 0.0021999999880790710449 0.028880000114440917969 0.024875000119209289551 0.015535714104771614075 0.0028625000268220901489 0.0020250000525265932083 0.0019374999683350324631 0.0021999999880790710449 0.0055312500335276126862 0.0021999999880790710449 0.0021999999880790710449 0.0021999999880790710449 0.0021999999880790710449 0.0021999999880790710449 0.0021999999880790710449 0.0021999999880790710449 0.0021999999880790710449 0.0093166669830679893494 0.028349999338388442993 0.014641666784882545471 0.0075375000014901161194 0.017316667363047599792 0.027820000424981117249 0.0029571428894996643066 0.0021999999880790710449 0.0021999999880790710449 0.0021999999880790710449 0.0021999999880790710449 0.0021999999880790710449 0.0078687500208616256714 0.0030062498990446329117 0.023550000041723251343 0.0025312500074505805969 0.0067624999210238456726 0.0021999999880790710449 0.0021999999880790710449 0.0021999999880790710449 0.0021999999880790710449 0.0021999999880790710449 0.0021999999880790710449 0.0024375000502914190292 0.004768750164657831192 0.0021562499459832906723 0.0021999999880790710449 0.0021999999880790710449 0.0021999999880790710449 0.018212500959634780884 0.0021999999880790710449 0.0021999999880790710449 0.0021999999880790710449 
0.0031937500461935997009 0.0021999999880790710449 0.0021999999880790710449 0.0021999999880790710449 0.0021999999880790710449 0.0021999999880790710449 0.015543749555945396423 0.020531250163912773132 0.020862499251961708069 0.0035250000655651092529 0.0025312500074505805969 0.0021124999038875102997 0.0021999999880790710449 0.0021999999880790710449 0.0021999999880790710449 0.0021999999880790710449 0.0021999999880790710449 0.0021999999880790710449 0.0021999999880790710449 0.0021999999880790710449 0.0021999999880790710449 0.0021562499459832906723 0.023550000041723251343 0.010206250473856925964 0.0021562499459832906723 0.0021999999880790710449 0.0021999999880790710449 0.0053437501192092895508 0.0021999999880790710449 0.010118749924004077911 0.023550000041723251343 0.019868750125169754028 0.0067687500268220901489 0.0085312500596046447754 0.019537499174475669861 0.0021999999880790710449 0.0021999999880790710449 0.0064699999056756496429 0.025922222062945365906 0.018212500959634780884 0.0021999999880790710449 0.0021999999880790710449 0.0021999999880790710449 0.0048000002279877662659 0.003243749961256980896 0.0058923074975609779358 0.0021999999880790710449 0.0021999999880790710449 0.0021999999880790710449 0.0021999999880790710449 0.0021999999880790710449 0.0021999999880790710449 0.0021999999880790710449 0.021316666156053543091 0.016561537981033325195 0.015746153891086578369 0.0021999999880790710449 0.0078687500208616256714 0.026007693260908126831 0.013758333399891853333 0.0021999999880790710449 0.0021999999880790710449 0.0021999999880790710449 0.0021999999880790710449 0.0021999999880790710449 0.010449999943375587463 0.02655000053346157074 0.028018750250339508057 0.042231250554323196411 0.037225000560283660889 0.0091937500983476638794 0.0021999999880790710449 0.0024375000502914190292 0.0021999999880790710449 0.0026750001125037670135 0.015543749555945396423 0.0048687499947845935822 0.0021999999880790710449 0.002912499941885471344 0.0026750001125037670135 0.0021999999880790710449 0.0021999999880790710449 0.0021999999880790710449 0.023550000041723251343 0.0021999999880790710449 0.0021999999880790710449 0.0021999999880790710449 
0.0055312500335276126862 0.0021999999880790710449 0.0021999999880790710449 0.0021999999880790710449 0.0021999999880790710449 0.0021999999880790710449 0.018874999135732650757 0.032881248742341995239 0.011199999600648880005 0.0021999999880790710449 0.010206250473856925964 0.0018500000005587935448 0.0033875000663101673126 0.0031500000040978193283 0.0024375000502914190292 0.0021999999880790710449 0.0021999999880790710449 0.0021999999880790710449 0.0021999999880790710449 0.0021999999880790710449 0.0021999999880790710449 0.0020687500946223735809 0.0048687499947845935822 0.0024375000502914190292 0.0033875000663101673126 0.013493750244379043579 0.013624999672174453735 0.0021999999880790710449 0.0048687499947845935822 0.039893750101327896118 0.042562499642372131348 0.027081249281764030457 0.0024785713758319616318 0.028173333033919334412 0.015543749555945396423 0.0021999999880790710449 0.0021999999880790710449 0.0021999999880790710449 0.030666666105389595032 0.016875000670552253723 0.0021999999880790710449 0.0021999999880790710449 0.0021999999880790710449 0.0030833333730697631836 0.0021999999880790710449 0.0021999999880790710449 0.014778571203351020813 0.0021999999880790710449 0.0021999999880790710449 0.0021999999880790710449 0.0021999999880790710449 0.0021999999880790710449 0.0021999999880790710449 0.026007693260908126831 0.012869230471551418304 0.0050466665998101234436 0.0021999999880790710449 0.0021999999880790710449 0.016433333978056907654 0.012461538426578044891 0.0021999999880790710449 0.0021999999880790710449 0.0021999999880790710449 0.0021999999880790710449 0.0075375000014901161194 0.016537500545382499695 0.029218750074505805969 0.025206249207258224487 0.014862500131130218506 0.020531250163912773132 0.002912499941885471344 0.0021999999880790710449 0.0021999999880790710449 0.0021999999880790710449 0.0024375000502914190292 0.0028625000268220901489 0.0021999999880790710449 0.0021999999880790710449 0.0021999999880790710449 0.0020687500946223735809 0.0021999999880790710449 0.0021999999880790710449 0.0021999999880790710449 0.015543749555945396423 0.0026750001125037670135 0.0021999999880790710449 0.0021999999880790710449 
0.013781249523162841797 0.0021999999880790710449 0.0021999999880790710449 0.0021999999880790710449 0.0021999999880790710449 0.0052000000141561031342 0.030543750151991844177 0.014862500131130218506 0.0052000000141561031342 0.0021999999880790710449 0.0021999999880790710449 0.0021999999880790710449 0.0021999999880790710449 0.0077749998308718204498 0.0021999999880790710449 0.0021999999880790710449 0.0021999999880790710449 0.0021999999880790710449 0.0048687499947845935822 0.0061937500722706317902 0.0048687499947845935822 0.010118749924004077911 0.0021999999880790710449 0.002912499941885471344 0.0021999999880790710449 0.0021999999880790710449 0.0021999999880790710449 0.0021999999880790710449 0.028887499123811721802 0.044900000095367431641 0.02121249958872795105 0.0060600000433623790741 0.0041875001043081283569 0.016153845936059951782 0.0021999999880790710449 0.0021999999880790710449 0.0021999999880790710449 0.0060071428306400775909 0.021874999627470970154 0.0028625000268220901489 0.0021999999880790710449 0.0021999999880790710449 0.0064699999056756496429 0.0075375000014901161194 0.0021999999880790710449 0.0021999999880790710449 0.0021999999880790710449 0.0056285713799297809601 0.0021999999880790710449 0.0021999999880790710449 0.0021999999880790710449 0.023550000041723251343 0.027212500572204589844 0.0033615385182201862335 0.0034583332017064094543 0.0021999999880790710449 0.0021999999880790710449 0.015875000506639480591 0.027688888832926750183 0.028526667505502700806 0.0021999999880790710449 0.0021999999880790710449 0.0021999999880790710449 0.0058923074975609779358 0.015875000506639480591 0.013206250034272670746 0.013537500053644180298 0.0078499997034668922424 0.0058437497355043888092 0.018781250342726707458 0.0024375000502914190292 0.0021999999880790710449 0.0021999999880790710449 0.0021999999880790710449 0.0021999999880790710449 0.0021999999880790710449 0.0021999999880790710449 0.0021999999880790710449 0.0021999999880790710449 0.0021999999880790710449 0.0021999999880790710449 0.0021999999880790710449 0.0021999999880790710449 0.0021999999880790710449 0.0075375000014901161194 0.0021999999880790710449 0.0021999999880790710449 
0.0021562499459832906723 0.0021999999880790710449 0.0021999999880790710449 0.0021999999880790710449 0.0048687499947845935822 0.014200000092387199402 0.021874999627470970154 0.0021999999880790710449 0.0021999999880790710449 0.0021999999880790710449 0.0021999999880790710449 0.0026750001125037670135 0.0021999999880790710449 0.0021999999880790710449 0.0025312500074505805969 0.015875000506639480591 0.0021999999880790710449 0.018874999135732650757 0.0025312500074505805969 0.0021999999880790710449 0.0021999999880790710449 0.0049749999307096004486 0.0020687500946223735809 0.0021999999880790710449 0.0021999999880790710449 0.0021999999880790710449 0.0021999999880790710449 0.0021999999880790710449 0.012875000014901161194 0.027357142418622970581 0.0075375000014901161194 0.0021999999880790710449 0.0021999999880790710449 0.010739999823272228241 0.0021999999880790710449 0.0021999999880790710449 0.0021999999880790710449 0.0035250000655651092529 0.0064699999056756496429 0.0021999999880790710449 0.0021999999880790710449 0.0021999999880790710449 0.0021999999880790710449 0.0021999999880790710449 0.0048687499947845935822 0.0021999999880790710449 0.0021999999880790710449 0.0021999999880790710449 0.034225001931190490723 0.018212500959634780884 0.0021999999880790710449 0.023881249129772186279 0.034887500107288360596 0.034225001931190490723 0.03466666489839553833 0.0021999999880790710449 0.0097000002861022949219 0.033078569918870925903 0.018874999135732650757 0.024307142943143844604 0.0021999999880790710449 0.0021999999880790710449 0.0021999999880790710449 0.0021999999880790710449 0.0021999999880790710449 0.0021999999880790710449 0.010206250473856925964 0.015875000506639480591 0.0021999999880790710449 0.0025312500074505805969 0.0021999999880790710449 0.0021999999880790710449 0.0021999999880790710449 0.0021999999880790710449 0.0021999999880790710449 0.002912499941885471344 0.0021999999880790710449 0.0021999999880790710449 0.0048687499947845935822 0.0021999999880790710449 0.0021999999880790710449 0.0021999999880790710449 0.0021999999880790710449 0.0021999999880790710449 0.0021999999880790710449 0.012987500056624412537 0.0021999999880790710449 
0.0021999999880790710449 0.0021999999880790710449 0.0021999999880790710449 0.0021999999880790710449 0.023793749511241912842 0.01572499983012676239 0.012193749658763408661 0.0021999999880790710449 0.0021999999880790710449 0.0021999999880790710449 0.0024375000502914190292 0.0024375000502914190292 0.0021999999880790710449 0.0021999999880790710449 0.011199999600648880005 0.012875000014901161194 0.0021999999880790710449 0.0075375000014901161194 0.026218749582767486572 0.030868750065565109253 0.02754374966025352478 0.023881249129772186279 0.0021999999880790710449 0.0021999999880790710449 0.0021999999880790710449 0.0021999999880790710449 0.0021999999880790710449 0.024212500080466270447 0.011688889004290103912 0.0062000001780688762665 0.0048687499947845935822 0.0021999999880790710449 0.0021999999880790710449 0.0021999999880790710449 0.0021999999880790710449 0.012875000014901161194 0.019279999658465385437 0.0021999999880790710449 0.0021999999880790710449 0.0021999999880790710449 0.0021999999880790710449 0.016991667449474334717 0.0021999999880790710449 0.017022222280502319336 0.028887499123811721802 0.0021999999880790710449 0.0021999999880790710449 0.0021999999880790710449 0.044900000095367431641 0.013641666620969772339 0.0021222222130745649338 0.02121249958872795105 0.015543749555945396423 0.027991667389869689941 0.020870000123977661133 0.013758333399891853333 0.0075375000014901161194 0.017060000449419021606 0.0021999999880790710449 0.0069444444961845874786 0.021316666156053543091 0.0021999999880790710449 0.0021999999880790710449 0.0021999999880790710449 0.0021999999880790710449 0.0048687499947845935822 0.02655000053346157074 0.011112499982118606567 0.0056874998845160007477 0.0025312500074505805969 0.0058625000528991222382 0.0025312500074505805969 0.0021999999880790710449 0.0021999999880790710449 0.0021999999880790710449 0.0077749998308718204498 0.0024375000502914190292 0.0024375000502914190292 0.0075375000014901161194 0.0021999999880790710449 0.0021562499459832906723 0.0019374999683350324631 0.0018937500426545739174 0.0018500000005587935448 0.0020687500946223735809 0.0026750001125037670135 0.0021999999880790710449 
0.0021999999880790710449 0.0048687499947845935822 0.0021999999880790710449 0.016206249594688415527 0.022825000807642936707 0.019187500700354576111 0.0025312500074505805969 0.0021999999880790710449 0.0021999999880790710449 0.0021999999880790710449 0.0021999999880790710449 0.0021999999880790710449 0.0021999999880790710449 0.0021999999880790710449 0.0021562499459832906723 0.0021999999880790710449 0.0021999999880790710449 0.0025312500074505805969 0.012699999846518039703 0.012875000014901161194 0.013775000348687171936 0.0027874999213963747025 0.0025312500074505805969 0.0021999999880790710449 0.0021124999038875102997 0.0033374999184161424637 0.010918750427663326263 0.027735713869333267212 0.0021999999880790710449 0.011446666903793811798 0.0045555555261671543121 0.013293750584125518799 0.013293750584125518799 0.0069444444961845874786 0.0021999999880790710449 0.0048687499947845935822 0.0082999998703598976135 0.0075375000014901161194 0.0021999999880790710449 0.0021999999880790710449 0.0058923074975609779358 0.046575002372264862061 0.018874999135732650757 0.036359999328851699829 0.0052000000141561031342 0.0021999999880790710449 0.0021999999880790710449 0.0021999999880790710449 0.03742000088095664978 0.0031937500461935997009 0.024080000817775726318 0.0093166669830679893494 0.0021999999880790710449 0.0026416666805744171143 0.0058923074975609779358 0.011862499639391899109 0.0021999999880790710449 0.016153845936059951782 0.0087692309170961380005 0.036359999328851699829 0.029699999839067459106 0.0021999999880790710449 0.0021999999880790710449 0.0021999999880790710449 0.0021999999880790710449 0.0021999999880790710449 0.034225001931190490723 0.0087750004604458808899 0.010893750004470348358 0.0048250001855194568634 0.024212500080466270447 0.010537499561905860901 0.0020250000525265932083 0.0021562499459832906723 0.0021999999880790710449 0.0024375000502914190292 0.0021999999880790710449 0.0024375000502914190292 0.0021999999880790710449 0.0021999999880790710449 0.0019812500104308128357 0.0015000000130385160446 0.0015000000130385160446 0.0015000000130385160446 0.0016749999485909938812 0.0021999999880790710449 0.0021999999880790710449 
0.0048250001855194568634 0.0048687499947845935822 0.0075375000014901161194 0.028537500649690628052 0.022206250578165054321 0.016206249594688415527 0.0021999999880790710449 0.0021999999880790710449 0.0021999999880790710449 0.010206250473856925964 0.013531249947845935822 0.0024375000502914190292 0.0021999999880790710449 0.0021999999880790710449 0.0020687500946223735809 0.0021999999880790710449 0.0021999999880790710449 0.0019812500104308128357 0.0017625000327825546265 0.0018937500426545739174 0.0021999999880790710449 0.0074499999172985553741 0.012107143178582191467 0.0021999999880790710449 0.0021533332765102386475 0.0021461539436131715775 0.017883334308862686157 0.036359999328851699829 0.0021999999880790710449 0.036713331937789916992 0.019279999658465385437 0.0027888887561857700348 0.0057583334855735301971 0.0021999999880790710449 0.0021999999880790710449 0.0021999999880790710449 0.0021999999880790710449 0.0094250002875924110413 0.0021999999880790710449 0.0057583334855735301971 0.012869230471551418304 0.042807143181562423706 0.0075375000014901161194 0.016206249594688415527 0.0021999999880790710449 0.0021999999880790710449 0.0021999999880790710449 0.012875000014901161194 0.025326667353510856628 0.0048687499947845935822 0.0021999999880790710449 0.0021999999880790710449 0.0021999999880790710449 0.0021999999880790710449 0.011800000444054603577 0.031653847545385360718 0.0017099999822676181793 0.038684614002704620361 0.028277777135372161865 0.031761538237333297729 0.0027888887561857700348 0.0021999999880790710449 0.025922222062945365906 0.0021999999880790710449 0.0021999999880790710449 0.0074499999172985553741 0.01795000024139881134 0.0073624998331069946289 0.0068562501110136508942 0.0048687499947845935822 0.039562501013278961182 0.021543750539422035217 0.010206250473856925964 0.01854375004768371582 0.0021999999880790710449 0.0021999999880790710449 0.0021999999880790710449 0.0021999999880790710449 0.0021999999880790710449 0.0021999999880790710449 0.0019374999683350324631 0.0015000000130385160446 0.0015000000130385160446 0.0015437500551342964172 0.0045624999329447746277 0.0021999999880790710449 0.0021999999880790710449 
0.0021999999880790710449 0.0021999999880790710449 0.012875000014901161194 0.025868749246001243591 0.012193749658763408661 0.0021999999880790710449 0.0021999999880790710449 0.0021999999880790710449 0.0021999999880790710449 0.0021999999880790710449 0.0021999999880790710449 0.0077749998308718204498 0.0033875000663101673126 0.0021999999880790710449 0.0021999999880790710449 0.0091937500983476638794 0.0048687499947845935822 0.013293750584125518799 0.0021999999880790710449 0.0021999999880790710449 0.0021999999880790710449 0.0021999999880790710449 0.0021999999880790710449 0.0021999999880790710449 0.0021999999880790710449 0.0021999999880790710449 0.0021999999880790710449 0.0026416666805744171143 0.0026416666805744171143 0.011688889004290103912 0.0021999999880790710449 0.0057583334855735301971 0.0021999999880790710449 0.0024533332325518131256 0.0024375000502914190292 0.0021999999880790710449 0.0021999999880790710449 0.0021999999880790710449 0.0021999999880790710449 0.0021999999880790710449 0.0021999999880790710449 0.018212500959634780884 0.0075375000014901161194 0.0021999999880790710449 0.0021999999880790710449 0.0021999999880790710449 0.0021999999880790710449 0.0021999999880790710449 0.0021999999880790710449 0.0021999999880790710449 0.0021999999880790710449 0.0021999999880790710449 0.0021999999880790710449 0.0021999999880790710449 0.025192307308316230774 0.031255554407835006714 0.0021999999880790710449 0.025546154007315635681 0.022080000489950180054 0.032175000756978988647 0.0021999999880790710449 0.0075375000014901161194 0.032549999654293060303 0.0021999999880790710449 0.0021999999880790710449 0.0048687499947845935822 0.0021999999880790710449 0.0021999999880790710449 0.0021999999880790710449 0.0021999999880790710449 0.015875000506639480591 0.026218749582767486572 0.0028625000268220901489 0.0055312500335276126862 0.0021999999880790710449 0.0021999999880790710449 0.0021999999880790710449 0.0021999999880790710449 0.0021999999880790710449 0.0021999999880790710449 0.0020250000525265932083 0.0015000000130385160446 0.0015000000130385160446 0.0045624999329447746277 0.0048687499947845935822 0.0021999999880790710449 0.0021999999880790710449 
0.0021999999880790710449 0.0048687499947845935822 0.022537499666213989258 0.019206250086426734924 0.0021999999880790710449 0.0021999999880790710449 0.0021999999880790710449 0.0021999999880790710449 0.010206250473856925964 0.0048687499947845935822 0.014200000092387199402 0.0058187497779726982117 0.002912499941885471344 0.0021999999880790710449 0.0021999999880790710449 0.0075375000014901161194 0.0085312500596046447754 0.0021999999880790710449 0.0021999999880790710449 0.0021999999880790710449 0.0021999999880790710449 0.0021999999880790710449 0.0021999999880790710449 0.0021999999880790710449 0.0021999999880790710449 0.0021999999880790710449 0.0021999999880790710449 0.0021999999880790710449 0.0035999999381601810455 0.0021999999880790710449 0.0021999999880790710449 0.0064699999056756496429 0.0055249999277293682098 0.010133333504199981689 0.0074499999172985553741 0.0021999999880790710449 0.0021999999880790710449 0.0021999999880790710449 0.0021999999880790710449 0.0021999999880790710449 0.0021999999880790710449 0.023550000041723251343 0.0021999999880790710449 0.0021999999880790710449 0.0021999999880790710449 0.0021999999880790710449 0.0021999999880790710449 0.0021999999880790710449 0.0021999999880790710449 0.0021999999880790710449 0.0021999999880790710449 0.0021999999880790710449 0.0021999999880790710449 0.0021999999880790710449 0.0075375000014901161194 0.0075375000014901161194 0.0057583334855735301971 0.042228572070598602295 0.01552500016987323761 0.020120000466704368591 0.010868749581277370453 0.0075375000014901161194 0.015543749555945396423 0.0031500000040978193283 0.0024375000502914190292 0.0021999999880790710449 0.0021999999880790710449 0.0021999999880790710449 0.0021999999880790710449 0.0021999999880790710449 0.0021999999880790710449 0.018874999135732650757 0.010868749581277370453 0.0021999999880790710449 0.0061937500722706317902 0.0055312500335276126862 0.0021999999880790710449 0.0021999999880790710449 0.0078687500208616256714 0.0021999999880790710449 0.0018062499584630131721 0.0015000000130385160446 0.0015874999808147549629 0.014774999581277370453 0.0021999999880790710449 0.0021999999880790710449 0.0021999999880790710449 
0.0075375000014901161194 0.021874999627470970154 0.0091937500983476638794 0.0025312500074505805969 0.0021999999880790710449 0.0024375000502914190292 0.0021999999880790710449 0.0048687499947845935822 0.023550000041723251343 0.002912499941885471344 0.0038624999579042196274 0.0033875000663101673126 0.0031500000040978193283 0.0021999999880790710449 0.0021999999880790710449 0.0021999999880790710449 0.0025312500074505805969 0.0024375000502914190292 0.002912499941885471344 0.0021999999880790710449 0.0031500000040978193283 0.0026599999982863664627 0.0021999999880790710449 0.0021999999880790710449 0.0021999999880790710449 0.0021999999880790710449 0.0021999999880790710449 0.0021999999880790710449 0.04164444655179977417 0.0021999999880790710449 0.0021999999880790710449 0.02704999968409538269 0.0021999999880790710449 0.019991666078567504883 0.0021999999880790710449 0.0021999999880790710449 0.0021999999880790710449 0.0021999999880790710449 0.0021999999880790710449 0.0021999999880790710449 0.0021999999880790710449 0.0021999999880790710449 0.0021999999880790710449 0.0021999999880790710449 0.0021999999880790710449 0.0021999999880790710449 0.0021999999880790710449 0.0021999999880790710449 0.0021999999880790710449 0.0021999999880790710449 0.0021999999880790710449 0.0021999999880790710449 0.0021999999880790710449 0.0021999999880790710449 0.0021999999880790710449 0.0021999999880790710449 0.0021999999880790710449 0.019933333620429039001 0.020659999921917915344 0.0056833336129784584045 0.0028687498997896909714 0.018743749707937240601 0.0085312500596046447754 0.0021999999880790710449 0.0021999999880790710449 0.0025312500074505805969 0.0021999999880790710449 0.0021999999880790710449 0.0019374999683350324631 0.0021999999880790710449 0.0021999999880790710449 0.028887499123811721802 0.013206250034272670746 0.0021999999880790710449 0.011199999600648880005 0.0085312500596046447754 0.0021999999880790710449 0.0048687499947845935822 0.016537500545382499695 0.0018937500426545739174 0.0019374999683350324631 0.0020250000525265932083 0.0021999999880790710449 0.015875000506639480591 0.034556251019239425659 0.0021999999880790710449 0.0021999999880790710449 
0.016206249594688415527 0.042562499642372131348 0.01854375004768371582 0.014531250111758708954 0.0021999999880790710449 0.0021999999880790710449 0.0055312500335276126862 0.010537499561905860901 0.0021999999880790710449 0.0048687499947845935822 0.010868749581277370453 0.0028625000268220901489 0.021118750795722007751 0.016537500545382499695 0.0021999999880790710449 0.0021999999880790710449 0.0021999999880790710449 0.0067250002175569534302 0.0049875001423060894012 0.0021999999880790710449 0.0020833332091569900513 0.0021999999880790710449 0.0021999999880790710449 0.0021999999880790710449 0.0031799999997019767761 0.0021999999880790710449 0.0021999999880790710449 0.0021999999880790710449 0.022315384820103645325 0.017758334055542945862 0.019279999658465385437 0.0021999999880790710449 0.0021999999880790710449 0.0021999999880790710449 0.0021999999880790710449 0.0021999999880790710449 0.0021999999880790710449 0.0021999999880790710449 0.0026416666805744171143 0.0021999999880790710449 0.0021999999880790710449 0.0048687499947845935822 0.0021999999880790710449 0.0021999999880790710449 0.0021999999880790710449 0.0021999999880790710449 0.0082999998703598976135 0.0082000000402331352234 0.0021999999880790710449 0.0020250000525265932083 0.0020923076663166284561 0.0021999999880790710449 0.0019374999683350324631 0.0019374999683350324631 0.0021999999880790710449 0.0021999999880790710449 0.0021999999880790710449 0.0021999999880790710449 0.0036249998956918716431 0.0045384615659713745117 0.0021999999880790710449 0.012656250037252902985 0.025537500157952308655 0.0028625000268220901489 0.0048687499947845935822 0.0021999999880790710449 0.0021999999880790710449 0.0021999999880790710449 0.0021999999880790710449 0.0021999999880790710449 0.015543749555945396423 0.020881250500679016113 0.0021999999880790710449 0.0021999999880790710449 0.0055312500335276126862 0.0021999999880790710449 0.0021999999880790710449 0.0021999999880790710449 0.0055312500335276126862 0.0017625000327825546265 0.0020687500946223735809 0.0048687499947845935822 0.010075000114738941193 0.0023562500718981027603 0.0075375000014901161194 0.016206249594688415527 0.012875000014901161194 
0.02655000053346157074 0.037225000560283660889 0.0028625000268220901489 0.0021999999880790710449 0.0021999999880790710449 0.0021999999880790710449 0.0050187502056360244751 0.0020250000525265932083 0.020881250500679016113 0.01854375004768371582 0.019206250086426734924 0.0059124999679625034332 0.0048687499947845935822 0.01854375004768371582 0.0088625000789761543274 0.0021999999880790710449 0.0021999999880790710449 0.0021999999880790710449 0.0021999999880790710449 0.0021999999880790710449 0.0021999999880790710449 0.0021999999880790710449 0.01854375004768371582 0.0021999999880790710449 0.0021999999880790710449 0.0021999999880790710449 0.0078687500208616256714 0.0027300000656396150589 0.034225001931190490723 0.027108334004878997803 0.031844444572925567627 0.0026416666805744171143 0.0021999999880790710449 0.0021999999880790710449 0.0021999999880790710449 0.0021999999880790710449 0.0021999999880790710449 0.0021999999880790710449 0.0021999999880790710449 0.0021999999880790710449 0.010206250473856925964 0.016206249594688415527 0.0075375000014901161194 0.013537500053644180298 0.0021999999880790710449 0.0021999999880790710449 0.011350000277161598206 0.010206250473856925964 0.0017692308174446225166 0.0017187499906867742538 0.0015000000130385160446 0.0015874999808147549629 0.0015000000130385160446 0.0015000000130385160446 0.0020384616218507289886 0.0021999999880790710449 0.0021999999880790710449 0.0021999999880790710449 0.0021999999880790710449 0.010206250473856925964 0.010537499561905860901 0.028887499123811721802 0.044900000095367431641 0.034225001931190490723 0.0021999999880790710449 0.0021999999880790710449 0.0021999999880790710449 0.0021999999880790710449 0.0021999999880790710449 0.010206250473856925964 0.03446250036358833313 0.0038624999579042196274 0.0018937500426545739174 0.013206250034272670746 0.0061937500722706317902 0.0021999999880790710449 0.0021999999880790710449 0.0021999999880790710449 0.0021999999880790710449 0.0019812500104308128357 0.0018500000005587935448 0.0017625000327825546265 0.0017625000327825546265 0.0020687500946223735809 0.0021999999880790710449 0.0048687499947845935822 0.023550000041723251343 
0.032218750566244125366 0.016868749633431434631 0.0021999999880790710449 0.0021999999880790710449 0.0021999999880790710449 0.0048687499947845935822 0.010868749581277370453 0.0024375000502914190292 0.0085312500596046447754 0.010868749581277370453 0.0043312497437000274658 0.0053812498226761817932 0.0038624999579042196274 0.0025312500074505805969 0.0048687499947845935822 0.0021999999880790710449 0.0021999999880790710449 0.0021999999880790710449 0.01782857067883014679 0.0021299999207258224487 0.0046500000171363353729 0.0021999999880790710449 0.0021999999880790710449 0.0021999999880790710449 0.0021999999880790710449 0.0069444444961845874786 0.010739999823272228241 0.0094357142224907875061 0.0026333332061767578125 0.012875000014901161194 0.0062000001780688762665 0.0021999999880790710449 0.0021999999880790710449 0.0063999998383224010468 0.0021999999880790710449 0.0075333332642912864685 0.0057333330623805522919 0.0052499999292194843292 0.0052000000141561031342 0.0020833332091569900513 0.0049533331766724586487 0.01324285753071308136 0.0021999999880790710449 0.010537499561905860901 0.0075375000014901161194 0.0021999999880790710449 0.0021999999880790710449 0.0021999999880790710449 0.0021999999880790710449 0.0017625000327825546265 0.0015000000130385160446 0.0015000000130385160446 0.0015000000130385160446 0.0015000000130385160446 0.0021999999880790710449 0.0021999999880790710449 0.0021999999880790710449 0.0021999999880790710449 0.0021999999880790710449 0.0021999999880790710449 0.013537500053644180298 0.036893751472234725952 0.044900000095367431641 0.0075375000014901161194 0.0021999999880790710449 0.0021999999880790710449 0.0021999999880790710449 0.0021999999880790710449 0.0021999999880790710449 0.012875000014901161194 0.01016249973326921463 0.0028874999843537807465 0.0036249998956918716431 0.0021999999880790710449 0.0021999999880790710449 0.0021999999880790710449 0.0021999999880790710449 0.0021999999880790710449 0.0021999999880790710449 0.0021999999880790710449 0.0021999999880790710449 0.0018062499584630131721 0.0018500000005587935448 0.0021999999880790710449 0.0021999999880790710449 0.0021562499459832906723 0.0018500000005587935448 
0.024875000119209289551 0.0058625000528991222382 0.0021999999880790710449 0.0021999999880790710449 0.0021999999880790710449 0.0021999999880790710449 0.0055312500335276126862 0.0021999999880790710449 0.0026750001125037670135 0.0021999999880790710449 0.015543749555945396423 0.011343750171363353729 0.0021999999880790710449 0.0021999999880790710449 0.0021999999880790710449 0.0021999999880790710449 0.0021999999880790710449 0.0021999999880790710449 0.0021999999880790710449 0.012787500396370887756 0.021257143467664718628 0.0021999999880790710449 0.0021999999880790710449 0.012875000014901161194 0.035750001668930053711 0.0097000002861022949219 0.0019083332736045122147 0.0021999999880790710449 0.0057583334855735301971 0.0021999999880790710449 0.0021999999880790710449 0.0021999999880790710449 0.0020250000525265932083 0.0092000002041459083557 0.019279999658465385437 0.0021999999880790710449 0.025537500157952308655 0.0021999999880790710449 0.0020999999251216650009 0.0015874999808147549629 0.0016749999485909938812 0.0021999999880790710449 0.0021999999880790710449 0.0021999999880790710449 0.0021999999880790710449 0.0021999999880790710449 0.0021999999880790710449 0.0021999999880790710449 0.0021999999880790710449 0.0016749999485909938812 0.0015000000130385160446 0.0015000000130385160446 0.0015000000130385160446 0.0015000000130385160446 0.0021999999880790710449 0.0021999999880790710449 0.0021999999880790710449 0.0021999999880790710449 0.0021999999880790710449 0.0021999999880790710449 0.0021999999880790710449 0.039562501013278961182 0.044900000095367431641 0.0021999999880790710449 0.0021999999880790710449 0.0021999999880790710449 0.0021999999880790710449 0.0055312500335276126862 0.0025312500074505805969 0.01854375004768371582 0.0034937500022351741791 0.0042500002309679985046 0.0021124999038875102997 0.0021999999880790710449 0.0021999999880790710449 0.0024375000502914190292 0.002912499941885471344 0.0021999999880790710449 0.0021999999880790710449 0.0021999999880790710449 0.0021999999880790710449 0.0021562499459832906723 0.0017625000327825546265 0.0021999999880790710449 0.0021999999880790710449 0.0019374999683350324631 0.0015000000130385160446 
0.026218749582767486572 0.0025312500074505805969 0.0021999999880790710449 0.0021999999880790710449 0.0058625000528991222382 0.0021999999880790710449 0.0025312500074505805969 0.0078687500208616256714 0.013781250454485416412 0.0074937501922249794006 0.0021999999880790710449 0.0063000000081956386566 0.0021999999880790710449 0.0021999999880790710449 0.0021999999880790710449 0.0021999999880790710449 0.0021999999880790710449 0.0021999999880790710449 0.0021999999880790710449 0.0027888887561857700348 0.012866666540503501892 0.016200000420212745667 0.038800001144409179688 0.042231250554323196411 0.044900000095367431641 0.044900000095367431641 0.01227777823805809021 0.0057583334855735301971 0.02117777802050113678 0.0087692309170961380005 0.0054846154525876045227 0.0021999999880790710449 0.024433333426713943481 0.026739999651908874512 0.0021999999880790710449 0.0021999999880790710449 0.0021999999880790710449 0.0060000000521540641785 0.0057076923549175262451 0.0052437498234212398529 0.0040124999359250068665 0.0021999999880790710449 0.0021999999880790710449 0.0021999999880790710449 0.0021999999880790710449 0.0021999999880790710449 0.0021999999880790710449 0.001919999951496720314 0.0019307691836729645729 0.0019666666630655527115 0.0015000000130385160446 0.0015000000130385160446 0.0015000000130385160446 0.0019666666630655527115 0.0020133333746343851089 0.0021999999880790710449 0.0021999999880790710449 0.0021999999880790710449 0.0021999999880790710449 0.0021999999880790710449 0.0021999999880790710449 0.0075375000014901161194 0.026218749582767486572 0.0075375000014901161194 0.010868749581277370453 0.0021999999880790710449 0.0021999999880790710449 0.0078687500208616256714 0.026881249621510505676 0.0052000000141561031342 0.002912499941885471344 0.0021999999880790710449 0.0021562499459832906723 0.0021999999880790710449 0.0021999999880790710449 0.0021999999880790710449 0.0024375000502914190292 0.0021999999880790710449 0.0021999999880790710449 0.0021124999038875102997 0.0021999999880790710449 0.0021999999880790710449 0.0021999999880790710449 0.0021999999880790710449 0.0021999999880790710449 0.0020687500946223735809 0.0018500000005587935448 
0.0025312500074505805969 0.0021999999880790710449 0.0021999999880790710449 0.0048687499947845935822 0.014531250111758708954 0.0078687500208616256714 0.015875000506639480591 0.023881249129772186279 0.0050062499940395355225 0.0032124998979270458221 0.0021999999880790710449 0.0021999999880790710449 0.0021999999880790710449 0.0021562499459832906723 0.0021124999038875102997 0.0025166666600853204727 0.0024923076853156089783 0.0021999999880790710449 0.023550000041723251343 0.041341666132211685181 0.044900000095367431641 0.044900000095367431641 0.044900000095367431641 0.044900000095367431641 0.025922222062945365906 0.033513333648443222046 0.012461538426578044891 0.010739999823272228241 0.019991666078567504883 0.018641667440533638 0.023991666734218597412 0.013206250034272670746 0.0075375000014901161194 0.0075249997898936271667 0.0044777779839932918549 0.0048687499947845935822 0.018874999135732650757 0.0060000000521540641785 0.0060000000521540641785 0.0060000000521540641785 0.002912499941885471344 0.0021999999880790710449 0.0021999999880790710449 0.0021999999880790710449 0.0021999999880790710449 0.0030624999199062585831 0.0075375000014901161194 0.0019499999471008777618 0.0015000000130385160446 0.0015000000130385160446 0.0015000000130385160446 0.0015000000130385160446 0.0015000000130385160446 0.0015000000130385160446 0.0021124999038875102997 0.0021999999880790710449 0.0021999999880790710449 0.0021999999880790710449 0.0021999999880790710449 0.0021999999880790710449 0.0021999999880790710449 0.0021999999880790710449 0.0021999999880790710449 0.0021999999880790710449 0.0078687500208616256714 0.0021999999880790710449 0.0021999999880790710449 0.039562501013278961182 0.016868749633431434631 0.0021999999880790710449 0.0021999999880790710449 0.0021999999880790710449 0.0021999999880790710449 0.0021999999880790710449 0.0021999999880790710449 0.0021999999880790710449 0.0020687500946223735809 0.0019374999683350324631 0.0021124999038875102997 0.0024874999653548002243 0.0021999999880790710449 0.0021999999880790710449 0.0021999999880790710449 0.0021999999880790710449 0.0021999999880790710449 0.0021999999880790710449 0.0021999999880790710449 
0.0048687499947845935822 0.0021999999880790710449 0.0021999999880790710449 0.0021999999880790710449 0.0021999999880790710449 0.0078687500208616256714 0.011199999600648880005 0.0021999999880790710449 0.0024375000502914190292 0.0021999999880790710449 0.0021999999880790710449 0.0021999999880790710449 0.0021562499459832906723 0.0020687500946223735809 0.0021999999880790710449 0.0021999999880790710449 0.026218749582767486572 0.044900000095367431641 0.044900000095367431641 0.044900000095367431641 0.044900000095367431641 0.044900000095367431641 0.029549999162554740906 0.025922222062945365906 0.044900000095367431641 0.022074999287724494934 0.0019812500104308128357 0.023550000041723251343 0.044900000095367431641 0.017091667279601097107 0.0050666667520999908447 0.0021999999880790710449 0.0021999999880790710449 0.0021999999880790710449 0.010868749581277370453 0.016060000285506248474 0.025200000032782554626 0.0095100002363324165344 0.0060000000521540641785 0.0053666667081415653229 0.0021999999880790710449 0.0021999999880790710449 0.0021999999880790710449 0.0019812500104308128357 0.0023062499240040779114 0.0089624999091029167175 0.0021999999880790710449 0.0019374999683350324631 0.0015000000130385160446 0.0015000000130385160446 0.0015000000130385160446 0.0015000000130385160446 0.0015000000130385160446 0.0015000000130385160446 0.0020250000525265932083 0.0021999999880790710449 0.0021999999880790710449 0.0021999999880790710449 0.0021999999880790710449 0.0021999999880790710449 0.0055312500335276126862 0.0028625000268220901489 0.0048687499947845935822 0.012875000014901161194 0.01386875007301568985 0.010206250473856925964 0.021543750539422035217 0.02121249958872795105 0.0061937500722706317902 0.0021999999880790710449 0.0021999999880790710449 0.0021999999880790710449 0.0021999999880790710449 0.0021999999880790710449 0.0021999999880790710449 0.0021999999880790710449 0.0017625000327825546265 0.0018937500426545739174 0.0018937500426545739174 0.0033875000663101673126 0.0021999999880790710449 0.0021999999880790710449 0.0021999999880790710449 0.0021999999880790710449 0.0021999999880790710449 0.0021999999880790710449 0.0021999999880790710449 
0.0025312500074505805969 0.0075375000014901161194 0.0021999999880790710449 0.0021999999880790710449 0.0021999999880790710449 0.0048687499947845935822 0.010206250473856925964 0.0021999999880790710449 0.0021999999880790710449 0.0021999999880790710449 0.0021999999880790710449 0.0021999999880790710449 0.0021999999880790710449 0.0021999999880790710449 0.0021999999880790710449 0.012875000014901161194 0.044900000095367431641 0.044900000095367431641 0.044900000095367431641 0.044900000095367431641 0.026511110365390777588 0.027933333069086074829 0.012875000014901161194 0.010868749581277370453 0.0028625000268220901489 0.0024874999653548002243 0.0021124999038875102997 0.015543749555945396423 0.025922222062945365906 0.0025538462214171886444 0.0048687499947845935822 0.0016312500229105353355 0.0019374999683350324631 0.0021999999880790710449 0.0021999999880790710449 0.0021416665986180305481 0.0040124999359250068665 0.005728571675717830658 0.003953846171498298645 0.0024375000502914190292 0.0021999999880790710449 0.0021999999880790710449 0.0021999999880790710449 0.0020250000525265932083 0.0023937500081956386566 0.0030624999199062585831 0.0034937500022351741791 0.0028874999843537807465 0.0015000000130385160446 0.0017187499906867742538 0.0019374999683350324631 0.0015000000130385160446 0.0017187499906867742538 0.0018062499584630131721 0.0021999999880790710449 0.0021999999880790710449 0.0021999999880790710449 0.0021999999880790710449 0.0021999999880790710449 0.0021999999880790710449 0.0021999999880790710449 0.020881250500679016113 0.042562499642372131348 0.042562499642372131348 0.028887499123811721802 0.01854375004768371582 0.016443749889731407166 0.0028625000268220901489 0.0028625000268220901489 0.0021999999880790710449 0.0021999999880790710449 0.0021999999880790710449 0.0021999999880790710449 0.0021999999880790710449 0.0021999999880790710449 0.0018062499584630131721 0.0015000000130385160446 0.0017625000327825546265 0.0025312500074505805969 0.0022625001147389411926 0.015543749555945396423 0.0021999999880790710449 0.0021999999880790710449 0.0021999999880790710449 0.0021999999880790710449 0.0021999999880790710449 0.0021999999880790710449 
0.0021999999880790710449 0.0055312500335276126862 0.011199999600648880005 0.0021999999880790710449 0.0021999999880790710449 0.023550000041723251343 0.0021999999880790710449 0.0021999999880790710449 0.0021999999880790710449 0.0040562502108514308929 0.0021999999880790710449 0.0021999999880790710449 0.0021999999880790710449 0.0021999999880790710449 0.0021999999880790710449 0.042231250554323196411 0.044900000095367431641 0.031556248664855957031 0.034225001931190490723 0.039557144045829772949 0.024609999731183052063 0.0019000000320374965668 0.0020833332091569900513 0.0021562499459832906723 0.0021999999880790710449 0.0021999999880790710449 0.0021999999880790710449 0.0021999999880790710449 0.0021999999880790710449 0.0021999999880790710449 0.0019374999683350324631 0.0015874999808147549629 0.0020687500946223735809 0.0021999999880790710449 0.0019374999683350324631 0.0021999999880790710449 0.0047333333641290664673 0.0053666667081415653229 0.0026750001125037670135 0.0021999999880790710449 0.0021999999880790710449 0.0021999999880790710449 0.0021999999880790710449 0.0021999999880790710449 0.0074062501080334186554 0.010206250473856925964 0.0024375000502914190292 0.0040312502533197402954 0.0015874999808147549629 0.0021999999880790710449 0.0075375000014901161194 0.0020687500946223735809 0.015543749555945396423 0.023375000804662704468 0.023462500423192977905 0.028887499123811721802 0.023550000041723251343 0.0075375000014901161194 0.0021999999880790710449 0.0021124999038875102997 0.012875000014901161194 0.02121249958872795105 0.02121249958872795105 0.010868749581277370453 0.0021999999880790710449 0.0021999999880790710449 0.0048687499947845935822 0.0025312500074505805969 0.0055312500335276126862 0.0025312500074505805969 0.0021999999880790710449 0.0021999999880790710449 0.0021999999880790710449 0.0048687499947845935822 0.018212500959634780884 0.018168749287724494934 0.0021562499459832906723 0.0021562499459832906723 0.0021999999880790710449 0.0021999999880790710449 0.039562501013278961182 0.018212500959634780884 0.0021999999880790710449 0.0025312500074505805969 0.0021999999880790710449 0.0031937500461935997009 0.0048500001430511474609 
0.0021999999880790710449 0.0021999999880790710449 0.0021999999880790710449 0.0021999999880790710449 0.012875000014901161194 0.0075375000014901161194 0.0025312500074505805969 0.0021999999880790710449 0.0021999999880790710449 0.0038888889830559492111 0.0034666666761040687561 0.0034666666761040687561 0.0021999999880790710449 0.0021999999880790710449 0.044900000095367431641 0.044900000095367431641 0.044900000095367431641 0.044900000095367431641 0.040224999189376831055 0.028526667505502700806 0.037887498736381530762 0.0058187497779726982117 0.013406249694526195526 0.0047375001013278961182 0.0021999999880790710449 0.0021999999880790710449 0.0021999999880790710449 0.0021999999880790710449 0.0021999999880790710449 0.0021999999880790710449 0.0021999999880790710449 0.0021562499459832906723 0.0021999999880790710449 0.0021999999880790710449 0.0021999999880790710449 0.0029599999543279409409 0.005728571675717830658 0.0033875000663101673126 0.0021999999880790710449 0.0021124999038875102997 0.0021999999880790710449 0.0021999999880790710449 0.0021999999880790710449 0.015543749555945396423 0.020881250500679016113 0.0038624999579042196274 0.0055249999277293682098 0.0040312502533197402954 0.0076500000432133674622 0.034225001931190490723 0.02655000053346157074 0.015543749555945396423 0.0021999999880790710449 0.012875000014901161194 0.015543749555945396423 0.016206249594688415527 0.015543749555945396423 0.0021999999880790710449 0.0020687500946223735809 0.0021124999038875102997 0.0075375000014901161194 0.0031937500461935997009 0.013206250034272670746 0.0021999999880790710449 0.0021999999880790710449 0.0021999999880790710449 0.0021999999880790710449 0.0021999999880790710449 0.0021999999880790710449 0.0055312500335276126862 0.0021999999880790710449 0.0021999999880790710449 0.0048687499947845935822 0.015543749555945396423 0.0075375000014901161194 0.0021999999880790710449 0.0021999999880790710449 0.0021999999880790710449 0.0021999999880790710449 0.012875000014901161194 0.031556248664855957031 0.0048687499947845935822 0.013537500053644180298 0.017531249672174453735 0.029218750074505805969 0.028887499123811721802 0.023550000041723251343 
0.024212500080466270447 0.013537500053644180298 0.0021999999880790710449 0.0021999999880790710449 0.015543749555945396423 0.0021999999880790710449 0.0057687498629093170166 0.0028625000268220901489 0.020881250500679016113 0.0034812500234693288803 0.0041000000201165676117 0.0038624999579042196274 0.0026750001125037670135 0.012875000014901161194 0.012875000014901161194 0.044900000095367431641 0.044900000095367431641 0.044900000095367431641 0.044900000095367431641 0.013206250034272670746 0.0067083332687616348267 0.0034666666761040687561 0.028887499123811721802 0.011199999600648880005 0.0021999999880790710449 0.0021999999880790710449 0.0021999999880790710449 0.0021999999880790710449 0.0047333333641290664673 0.0021999999880790710449 0.0021999999880790710449 0.0021999999880790710449 0.0019374999683350324631 0.0020250000525265932083 0.0021999999880790710449 0.0028333333320915699005 0.011631250381469726562 0.0021999999880790710449 0.0021999999880790710449 0.0021999999880790710449 0.0048687499947845935822 0.0048687499947845935822 0.0021999999880790710449 0.010206250473856925964 0.0021999999880790710449 0.0036249998956918716431 0.005762500222772359848 0.0039249998517334461212 0.010206250473856925964 0.028887499123811721802 0.020881250500679016113 0.0026750001125037670135 0.002912499941885471344 0.0024375000502914190292 0.0024375000502914190292 0.0052000000141561031342 0.0021999999880790710449 0.0021999999880790710449 0.0075375000014901161194 0.024212500080466270447 0.0048687499947845935822 0.0075375000014901161194 0.0078687500208616256714 0.0021999999880790710449 0.0021999999880790710449 0.0021999999880790710449 0.0021999999880790710449 0.0021999999880790710449 0.0021999999880790710449 0.011199999600648880005 0.0021999999880790710449 0.0021999999880790710449 0.0021999999880790710449 0.0021999999880790710449 0.0021999999880790710449 0.012875000014901161194 0.021543750539422035217 0.020881250500679016113 0.023881249129772186279 0.0088625000789761543274 0.0058625000528991222382 0.0065250000916421413422 0.042562499642372131348 0.044900000095367431641 0.042562499642372131348 0.018212500959634780884 0.0035250000655651092529 
0.0075375000014901161194 0.0021999999880790710449 0.0021999999880790710449 0.0075375000014901161194 0.0048687499947845935822 0.0025312500074505805969 0.0054624998010694980621 0.010824999772012233734 0.01854375004768371582 0.0025166666600853204727 0.0026750001125037670135 0.0021999999880790710449 0.0021124999038875102997 0.0021999999880790710449 0.024433333426713943481 0.044900000095367431641 0.024212500080466270447 0.039562501013278961182 0.013031249865889549255 0.010206250473856925964 0.0038624999579042196274 0.0033875000663101673126 0.013112500309944152832 0.026881249621510505676 0.0048687499947845935822 0.0021999999880790710449 0.0021999999880790710449 0.0021999999880790710449 0.0021999999880790710449 0.0021999999880790710449 0.0021999999880790710449 0.0021999999880790710449 0.0021999999880790710449 0.0021999999880790710449 0.0021999999880790710449 0.020881250500679016113 0.012875000014901161194 0.0021999999880790710449 0.0021999999880790710449 0.015543749555945396423 0.010118749924004077911 0.0018937500426545739174 0.0017625000327825546265 0.0021124999038875102997 0.0021999999880790710449 0.0021999999880790710449 0.0045750001445412635803 0.0036249998956918716431 0.010206250473856925964 0.0065250000916421413422 0.0021999999880790710449 0.0055249999277293682098 0.0060000000521540641785 0.0060000000521540641785 0.005762500222772359848 0.0055249999277293682098 0.0021999999880790710449 0.0021999999880790710449 0.0048687499947845935822 0.011531249620020389557 0.0021999999880790710449 0.0024375000502914190292 0.0021999999880790710449 0.0021999999880790710449 0.0021999999880790710449 0.0021999999880790710449 0.0021999999880790710449 0.0021999999880790710449 0.0061937500722706317902 0.014531250111758708954 0.013206250034272670746 0.0048687499947845935822 0.010537499561905860901 0.013537500053644180298 0.0075375000014901161194 0.010206250473856925964 0.0021999999880790710449 0.0048687499947845935822 0.029218750074505805969 0.026218749582767486572 0.039893750101327896118 0.034556251019239425659 0.040224999189376831055 0.036893751472234725952 0.044900000095367431641 0.0085312500596046447754 0.0021999999880790710449 
0.0021999999880790710449 0.0021999999880790710449 0.0021999999880790710449 0.026881249621510505676 0.014112499542534351349 0.023881249129772186279 0.012787500396370887756 0.0074499999172985553741 0.0021999999880790710449 0.0021999999880790710449 0.0021999999880790710449 0.0021999999880790710449 0.0021999999880790710449 0.041341666132211685181 0.040630001574754714966 0.023550000041723251343 0.0021999999880790710449 0.0021999999880790710449 0.0024666667450219392776 0.005578571464866399765 0.0027428572066128253937 0.0029599999543279409409 0.013112500309944152832 0.024875000119209289551 0.0021999999880790710449 0.0021999999880790710449 0.0021999999880790710449 0.0021999999880790710449 0.0021999999880790710449 0.0060000000521540641785 0.0035571428015828132629 0.018212500959634780884 0.0088625000789761543274 0.0021999999880790710449 0.012875000014901161194 0.020881250500679016113 0.0048687499947845935822 0.0021999999880790710449 0.020881250500679016113 0.0019374999683350324631 0.0015000000130385160446 0.0015000000130385160446 0.0016749999485909938812 0.0021562499459832906723 0.0021999999880790710449 0.0021999999880790710449 0.0021999999880790710449 0.0021999999880790710449 0.0021999999880790710449 0.0021999999880790710449 0.0021999999880790710449 0.005762500222772359848 0.0060000000521540641785 0.0060000000521540641785 0.0060000000521540641785 0.0031500000040978193283 0.0021999999880790710449 0.0021999999880790710449 0.015543749555945396423 0.027212500572204589844 0.0021999999880790710449 0.0026750001125037670135 0.0021999999880790710449 0.0021999999880790710449 0.0021999999880790710449 0.0021999999880790710449 0.0021999999880790710449 0.0048687499947845935822 0.0071875001303851604462 0.023550000041723251343 0.029218750074505805969 0.026218749582767486572 0.01854375004768371582 0.0055312500335276126862 0.0048687499947845935822 0.0021999999880790710449 0.0021999999880790710449 0.0052000000141561031342 0.015543749555945396423 0.028887499123811721802 0.026218749582767486572 0.0025312500074505805969 0.0078687500208616256714 0.020881250500679016113 0.024212500080466270447 0.0021999999880790710449 0.0021999999880790710449 
0.0021999999880790710449 0.0021999999880790710449 0.0048687499947845935822 0.034556251019239425659 0.0057312501594424247742 0.0048687499947845935822 0.0025312500074505805969 0.0021999999880790710449 0.0021999999880790710449 0.0073624998331069946289 0.0021999999880790710449 0.0020600000862032175064 0.0034250000026077032089 0.011791666969656944275 0.032168749719858169556 0.015543749555945396423 0.0021999999880790710449 0.0021999999880790710449 0.017316667363047599792 0.01173000037670135498 0.0021500000730156898499 0.017069999128580093384 0.023462500423192977905 0.0078687500208616256714 0.0021999999880790710449 0.0021999999880790710449 0.0021999999880790710449 0.0021999999880790710449 0.0050499998033046722412 0.0060000000521540641785 0.0035571428015828132629 0.021400000900030136108 0.0024375000502914190292 0.010206250473856925964 0.044900000095367431641 0.012875000014901161194 0.0075375000014901161194 0.015543749555945396423 0.0019374999683350324631 0.0015000000130385160446 0.0015000000130385160446 0.0015000000130385160446 0.0018500000005587935448 0.0021999999880790710449 0.0021562499459832906723 0.0021999999880790710449 0.0019812500104308128357 0.0021999999880790710449 0.0021999999880790710449 0.0021999999880790710449 0.0021999999880790710449 0.0043374998494982719421 0.0060000000521540641785 0.0060000000521540641785 0.005762500222772359848 0.0021999999880790710449 0.0021999999880790710449 0.0021999999880790710449 0.010206250473856925964 0.02655000053346157074 0.0021999999880790710449 0.0025312500074505805969 0.0048687499947845935822 0.0021999999880790710449 0.0048687499947845935822 0.0088625000789761543274 0.0021999999880790710449 0.0021999999880790710449 0.0055312500335276126862 0.0075375000014901161194 0.0075375000014901161194 0.0055312500335276126862 0.0048687499947845935822 0.0021999999880790710449 0.0021999999880790710449 0.0021999999880790710449 0.0021999999880790710449 0.0082000000402331352234 0.010868749581277370453 0.010868749581277370453 0.0075375000014901161194 0.032218750566244125366 0.010206250473856925964 0.0021999999880790710449 0.0021999999880790710449 0.0021999999880790710449 0.0021999999880790710449 
0.0021999999880790710449 0.0021999999880790710449 0.0048687499947845935822 0.0075375000014901161194 0.0025312500074505805969 0.0075375000014901161194 0.0020923076663166284561 0.0051500000990927219391 0.0078687500208616256714 0.0058923074975609779358 0.0019083332736045122147 0.019933333620429039001 0.027924999594688415527 0.03550000116229057312 0.044900000095367431641 0.013206250034272670746 0.0021999999880790710449 0.0021999999880790710449 0.0021416665986180305481 0.011350000277161598206 0.0048250001855194568634 0.018831249326467514038 0.0047812499105930328369 0.0021999999880790710449 0.0021999999880790710449 0.0021999999880790710449 0.0021999999880790710449 0.0021999999880790710449 0.0047333333641290664673 0.005762500222772359848 0.015543749555945396423 0.0053312499076128005981 0.0038187499158084392548 0.021831249818205833435 0.042231250554323196411 0.012875000014901161194 0.0021999999880790710449 0.0018937500426545739174 0.0015000000130385160446 0.0015000000130385160446 0.0015000000130385160446 0.0015437500551342964172 0.0020687500946223735809 0.0021999999880790710449 0.0021999999880790710449 0.0021562499459832906723 0.0074499999172985553741 0.010206250473856925964 0.0021999999880790710449 0.0021999999880790710449 0.0021999999880790710449 0.0021999999880790710449 0.0052875000983476638794 0.0060000000521540641785 0.0038624999579042196274 0.0021999999880790710449 0.0021999999880790710449 0.0021999999880790710449 0.023881249129772186279 0.02121249958872795105 0.0021999999880790710449 0.012875000014901161194 0.0048687499947845935822 0.0021999999880790710449 0.0021999999880790710449 0.010868749581277370453 0.0048687499947845935822 0.015875000506639480591 0.011199999600648880005 0.010537499561905860901 0.0021999999880790710449 0.0025312500074505805969 0.0075375000014901161194 0.0021999999880790710449 0.0021999999880790710449 0.0021999999880790710449 0.0021999999880790710449 0.0025312500074505805969 0.0052000000141561031342 0.0025312500074505805969 0.0021999999880790710449 0.0075375000014901161194 0.0021999999880790710449 0.0021999999880790710449 0.0021999999880790710449 0.0021999999880790710449 0.0021999999880790710449 
0.0021999999880790710449 0.0021999999880790710449 0.0021999999880790710449 0.0021999999880790710449 0.0021999999880790710449 0.0081125004217028617859 0.0024666667450219392776 0.018212500959634780884 0.0082000000402331352234 0.0021999999880790710449 0.0048687499947845935822 0.034225001931190490723 0.044900000095367431641 0.044900000095367431641 0.044900000095367431641 0.0020062499679625034332 0.0019374999683350324631 0.0021999999880790710449 0.0075375000014901161194 0.0064666667021811008453 0.010206250473856925964 0.014200000092387199402 0.0036249998956918716431 0.0021999999880790710449 0.0021999999880790710449 0.0021999999880790710449 0.0021999999880790710449 0.0031500000040978193283 0.005762500222772359848 0.0034666666761040687561 0.012875000014901161194 0.0041249999776482582092 0.0045750001445412635803 0.010918750427663326263 0.034225001931190490723 0.0075375000014901161194 0.0021999999880790710449 0.0015874999808147549629 0.0015000000130385160446 0.0016312500229105353355 0.0021124999038875102997 0.0021999999880790710449 0.0021999999880790710449 0.0021562499459832906723 0.0021999999880790710449 0.0021999999880790710449 0.0021124999038875102997 0.0017187499906867742538 0.0019812500104308128357 0.0021999999880790710449 0.0021999999880790710449 0.0021999999880790710449 0.0024375000502914190292 0.002912499941885471344 0.0021999999880790710449 0.012875000014901161194 0.0021999999880790710449 0.0021999999880790710449 0.010206250473856925964 0.012875000014901161194 0.0052000000141561031342 0.0021999999880790710449 0.0021999999880790710449 0.0021999999880790710449 0.0024375000502914190292 0.0021999999880790710449 0.0021999999880790710449 0.0050687501206994056702 0.0048687499947845935822 0.0021999999880790710449 0.0021999999880790710449 0.0021999999880790710449 0.0021999999880790710449 0.0078687500208616256714 0.0021999999880790710449 0.0021999999880790710449 0.0021999999880790710449 0.0021999999880790710449 0.0021999999880790710449 0.0021999999880790710449 0.0021999999880790710449 0.0021999999880790710449 0.0021999999880790710449 0.0021999999880790710449 0.0021999999880790710449 0.0021999999880790710449 0.0021999999880790710449 
0.0021999999880790710449 0.0021999999880790710449 0.0021999999880790710449 0.0021999999880790710449 0.0021999999880790710449 0.0046062502078711986542 0.0075375000014901161194 0.0086785713210701942444 0.0021999999880790710449 0.0021999999880790710449 0.028887499123811721802 0.042231250554323196411 0.044900000095367431641 0.044900000095367431641 0.044900000095367431641 0.023418750613927841187 0.0024375000502914190292 0.0036249998956918716431 0.0021999999880790710449 0.0049533331766724586487 0.015543749555945396423 0.010868749581277370453 0.0024714285973459482193 0.011800000444054603577 0.0031937500461935997009 0.0021999999880790710449 0.0021999999880790710449 0.0041000000201165676117 0.0048307692632079124451 0.0021999999880790710449 0.0022769230417907238007 0.0037937499582767486572 0.002349999966099858284 0.020881250500679016113 0.042231250554323196411 0.034225001931190490723 0.0021999999880790710449 0.0016749999485909938812 0.0015000000130385160446 0.0020250000525265932083 0.0021999999880790710449 0.010206250473856925964 0.0075375000014901161194 0.0021999999880790710449 0.0021999999880790710449 0.0021999999880790710449 0.0017187499906867742538 0.0020687500946223735809 0.0017625000327825546265 0.0021999999880790710449 0.0048687499947845935822 0.0048687499947845935822 0.0021999999880790710449 0.0021999999880790710449 0.0021999999880790710449 0.018212500959634780884 0.0021999999880790710449 0.0021999999880790710449 0.0021999999880790710449 0.0023999998811632394791 0.0021999999880790710449 0.0021999999880790710449 0.0021999999880790710449 0.0021999999880790710449 0.0026750001125037670135 0.0024375000502914190292 0.0021999999880790710449 0.0048687499947845935822 0.0021999999880790710449 0.0021999999880790710449 0.014200000092387199402 0.015875000506639480591 0.020881250500679016113 0.010206250473856925964 0.0021999999880790710449 0.0021999999880790710449 0.0021999999880790710449 0.0021999999880790710449 0.0021999999880790710449 0.0021999999880790710449 0.0021999999880790710449 0.0021999999880790710449 0.0021999999880790710449 0.0021999999880790710449 0.0021999999880790710449 0.0021999999880790710449 0.0021999999880790710449 
0.0021999999880790710449 0.0021999999880790710449 0.0021124999038875102997 0.0048250001855194568634 0.0075375000014901161194 0.027212500572204589844 0.0056285713799297809601 0.012875000014901161194 0.0021999999880790710449 0.0093166669830679893494 0.044900000095367431641 0.044900000095367431641 0.034225001931190490723 0.044900000095367431641 0.044900000095367431641 0.03451250120997428894 0.012860000133514404297 0.0021999999880790710449 0.0048687499947845935822 0.0021999999880790710449 0.0021999999880790710449 0.0021999999880790710449 0.0021999999880790710449 0.024307142943143844604 0.0048687499947845935822 0.0048687499947845935822 0.0021999999880790710449 0.0021999999880790710449 0.0025800000876188278198 0.0021500000730156898499 0.015010000206530094147 0.020837500691413879395 0.034225001931190490723 0.020881250500679016113 0.020881250500679016113 0.0075375000014901161194 0.0021999999880790710449 0.0019374999683350324631 0.0017625000327825546265 0.0021999999880790710449 0.0021999999880790710449 0.0021999999880790710449 0.0021999999880790710449 0.0021999999880790710449 0.0021999999880790710449 0.0019812500104308128357 0.0020250000525265932083 0.0018062499584630131721 0.0020250000525265932083 0.0048687499947845935822 0.023550000041723251343 0.010206250473856925964 0.0021999999880790710449 0.0021999999880790710449 0.0021999999880790710449 0.0021999999880790710449 0.0021562499459832906723 0.0021999999880790710449 0.0021999999880790710449 0.0021124999038875102997 0.0021999999880790710449 0.0021999999880790710449 0.0021999999880790710449 0.0021562499459832906723 0.0021999999880790710449 0.0021999999880790710449 0.0021999999880790710449 0.0035250000655651092529 0.0078687500208616256714 0.0052000000141561031342 0.0028625000268220901489 0.0021562499459832906723 0.0025875000283122062683 0.0026750001125037670135 0.0021999999880790710449 0.0021999999880790710449 0.0021999999880790710449 0.0021999999880790710449 0.0021999999880790710449 0.0021999999880790710449 0.01854375004768371582 0.0021999999880790710449 0.0021999999880790710449 0.0025312500074505805969 0.0048687499947845935822 0.0021999999880790710449 0.0021999999880790710449 
0.0075375000014901161194 0.016868749633431434631 0.0021999999880790710449 0.0075375000014901161194 0.010206250473856925964 0.014862500131130218506 0.0097583336755633354187 0.0021999999880790710449 0.0021999999880790710449 0.041341666132211685181 0.044900000095367431641 0.041850000619888305664 0.012875000014901161194 0.042231250554323196411 0.044900000095367431641 0.025912500917911529541 0.03243333473801612854 0.0031937500461935997009 0.010641667060554027557 0.013185714371502399445 0.0055312500335276126862 0.0052499999292194843292 0.031550001353025436401 0.01854375004768371582 0.0021999999880790710449 0.010206250473856925964 0.0021999999880790710449 0.0021999999880790710449 0.0082999998703598976135 0.0021999999880790710449 0.012875000014901161194 0.044900000095367431641 0.044900000095367431641 0.0075375000014901161194 0.0021999999880790710449 0.0021562499459832906723 0.0021999999880790710449 0.0021999999880790710449 0.0021124999038875102997 0.0021999999880790710449 0.0021999999880790710449 0.0021999999880790710449 0.020881250500679016113 0.018500000238418579102 0.0021999999880790710449 0.0018937500426545739174 0.0018500000005587935448 0.0021999999880790710449 0.023550000041723251343 0.0048687499947845935822 0.0021999999880790710449 0.0021999999880790710449 0.0021999999880790710449 0.0021999999880790710449 0.0075375000014901161194 0.0021999999880790710449 0.0019374999683350324631 0.0082000000402331352234 0.0024874999653548002243 0.0098562501370906829834 0.0021562499459832906723 0.0021999999880790710449 0.0021999999880790710449 0.0021124999038875102997 0.0021999999880790710449 0.0021999999880790710449 0.010206250473856925964 0.029881250113248825073 0.018212500959634780884 0.0021999999880790710449 0.0021999999880790710449 0.0021562499459832906723 0.0025875000283122062683 0.0024999999441206455231 0.0021999999880790710449 0.0021999999880790710449 0.0048687499947845935822 0.0021999999880790710449 0.0021999999880790710449 0.0021999999880790710449 0.021543750539422035217 0.0048687499947845935822 0.0021999999880790710449 0.0060062501579523086548 0.02121249958872795105 0.0021999999880790710449 0.0021999999880790710449 
0.0021999999880790710449 0.0021999999880790710449 0.0021999999880790710449 0.0021999999880790710449 0.0021999999880790710449 0.0021999999880790710449 0.0021999999880790710449 0.0021999999880790710449 0.0021999999880790710449 0.041341666132211685181 0.044900000095367431641 0.041615385562181472778 0.019209999591112136841 0.042231250554323196411 0.044900000095367431641 0.044900000095367431641 0.021455556154251098633 0.0021999999880790710449 0.0063857142813503742218 0.017493333667516708374 0.025599999353289604187 0.017611110582947731018 0.010868749581277370453 0.0021999999880790710449 0.0021999999880790710449 0.0021999999880790710449 0.0021999999880790710449 0.011350000277161598206 0.0021999999880790710449 0.024973332881927490234 0.0075375000014901161194 0.023550000041723251343 0.026218749582767486572 0.0021999999880790710449 0.0021124999038875102997 0.0017625000327825546265 0.0018500000005587935448 0.0020687500946223735809 0.0021999999880790710449 0.0021999999880790710449 0.0021999999880790710449 0.0021999999880790710449 0.015543749555945396423 0.015499999746680259705 0.0021999999880790710449 0.0021999999880790710449 0.0021999999880790710449 0.0021999999880790710449 0.0021999999880790710449 0.0021999999880790710449 0.0048687499947845935822 0.0021999999880790710449 0.0021999999880790710449 0.0021999999880790710449 0.018212500959634780884 0.0021999999880790710449 0.0021999999880790710449 0.0021999999880790710449 0.0021999999880790710449 0.0021999999880790710449 0.0020687500946223735809 0.0048250001855194568634 0.0048687499947845935822 0.0021999999880790710449 0.0021999999880790710449 0.0021999999880790710449 0.012875000014901161194 0.022206250578165054321 0.0048687499947845935822 0.0021999999880790710449 0.0021999999880790710449 0.0021999999880790710449 0.0021999999880790710449 0.0021999999880790710449 0.0021999999880790710449 0.0021999999880790710449 0.0021999999880790710449 0.0075375000014901161194 0.0021999999880790710449 0.011862499639391899109 0.031556248664855957031 0.0048687499947845935822 0.012875000014901161194 0.0027687500696629285812 0.0021999999880790710449 0.0021999999880790710449 0.0021999999880790710449 
0.019206250086426734924 0.0021999999880790710449 0.0075375000014901161194 0.020881250500679016113 0.0048687499947845935822 0.0048687499947845935822 0.0021999999880790710449 0.0021999999880790710449 0.012875000014901161194 0.019991666078567504883 0.040037501603364944458 0.032058332115411758423 0.029462499544024467468 0.0098562501370906829834 0.044900000095367431641 0.028625000268220901489 0.0015583334024995565414 0.0021999999880790710449 0.0021999999880790710449 0.0021999999880790710449 0.0021999999880790710449 0.010868749581277370453 0.014531250111758708954 0.016433333978056907654 0.0021999999880790710449 0.0021999999880790710449 0.0093166669830679893494 0.018212500959634780884 0.0021999999880790710449 0.018212500959634780884 0.015543749555945396423 0.0021999999880790710449 0.0021999999880790710449 0.0021999999880790710449 0.0024562499020248651505 0.0031874999403953552246 0.0023437500931322574615 0.0029062500689178705215 0.0024999999441206455231 0.0021999999880790710449 0.0021999999880790710449 0.0021999999880790710449 0.0021999999880790710449 0.0021999999880790710449 0.0021999999880790710449 0.0021999999880790710449 0.0021999999880790710449 0.0021999999880790710449 0.0021999999880790710449 0.0021999999880790710449 0.013206250034272670746 0.0021999999880790710449 0.0021999999880790710449 0.0021999999880790710449 0.0021999999880790710449 0.0021999999880790710449 0.0021999999880790710449 0.0021999999880790710449 0.0021999999880790710449 0.0021124999038875102997 0.0015874999808147549629 0.0074499999172985553741 0.0074499999172985553741 0.0020687500946223735809 0.0075624999590218067169 0.032506249845027923584 0.040224999189376831055 0.029881250113248825073 0.0074499999172985553741 0.010537499561905860901 0.013206250034272670746 0.0021999999880790710449 0.0021999999880790710449 0.0021999999880790710449 0.0021999999880790710449 0.0021999999880790710449 0.0021999999880790710449 0.0085312500596046447754 0.0021999999880790710449 0.010206250473856925964 0.034556251019239425659 0.016868749633431434631 0.013537500053644180298 0.0021999999880790710449 0.0021999999880790710449 0.0021999999880790710449 0.0021999999880790710449 
0.012875000014901161194 0.0021999999880790710449 0.0021999999880790710449 0.0021562499459832906723 0.010206250473856925964 0.0021999999880790710449 0.0021999999880790710449 0.0021999999880790710449 0.041850000619888305664 0.041341666132211685181 0.028374999761581420898 0.016300000250339508057 0.0021999999880790710449 0.0021999999880790710449 0.034225001931190490723 0.02595625072717666626 0.0021937501151114702225 0.0021999999880790710449 0.0021999999880790710449 0.0021999999880790710449 0.0021999999880790710449 0.0048687499947845935822 0.0048687499947845935822 0.0021999999880790710449 0.0048687499947845935822 0.0054846154525876045227 0.025922222062945365906 0.0021999999880790710449 0.0024923076853156089783 0.0075375000014901161194 0.018212500959634780884 0.010206250473856925964 0.0021999999880790710449 0.0021999999880790710449 0.0021562499459832906723 0.0018062499584630131721 0.0045937499962747097015 0.0057187499478459358215 0.0026499999221414327621 0.0025312500074505805969 0.0021999999880790710449 0.0021999999880790710449 0.0021999999880790710449 0.0021999999880790710449 0.0021999999880790710449 0.0048687499947845935822 0.0021999999880790710449 0.0021999999880790710449 0.0021999999880790710449 0.0021999999880790710449 0.0021999999880790710449 0.0021999999880790710449 0.0021999999880790710449 0.0021999999880790710449 0.0021999999880790710449 0.0021999999880790710449 0.0021999999880790710449 0.0021999999880790710449 0.0021999999880790710449 0.0018062499584630131721 0.0015000000130385160446 0.0015000000130385160446 0.0015000000130385160446 0.0015000000130385160446 0.0042125000618398189545 0.016449999064207077026 0.024212500080466270447 0.023837499320507049561 0.0046937498264014720917 0.0052000000141561031342 0.0021999999880790710449 0.0021999999880790710449 0.0021999999880790710449 0.0021999999880790710449 0.0021999999880790710449 0.0021999999880790710449 0.0048687499947845935822 0.0025312500074505805969 0.0025312500074505805969 0.01854375004768371582 0.015543749555945396423 0.010031250305473804474 0.0016312500229105353355 0.0021562499459832906723 0.0021999999880790710449 0.0021999999880790710449 0.0021999999880790710449 
0.0068562501110136508942 0.010537499561905860901 0.0021999999880790710449 0.0046500000171363353729 0.0021999999880790710449 0.0021999999880790710449 0.0021999999880790710449 0.0021999999880790710449 0.012875000014901161194 0.044900000095367431641 0.018874999135732650757 0.041341666132211685181 0.016187500208616256714 0.020549999549984931946 0.044900000095367431641 0.026218749582767486572 0.0021999999880790710449 0.0021999999880790710449 0.0021999999880790710449 0.0021999999880790710449 0.0021999999880790710449 0.0021999999880790710449 0.0021999999880790710449 0.0021999999880790710449 0.0021999999880790710449 0.0048687499947845935822 0.0057583334855735301971 0.0021999999880790710449 0.0021999999880790710449 0.010206250473856925964 0.023550000041723251343 0.0048687499947845935822 0.0021999999880790710449 0.0021999999880790710449 0.0021999999880790710449 0.0020687500946223735809 0.0045937499962747097015 0.0043124998919665813446 0.0020250000525265932083 0.0021999999880790710449 0.0021999999880790710449 0.0021999999880790710449 0.0021999999880790710449 0.0021999999880790710449 0.0048687499947845935822 0.020881250500679016113 0.0021999999880790710449 0.0021999999880790710449 0.0021999999880790710449 0.0021999999880790710449 0.0021999999880790710449 0.0021999999880790710449 0.0021999999880790710449 0.0021999999880790710449 0.0021999999880790710449 0.0021999999880790710449 0.0021999999880790710449 0.0021999999880790710449 0.0018062499584630131721 0.0016312500229105353355 0.0017625000327825546265 0.0017625000327825546265 0.0018937500426545739174 0.0077187498100101947784 0.010362500324845314026 0.0082000000402331352234 0.018874999135732650757 0.010206250473856925964 0.0021999999880790710449 0.0085312500596046447754 0.0021999999880790710449 0.0021999999880790710449 0.0021999999880790710449 0.0021999999880790710449 0.0021999999880790710449 0.0021999999880790710449 0.0021999999880790710449 0.0021999999880790710449 0.0021999999880790710449 0.0021999999880790710449 0.0021999999880790710449 0.0017187499906867742538 0.0016749999485909938812 0.0018937500426545739174 0.0021999999880790710449 0.0021999999880790710449 0.0021999999880790710449 
0.0025312500074505805969 0.0021999999880790710449 0.0021999999880790710449 0.020881250500679016113 0.0020687500946223735809 0.0021999999880790710449 0.0043000001460313796997 0.0021124999038875102997 0.0020250000525265932083 0.025140000507235527039 0.039562501013278961182 0.037783332169055938721 0.024387501180171966553 0.0021999999880790710449 0.044900000095367431641 0.0020687500946223735809 0.0018937500426545739174 0.0021999999880790710449 0.0021999999880790710449 0.0021999999880790710449 0.0021999999880790710449 0.0021999999880790710449 0.0021999999880790710449 0.0021999999880790710449 0.0021999999880790710449 0.0021999999880790710449 0.0021999999880790710449 0.0021999999880790710449 0.0021562499459832906723 0.0021999999880790710449 0.0021999999880790710449 0.0021999999880790710449 0.024387501180171966553 0.0021999999880790710449 0.0021999999880790710449 0.0021999999880790710449 0.0029500001110136508942 0.0055999998003244400024 0.0025312500074505805969 0.0021999999880790710449 0.0021999999880790710449 0.0021999999880790710449 0.0021999999880790710449 0.0021999999880790710449 0.0021999999880790710449 0.015543749555945396423 0.0021999999880790710449 0.0021999999880790710449 0.0019812500104308128357 0.010075000114738941193 0.0051562502048909664154 0.0021999999880790710449 0.0021999999880790710449 0.028887499123811721802 0.0021999999880790710449 0.0021999999880790710449 0.0021999999880790710449 0.0018937500426545739174 0.0015000000130385160446 0.0018937500426545739174 0.0017187499906867742538 0.0015000000130385160446 0.0020250000525265932083 0.0075375000014901161194 0.016162499785423278809 0.0021124999038875102997 0.0052000000141561031342 0.0021999999880790710449 0.0021999999880790710449 0.0021999999880790710449 0.0021999999880790710449 0.0021999999880790710449 0.0021999999880790710449 0.0021999999880790710449 0.0021999999880790710449 0.0021999999880790710449 0.0021999999880790710449 0.0021999999880790710449 0.0021999999880790710449 0.0021999999880790710449 0.0021999999880790710449 0.0021124999038875102997 0.0015000000130385160446 0.0015437500551342964172 0.0021999999880790710449 0.0021999999880790710449 0.0021999999880790710449 
0.023550000041723251343 0.0075375000014901161194 0.0021999999880790710449 0.023462500423192977905 0.0021562499459832906723 0.0051124999299645423889 0.031108332797884941101 0.0033499998971819877625 0.0020250000525265932083 0.0058923074975609779358 0.010206250473856925964 0.018623076379299163818 0.0021999999880790710449 0.003789999987930059433 0.041341666132211685181 0.0018500000005587935448 0.0015000000130385160446 0.0021999999880790710449 0.0021999999880790710449 0.0019374999683350324631 0.0020687500946223735809 0.0021999999880790710449 0.0021999999880790710449 0.0021999999880790710449 0.0021999999880790710449 0.0043692309409379959106 0.0021999999880790710449 0.0021999999880790710449 0.0024375000502914190292 0.0021999999880790710449 0.0021999999880790710449 0.0021999999880790710449 0.0021999999880790710449 0.0021999999880790710449 0.0021999999880790710449 0.0021999999880790710449 0.0025437499862164258957 0.0084875002503395080566 0.0021999999880790710449 0.0021999999880790710449 0.0021999999880790710449 0.0021999999880790710449 0.0021999999880790710449 0.0021999999880790710449 0.0021999999880790710449 0.0048687499947845935822 0.0019374999683350324631 0.0017187499906867742538 0.0015874999808147549629 0.0045937499962747097015 0.0026937499642372131348 0.0021999999880790710449 0.0021999999880790710449 0.010206250473856925964 0.0028625000268220901489 0.0021999999880790710449 0.0021999999880790710449 0.0018062499584630131721 0.0015000000130385160446 0.0015437500551342964172 0.0015000000130385160446 0.0021375000942498445511 0.012875000014901161194 0.026218749582767486572 0.015787500888109207153 0.0028625000268220901489 0.0021999999880790710449 0.0021999999880790710449 0.0021999999880790710449 0.0021999999880790710449 0.0021999999880790710449 0.0021999999880790710449 0.0021999999880790710449 0.0021999999880790710449 0.0048687499947845935822 0.023881249129772186279 0.012875000014901161194 0.0021999999880790710449 0.0021999999880790710449 0.0021999999880790710449 0.0021999999880790710449 0.0019374999683350324631 0.0018062499584630131721 0.0022812499664723873138 0.0021562499459832906723 0.0021999999880790710449 0.0021999999880790710449 
0.0021999999880790710449 0.0021999999880790710449 0.018212500959634780884 0.012787500396370887756 0.0020687500946223735809 0.0127583332359790802 0.022315384820103645325 0.0062000001780688762665 0.0019900000188499689102 0.0017625000327825546265 0.0021999999880790710449 0.02117777802050113678 0.01775000058114528656 0.012875000014901161194 0.042053334414958953857 0.012641666457056999207 0.0015000000130385160446 0.0021999999880790710449 0.0021999999880790710449 0.0021562499459832906723 0.0021999999880790710449 0.0021999999880790710449 0.0093166669830679893494 0.0021999999880790710449 0.012461538426578044891 0.0031062499620020389557 0.013293750584125518799 0.0021999999880790710449 0.0021999999880790710449 0.0021999999880790710449 0.0021999999880790710449 0.0021999999880790710449 0.0021999999880790710449 0.0021999999880790710449 0.0075375000014901161194 0.0021124999038875102997 0.0021999999880790710449 0.0021999999880790710449 0.0021999999880790710449 0.0021999999880790710449 0.0021999999880790710449 0.0021999999880790710449 0.0021999999880790710449 0.0021562499459832906723 0.0018062499584630131721 0.0016749999485909938812 0.0024999999441206455231 0.0037500001490116119385 0.004768750164657831192 0.0045750001445412635803 0.0045937499962747097015 0.0021562499459832906723 0.0021999999880790710449 0.0021999999880790710449 0.012875000014901161194 0.0048687499947845935822 0.0020687500946223735809 0.0015000000130385160446 0.0016312500229105353355 0.0019374999683350324631 0.0017625000327825546265 0.0021124999038875102997 0.0021999999880790710449 0.0048687499947845935822 0.0021999999880790710449 0.0021999999880790710449 0.0021999999880790710449 0.0021999999880790710449 0.0021999999880790710449 0.0021999999880790710449 0.0021999999880790710449 0.0021999999880790710449 0.0021999999880790710449 0.0021999999880790710449 0.0021999999880790710449 0.0082000000402331352234 0.0048687499947845935822 0.0021999999880790710449 0.0021999999880790710449 0.0021999999880790710449 0.0021999999880790710449 0.0021999999880790710449 0.0021999999880790710449 0.0053437501192092895508 0.0024375000502914190292 0.0021999999880790710449 0.0021999999880790710449 
0.0021999999880790710449 0.0021999999880790710449 0.020881250500679016113 0.0021999999880790710449 0.0075375000014901161194 0.016641667112708091736 0.016066666692495346069 0.0065166666172444820404 0.014878571964800357819 0.0017625000327825546265 0.0021999999880790710449 0.0050466665998101234436 0.020874999463558197021 0.0021999999880790710449 0.044900000095367431641 0.028887499123811721802 0.0021999999880790710449 0.0021999999880790710449 0.0021999999880790710449 0.0021999999880790710449 0.0021999999880790710449 0.0091769229620695114136 0.0052000000141561031342 0.0021999999880790710449 0.0021999999880790710449 0.0021999999880790710449 0.0021999999880790710449 0.0021999999880790710449 0.0021999999880790710449 0.0021999999880790710449 0.0021999999880790710449 0.0021999999880790710449 0.0031500000040978193283 0.0021999999880790710449 0.0078687500208616256714 0.0021999999880790710449 0.0021999999880790710449 0.0021999999880790710449 0.0021999999880790710449 0.0021999999880790710449 0.0021999999880790710449 0.0021999999880790710449 0.0021999999880790710449 0.0020250000525265932083 0.0037500001490116119385 0.0045937499962747097015 0.0034687500447034835815 0.0039249998517334461212 0.0024375000502914190292 0.0021999999880790710449 0.0021562499459832906723 0.0021999999880790710449 0.0021999999880790710449 0.0021999999880790710449 0.0021999999880790710449 0.0021999999880790710449 0.0021124999038875102997 0.0015437500551342964172 0.0017625000327825546265 0.0048687499947845935822 0.018124999478459358215 0.0019812500104308128357 0.0021999999880790710449 0.0048687499947845935822 0.0021999999880790710449 0.0021999999880790710449 0.0021124999038875102997 0.0020687500946223735809 0.0021999999880790710449 0.0021999999880790710449 0.0021999999880790710449 0.0021999999880790710449 0.0021999999880790710449 0.0021999999880790710449 0.0021999999880790710449 0.0021999999880790710449 0.0021999999880790710449 0.02655000053346157074 0.0021999999880790710449 0.0021999999880790710449 0.0021999999880790710449 0.0078687500208616256714 0.0048687499947845935822 0.0021999999880790710449 0.0021999999880790710449 0.0021999999880790710449 0.0021999999880790710449 
0.0021999999880790710449 0.0048687499947845935822 0.018124999478459358215 0.0021999999880790710449 0.0019374999683350324631 0.0075375000014901161194 0.0033400000538676977158 0.0025166666600853204727 0.0024000001139938831329 0.0018500000005587935448 0.0021999999880790710449 0.0093166669830679893494 0.036893751472234725952 0.018212500959634780884 0.019991666078567504883 0.018212500959634780884 0.0021999999880790710449 0.0021999999880790710449 0.0021999999880790710449 0.0021999999880790710449 0.0021999999880790710449 0.020649999380111694336 0.012875000014901161194 0.0027300000656396150589 0.0020000000949949026108 0.0021562499459832906723 0.0021999999880790710449 0.0021999999880790710449 0.0021999999880790710449 0.0021999999880790710449 0.0021999999880790710449 0.0021999999880790710449 0.0024375000502914190292 0.0027687500696629285812 0.0021999999880790710449 0.01386875007301568985 0.012875000014901161194 0.0021124999038875102997 0.01386875007301568985 0.0021999999880790710449 0.0021999999880790710449 0.0021999999880790710449 0.0021999999880790710449 0.0021999999880790710449 0.0026312500704079866409 0.0028250000905245542526 0.00278125004842877388 0.0021999999880790710449 0.0021999999880790710449 0.0021999999880790710449 0.0021999999880790710449 0.0031500000040978193283 0.0021999999880790710449 0.0020687500946223735809 0.0019812500104308128357 0.0021562499459832906723 0.0021999999880790710449 0.0021999999880790710449 0.0021999999880790710449 0.0021999999880790710449 0.0019812500104308128357 0.0017625000327825546265 0.0021562499459832906723 0.0021999999880790710449 0.0018937500426545739174 0.0021124999038875102997 0.0021999999880790710449 0.0021562499459832906723 0.0020687500946223735809 0.0021999999880790710449 0.0021999999880790710449 0.0021999999880790710449 0.0021999999880790710449 0.0021999999880790710449 0.0021999999880790710449 0.0021999999880790710449 0.0075375000014901161194 0.02655000053346157074 0.0075375000014901161194 0.0024874999653548002243 0.0021999999880790710449 0.021543750539422035217 0.0021562499459832906723 0.0021999999880790710449 0.0021999999880790710449 0.0021999999880790710449 0.0021999999880790710449 
0.0021999999880790710449 0.019206250086426734924 0.039850000292062759399 0.0051124999299645423889 0.0021812499035149812698 0.015781249850988388062 0.0054000001400709152222 0.0021999999880790710449 0.0021999999880790710449 0.0045916666276752948761 0.0026416666805744171143 0.011688889004290103912 0.042231250554323196411 0.017449999228119850159 0.022126667201519012451 0.012875000014901161194 0.0021999999880790710449 0.0021999999880790710449 0.0021999999880790710449 0.0021999999880790710449 0.0021999999880790710449 0.016561537981033325195 0.011800000444054603577 0.018623076379299163818 0.0025166666600853204727 0.0031500000040978193283 0.0023937500081956386566 0.0021999999880790710449 0.0021999999880790710449 0.0021999999880790710449 0.0021999999880790710449 0.0021999999880790710449 0.0021999999880790710449 0.0038125000428408384323 0.023506250232458114624 0.023550000041723251343 0.010206250473856925964 0.0021562499459832906723 0.0048687499947845935822 0.0078687500208616256714 0.0021999999880790710449 0.0021999999880790710449 0.0021999999880790710449 0.0021999999880790710449 0.0021999999880790710449 0.0021999999880790710449 0.0021999999880790710449 0.0021999999880790710449 0.0021999999880790710449 0.0021999999880790710449 0.010868749581277370453 0.0048687499947845935822 0.0021999999880790710449 0.0020250000525265932083 0.0016749999485909938812 0.0016312500229105353355 0.012787500396370887756 0.018212500959634780884 0.0021999999880790710449 0.0021999999880790710449 0.0018062499584630131721 0.0021999999880790710449 0.0021999999880790710449 0.0021999999880790710449 0.0021999999880790710449 0.0021999999880790710449 0.0021124999038875102997 0.0019812500104308128357 0.0017187499906867742538 0.0021999999880790710449 0.0021999999880790710449 0.0021999999880790710449 0.0021999999880790710449 0.0021999999880790710449 0.0021999999880790710449 0.0021999999880790710449 0.012875000014901161194 0.034225001931190490723 0.0075375000014901161194 0.0097687495872378349304 0.0016312500229105353355 0.0018062499584630131721 0.0021124999038875102997 0.0021999999880790710449 0.0021999999880790710449 0.0021999999880790710449 0.0021999999880790710449 
0.0021999999880790710449 0.020881250500679016113 0.035549998283386230469 0.0021562499459832906723 0.021874999627470970154 0.014449999667704105377 0.0056400001049041748047 0.0030142858158797025681 0.0021562499459832906723 0.0021999999880790710449 0.0031937500461935997009 0.0057583334855735301971 0.044900000095367431641 0.036359999328851699829 0.018623076379299163818 0.0021999999880790710449 0.0021999999880790710449 0.0021999999880790710449 0.0021999999880790710449 0.0021999999880790710449 0.0069444444961845874786 0.017446666955947875977 0.0025285715237259864807 0.0021999999880790710449 0.0021999999880790710449 0.0089624999091029167175 0.01386875007301568985 0.0021999999880790710449 0.0021999999880790710449 0.0019374999683350324631 0.0020687500946223735809 0.0024375000502914190292 0.0021999999880790710449 0.019587500020861625671 0.015543749555945396423 0.015543749555945396423 0.0021999999880790710449 0.0021999999880790710449 0.0085312500596046447754 0.0025312500074505805969 0.0021999999880790710449 0.0021999999880790710449 0.0021999999880790710449 0.0021999999880790710449 0.0021999999880790710449 0.0021999999880790710449 0.0021999999880790710449 0.0021999999880790710449 0.0021999999880790710449 0.0021999999880790710449 0.023881249129772186279 0.0075375000014901161194 0.0021999999880790710449 0.0019374999683350324631 0.0018937500426545739174 0.0071875001303851604462 0.021831249818205833435 0.02655000053346157074 0.010206250473856925964 0.0021999999880790710449 0.0018500000005587935448 0.0021999999880790710449 0.0021999999880790710449 0.0021999999880790710449 0.0021999999880790710449 0.0021999999880790710449 0.0021999999880790710449 0.0018500000005587935448 0.0020250000525265932083 0.0021999999880790710449 0.0021999999880790710449 0.0021999999880790710449 0.0048687499947845935822 0.0021999999880790710449 0.0021999999880790710449 0.0021999999880790710449 0.0021999999880790710449 0.0075375000014901161194 0.0021999999880790710449 0.0021562499459832906723 0.0020250000525265932083 0.0021124999038875102997 0.0021124999038875102997 0.01854375004768371582 0.0021999999880790710449 0.0021999999880790710449 0.0021999999880790710449 
0.0021999999880790710449 0.026881249621510505676 0.037225000560283660889 0.0052000000141561031342 0.0075375000014901161194 0.002912499941885471344 0.0029599999543279409409 0.0024714285973459482193 0.0031937500461935997009 0.0048687499947845935822 0.0040874998085200786591 0.0021999999880790710449 0.044900000095367431641 0.039562501013278961182 0.030666666105389595032 0.0048687499947845935822 0.0021999999880790710449 0.0021999999880790710449 0.0021999999880790710449 0.0048687499947845935822 0.0025312500074505805969 0.0021999999880790710449 0.0021999999880790710449 0.0021999999880790710449 0.020881250500679016113 0.019543750211596488953 0.0074062501080334186554 0.011443750001490116119 0.0018937500426545739174 0.0020250000525265932083 0.0016312500229105353355 0.0021999999880790710449 0.0021999999880790710449 0.012875000014901161194 0.035218749195337295532 0.0052000000141561031342 0.0048687499947845935822 0.0021999999880790710449 0.0075375000014901161194 0.0025312500074505805969 0.0021999999880790710449 0.0021999999880790710449 0.0021999999880790710449 0.0021562499459832906723 0.0021999999880790710449 0.0021999999880790710449 0.0021999999880790710449 0.0021999999880790710449 0.0021999999880790710449 0.0021999999880790710449 0.012875000014901161194 0.0021124999038875102997 0.0020250000525265932083 0.0015874999808147549629 0.0018062499584630131721 0.0048687499947845935822 0.0025312500074505805969 0.015543749555945396423 0.02121249958872795105 0.010075000114738941193 0.0015437500551342964172 0.0015437500551342964172 0.0015437500551342964172 0.0019374999683350324631 0.0019812500104308128357 0.0021750000305473804474 0.0038624999579042196274 0.0048124999739229679108 0.0021999999880790710449 0.0021999999880790710449 0.0021999999880790710449 0.0048687499947845935822 0.0051437499932944774628 0.0026750001125037670135 0.0021999999880790710449 0.0021999999880790710449 0.0021999999880790710449 0.0055312500335276126862 0.013537500053644180298 0.010206250473856925964 0.015875000506639480591 0.0048687499947845935822 0.015412500128149986267 0.031556248664855957031 0.03021249920129776001 0.028887499123811721802 0.012875000014901161194 
0.0021999999880790710449 0.0088187502697110176086 0.032881248742341995239 0.0058625000528991222382 0.0021999999880790710449 0.0025312500074505805969 0.0060666669160127639771 0.0021999999880790710449 0.0048687499947845935822 0.0048687499947845935822 0.016537500545382499695 0.0027888887561857700348 0.044900000095367431641 0.023550000041723251343 0.012875000014901161194 0.018212500959634780884 0.0021999999880790710449 0.0021999999880790710449 0.0021999999880790710449 0.0021999999880790710449 0.016561537981033325195 0.0021999999880790710449 0.0021999999880790710449 0.0021999999880790710449 0.02655000053346157074 0.0044249999336898326874 0.0018500000005587935448 0.0091062495484948158264 0.0019374999683350324631 0.0020250000525265932083 0.0016749999485909938812 0.0021999999880790710449 0.012875000014901161194 0.044900000095367431641 0.044900000095367431641 0.042231250554323196411 0.0048687499947845935822 0.0021999999880790710449 0.0021999999880790710449 0.0021999999880790710449 0.0021999999880790710449 0.0021999999880790710449 0.0021999999880790710449 0.0021999999880790710449 0.0021999999880790710449 0.0021999999880790710449 0.0021999999880790710449 0.0021999999880790710449 0.0021999999880790710449 0.0021999999880790710449 0.0021999999880790710449 0.0021562499459832906723 0.0020437499042600393295 0.0026249999646097421646 0.0034687500447034835815 0.0018062499584630131721 0.0021999999880790710449 0.012875000014901161194 0.020881250500679016113 0.034887500107288360596 0.013606250286102294922 0.0041249999776482582092 0.0017187499906867742538 0.0017625000327825546265 0.0019374999683350324631 0.0048124999739229679108 0.0055249999277293682098 0.0079562496393918991089 0.0048687499947845935822 0.0021999999880790710449 0.0021999999880790710449 0.0033875000663101673126 0.0045750001445412635803 0.0033875000663101673126 0.0026750001125037670135 0.0021999999880790710449 0.0021999999880790710449 0.0021999999880790710449 0.0048687499947845935822 0.0021999999880790710449 0.0021999999880790710449 0.010206250473856925964 0.0074937501922249794006 0.0025312500074505805969 0.0035250000655651092529 0.0021999999880790710449 0.0021999999880790710449 
0.0021999999880790710449 0.0076437499374151229858 0.021543750539422035217 0.02754374966025352478 0.0021999999880790710449 0.0025312500074505805969 0.024433333426713943481 0.0021999999880790710449 0.0021999999880790710449 0.012107143178582191467 0.0031937500461935997009 0.0097583336755633354187 0.0021999999880790710449 0.044900000095367431641 0.0057583334855735301971 0.018212500959634780884 0.019950000569224357605 0.0021999999880790710449 0.0021999999880790710449 0.0048687499947845935822 0.024080000817775726318 0.0021999999880790710449 0.0021999999880790710449 0.0025312500074505805969 0.025399999693036079407 0.0041937502101063728333 0.0043812501244246959686 0.0067187501117587089539 0.010118749924004077911 0.0018500000005587935448 0.0020687500946223735809 0.0021999999880790710449 0.012875000014901161194 0.031556248664855957031 0.044900000095367431641 0.044900000095367431641 0.021874999627470970154 0.0021999999880790710449 0.0048687499947845935822 0.0048687499947845935822 0.0021999999880790710449 0.0021999999880790710449 0.0021999999880790710449 0.0021999999880790710449 0.0021999999880790710449 0.0021999999880790710449 0.0021999999880790710449 0.0021999999880790710449 0.0021999999880790710449 0.0021999999880790710449 0.0025312500074505805969 0.0021124999038875102997 0.0018687499687075614929 0.0029062500689178705215 0.0023874999023973941803 0.0074749998748302459717 0.02121249958872795105 0.039562501013278961182 0.020881250500679016113 0.0028625000268220901489 0.034225001931190490723 0.032218750566244125366 0.0031937500461935997009 0.0019187500001862645149 0.0056874998845160007477 0.0063875000923871994019 0.012875000014901161194 0.010681250132620334625 0.0055312500335276126862 0.0021999999880790710449 0.0021999999880790710449 0.0036249998956918716431 0.0038624999579042196274 0.0060000000521540641785 0.0043374998494982719421 0.0024375000502914190292 0.015543749555945396423 0.015875000506639480591 0.0021999999880790710449 0.0021999999880790710449 0.0021999999880790710449 0.0021999999880790710449 0.0021999999880790710449 0.0021999999880790710449 0.0021999999880790710449 0.0021999999880790710449 0.0021999999880790710449 
0.0020250000525265932083 0.011012500151991844177 0.031556248664855957031 0.0028625000268220901489 0.0021562499459832906723 0.0047812499105930328369 0.035726666450500488281 0.0028625000268220901489 0.0021999999880790710449 0.0064699999056756496429 0.01386875007301568985 0.0052916663698852062225 0.034225001931190490723 0.039562501013278961182 0.027108334004878997803 0.012875000014901161194 0.0021999999880790710449 0.0021999999880790710449 0.0021999999880790710449 0.0087692309170961380005 0.015543749555945396423 0.0019374999683350324631 0.0017625000327825546265 0.0074937501922249794006 0.0072375000454485416412 0.0059124999679625034332 0.0036687499377876520157 0.0026750001125037670135 0.0048687499947845935822 0.0021124999038875102997 0.0021999999880790710449 0.0021999999880790710449 0.0021999999880790710449 0.0031500000040978193283 0.010206250473856925964 0.031556248664855957031 0.029881250113248825073 0.0021999999880790710449 0.0075375000014901161194 0.0021999999880790710449 0.0021999999880790710449 0.0021999999880790710449 0.0021999999880790710449 0.0021999999880790710449 0.0021999999880790710449 0.0021999999880790710449 0.0021999999880790710449 0.0021999999880790710449 0.0021999999880790710449 0.0021999999880790710449 0.0038562498521059751511 0.0048687499947845935822 0.0015874999808147549629 0.0015000000130385160446 0.0023125000298023223877 0.023550000041723251343 0.040224999189376831055 0.044900000095367431641 0.017200000584125518799 0.0021999999880790710449 0.0048687499947845935822 0.010206250473856925964 0.0041875001043081283569 0.0017187499906867742538 0.010737500153481960297 0.010206250473856925964 0.0048687499947845935822 0.0021999999880790710449 0.0021999999880790710449 0.0021999999880790710449 0.0021999999880790710449 0.0021999999880790710449 0.0041875001043081283569 0.0070500001311302185059 0.0038624999579042196274 0.0075375000014901161194 0.012875000014901161194 0.0021999999880790710449 0.0021999999880790710449 0.0021999999880790710449 0.0021999999880790710449 0.0021999999880790710449 0.0021999999880790710449 0.0021999999880790710449 0.0021999999880790710449 0.0021999999880790710449 0.0021999999880790710449 
0.0055312500335276126862 0.013206250034272670746 0.023881249129772186279 0.0052000000141561031342 0.0098999999463558197021 0.0085187498480081558228 0.0073333331383764743805 0.0025785714387893676758 0.020881250500679016113 0.035549998283386230469 0.016206249594688415527 0.016433333978056907654 0.029549999162554740906 0.012875000014901161194 0.012053846381604671478 0.034225001931190490723 0.0021999999880790710449 0.0021999999880790710449 0.0021999999880790710449 0.0021999999880790710449 0.0048687499947845935822 0.0015437500551342964172 0.0016749999485909938812 0.010031250305473804474 0.01854375004768371582 0.0048687499947845935822 0.0021999999880790710449 0.0021999999880790710449 0.0021999999880790710449 0.0021999999880790710449 0.0021999999880790710449 0.0021999999880790710449 0.0021999999880790710449 0.0052000000141561031342 0.0019374999683350324631 0.0046937498264014720917 0.018212500959634780884 0.0021999999880790710449 0.0078687500208616256714 0.0021999999880790710449 0.0021999999880790710449 0.0021999999880790710449 0.0021999999880790710449 0.0021999999880790710449 0.0021999999880790710449 0.0021999999880790710449 0.0021999999880790710449 0.0021999999880790710449 0.0021999999880790710449 0.0021999999880790710449 0.0048687499947845935822 0.015456249937415122986 0.0016312500229105353355 0.0045624999329447746277 0.031556248664855957031 0.044900000095367431641 0.044900000095367431641 0.044900000095367431641 0.01854375004768371582 0.018212500959634780884 0.015543749555945396423 0.0021999999880790710449 0.010537499561905860901 0.023881249129772186279 0.0050687501206994056702 0.0021999999880790710449 0.0021999999880790710449 0.0021999999880790710449 0.0021999999880790710449 0.0021999999880790710449 0.0020250000525265932083 0.0021124999038875102997 0.0020687500946223735809 0.015543749555945396423 0.018212500959634780884 0.0021999999880790710449 0.0021999999880790710449 0.0021999999880790710449 0.0021999999880790710449 0.0021999999880790710449 0.0021999999880790710449 0.0021999999880790710449 0.0021999999880790710449 0.0021999999880790710449 0.0021999999880790710449 0.0021999999880790710449 0.0021999999880790710449 
0.0021999999880790710449 0.021543750539422035217 0.0091937500983476638794 0.0021999999880790710449 0.0046937498264014720917 0.0015000000130385160446 0.0018500000005587935448 0.0019374999683350324631 0.0026100000832229852676 0.035411112010478973389 0.026218749582767486572 0.04178333282470703125 0.015010000206530094147 0.017449999228119850159 0.0078933332115411758423 0.044900000095367431641 0.0021999999880790710449 0.0021299999207258224487 0.0036400000099092721939 0.0036615384742617607117 0.034656248986721038818 0.0015000000130385160446 0.0017625000327825546265 0.012875000014901161194 0.0078687500208616256714 0.0035250000655651092529 0.0021999999880790710449 0.010206250473856925964 0.0021999999880790710449 0.0021999999880790710449 0.0020687500946223735809 0.0022687499877065420151 0.01854375004768371582 0.011199999600648880005 0.0017187499906867742538 0.0015874999808147549629 0.0047812499105930328369 0.020881250500679016113 0.0075375000014901161194 0.0021999999880790710449 0.0021999999880790710449 0.0021999999880790710449 0.0021999999880790710449 0.013206250034272670746 0.018212500959634780884 0.012875000014901161194 0.010206250473856925964 0.01854375004768371582 0.010206250473856925964 0.024168750271201133728 0.024743750691413879395 0.034887500107288360596 0.026881249621510505676 0.039893750101327896118 0.039562501013278961182 0.02754374966025352478 0.032218750566244125366 0.024212500080466270447 0.031556248664855957031 0.034225001931190490723 0.014862500131130218506 0.0025312500074505805969 0.0021999999880790710449 0.0021999999880790710449 0.0021999999880790710449 0.0021999999880790710449 0.0021999999880790710449 0.0021999999880790710449 0.0021999999880790710449 0.0018937500426545739174 0.0015437500551342964172 0.0021124999038875102997 0.0019812500104308128357 0.0021999999880790710449 0.015543749555945396423 0.0021999999880790710449 0.0021999999880790710449 0.0021999999880790710449 0.0021999999880790710449 0.0021999999880790710449 0.0021999999880790710449 0.0021999999880790710449 0.0021999999880790710449 0.0021999999880790710449 0.0021999999880790710449 0.0026750001125037670135 0.0050499998033046722412 
0.0019812500104308128357 0.024212500080466270447 0.0085312500596046447754 0.0075375000014901161194 0.0017187499906867742538 0.0017187499906867742538 0.0015874999808147549629 0.0016499999910593032837 0.0015000000130385160446 0.013849999755620956421 0.013316666707396507263 0.044900000095367431641 0.0021999999880790710449 0.012875000014901161194 0.0021999999880790710449 0.0021999999880790710449 0.0021999999880790710449 0.0020999999251216650009 0.0019374999683350324631 0.018200000748038291931 0.042187500745058059692 0.0045624999329447746277 0.0018937500426545739174 0.034468751400709152222 0.010537499561905860901 0.0075375000014901161194 0.0021999999880790710449 0.0048687499947845935822 0.0021999999880790710449 0.0021999999880790710449 0.0018062499584630131721 0.0061937500722706317902 0.018212500959634780884 0.023881249129772186279 0.0015874999808147549629 0.0015000000130385160446 0.0020250000525265932083 0.023550000041723251343 0.010537499561905860901 0.018212500959634780884 0.0048687499947845935822 0.0021999999880790710449 0.0021999999880790710449 0.0021999999880790710449 0.015875000506639480591 0.0075375000014901161194 0.0021999999880790710449 0.0048687499947845935822 0.0048687499947845935822 0.015543749555945396423 0.012875000014901161194 0.029218750074505805969 0.034225001931190490723 0.018212500959634780884 0.0048687499947845935822 0.015543749555945396423 0.0075375000014901161194 0.0019374999683350324631 0.0048687499947845935822 0.01854375004768371582 0.0021999999880790710449 0.0021999999880790710449 0.0021999999880790710449 0.0021999999880790710449 0.0021999999880790710449 0.0021999999880790710449 0.0021999999880790710449 0.0021999999880790710449 0.0019812500104308128357 0.0016312500229105353355 0.0020687500946223735809 0.0021999999880790710449 0.0021124999038875102997 0.0021999999880790710449 0.026218749582767486572 0.0048687499947845935822 0.0021999999880790710449 0.0021999999880790710449 0.0021999999880790710449 0.0021999999880790710449 0.0021999999880790710449 0.0021999999880790710449 0.0021999999880790710449 0.0021999999880790710449 0.0021999999880790710449 0.0026499999221414327621 0.0029750000685453414917 
0.0050625000149011611938 0.029218750074505805969 0.024543749168515205383 0.013537500053644180298 0.025537500157952308655 0.01453750021755695343 0.0039000001270323991776 0.0069583333097398281097 0.0055833333171904087067 0.0020999999251216650009 0.018212500959634780884 0.0021999999880790710449 0.0021999999880790710449 0.034858334809541702271 0.0057583334855735301971 0.010206250473856925964 0.0021999999880790710449 0.0021999999880790710449 0.0021999999880790710449 0.034887500107288360596 0.010206250473856925964 0.0041875001043081283569 0.0021999999880790710449 0.0021999999880790710449 0.0021999999880790710449 0.0021999999880790710449 0.0021999999880790710449 0.0021999999880790710449 0.0021999999880790710449 0.0045187501236796379089 0.0018500000005587935448 0.011199999600648880005 0.02754374966025352478 0.018500000238418579102 0.0016312500229105353355 0.0015000000130385160446 0.0017625000327825546265 0.0048687499947845935822 0.0021999999880790710449 0.0048687499947845935822 0.0021999999880790710449 0.0021999999880790710449 0.0021999999880790710449 0.0021999999880790710449 0.0021999999880790710449 0.0021999999880790710449 0.0021999999880790710449 0.0021999999880790710449 0.0021999999880790710449 0.0021562499459832906723 0.0021999999880790710449 0.0021999999880790710449 0.0021999999880790710449 0.0021999999880790710449 0.0021999999880790710449 0.0021999999880790710449 0.0021999999880790710449 0.0015437500551342964172 0.0020687500946223735809 0.0019812500104308128357 0.0020687500946223735809 0.0021999999880790710449 0.0021999999880790710449 0.0021999999880790710449 0.0021999999880790710449 0.0021999999880790710449 0.0021999999880790710449 0.0021999999880790710449 0.0018500000005587935448 0.0018062499584630131721 0.0018062499584630131721 0.0017625000327825546265 0.0021562499459832906723 0.0021999999880790710449 0.0075375000014901161194 0.0021999999880790710449 0.0021999999880790710449 0.0021999999880790710449 0.0021999999880790710449 0.0021999999880790710449 0.0021999999880790710449 0.0021999999880790710449 0.0021999999880790710449 0.0031500000040978193283 0.0023062499240040779114 0.0023125000298023223877 0.0035250000655651092529 
0.018212500959634780884 0.032881248742341995239 0.018500000238418579102 0.034800000488758087158 0.018787499517202377319 0.014531250111758708954 0.0018769230227917432785 0.0047375001013278961182 0.0095250001177191734314 0.0056416667066514492035 0.0020687500946223735809 0.0021999999880790710449 0.011350000277161598206 0.028887499123811721802 0.019991666078567504883 0.0021999999880790710449 0.0021999999880790710449 0.0021999999880790710449 0.0021999999880790710449 0.0020133333746343851089 0.0021999999880790710449 0.0021999999880790710449 0.0021999999880790710449 0.0021999999880790710449 0.0052000000141561031342 0.0055312500335276126862 0.010206250473856925964 0.0048687499947845935822 0.011531249620020389557 0.014200000092387199402 0.0025312500074505805969 0.0055312500335276126862 0.015787500888109207153 0.0015874999808147549629 0.0029062500689178705215 0.0015000000130385160446 0.0019812500104308128357 0.0048687499947845935822 0.0021999999880790710449 0.0021999999880790710449 0.0021999999880790710449 0.0021999999880790710449 0.0019374999683350324631 0.0021999999880790710449 0.0021999999880790710449 0.0021999999880790710449 0.0021999999880790710449 0.0021999999880790710449 0.0021999999880790710449 0.0021999999880790710449 0.0021999999880790710449 0.0021999999880790710449 0.0021999999880790710449 0.0021999999880790710449 0.0021999999880790710449 0.0018062499584630131721 0.0015437500551342964172 0.0015437500551342964172 0.0020250000525265932083 0.0015000000130385160446 0.0018062499584630131721 0.0021999999880790710449 0.0021999999880790710449 0.0021999999880790710449 0.0021999999880790710449 0.0021999999880790710449 0.0021999999880790710449 0.0021562499459832906723 0.0018937500426545739174 0.0016749999485909938812 0.0015874999808147549629 0.0015437500551342964172 0.0021999999880790710449 0.0021999999880790710449 0.0021999999880790710449 0.0021999999880790710449 0.0021999999880790710449 0.0021999999880790710449 0.0021999999880790710449 0.0021999999880790710449 0.0021999999880790710449 0.0021999999880790710449 0.0021999999880790710449 0.002349999966099858284 0.0021124999038875102997 0.014156250283122062683 0.01552500016987323761 
0.031556248664855957031 0.0048687499947845935822 0.010118749924004077911 0.0069687501527369022369 0.0071875001303851604462 0.0021999999880790710449 0.0021999999880790710449 0.0048687499947845935822 0.0082999998703598976135 0.0050466665998101234436 0.0046937498264014720917 0.018623076379299163818 0.040630001574754714966 0.020433332771062850952 0.023550000041723251343 0.0093166669830679893494 0.0031500000040978193283 0.0021999999880790710449 0.0021999999880790710449 0.0021999999880790710449 0.0021999999880790710449 0.0075375000014901161194 0.028887499123811721802 0.023550000041723251343 0.026218749582767486572 0.032175000756978988647 0.02141249924898147583 0.010824999772012233734 0.0085312500596046447754 0.0085312500596046447754 0.0048687499947845935822 0.0075375000014901161194 0.0020250000525265932083 0.0026249999646097421646 0.0017812500009313225746 0.0015000000130385160446 0.0018062499584630131721 0.0048687499947845935822 0.0021999999880790710449 0.0021999999880790710449 0.0021999999880790710449 0.0021999999880790710449 0.0021562499459832906723 0.0021999999880790710449 0.0021999999880790710449 0.0021999999880790710449 0.0021999999880790710449 0.0021124999038875102997 0.0021999999880790710449 0.0021562499459832906723 0.0021562499459832906723 0.0021999999880790710449 0.0021999999880790710449 0.0021999999880790710449 0.0021562499459832906723 0.0029062500689178705215 0.0017812500009313225746 0.0024312499444931745529 0.0018500000005587935448 0.0015000000130385160446 0.0015874999808147549629 0.0021999999880790710449 0.0021999999880790710449 0.0021999999880790710449 0.0021999999880790710449 0.0021999999880790710449 0.0021999999880790710449 0.0016749999485909938812 0.0015000000130385160446 0.0020250000525265932083 0.0018937500426545739174 0.0019812500104308128357 0.0021999999880790710449 0.0021999999880790710449 0.0021999999880790710449 0.0021999999880790710449 0.0021999999880790710449 0.0021999999880790710449 0.0048687499947845935822 0.0021999999880790710449 0.0048687499947845935822 0.0021999999880790710449 0.0021999999880790710449 0.0021999999880790710449 0.0021999999880790710449 0.0082000000402331352234 0.0021999999880790710449 
0.0048687499947845935822 0.0021124999038875102997 0.010118749924004077911 0.0069687501527369022369 0.0018937500426545739174 0.0021999999880790710449 0.0021999999880790710449 0.010739999823272228241 0.0020500000100582838058 0.0087153846397995948792 0.041341666132211685181 0.0093166669830679893494 0.0096333334222435951233 0.019279999658465385437 0.026218749582767486572 0.015543749555945396423 0.0021999999880790710449 0.0021999999880790710449 0.0021999999880790710449 0.0021999999880790710449 0.0021999999880790710449 0.044900000095367431641 0.036893751472234725952 0.018212500959634780884 0.0048687499947845935822 0.0021999999880790710449 0.0020687500946223735809 0.015543749555945396423 0.0095250001177191734314 0.019537499174475669861 0.010868749581277370453 0.0078687500208616256714 0.012831250205636024475 0.0022625001147389411926 0.0019812500104308128357 0.0046062502078711986542 0.0020687500946223735809 0.0021999999880790710449 0.0021999999880790710449 0.0021999999880790710449 0.0021999999880790710449 0.0021999999880790710449 0.0075375000014901161194 0.0021999999880790710449 0.0021999999880790710449 0.0021999999880790710449 0.0021999999880790710449 0.0021562499459832906723 0.0019374999683350324631 0.0021999999880790710449 0.0021999999880790710449 0.0021562499459832906723 0.0020250000525265932083 0.0021124999038875102997 0.0019812500104308128357 0.0015874999808147549629 0.0015000000130385160446 0.0015437500551342964172 0.0015437500551342964172 0.0015000000130385160446 0.0015000000130385160446 0.0021999999880790710449 0.0021999999880790710449 0.0021999999880790710449 0.0021999999880790710449 0.0021999999880790710449 0.0019374999683350324631 0.0015000000130385160446 0.0017187499906867742538 0.0019812500104308128357 0.0021999999880790710449 0.0021999999880790710449 0.0021999999880790710449 0.0021999999880790710449 0.0021999999880790710449 0.0026750001125037670135 0.0021999999880790710449 0.010206250473856925964 0.029218750074505805969 0.020881250500679016113 0.0075375000014901161194 0.0021999999880790710449 0.0021999999880790710449 0.0021999999880790710449 0.0021999999880790710449 0.0021999999880790710449 0.0021999999880790710449 
0.0021562499459832906723 0.0016749999485909938812 0.015656249597668647766 0.023287499323487281799 0.012875000014901161194 0.0025312500074505805969 0.010537499561905860901 0.0048687499947845935822 0.0021999999880790710449 0.025922222062945365906 0.0048687499947845935822 0.0021999999880790710449 0.021118750795722007751 0.039475001394748687744 0.025912500917911529541 0.042231250554323196411 0.0075375000014901161194 0.0021999999880790710449 0.0021999999880790710449 0.012875000014901161194 0.015543749555945396423 0.026218749582767486572 0.0019374999683350324631 0.0019812500104308128357 0.0021999999880790710449 0.0021999999880790710449 0.0021999999880790710449 0.016206249594688415527 0.0075187496840953826904 0.0065250000916421413422 0.0021999999880790710449 0.0021999999880790710449 0.0021999999880790710449 0.0021999999880790710449 0.0021999999880790710449 0.0021999999880790710449 0.0021999999880790710449 0.0021999999880790710449 0.0021999999880790710449 0.0021999999880790710449 0.0021999999880790710449 0.0021999999880790710449 0.0075375000014901161194 0.0021999999880790710449 0.0021999999880790710449 0.0021999999880790710449 0.0021999999880790710449 0.0021999999880790710449 0.0021999999880790710449 0.0021999999880790710449 0.0018500000005587935448 0.0021124999038875102997 0.0021999999880790710449 0.0021999999880790710449 0.0021999999880790710449 0.0021562499459832906723 0.0019374999683350324631 0.0021999999880790710449 0.0016312500229105353355 0.0015874999808147549629 0.0019374999683350324631 0.0021999999880790710449 0.0021999999880790710449 0.0021999999880790710449 0.0021124999038875102997 0.0019812500104308128357 0.0018062499584630131721 0.0015000000130385160446 0.0016312500229105353355 0.0021999999880790710449 0.0021999999880790710449 0.0021999999880790710449 0.0021999999880790710449 0.0021999999880790710449 0.0021999999880790710449 0.0024375000502914190292 0.0036249998956918716431 0.0021999999880790710449 0.0021999999880790710449 0.0021999999880790710449 0.0021999999880790710449 0.0021999999880790710449 0.0021999999880790710449 0.0021999999880790710449 0.0021999999880790710449 0.0021999999880790710449 0.0021999999880790710449 
0.0021124999038875102997 0.0015000000130385160446 0.0015000000130385160446 0.013143749907612800598 0.010206250473856925964 0.0021999999880790710449 0.0021999999880790710449 0.0048687499947845935822 0.0021999999880790710449 0.026218749582767486572 0.0021999999880790710449 0.023550000041723251343 0.020881250500679016113 0.028799999505281448364 0.026174999773502349854 0.044900000095367431641 0.023968750610947608948 0.0021999999880790710449 0.0021999999880790710449 0.026218749582767486572 0.020881250500679016113 0.0021999999880790710449 0.0020687500946223735809 0.0017625000327825546265 0.012875000014901161194 0.0021999999880790710449 0.0021999999880790710449 0.013537500053644180298 0.015875000506639480591 0.0055312500335276126862 0.0021999999880790710449 0.0021999999880790710449 0.0021999999880790710449 0.0048687499947845935822 0.0021999999880790710449 0.0021999999880790710449 0.018212500959634780884 0.0021999999880790710449 0.0021999999880790710449 0.0021999999880790710449 0.0021999999880790710449 0.0021999999880790710449 0.0021999999880790710449 0.0021999999880790710449 0.0020687500946223735809 0.0021562499459832906723 0.0021562499459832906723 0.0021999999880790710449 0.0021562499459832906723 0.0024562499020248651505 0.0016312500229105353355 0.0021999999880790710449 0.0020687500946223735809 0.0021999999880790710449 0.0021999999880790710449 0.0021999999880790710449 0.0020250000525265932083 0.0020250000525265932083 0.0015874999808147549629 0.0017625000327825546265 0.0017187499906867742538 0.0021999999880790710449 0.0021999999880790710449 0.0021999999880790710449 0.0018937500426545739174 0.0015000000130385160446 0.0015000000130385160446 0.0017187499906867742538 0.0017187499906867742538 0.0021999999880790710449 0.0021999999880790710449 0.0021999999880790710449 0.0021999999880790710449 0.0021999999880790710449 0.0021999999880790710449 0.0021999999880790710449 0.0024375000502914190292 0.0021999999880790710449 0.0021999999880790710449 0.0021999999880790710449 0.0021999999880790710449 0.0021999999880790710449 0.0021999999880790710449 0.0021999999880790710449 0.0021999999880790710449 0.0021124999038875102997 0.0020250000525265932083 
0.0021124999038875102997 0.0015000000130385160446 0.0015000000130385160446 0.0045624999329447746277 0.0021999999880790710449 0.0021999999880790710449 0.0048687499947845935822 0.0052000000141561031342 0.0021999999880790710449 0.018124999478459358215 0.010075000114738941193 0.042231250554323196411 0.042231250554323196411 0.020881250500679016113 0.026218749582767486572 0.039562501013278961182 0.010206250473856925964 0.018212500959634780884 0.010206250473856925964 0.0021999999880790710449 0.020881250500679016113 0.0021999999880790710449 0.0019812500104308128357 0.0021999999880790710449 0.015875000506639480591 0.015543749555945396423 0.0021999999880790710449 0.0082000000402331352234 0.023531250655651092529 0.0025312500074505805969 0.0021999999880790710449 0.0021999999880790710449 0.0021999999880790710449 0.0021562499459832906723 0.0048687499947845935822 0.0021999999880790710449 0.0075375000014901161194 0.0021999999880790710449 0.0021999999880790710449 0.0021999999880790710449 0.0021999999880790710449 0.0021999999880790710449 0.0021999999880790710449 0.0021999999880790710449 0.0021562499459832906723 0.0021562499459832906723 0.0018937500426545739174 0.0019374999683350324631 0.0015000000130385160446 0.0018062499584630131721 0.0015874999808147549629 0.0021999999880790710449 0.0021999999880790710449 0.0021999999880790710449 0.0021124999038875102997 0.0021124999038875102997 0.0024375000502914190292 0.0018500000005587935448 0.0020250000525265932083 0.0021999999880790710449 0.0021999999880790710449 0.0021999999880790710449 0.0021999999880790710449 0.0021999999880790710449 0.0018937500426545739174 0.0018500000005587935448 0.0017625000327825546265 0.0021999999880790710449 0.0021124999038875102997 0.0021999999880790710449 0.0021999999880790710449 0.0021999999880790710449 0.0021999999880790710449 0.0021999999880790710449 0.013112500309944152832 0.0021999999880790710449 0.0021999999880790710449 0.0021999999880790710449 0.0021999999880790710449 0.0021999999880790710449 0.0021999999880790710449 0.0021999999880790710449 0.0021999999880790710449 0.0021999999880790710449 0.0019374999683350324631 0.0015437500551342964172 0.0016749999485909938812 
0.0019812500104308128357 0.0015000000130385160446 0.0015000000130385160446 0.0018500000005587935448 0.0021999999880790710449 0.0021999999880790710449 0.0075375000014901161194 0.0021999999880790710449 0.0024437499232590198517 0.012393750250339508057 0.012568750418722629547 0.044900000095367431641 0.042231250554323196411 0.018212500959634780884 0.028887499123811721802 0.044900000095367431641 0.039562501013278961182 0.015543749555945396423 0.023550000041723251343 0.020881250500679016113 0.010118749924004077911 0.0020687500946223735809 0.0021999999880790710449 0.0021999999880790710449 0.0085312500596046447754 0.020881250500679016113 0.0021999999880790710449 0.0025312500074505805969 0.014531250111758708954 0.0048687499947845935822 0.0021999999880790710449 0.0021999999880790710449 0.0021999999880790710449 0.0020687500946223735809 0.0021999999880790710449 0.0078687500208616256714 0.0021999999880790710449 0.0021999999880790710449 0.0021999999880790710449 0.0021999999880790710449 0.0021999999880790710449 0.0048687499947845935822 0.010206250473856925964 0.0021999999880790710449 0.0020687500946223735809 0.0018937500426545739174 0.0015874999808147549629 0.0015000000130385160446 0.0015000000130385160446 0.0015437500551342964172 0.0016312500229105353355 0.0021999999880790710449 0.0021999999880790710449 0.0021999999880790710449 0.0021999999880790710449 0.0021999999880790710449 0.0021999999880790710449 0.0021999999880790710449 0.0021999999880790710449 0.0021999999880790710449 0.0021999999880790710449 0.0021999999880790710449 0.0021999999880790710449 0.0021999999880790710449 0.0021999999880790710449 0.0021999999880790710449 0.0021999999880790710449 0.0021999999880790710449 0.0021999999880790710449 0.0021999999880790710449 0.0021999999880790710449 0.0021999999880790710449 0.0021999999880790710449 0.0077749998308718204498 0.0048687499947845935822 0.0021999999880790710449 0.0021999999880790710449 0.0021999999880790710449 0.0021999999880790710449 0.0021999999880790710449 0.0021999999880790710449 0.0021562499459832906723 0.0021999999880790710449 0.0021999999880790710449 0.0021999999880790710449 0.0021999999880790710449 0.0018500000005587935448 
0.0015000000130385160446 0.0015000000130385160446 0.0015000000130385160446 0.0019374999683350324631 0.0021999999880790710449 0.0021999999880790710449 0.0021999999880790710449 0.0021999999880790710449 0.0019374999683350324631 0.012350000441074371338 0.023375000804662704468 0.044900000095367431641 0.024499999359250068665 0.0021999999880790710449 0.034225001931190490723 0.044900000095367431641 0.028887499123811721802 0.0021999999880790710449 0.0021999999880790710449 0.0021999999880790710449 0.0021999999880790710449 0.0021999999880790710449 0.0021999999880790710449 0.0021999999880790710449 0.0021999999880790710449 0.039562501013278961182 0.0021999999880790710449 0.0028625000268220901489 0.01552500016987323761 0.0095250001177191734314 0.0021999999880790710449 0.0021999999880790710449 0.0021999999880790710449 0.0021999999880790710449 0.0021999999880790710449 0.0018500000005587935448 0.0020250000525265932083 0.0021999999880790710449 0.0021999999880790710449 0.0021999999880790710449 0.0021999999880790710449 0.0021999999880790710449 0.012875000014901161194 0.0021999999880790710449 0.0021124999038875102997 0.0015000000130385160446 0.0015000000130385160446 0.0015000000130385160446 0.0015000000130385160446 0.0015000000130385160446 0.0015874999808147549629 0.0021999999880790710449 0.0021999999880790710449 0.0021999999880790710449 0.0021999999880790710449 0.0021999999880790710449 0.0021999999880790710449 0.0021999999880790710449 0.0021999999880790710449 0.0021999999880790710449 0.0021999999880790710449 0.0021999999880790710449 0.0021999999880790710449 0.0021999999880790710449 0.0021999999880790710449 0.0021999999880790710449 0.0021999999880790710449 0.0021999999880790710449 0.0021999999880790710449 0.0021999999880790710449 0.0021999999880790710449 0.0021999999880790710449 0.0026750001125037670135 0.012875000014901161194 0.0026750001125037670135 0.0021999999880790710449 0.0021999999880790710449 0.0021999999880790710449 0.0021999999880790710449 0.0018500000005587935448 0.0018500000005587935448 0.0017625000327825546265 0.0020250000525265932083 0.0021999999880790710449 0.0021999999880790710449 0.0021999999880790710449 0.0015000000130385160446 
