ncols        19
nrows        23
xllcorner    508536.404131802963
yllcorner    5265348.997906560078
cellsize     570.000000000000
NODATA_value -9999
1.1568000316619873047 1.1568000316619873047 1.1568000316619873047 1.1568000316619873047 1.1568000316619873047 1.1568000316619873047 1.1568000316619873047 1.2785656452178955078 1.1568000316619873047 1.1568000316619873047 1.1568000316619873047 1.1568000316619873047 1.4163507223129272461 3.9174699783325195312 4.2744097709655761719 13.149637222290039062 10.263579368591308594 8.80025482177734375 2.7938578128814697266 
1.1568000316619873047 1.1568000316619873047 1.1568000316619873047 1.1568000316619873047 1.1568000316619873047 1.2091372013092041016 2.3829996585845947266 1.6086133718490600586 1.1568000316619873047 1.1568000316619873047 1.5787063837051391602 1.8596216440200805664 5.0773334503173828125 4.9955687522888183594 3.57820892333984375 12.291936874389648438 7.6851429939270019531 10.477204322814941406 6.2506580352783203125 
1.1568000316619873047 1.1568000316619873047 1.1568000316619873047 1.1568000316619873047 1.1557319164276123047 1.2016599178314208984 2.9138553142547607422 1.4099446535110473633 1.1568000316619873047 1.4911210536956787109 7.2835283279418945312 3.5451085567474365234 4.1678862571716308594 9.02092742919921875 4.7560925483703613281 6.7302422523498535156 6.0477166175842285156 2.6030280590057373047 5.0127019882202148438 
1.1568000316619873047 1.1568000316619873047 1.1568000316619873047 1.2176828384399414062 1.3554681539535522461 2.408634185791015625 3.1071817874908447266 3.2257485389709472656 2.9565789699554443359 2.7514979839324951172 3.4372310638427734375 3.2257370948791503906 8.4324626922607421875 9.21233367919921875 2.4753069877624511719 5.5667939186096191406 4.501079559326171875 2.1885998249053955078 6.0206580162048339844 
1.1568000316619873047 1.1568000316619873047 1.5829797983169555664 1.283906102180480957 1.286041259765625 3.73310089111328125 10.056367874145507812 3.1563191413879394531 1.9279770851135253906 1.0275515317916870117 1.6075426340103149414 3.5216114521026611328 8.9632625579833984375 2.7614789009094238281 3.9779570102691650391 2.9296476840972900391 5.9650201797485351562 1.1632080078125 1.2582684755325317383 
1.6118177175521850586 3.7523286342620849609 4.6794581413269042969 1.15252685546875 1.3170149326324462891 4.0471262931823730469 8.2811498641967773438 5.2508969306945800781 2.0657682418823242188 1.3447836637496948242 2.1010172367095947266 3.1141438484191894531 9.2466745376586914062 2.2795507907867431641 1.2845832109451293945 1.1877057552337646484 3.1179764270782470703 4.5064249038696289062 1.1906228065490722656 
3.1082530021667480469 10.147159576416015625 2.9266734123229980469 2.0839269161224365234 2.2174396514892578125 4.9357981681823730469 3.8463182449340820312 2.6211855411529541016 2.8284029960632324219 2.5175809860229492188 2.0582909584045410156 1.9463429450988769531 10.859150886535644531 1.7084919214248657227 1.0549650192260742188 1.4436693191528320312 1.7560919523239135742 4.5940103530883789062 7.3059649467468261719 
6.3969898223876953125 8.9668836593627929688 1.2785656452178955078 2.5036988258361816406 3.0377559661865234375 3.3752818107604980469 2.8273358345031738281 7.2066240310668945312 6.2848401069641113281 6.2823944091796875 3.1643590927124023438 5.6765260696411132812 16.324434280395507812 1.4546358585357666016 1.1698327064514160156 1.8918287754058837891 1.3166767358779907227 6.1694846153259277344 2.6991648674011230469 
5.7048468589782714844 8.4168033599853515625 1.1568000316619873047 1.5904564857482910156 2.9063775539398193359 4.886669158935546875 4.9828023910522460938 3.1680574417114257812 2.5069406032562255859 2.7828769683837890625 1.5878909826278686523 4.8628253936767578125 7.3497014045715332031 3.1136724948883056641 1.4469735622406005859 2.0387654304504394531 1.4095101356506347656 8.2234783172607421875 5.3983035087585449219 
2.4588325023651123047 4.652751922607421875 3.3143990039825439453 1.1568000316619873047 5.1558380126953125 3.0366885662078857422 4.559825897216796875 1.636380314826965332 1.190270543098449707 1.7513558864593505859 3.3312849998474121094 1.3042598962783813477 8.9311351776123046875 4.74538421630859375 4.6011662483215332031 1.4276899099349975586 2.0326573848724365234 4.5010824203491210938 17.35163116455078125 
1.2475898265838623047 7.3988871574401855469 3.3710072040557861328 1.2027288675308227539 2.5336046218872070312 3.1627261638641357422 4.9048275947570800781 3.7289552688598632812 5.3507628440856933594 1.4776548147201538086 1.1518081426620483398 7.8871130943298339844 4.1563382148742675781 4.0667834281921386719 6.3596014976501464844 1.7175574302673339844 1.9269102811813354492 2.8230664730072021484 1.1568000316619873047 
2.5806021690368652344 5.109905242919921875 1.5252991914749145508 3.2887659072875976562 3.8121426105499267578 3.8466815948486328125 3.1920270919799804688 1.9165277481079101562 5.5855908393859863281 3.1618731021881103516 1.3548063039779663086 6.6438612937927246094 7.8050093650817871094 3.2998626232147216797 5.564922332763671875 1.3682867288589477539 1.3511972427368164062 1.4313042163848876953 2.8209297657012939453 
6.682178497314453125 2.4171805381774902344 2.9341452121734619141 2.0582909584045410156 1.5832008123397827148 1.1568000316619873047 1.6912575960159301758 1.3389503955841064453 2.732044219970703125 1.5571184158325195312 1.1538108587265014648 2.8982191085815429688 7.2435302734375 3.9896225929260253906 3.08795928955078125 4.8749222755432128906 1.7186297178268432617 3.0195963382720947266 2.0226876735687255859 
5.2252655029296875 3.1798143386840820312 3.9807796478271484375 1.6107578277587890625 2.9675850868225097656 6.66524505615234375 6.6185860633850097656 4.0457196235656738281 1.4392592906951904297 2.0420298576354980469 1.0310575962066650391 0.96666544675827026367 4.1676001548767089844 6.9705753326416015625 4.4156298637390136719 1.6620163917541503906 1.1621394157409667969 1.0948476791381835938 2.9629876613616943359 
1.9621613025665283203 3.3039891719818115234 1.286356806755065918 20.919160842895507812 16.66942596435546875 3.9041359424591064453 2.1709740161895751953 2.5403578281402587891 1.2548742294311523438 2.9843413829803466797 3.0900912284851074219 4.6890702247619628906 2.6169185638427734375 6.4290375709533691406 3.0698003768920898438 2.4246578216552734375 2.7194564342498779297 4.5950760841369628906 4.0927019119262695312 
4.3013429641723632812 3.3670625686645507812 1.3305823802947998047 10.185375213623046875 5.4863252639770507812 1.409428715705871582 4.8538999557495117188 6.4836282730102539062 1.9856562614440917969 1.6310393810272216797 2.6425454616546630859 2.1575992107391357422 4.6538228988647460938 1.8970057964324951172 4.4636960029602050781 3.3549895286560058594 6.6640233993530273438 9.4571561813354492188 1.1568000316619873047 
2.0967450141906738281 2.8996710777282714844 20.844560623168945312 2.5500354766845703125 5.9621615409851074219 1.8460413217544555664 8.298435211181640625 5.1323404312133789062 1.6983351707458496094 2.0796539783477783203 2.5282652378082275391 2.2665755748748779297 1.9675019979476928711 1.2358402013778686523 3.5557947158813476562 2.1095612049102783203 2.4727230072021484375 2.1918070316314697266 1.1568000316619873047 
3.7875776290893554688 2.4929180145263671875 8.7143869400024414062 10.402123451232910156 1.8566581010818481445 1.9085640907287597656 3.8602113723754882812 1.651325225830078125 1.2443845272064208984 2.1277208328247070312 1.7058122158050537109 1.8948706388473510742 1.0222125053405761719 4.9849362373352050781 4.3974738121032714844 1.2860424518585205078 3.1039814949035644531 2.1950092315673828125 1.1568000316619873047 
4.7873377799987792969 2.9041109085083007812 5.8958401679992675781 1.1221164464950561523 2.970458984375 1.9291667938232421875 1.2753598690032958984 3.2791526317596435547 1.6128867864608764648 1.3073964118957519531 1.8777712583541870117 1.7175614833831787109 1.9867258071899414062 1.8980745077133178711 1.1226193904876708984 1.7196989059448242188 4.1379213333129882812 1.9749780893325805664 1.1568000316619873047 
6.7975363731384277344 2.2890419960021972656 20.095891952514648438 1.6327645778656005859 2.6288497447967529297 4.7328543663024902344 2.0091581344604492188 10.106573104858398438 1.6812462806701660156 1.1557319164276123047 1.9290496110916137695 3.6658053398132324219 8.5065288543701171875 1.9365189075469970703 1.9760415554046630859 1.9952596426010131836 2.96512603759765625 3.7213542461395263672 3.4703474044799804688 
7.49074554443359375 3.46173858642578125 4.8584752082824707031 3.4162924289703369141 4.3642659187316894531 2.8529734611511230469 4.0823769569396972656 3.2022445201873779297 2.0817914009094238281 2.6927559375762939453 5.3673267364501953125 8.610137939453125 5.7368946075439453125 1.9066196680068969727 1.0478492975234985352 2.8284065723419189453 1.1568000316619873047 1.2475886344909667969 3.2268035411834716797 
4.2714333534240722656 2.5194151401519775391 6.3850836753845214844 6.912281036376953125 6.54759979248046875 5.1889486312866210938 3.3848941326141357422 1.7207642793655395508 1.2753612995147705078 1.2668161392211914062 1.1023241281509399414 1.0969820022583007812 0.95812439918518066406 1.0948476791381835938 0.98376065492630004883 1.3554695844650268555 2.6628477573394775391 1.2700204849243164062 1.2379736900329589844 
1.0680072307586669922 1.7072809934616088867 14.005611419677734375 15.038084030151367188 3.3130664825439453125 5.4008374214172363281 2.3465492725372314453 1.5829789638519287109 2.0243802070617675781 1.0071263313293457031 0.89804214239120483398 1.1517263650894165039 1.1415790319442749023 1.1491894721984863281 1.1542631387710571289 2.0624308586120605469 1.1390421390533447266 1.1136736869812011719 1.0282666683197021484 
