ncols        19
nrows        23
xllcorner    508536.404131802963
yllcorner    5265348.997906560078
cellsize     570.000000000000
NODATA_value -9999
0.064999997615814208984 0.064999997615814208984 0.064999997615814208984 0.064999997615814208984 0.064999997615814208984 0.064999997615814208984 0.064999997615814208984 0.071843765676021575928 0.064999997615814208984 0.064999997615814208984 0.064999997615814208984 0.064999997615814208984 0.079589471220970153809 0.22016099095344543457 0.24022382497787475586 0.73905038833618164062 0.57683986425399780273 0.49459251761436462402 0.15700350701808929443 
0.064999997615814208984 0.064999997615814208984 0.064999997615814208984 0.064999997615814208984 0.064999997615814208984 0.067941546440124511719 0.13391800224781036377 0.090393900871276855469 0.064999997615814208984 0.064999997615814208984 0.088713571429252624512 0.10450110584497451782 0.28535139560699462891 0.28075554966926574707 0.20109324157238006592 0.6908429265022277832 0.43192076683044433594 0.58884376287460327148 0.35128948092460632324 
0.064999997615814208984 0.064999997615814208984 0.064999997615814208984 0.064999997615814208984 0.064939886331558227539 0.067522160708904266357 0.16375456750392913818 0.07922770082950592041 0.064999997615814208984 0.083790302276611328125 0.40934875607490539551 0.19923323392868041992 0.23423646390438079834 0.50699847936630249023 0.26729512214660644531 0.37825125455856323242 0.33988946676254272461 0.14627562463283538818 0.28171578049659729004 
0.064999997615814208984 0.064999997615814208984 0.064999997615814208984 0.068421877920627593994 0.076167032122611999512 0.13535927236080169678 0.17462216317653656006 0.18128338456153869629 0.16615068912506103516 0.1546185612678527832 0.19316370785236358643 0.1812772899866104126 0.47392293810844421387 0.51775521039962768555 0.13910637795925140381 0.31285965442657470703 0.25296315550804138184 0.12298504263162612915 0.33837017416954040527 
0.064999997615814208984 0.064999997615814208984 0.088953182101249694824 0.072144038975238800049 0.072264261543750762939 0.20979805290699005127 0.56519639492034912109 0.17738115787506103516 0.10833628475666046143 0.057723268866539001465 0.090333789587020874023 0.19791163504123687744 0.50375729799270629883 0.15518990159034729004 0.22356234490871429443 0.16464360058307647705 0.33524322509765625 0.065359555184841156006 0.0707052573561668396 
0.090573959052562713623 0.21087977290153503418 0.26298892498016357422 0.06475900113582611084 0.074002489447593688965 0.22744792699813842773 0.46542021632194519043 0.29510554671287536621 0.11608698219060897827 0.075562603771686553955 0.11806897073984146118 0.17501097917556762695 0.51968634128570556641 0.1281029433012008667 0.072181977331638336182 0.06673701852560043335 0.17522676289081573486 0.25326287746429443359 0.066901750862598419189 
0.17468033730983734131 0.5702991485595703125 0.1644745171070098877 0.11710858345031738281 0.12461412698030471802 0.27739834785461425781 0.21616342663764953613 0.14730747044086456299 0.15894958376884460449 0.14147838950157165527 0.11566814035177230835 0.10937559604644775391 0.61031413078308105469 0.096007302403450012207 0.059269137680530548096 0.081119574606418609619 0.098681926727294921875 0.25818502902984619141 0.41060876846313476562 
0.3595218956470489502 0.50396096706390380859 0.071843765676021575928 0.14070166647434234619 0.17071717977523803711 0.18968863785266876221 0.15888975560665130615 0.40502658486366271973 0.35321801900863647461 0.35308131575584411621 0.17783354222774505615 0.31902843713760375977 0.91748768091201782227 0.081739306449890136719 0.065731830894947052002 0.10630124807357788086 0.073985360562801361084 0.34673491120338439941 0.15168771147727966309 
0.32061994075775146484 0.47304543852806091309 0.064999997615814208984 0.089373402297496795654 0.16333352029323577881 0.27463546395301818848 0.28003823757171630859 0.17804515361785888672 0.14088396728038787842 0.15639209747314453125 0.089215219020843505859 0.27329310774803161621 0.4130668938159942627 0.17498393356800079346 0.081308469176292419434 0.11457126587629318237 0.079201228916645050049 0.46217784285545349121 0.30339121818542480469 
0.138179779052734375 0.26148781180381774902 0.18626648187637329102 0.064999997615814208984 0.28976342082023620605 0.17065706849098205566 0.25626453757286071777 0.091955952346324920654 0.06688193976879119873 0.098416127264499664307 0.18724218010902404785 0.073284640908241271973 0.50195133686065673828 0.26669424772262573242 0.25858718156814575195 0.080224677920341491699 0.11422658711671829224 0.25296288728713989258 0.97522103786468505859 
0.070102766156196594238 0.41583269834518432617 0.18944792449474334717 0.067580327391624450684 0.14238199591636657715 0.17773988842964172363 0.27565291523933410645 0.2095673680305480957 0.30071917176246643066 0.083033941686153411865 0.064718768000602722168 0.44327273964881896973 0.23358720541000366211 0.2285528033971786499 0.35742297768592834473 0.096521049737930297852 0.10828392952680587769 0.15865151584148406982 0.064999997615814208984 
0.14502353966236114502 0.28718143701553344727 0.085712462663650512695 0.18482547998428344727 0.21424154937267303467 0.21618320047855377197 0.17938797175884246826 0.10769999772310256958 0.31391641497611999512 0.17769391834735870361 0.076128825545310974121 0.37339672446250915527 0.4386583864688873291 0.18544955551624298096 0.31275567412376403809 0.076886698603630065918 0.075926035642623901367 0.080421328544616699219 0.15853157639503479004 
0.37555041909217834473 0.13583905994892120361 0.16489861905574798584 0.11566647887229919434 0.088964961469173431396 0.064999997615814208984 0.095037341117858886719 0.075237423181533813477 0.15353566408157348633 0.087499648332595825195 0.064831778407096862793 0.16287435591220855713 0.40710276365280151367 0.22421747446060180664 0.17353850603103637695 0.27397477626800537109 0.096575066447257995605 0.16968642175197601318 0.11366666108369827271 
0.29366564750671386719 0.17870332300662994385 0.22372320294380187988 0.09051418304443359375 0.16677238047122955322 0.37459760904312133789 0.37197646498680114746 0.22736953198909759521 0.08087790757417678833 0.11475352197885513306 0.05791413038969039917 0.054299999028444290161 0.23422029614448547363 0.3917598426342010498 0.24816177785396575928 0.093396954238414764404 0.065298892557621002197 0.061513572931289672852 0.16650702059268951416 
0.11026481539011001587 0.18568314611911773682 0.072282001376152038574 1.1757318973541259766 0.9368769526481628418 0.21941156685352325439 0.12199584394693374634 0.14278587698936462402 0.070514284074306488037 0.16772271692752838135 0.1736437678337097168 0.26352381706237792969 0.14706453680992126465 0.36132299900054931641 0.17251911759376525879 0.1362584531307220459 0.15282410383224487305 0.25824627280235290527 0.23001052439212799072 
0.24173684418201446533 0.18922589719295501709 0.074769012629985809326 0.57244575023651123047 0.30834084749221801758 0.079198844730854034424 0.27282354235649108887 0.36439147591590881348 0.11157063394784927368 0.091657340526580810547 0.1485119163990020752 0.12127174437046051025 0.26154819130897521973 0.10660304129123687744 0.25086206197738647461 0.18854792416095733643 0.37453019618988037109 0.53151661157608032227 0.064999997615814208984 
0.11782880872488021851 0.16295699775218963623 1.1715390682220458984 0.14330662786960601807 0.33508220314979553223 0.10373999923467636108 0.46639502048492431641 0.28843960165977478027 0.095431856811046600342 0.11686426401138305664 0.1420803368091583252 0.12737423181533813477 0.11056371033191680908 0.069442659616470336914 0.19983379542827606201 0.11854958534240722656 0.13896065950393676758 0.12317229807376861572 0.064999997615814208984 
0.21286065876483917236 0.14009477198123931885 0.4897683262825012207 0.58462071418762207031 0.10433468222618103027 0.10725215822458267212 0.21694348752498626709 0.092795841395854949951 0.069922156631946563721 0.11956980079412460327 0.095855124294757843018 0.10648282617330551147 0.05742160603404045105 0.28015014529228210449 0.24713961780071258545 0.072263985872268676758 0.17444016039371490479 0.12334404140710830688 0.064999997615814208984 
0.26905068755149841309 0.16320720314979553223 0.33135482668876647949 0.063048146665096282959 0.16693484783172607422 0.10841076821088790894 0.071664541959762573242 0.18428559601306915283 0.090634070336818695068 0.073463708162307739258 0.10552686452865600586 0.096513293683528900146 0.1116351783275604248 0.10666204988956451416 0.063076451420783996582 0.096637390553951263428 0.23255041241645812988 0.11098420619964599609 0.064999997615814208984 
0.38203379511833190918 0.12864063680171966553 1.1294606924057006836 0.091751039028167724609 0.14773412048816680908 0.26599168777465820312 0.11290193349123001099 0.56801688671112060547 0.094476178288459777832 0.064939886331558227539 0.10840304195880889893 0.20600774884223937988 0.47808337211608886719 0.10881994664669036865 0.1110490262508392334 0.11213545501232147217 0.16663573682308197021 0.20913878083229064941 0.19503158330917358398 
0.42099419236183166504 0.19453829526901245117 0.27304923534393310547 0.19199346005916595459 0.24526816606521606445 0.16033241152763366699 0.22942742705345153809 0.17995263636112213135 0.11698836088180541992 0.15132741630077362061 0.30164930224418640137 0.48390802741050720215 0.32241663336753845215 0.1071429327130317688 0.058868695050477981567 0.15894930064678192139 0.064999997615814208984 0.070102766156196594238 0.1813456118106842041 
0.24004542827606201172 0.14158496260643005371 0.35885161161422729492 0.38848343491554260254 0.367984771728515625 0.29162353277206420898 0.19022770226001739502 0.09669224172830581665 0.071663431823253631592 0.071182548999786376953 0.061933793127536773682 0.061631854623556137085 0.053818557411432266235 0.061513572931289672852 0.055262047797441482544 0.076166205108165740967 0.14964736998081207275 0.071362875401973724365 0.06955789029598236084 
0.059992760419845581055 0.095936179161071777344 0.78715723752975463867 0.84518945217132568359 0.18619078397750854492 0.3035335540771484375 0.13186907768249511719 0.088951312005519866943 0.11376184225082397461 0.056576970964670181274 0.050438158214092254639 0.064714469015598297119 0.064143419265747070312 0.064571708440780639648 0.064857237040996551514 0.11590131372213363647 0.064000658690929412842 0.062573023140430450439 0.057766664773225784302 
