ncols        19
nrows        23
xllcorner    508536.404131802963
yllcorner    5265348.997906560078
cellsize     570.000000000000
NODATA_value -9999
0.0021999999880790710449 0.0021999999880790710449 0.0021999999880790710449 0.0021999999880790710449 0.0021999999880790710449 0.0021999999880790710449 0.0021999999880790710449 0.0024365650024265050888 0.0021999999880790710449 0.0021999999880790710449 0.0021999999880790710449 0.0021999999880790710449 0.0027069251518696546555 0.0075634750537574291229 0.0082694115117192268372 0.025516897439956665039 0.019907480105757713318 0.017068974673748016357 0.0054105264134705066681 
0.0021999999880790710449 0.0021999999880790710449 0.0021999999880790710449 0.0021999999880790710449 0.0021999999880790710449 0.0023027700372040271759 0.0045847645960748195648 0.0030797782819718122482 0.0021999999880790710449 0.0021999999880790710449 0.0030207755044102668762 0.003567866981029510498 0.0098215080797672271729 0.0096666663885116577148 0.0069118971005082130432 0.023850692436099052429 0.014891413040459156036 0.020325761288404464722 0.012114034965634346008 
0.0021999999880790710449 0.0021999999880790710449 0.0021999999880790710449 0.0021999999880790710449 0.0021980609744787216187 0.0022883657366037368774 0.0056157894432544708252 0.0026916896458715200424 0.0021999999880790710449 0.0028501385822892189026 0.014112465083599090576 0.0068504153750836849213 0.0080586802214384078979 0.017486499622464179993 0.0092038325965404510498 0.01303822733461856842 0.011709418147802352905 0.0050307479687035083771 0.0097122807055711746216 
0.0021999999880790710449 0.0021999999880790710449 0.0021999999880790710449 0.0023182826116681098938 0.0025886427611112594604 0.0046351798810064792633 0.0059950137510895729065 0.0062199444510042667389 0.0057072020135819911957 0.0053188367746770381927 0.0066457064822316169739 0.0062451525591313838959 0.016339344903826713562 0.017862895503640174866 0.0047671734355390071869 0.010774509981274604797 0.0087022157385945320129 0.0042193904519081115723 0.01165438629686832428 
0.0021999999880790710449 0.0021999999880790710449 0.0030279778875410556793 0.0024470915086567401886 0.0024526314809918403625 0.0072127422317862510681 0.019498061388731002808 0.0060872575268149375916 0.0037163435481488704681 0.0019747922196984291077 0.0030828255694359540939 0.0068052629940211772919 0.017377272248268127441 0.0053232321515679359436 0.0076863924041390419006 0.0056466166861355304718 0.01154495682567358017 0.0022144045215100049973 0.0023999998811632394791 
0.0030858726240694522858 0.0072465375997126102448 0.0090448753908276557922 0.0021939058788120746613 0.0025193905457854270935 0.0078249303624033927917 0.01605401746928691864 0.010164819657802581787 0.0039700833149254322052 0.0025786703918129205704 0.0040357341058552265167 0.0060057928785681724548 0.017931640148162841797 0.0043830880895256996155 0.0024482558947056531906 0.0022606870625168085098 0.006010153796523809433 0.0087072020396590232849 0.0022666666191071271896 
0.0059939059428870677948 0.019671468064188957214 0.0056401663459837436676 0.0040027699433267116547 0.0042645428329706192017 0.00955401640385389328 0.0074354568496346473694 0.0050531853921711444855 0.0054565095342695713043 0.004854016471654176712 0.0039545707404613494873 0.0037357143592089414597 0.021068062633275985718 0.0032726922072470188141 0.0020151336211711168289 0.0027641565538942813873 0.003366264980286359787 0.0088786706328392028809 0.014149122871458530426 
0.01238836534321308136 0.017385318875312805176 0.0024365650024265050888 0.0048168976791203022003 0.0058595566079020500183 0.0065146815031766891479 0.0054531856440007686615 0.013962880708277225494 0.012167589738965034485 0.012167289853096008301 0.0061054839752614498138 0.010986526496708393097 0.031679507344961166382 0.0027793103363364934921 0.0022287324536591768265 0.0036487500183284282684 0.0025156794581562280655 0.011940997093915939331 0.0051964912563562393188 
0.011046537198126316071 0.016313020139932632446 0.0021999999880790710449 0.0030426592566072940826 0.005603324156254529953 0.0094531858339905738831 0.0096368417143821716309 0.0061249309219419956207 0.0048240358009934425354 0.005362499970942735672 0.0030630435794591903687 0.0094053288921713829041 0.014242567121982574463 0.006008214317262172699 0.0027647458482533693314 0.0039167911745607852936 0.0026944614946842193604 0.015932964161038398743 0.01044035051017999649 
0.0047376733273267745972 0.008997506462037563324 0.0063961218111217021942 0.0021999999880790710449 0.0099728535860776901245 0.0058565097860991954803 0.0088174510747194290161 0.0031398891005665063858 0.0022659723181277513504 0.003357419278472661972 0.0064680273644626140594 0.0025047021917998790741 0.017329730093479156494 0.0091734826564788818359 0.0088964747264981269836 0.0027272151783108711243 0.0039036010857671499252 0.008698615245521068573 0.033663157373666763306 
0.0023770083207637071609 0.014334072358906269073 0.0065094181336462497711 0.0022911357227712869644 0.0048778392374515533447 0.006104154977947473526 0.009492243640124797821 0.007207250688225030899 0.01035068463534116745 0.0028266422450542449951 0.0021919093560427427292 0.015285858884453773499 0.0080313952639698982239 0.0078588016331195831299 0.012321053072810173035 0.0032950139138847589493 0.0037036011926829814911 0.0054376730695366859436 0.0021999999880790710449 
0.0049686981365084648132 0.0098894732072949409485 0.002918559592217206955 0.0063440441153943538666 0.0073642660863697528839 0.0074311997741460800171 0.0061533832922577857971 0.0036782177630811929703 0.010805713944137096405 0.0060973912477493286133 0.0025846846401691436768 0.012865789234638214111 0.015122818760573863983 0.0063646882772445678711 0.010776177048683166504 0.0026124652940779924393 0.0025786703918129205704 0.002746537327766418457 0.0054350877180695533752 
0.012942105531692504883 0.0046495846472680568695 0.005659556947648525238 0.0039578946307301521301 0.0030313867609947919846 0.0021999999880790710449 0.003242405131459236145 0.0025546012911945581436 0.0052612405270338058472 0.002978124888613820076 0.0021945736370980739594 0.0055860388092696666718 0.014036332257091999054 0.0077068768441677093506 0.0059551247395575046539 0.0094274235889315605164 0.0032963987905532121658 0.0058398894034326076508 0.0038842104841023683548 
0.010107756592333316803 0.0061365650035440921783 0.0076939826831221580505 0.0030833333730697631836 0.005723756738007068634 0.012904762290418148041 0.012811765074729919434 0.0078164059668779373169 0.0027616280131042003632 0.0039211269468069076538 0.0019891303963959217072 0.0018548386869952082634 0.008050375618040561676 0.013495568186044692993 0.0085362885147333145142 0.0031875346321612596512 0.0022141274530440568924 0.0020875346381217241287 0.0057245614007115364075 
0.0037662049289792776108 0.0063751428388059139252 0.0024548000656068325043 0.04059411957859992981 0.032346155494451522827 0.0075409375131130218506 0.0041830190457403659821 0.0049247057177126407623 0.0023937281221151351929 0.0057642660103738307953 0.0059850416146218776703 0.0090722991153597831726 0.0050390581600368022919 0.01244487520307302475 0.0059196674264967441559 0.0046645430848002433777 0.0052457065321505069733 0.0088817169889807701111 0.0079087717458605766296 
0.0083119114860892295837 0.0064973216503858566284 0.002545774681493639946 0.019743617624044418335 0.010621221736073493958 0.002690804656594991684 0.0094211762771010398865 0.012550882063806056976 0.0038365651853382587433 0.003128808923065662384 0.0050958450883626937866 0.0041725761257112026215 0.0089958449825644493103 0.0036396121140569448471 0.0086288088932633399963 0.0064720222726464271545 0.01290249265730381012 0.018328808248043060303 0.0021999999880790710449 
0.0040271468460559844971 0.0055880001746118068695 0.040449187159538269043 0.0049154697917401790619 0.011540753766894340515 0.003542500082403421402 0.016083687543869018555 0.0099299168214201927185 0.0032606648746877908707 0.0040005538612604141235 0.0048681441694498062134 0.0043576178140938282013 0.0037781163118779659271 0.0023545706644654273987 0.0068642660044133663177 0.0040537398308515548706 0.0047573405317962169647 0.0042121885344386100769 0.0021999999880790710449 
0.0073138503357768058777 0.0047988370060920715332 0.016886666417121887207 0.020174711942672729492 0.0035618497058749198914 0.0036615107674151659012 0.0074520776979625225067 0.0031858726870268583298 0.0023731302935630083084 0.0040867035277187824249 0.0032711911480873823166 0.0036340719088912010193 0.001963434973731637001 0.0096548479050397872925 0.0084986146539449691772 0.002451246604323387146 0.0059842104092240333557 0.0042321328073740005493 0.0021999999880790710449 
0.0092573408037424087524 0.0056081078946590423584 0.011408064514398574829 0.0021370369940996170044 0.0057267099618911743164 0.0037040000315755605698 0.0024318560026586055756 0.0063254847191274166107 0.0030867035966366529465 0.0025091413408517837524 0.0036127422936260700226 0.0032966758590191602707 0.0038307479117065668106 0.0036421052645891904831 0.0021379501558840274811 0.0032939058728516101837 0.0079952906817197799683 0.003793628886342048645 0.0021999999880790710449 
0.013165096752345561981 0.0044074202887713909149 0.038994681090116500854 0.0031244792044162750244 0.00506411772221326828 0.0091634346172213554382 0.0038637118414044380188 0.019590305164456367493 0.0032196675892919301987 0.0021980609744787216187 0.0037027699872851371765 0.0071002771146595478058 0.016488919034600257874 0.003734626108780503273 0.0037986149545758962631 0.0038434902671724557877 0.0057144043967127799988 0.007184764370322227478 0.0066947368904948234558 
0.014513850212097167969 0.0067048328928649425507 0.0093938466161489486694 0.0065897195599973201752 0.0084459455683827400208 0.0054963990114629268646 0.0078922435641288757324 0.0061947368085384368896 0.0039977841079235076904 0.0051844874396920204163 0.010383379645645618439 0.016685873270034790039 0.011108587495982646942 0.0036576176062226295471 0.0020022161770612001419 0.0054518007673323154449 0.0021999999880790710449 0.0023792244028300046921 0.0062403506599366664886 
0.008270913735032081604 0.0048481202684342861176 0.012361289933323860168 0.013382514938712120056 0.012676731683313846588 0.01003961171954870224 0.0065351799130439758301 0.0033072021324187517166 0.00243074796162545681 0.0024152353871613740921 0.0021027701441198587418 0.0020972299389541149139 0.0018418282270431518555 0.0020875346381217241287 0.0018858725670725107193 0.00258725765161216259 0.0051271468400955200195 0.0024210526607930660248 0.0023684210609644651413 
0.0020572368521243333817 0.0032756580039858818054 0.027169078588485717773 0.02916842140257358551 0.006390789523720741272 0.010449342429637908936 0.0045151314698159694672 0.003031578846275806427 0.0038855262100696563721 0.0019282894209027290344 0.0017302631167694926262 0.0021907894406467676163 0.002172368345782160759 0.0021861842833459377289 0.0021953948307782411575 0.0039605260826647281647 0.0021677631884813308716 0.0021217104513198137283 0.0019666666630655527115 
