ncols        19
nrows        23
xllcorner    508536.404131802963
yllcorner    5265348.997906560078
cellsize     570.000000000000
NODATA_value -9999
0.27599999308586120605 0.27599999308586120605 0.27599999308586120605 0.27599999308586120605 0.27599999308586120605 0.27599999308586120605 0.27599999308586120605 0.30504873394966125488 0.27599999308586120605 0.27599999308586120605 0.27599999308586120605 0.27599999308586120605 0.3379179835319519043 0.93459290266036987305 1.0197441577911376953 3.1370422840118408203 2.4485371112823486328 2.0994412899017333984 0.6665350794792175293 
0.27599999308586120605 0.27599999308586120605 0.27599999308586120605 0.27599999308586120605 0.27599999308586120605 0.28848558664321899414 0.56852519512176513672 0.38378557562828063965 0.27599999308586120605 0.27599999308586120605 0.37665069103240966797 0.44366675615310668945 1.2112927436828613281 1.191786646842956543 0.85365724563598632812 2.9324276447296142578 1.8334188461303710938 2.4994988441467285156 1.4912017583847045898 
0.27599999308586120605 0.27599999308586120605 0.27599999308586120605 0.27599999308586120605 0.27574515342712402344 0.28670138120651245117 0.69516760110855102539 0.33639085292816162109 0.27599999308586120605 0.35575649142265319824 1.7376085519790649414 0.84576064348220825195 0.99433231353759765625 2.1520874500274658203 1.134656071662902832 1.6056149005889892578 1.4427897930145263672 0.62101191282272338867 1.1958701610565185547 
0.27599999308586120605 0.27599999308586120605 0.27599999308586120605 0.29052436351776123047 0.32339391112327575684 0.57464015483856201172 0.74128699302673339844 0.76957368850708007812 0.70535814762115478516 0.65643155574798583984 0.8200232386589050293 0.76956593990325927734 2.0117015838623046875 2.1977493762969970703 0.59054589271545410156 1.3280594348907470703 1.0738202333450317383 0.52214598655700683594 1.4363350868225097656 
0.27599999308586120605 0.27599999308586120605 0.37767061591148376465 0.30632269382476806641 0.30683183670043945312 0.89060860872268676758 2.3991041183471679688 0.75301027297973632812 0.45997035503387451172 0.24516038596630096436 0.38352826237678527832 0.84015375375747680664 2.1383304595947265625 0.65881615877151489258 0.94902217388153076172 0.69893419742584228516 1.4230619668960571289 0.27752825617790222168 0.3002052605152130127 
0.3845501244068145752 0.89519613981246948242 1.1163750886917114258 0.27498003840446472168 0.31421938538551330566 0.96552324295043945312 1.9756027460098266602 1.2526972293853759766 0.49284514784812927246 0.32084238529205322266 0.50125485658645629883 0.74294906854629516602 2.2059416770935058594 0.54384559392929077148 0.30648428201675415039 0.2833728790283203125 0.74386370182037353516 1.0750952959060668945 0.2840684056282043457 
0.74154376983642578125 2.4207642078399658203 0.69822573661804199219 0.49717783927917480469 0.52902799844741821289 1.1775263547897338867 0.91761744022369384766 0.62534570693969726562 0.67478090524673461914 0.60062962770462036133 0.49106147885322570801 0.46435534954071044922 2.5906183719635009766 0.40761268138885498047 0.2517032623291015625 0.34443494677543640137 0.41896837949752807617 1.0959894657135009766 1.7429614067077636719 
1.5261135101318359375 2.1391935348510742188 0.30504873394966125488 0.59731996059417724609 0.72472548484802246094 0.80524623394012451172 0.67452633380889892578 1.7192620038986206055 1.4993590116500854492 1.498774409294128418 0.75492775440216064453 1.3542374372482299805 3.89443206787109375 0.34705239534378051758 0.27910816669464111328 0.45134624838829040527 0.31413936614990234375 1.4718393087387084961 0.64395087957382202148 
1.3609936237335205078 2.0079653263092041016 0.27599999308586120605 0.3794542849063873291 0.69338363409042358398 1.1658072471618652344 1.1887413263320922852 0.75580579042434692383 0.59809315204620361328 0.66392105817794799805 0.3788369596004486084 1.1601188182830810547 1.7533946037292480469 0.7428353428840637207 0.3452244102954864502 0.48640334606170654297 0.33628645539283752441 1.9618457555770874023 1.2878649234771728516 
0.58661580085754394531 1.1100035905838012695 0.79072242975234985352 0.27599999308586120605 1.230021357536315918 0.72447091341018676758 1.0878343582153320312 0.39040747284889221191 0.28398436307907104492 0.4178383946418762207 0.79473263025283813477 0.31117334961891174316 2.130664825439453125 1.1321024894714355469 1.0976961851119995117 0.34062403440475463867 0.48494651913642883301 1.0738210678100585938 4.139484405517578125 
0.29765900969505310059 1.76512908935546875 0.8042265772819519043 0.28695648908615112305 0.60445398092269897461 0.75453794002532958984 1.170138239860534668 0.88961750268936157227 1.2765232324600219727 0.35254305601119995117 0.27480873465538024902 1.8816009759902954102 0.99157792329788208008 0.97021311521530151367 1.5171916484832763672 0.40977340936660766602 0.45971718430519104004 0.67350912094116210938 0.27599999308586120605 
0.61566591262817382812 1.2190629243850708008 0.36390912532806396484 0.78460747003555297852 0.90946483612060546875 0.91770398616790771484 0.76152932643890380859 0.45724257826805114746 1.3325443267822265625 0.75433564186096191406 0.32323694229125976562 1.5850079059600830078 1.8620147705078125 0.78725486993789672852 1.3276121616363525391 0.32645234465599060059 0.3223756253719329834 0.34148365259170532227 0.67299824953079223633 
1.5941489934921264648 0.57667976617813110352 0.7000058293342590332 0.49105983972549438477 0.37772262096405029297 0.27599999308586120605 0.40350061655044555664 0.31945398449897766113 0.65179455280303955078 0.37150102853775024414 0.27528682351112365723 0.69143730401992797852 1.7280642986297607422 0.95180541276931762695 0.73670220375061035156 1.1630052328109741211 0.41003075242042541504 0.72038972377777099609 0.48256841301918029785 
1.2465841770172119141 0.75861442089080810547 0.94969427585601806641 0.38429716229438781738 0.70798510313034057617 1.5901094675064086914 1.5789787769317626953 0.96518826484680175781 0.34338021278381347656 0.48718273639678955078 0.24599565565586090088 0.2306359410285949707 0.99426466226577758789 1.6629503965377807617 1.0534340143203735352 0.3965238034725189209 0.27727285027503967285 0.26121881604194641113 0.70688593387603759766 
0.46812906861305236816 0.78823828697204589844 0.3069064021110534668 4.9905638694763183594 3.9767346382141113281 0.93141156435012817383 0.51794147491455078125 0.60604941844940185547 0.29939547181129455566 0.71197783946990966797 0.73720526695251464844 1.1186661720275878906 0.62432962656021118164 1.5337595939636230469 0.7323703765869140625 0.57846343517303466797 0.64878946542739868164 1.0962445735931396484 0.97639650106430053711 
1.0261706113815307617 0.80328571796417236328 0.31745493412017822266 2.4298818111419677734 1.30886077880859375 0.33626779913902282715 1.1579729318618774414 1.546782374382019043 0.4737288057804107666 0.38913294672966003418 0.63043957948684692383 0.51474040746688842773 1.1102592945098876953 0.45258530974388122559 1.0649019479751586914 0.80040609836578369141 1.5898182392120361328 2.2561559677124023438 0.27599999308586120605 
0.50023573637008666992 0.69178396463394165039 4.972766876220703125 0.6083723902702331543 1.4223797321319580078 0.44042623043060302734 1.9797247648239135742 1.2244147062301635742 0.40518835186958312988 0.49615705013275146484 0.60317975282669067383 0.54075068235397338867 0.46940276026725769043 0.29485568404197692871 0.84831053018569946289 0.50329250097274780273 0.58993017673492431641 0.52291381359100341797 0.27599999308586120605 
0.90360528230667114258 0.59474653005599975586 2.0789582729339599609 2.4815874099731445312 0.44295981526374816895 0.45534244179725646973 0.92093324661254882812 0.3939673006534576416 0.29689362645149230957 0.50762546062469482422 0.4069728553295135498 0.45207616686820983887 0.2438872605562210083 1.1892476081848144531 1.049103856086730957 0.30683240294456481934 0.7405249476432800293 0.52367508411407470703 0.27599999308586120605 
1.1421104669570922852 0.69283962249755859375 1.4065580368041992188 0.26772487163543701172 0.70867097377777099609 0.46025690436363220215 0.30428338050842285156 0.78231382369995117188 0.38480526208877563477 0.31192159652709960938 0.44799223542213439941 0.40977534651756286621 0.47398558259010314941 0.4528401494026184082 0.26784485578536987305 0.41028669476509094238 0.98718392848968505859 0.47118586301803588867 0.27599999308586120605 
1.6216689348220825195 0.54610776901245117188 4.794162750244140625 0.38954740762710571289 0.62717556953430175781 1.1291097402572631836 0.47933933138847351074 2.4110825061798095703 0.40111330151557922363 0.27574515342712402344 0.46022963523864746094 0.87454932928085327148 2.0293700695037841797 0.46200692653656005859 0.47143766283988952637 0.47601911425590515137 0.70739918947219848633 0.88780689239501953125 0.82792627811431884766 
1.7870426177978515625 0.82586580514907836914 1.159081578254699707 0.81503081321716308594 1.0411789417266845703 0.6806437373161315918 0.97393238544464111328 0.76396262645721435547 0.49666842818260192871 0.64242190122604370117 1.280474543571472168 2.0540881156921386719 1.3686382770538330078 0.45487892627716064453 0.25000554323196411133 0.67478227615356445312 0.27599999308586120605 0.29765787720680236816 0.76982104778289794922 
1.019031524658203125 0.6010691523551940918 1.5232731103897094727 1.6490432024002075195 1.5620434284210205078 1.237919926643371582 0.80753958225250244141 0.41053822636604309082 0.30428421497344970703 0.30224540829658508301 0.26300221681594848633 0.26172658801078796387 0.22859750688076019287 0.26121881604194641113 0.23471467196941375732 0.32339471578598022461 0.63528639078140258789 0.30300995707511901855 0.29536315798759460449 
0.25481116771697998047 0.40732303261756896973 3.3412466049194335938 3.5875577926635742188 0.7904046177864074707 1.2884690761566162109 0.55982959270477294922 0.37766972184181213379 0.48297235369682312012 0.24028946459293365479 0.21426315605640411377 0.27478945255279541016 0.27236840128898620605 0.27418419718742370605 0.27539473772048950195 0.49204933643341064453 0.27176314592361450195 0.26571053266525268555 0.24533332884311676025 
